( pcb2gcode 2.5.0 )
( Software-independent Gcode )

G94 ( Inches per minute feed rate. )
G20 ( Units == INCHES. )

G90 ( Absolute coordinates. )
G00 S12000 ( RPM spindle speed. )
G64 P0.00040 ( set maximum deviation from commanded toolpath )
G01 F360.00000 ( Feedrate. )


G00 Z1.00000 (Retract to tool change height)
T1
M5      (Spindle stop.)
G04 P1.00000 (Wait for spindle to stop)
(MSG, Change tool bit to mill diameter 0.00394in)
M6      (Tool change.)
M0      (Temporary machine stop.)
M3 ( Spindle on clockwise. )
G04 P1.00000 (Wait for spindle to get up to speed)
G04 P0 ( dwell for no time -- G64 should not smooth over this point )
G00 Z0.08000 ( retract )

G00 X-0.03447 Y0.03447 ( rapid move to begin. )
G01 F180.00000
( Mill infeed pass 1/1 )
G01 Z-0.04000
G04 P0 ( dwell for no time -- G64 should not smooth over this point )
G01 F360.00000
G01 X-0.03447 Y0.03447
G01 X-6.83340 Y4.80832
G04 P0 ( dwell for no time -- G64 should not smooth over this point )
G00 Z0.08000 ( retract )

G00 X-6.83340 Y4.80832 ( rapid move to begin. )
G01 F180.00000
( Mill infeed pass 1/1 )
G01 Z-0.04000
G04 P0 ( dwell for no time -- G64 should not smooth over this point )
G01 F360.00000
G01 X-6.83340 Y4.80832
G01 X-6.83366 Y4.80675
G01 X-6.83412 Y4.80565
G01 X-6.83507 Y4.80437
G01 X-6.83598 Y4.80360
G01 X-6.83741 Y4.80290
G01 X-6.83857 Y4.80263
G01 X-6.83977 Y4.80260
G01 X-6.84132 Y4.80294
G01 X-7.24822 Y4.95104
G01 X-7.24930 Y4.95156
G01 X-7.25025 Y4.95228
G01 X-7.25144 Y4.95387
G01 X-7.25188 Y4.95498
G01 X-7.25209 Y4.95616
G01 X-7.25206 Y4.95735
G01 X-7.25178 Y4.95851
G01 X-7.25107 Y4.95993
G01 X-7.25000 Y4.96111
G01 X-6.91829 Y5.23945
G01 X-6.91695 Y5.24030
G01 X-6.91542 Y5.24076
G01 X-6.91383 Y5.24079
G01 X-6.91266 Y5.24054
G01 X-6.91123 Y5.23984
G01 X-6.91003 Y5.23879
G01 X-6.90916 Y5.23746
G01 X-6.90868 Y5.23595
G01 X-6.83349 Y4.80951
G01 X-6.83340 Y4.80832
G01 X-6.83537 Y4.80835
G01 X-6.91062 Y5.23561
G01 X-6.91102 Y5.23677
G01 X-6.91148 Y5.23745
G01 X-6.91207 Y5.23803
G01 X-6.91315 Y5.23862
G01 X-6.91436 Y5.23886
G01 X-6.91518 Y5.23880
G01 X-6.91634 Y5.23840
G01 X-6.91702 Y5.23794
G01 X-7.24873 Y4.95960
G01 X-7.24930 Y4.95901
G01 X-7.24990 Y4.95793
G01 X-7.25014 Y4.95672
G01 X-7.25008 Y4.95590
G01 X-7.24968 Y4.95474
G01 X-7.24922 Y4.95406
G01 X-7.24862 Y4.95348
G01 X-7.24755 Y4.95289
G01 X-6.84065 Y4.80479
G01 X-6.83985 Y4.80459
G01 X-6.83862 Y4.80461
G01 X-6.83745 Y4.80501
G01 X-6.83677 Y4.80547
G01 X-6.83576 Y4.80676
G01 X-6.83537 Y4.80835
G01 X-6.83733 Y4.80846
G01 X-6.91256 Y5.23526
G01 X-6.91305 Y5.23626
G01 X-6.91400 Y5.23683
G01 X-6.91511 Y5.23679
G01 X-6.91576 Y5.23643
G01 X-7.24747 Y4.95810
G01 X-7.24808 Y4.95717
G01 X-7.24810 Y4.95606
G01 X-7.24751 Y4.95512
G01 X-7.24688 Y4.95474
G01 X-6.83998 Y4.80664
G01 X-6.83887 Y4.80657
G01 X-6.83819 Y4.80687
G01 X-6.83749 Y4.80773
G01 X-6.83733 Y4.80846
G04 P0 ( dwell for no time -- G64 should not smooth over this point )
G00 Z0.08000 ( retract )

G00 X-5.96164 Y4.99854 ( rapid move to begin. )
G01 F180.00000
( Mill infeed pass 1/1 )
G01 Z-0.04000
G04 P0 ( dwell for no time -- G64 should not smooth over this point )
G01 F360.00000
G01 X-5.96164 Y4.99854
G01 X-5.96234 Y4.99248
G01 X-5.96386 Y4.98701
G01 X-5.96616 Y4.98183
G01 X-5.96921 Y4.97704
G01 X-5.97293 Y4.97276
G01 X-5.97723 Y4.96907
G01 X-5.98204 Y4.96605
G01 X-5.98683 Y4.96394
G01 X-5.99271 Y4.96229
G01 X-5.99834 Y4.96163
G01 X-6.00401 Y4.96180
G01 X-6.01002 Y4.96294
G01 X-6.01497 Y4.96463
G01 X-6.01964 Y4.96701
G01 X-6.02428 Y4.97026
G01 X-6.02870 Y4.97448
G01 X-6.03188 Y4.97862
G01 X-6.03179 Y4.97909
G01 X-6.03188 Y4.97862
G01 X-6.45066 Y4.78334
G01 X-6.45259 Y4.78281
G01 X-6.45380 Y4.78282
G01 X-6.45498 Y4.78308
G01 X-6.45609 Y4.78357
G01 X-6.45707 Y4.78427
G01 X-6.45789 Y4.78516
G01 X-6.45851 Y4.78620
G01 X-6.66981 Y5.23935
G01 X-6.67021 Y5.24049
G01 X-6.67037 Y5.24169
G01 X-6.67008 Y5.24367
G01 X-6.66959 Y5.24478
G01 X-6.66888 Y5.24576
G01 X-6.66800 Y5.24658
G01 X-6.66696 Y5.24720
G01 X-6.21380 Y5.45851
G01 X-6.21266 Y5.45890
G01 X-6.21146 Y5.45906
G01 X-6.20948 Y5.45877
G01 X-6.20838 Y5.45828
G01 X-6.20739 Y5.45758
G01 X-6.20658 Y5.45669
G01 X-6.20596 Y5.45565
G01 X-6.01068 Y5.03688
G01 X-6.01092 Y5.03639
G01 X-6.01068 Y5.03688
G01 X-6.00542 Y5.03802
G01 X-5.99933 Y5.03838
G01 X-5.99411 Y5.03795
G01 X-5.98900 Y5.03678
G01 X-5.98331 Y5.03459
G01 X-5.97839 Y5.03175
G01 X-5.97364 Y5.02791
G01 X-5.97008 Y5.02408
G01 X-5.96709 Y5.01978
G01 X-5.96454 Y5.01471
G01 X-5.96266 Y5.00894
G01 X-5.96178 Y5.00378
G01 X-5.96164 Y4.99854
G01 X-5.96360 Y4.99850
G01 X-5.96372 Y5.00329
G01 X-5.96460 Y5.00860
G01 X-5.96610 Y5.01333
G01 X-5.96842 Y5.01816
G01 X-5.97180 Y5.02306
G01 X-5.97508 Y5.02657
G01 X-5.97927 Y5.02995
G01 X-5.98390 Y5.03268
G01 X-5.98889 Y5.03469
G01 X-5.99470 Y5.03604
G01 X-6.00007 Y5.03643
G01 X-6.00486 Y5.03610
G01 X-6.01068 Y5.03483
G01 X-6.01171 Y5.03443
G01 X-6.01196 Y5.03391
G01 X-6.01171 Y5.03443
G01 X-6.20774 Y5.45482
G01 X-6.20873 Y5.45613
G01 X-6.21016 Y5.45692
G01 X-6.21138 Y5.45709
G01 X-6.21297 Y5.45672
G01 X-6.66613 Y5.24541
G01 X-6.66715 Y5.24472
G01 X-6.66809 Y5.24338
G01 X-6.66840 Y5.24178
G01 X-6.66803 Y5.24018
G01 X-6.45672 Y4.78703
G01 X-6.45574 Y4.78572
G01 X-6.45430 Y4.78493
G01 X-6.45308 Y4.78475
G01 X-6.45149 Y4.78512
G01 X-6.03111 Y4.98115
G01 X-6.03097 Y4.98171
G01 X-6.03111 Y4.98115
G01 X-6.03064 Y4.98030
G01 X-6.02703 Y4.97558
G01 X-6.02313 Y4.97186
G01 X-6.01874 Y4.96876
G01 X-6.01393 Y4.96634
G01 X-6.00882 Y4.96466
G01 X-6.00352 Y4.96374
G01 X-5.99814 Y4.96362
G01 X-5.99280 Y4.96429
G01 X-5.98762 Y4.96574
G01 X-5.98271 Y4.96794
G01 X-5.97817 Y4.97084
G01 X-5.97412 Y4.97437
G01 X-5.97062 Y4.97846
G01 X-5.96805 Y4.98251
G01 X-5.96582 Y4.98741
G01 X-5.96434 Y4.99258
G01 X-5.96360 Y4.99850
G01 X-5.96557 Y4.99845
G01 X-5.96572 Y5.00354
G01 X-5.96661 Y5.00854
G01 X-5.96807 Y5.01298
G01 X-5.97019 Y5.01729
G01 X-5.97306 Y5.02149
G01 X-5.97652 Y5.02523
G01 X-5.98049 Y5.02841
G01 X-5.98489 Y5.03097
G01 X-5.98962 Y5.03286
G01 X-5.99457 Y5.03403
G01 X-5.99964 Y5.03446
G01 X-6.00472 Y5.03414
G01 X-6.00970 Y5.03307
G01 X-6.01272 Y5.03194
G01 X-6.20953 Y5.45399
G01 X-6.20998 Y5.45460
G01 X-6.21063 Y5.45500
G01 X-6.21139 Y5.45512
G01 X-6.21214 Y5.45494
G01 X-6.66529 Y5.24363
G01 X-6.66591 Y5.24317
G01 X-6.66631 Y5.24252
G01 X-6.66643 Y5.24176
G01 X-6.66625 Y5.24101
G01 X-6.45494 Y4.78786
G01 X-6.45448 Y4.78724
G01 X-6.45383 Y4.78684
G01 X-6.45307 Y4.78672
G01 X-6.45232 Y4.78691
G01 X-6.03028 Y4.98371
G01 X-6.02876 Y4.98102
G01 X-6.02585 Y4.97721
G01 X-6.02221 Y4.97365
G01 X-6.01784 Y4.97051
G01 X-6.01330 Y4.96821
G01 X-6.00847 Y4.96659
G01 X-6.00375 Y4.96574
G01 X-5.99866 Y4.96556
G01 X-5.99332 Y4.96619
G01 X-5.98841 Y4.96754
G01 X-5.98375 Y4.96960
G01 X-5.97945 Y4.97233
G01 X-5.97560 Y4.97566
G01 X-5.97228 Y4.97952
G01 X-5.96957 Y4.98382
G01 X-5.96752 Y4.98848
G01 X-5.96617 Y4.99339
G01 X-5.96557 Y4.99845
G04 P0 ( dwell for no time -- G64 should not smooth over this point )
G00 Z0.08000 ( retract )

G00 X-4.96553 Y4.99965 ( rapid move to begin. )
G01 F180.00000
( Mill infeed pass 1/1 )
G01 Z-0.04000
G04 P0 ( dwell for no time -- G64 should not smooth over this point )
G01 F360.00000
G01 X-4.96553 Y4.99965
G01 X-0.03783 Y0.03783
G04 P0 ( dwell for no time -- G64 should not smooth over this point )
G00 Z0.08000 ( retract )

G00 X-0.03783 Y0.03783 ( rapid move to begin. )
G01 F180.00000
( Mill infeed pass 1/1 )
G01 Z-0.04000
G04 P0 ( dwell for no time -- G64 should not smooth over this point )
G01 F360.00000
G01 X-0.03783 Y0.03783
G01 X-0.03841 Y0.03841
G01 X-0.03841 Y9.96159
G01 X-0.03783 Y9.96217
G01 X-0.03841 Y9.96159
G01 X-9.96159 Y9.96159
G01 X-9.96217 Y9.96217
G01 X-9.96159 Y9.96159
G01 X-9.96159 Y0.03841
G01 X-9.96217 Y0.03783
G01 X-9.96159 Y0.03841
G01 X-0.03841 Y0.03841
G01 X-0.03586 Y0.03586
G01 X-0.03644 Y0.03644
G01 X-0.03644 Y9.96356
G01 X-0.03586 Y9.96414
G01 X-0.03644 Y9.96356
G01 X-9.96356 Y9.96356
G01 X-9.96414 Y9.96414
G01 X-9.96356 Y9.96356
G01 X-9.96356 Y0.03644
G01 X-9.96414 Y0.03586
G01 X-9.96356 Y0.03644
G01 X-0.03644 Y0.03644
G01 X-0.03447 Y0.03447
G01 X-9.96553 Y0.03447
G01 X-9.96553 Y9.96553
G01 X-0.03447 Y9.96553
G01 X-0.03447 Y0.03447
G04 P0 ( dwell for no time -- G64 should not smooth over this point )
G00 Z0.08000 ( retract )

G00 X-0.03447 Y0.03447 ( rapid move to begin. )
G01 F180.00000
( Mill infeed pass 1/1 )
G01 Z-0.04000
G04 P0 ( dwell for no time -- G64 should not smooth over this point )
G01 F360.00000
G01 X-0.03447 Y0.03447
G01 X-7.74413 Y4.99938
G04 P0 ( dwell for no time -- G64 should not smooth over this point )
G00 Z0.08000 ( retract )

G00 X-7.74413 Y4.99938 ( rapid move to begin. )
G01 F180.00000
( Mill infeed pass 1/1 )
G01 Z-0.04000
G04 P0 ( dwell for no time -- G64 should not smooth over this point )
G01 F360.00000
G01 X-7.74413 Y4.99938
G01 X-7.74438 Y4.99817
G01 X-7.74489 Y4.99705
G01 X-7.86989 Y4.78054
G01 X-7.87090 Y4.77925
G01 X-7.87187 Y4.77848
G01 X-7.87337 Y4.77782
G01 X-7.87500 Y4.77759
G01 X-8.12500 Y4.77759
G01 X-8.12663 Y4.77782
G01 X-8.12813 Y4.77848
G01 X-8.12910 Y4.77925
G01 X-8.13011 Y4.78054
G01 X-8.25511 Y4.99705
G01 X-8.25573 Y4.99857
G01 X-8.25590 Y5.00021
G01 X-8.25573 Y5.00143
G01 X-8.25511 Y5.00295
G01 X-8.13011 Y5.21946
G01 X-8.12910 Y5.22075
G01 X-8.12813 Y5.22151
G01 X-8.12663 Y5.22218
G01 X-8.12500 Y5.22241
G01 X-7.87500 Y5.22241
G01 X-7.87337 Y5.22218
G01 X-7.87187 Y5.22151
G01 X-7.87090 Y5.22075
G01 X-7.86989 Y5.21946
G01 X-7.74489 Y5.00295
G01 X-7.74427 Y5.00143
G01 X-7.74410 Y5.00021
G01 X-7.74413 Y4.99938
G01 X-7.74608 Y4.99959
G01 X-7.74659 Y4.99803
G01 X-7.87159 Y4.78153
G01 X-7.87237 Y4.78057
G01 X-7.87303 Y4.78008
G01 X-7.87418 Y4.77964
G01 X-7.87500 Y4.77956
G01 X-8.12500 Y4.77956
G01 X-8.12582 Y4.77964
G01 X-8.12697 Y4.78008
G01 X-8.12763 Y4.78057
G01 X-8.12841 Y4.78153
G01 X-8.25341 Y4.99803
G01 X-8.25374 Y4.99878
G01 X-8.25394 Y5.00000
G01 X-8.25374 Y5.00122
G01 X-8.25341 Y5.00197
G01 X-8.12841 Y5.21847
G01 X-8.12763 Y5.21943
G01 X-8.12697 Y5.21992
G01 X-8.12582 Y5.22036
G01 X-8.12500 Y5.22044
G01 X-7.87500 Y5.22044
G01 X-7.87418 Y5.22036
G01 X-7.87303 Y5.21992
G01 X-7.87237 Y5.21943
G01 X-7.87159 Y5.21847
G01 X-7.74659 Y5.00197
G01 X-7.74625 Y5.00122
G01 X-7.74606 Y5.00000
G01 X-7.74608 Y4.99959
G01 X-7.74804 Y4.99979
G01 X-7.74829 Y5.00098
G01 X-7.87329 Y5.21749
G01 X-7.87420 Y5.21830
G01 X-7.87500 Y5.21847
G01 X-8.12500 Y5.21847
G01 X-8.12580 Y5.21830
G01 X-8.12670 Y5.21749
G01 X-8.25170 Y5.00098
G01 X-8.25196 Y5.00021
G01 X-8.25170 Y4.99901
G01 X-8.12670 Y4.78251
G01 X-8.12616 Y4.78190
G01 X-8.12500 Y4.78153
G01 X-7.87500 Y4.78153
G01 X-7.87420 Y4.78170
G01 X-7.87329 Y4.78251
G01 X-7.74829 Y4.99901
G01 X-7.74804 Y4.99979
G04 P0 ( dwell for no time -- G64 should not smooth over this point )
G00 Z0.08000 ( retract )

G00 X-7.74804 Y4.99979 ( rapid move to begin. )
G01 F180.00000
( Mill infeed pass 1/1 )
G01 Z-0.04000
G04 P0 ( dwell for no time -- G64 should not smooth over this point )
G01 F360.00000
G01 X-7.74804 Y4.99979
G01 X-8.50806 Y6.31758
G04 P0 ( dwell for no time -- G64 should not smooth over this point )
G00 Z0.08000 ( retract )

G00 X-8.50806 Y6.31758 ( rapid move to begin. )
G01 F180.00000
( Mill infeed pass 1/1 )
G01 Z-0.04000
G04 P0 ( dwell for no time -- G64 should not smooth over this point )
G01 F360.00000
G01 X-8.50806 Y6.31758
G01 X-8.50822 Y6.31596
G01 X-8.50884 Y6.31440
G01 X-8.85836 Y6.23371
G01 X-8.85958 Y6.23481
G01 X-8.86044 Y6.23618
G01 X-8.86264 Y6.24353
G01 X-8.86488 Y6.25007
G01 X-8.86745 Y6.25650
G01 X-8.87014 Y6.26245
G01 X-8.87310 Y6.26827
G01 X-8.87653 Y6.27428
G01 X-8.88023 Y6.28012
G01 X-8.88421 Y6.28577
G01 X-8.88847 Y6.29123
G01 X-8.89271 Y6.29619
G01 X-8.89718 Y6.30095
G01 X-8.90215 Y6.30577
G01 X-8.90734 Y6.31034
G01 X-8.91274 Y6.31467
G01 X-8.91834 Y6.31872
G01 X-8.92380 Y6.32230
G01 X-8.92976 Y6.32582
G01 X-8.93553 Y6.32887
G01 X-8.94144 Y6.33166
G01 X-8.94783 Y6.33432
G01 X-8.95433 Y6.33666
G01 X-8.96094 Y6.33870
G01 X-8.96765 Y6.34041
G01 X-8.97404 Y6.34174
G01 X-8.98049 Y6.34276
G01 X-8.98737 Y6.34354
G01 X-8.99388 Y6.34396
G01 X-9.00080 Y6.34409
G01 X-9.00771 Y6.34389
G01 X-9.01422 Y6.34339
G01 X-9.02109 Y6.34254
G01 X-9.02866 Y6.34130
G01 X-9.03027 Y6.34147
G01 X-9.03179 Y6.34208
G01 X-9.11248 Y6.69160
G01 X-9.11103 Y6.69309
G01 X-9.10920 Y6.69397
G01 X-9.09695 Y6.69653
G01 X-9.08486 Y6.69874
G01 X-9.07301 Y6.70061
G01 X-9.06058 Y6.70226
G01 X-9.04836 Y6.70359
G01 X-9.03626 Y6.70460
G01 X-9.02373 Y6.70535
G01 X-9.01160 Y6.70577
G01 X-8.99945 Y6.70590
G01 X-8.98746 Y6.70575
G01 X-8.97518 Y6.70529
G01 X-8.96280 Y6.70453
G01 X-8.95070 Y6.70350
G01 X-8.93849 Y6.70215
G01 X-8.92605 Y6.70047
G01 X-8.91406 Y6.69855
G01 X-8.90187 Y6.69630
G01 X-8.88998 Y6.69380
G01 X-8.87763 Y6.69088
G01 X-8.86588 Y6.68780
G01 X-8.85397 Y6.68437
G01 X-8.84225 Y6.68068
G01 X-8.83075 Y6.67675
G01 X-8.81936 Y6.67256
G01 X-8.80820 Y6.66814
G01 X-8.79689 Y6.66334
G01 X-8.78546 Y6.65816
G01 X-8.77453 Y6.65288
G01 X-8.76372 Y6.64734
G01 X-8.75318 Y6.64161
G01 X-8.74253 Y6.63549
G01 X-8.73181 Y6.62897
G01 X-8.72171 Y6.62249
G01 X-8.71120 Y6.61537
G01 X-8.70143 Y6.60841
G01 X-8.69160 Y6.60104
G01 X-8.68206 Y6.59352
G01 X-8.67251 Y6.58560
G01 X-8.66324 Y6.57754
G01 X-8.65398 Y6.56907
G01 X-8.64522 Y6.56066
G01 X-8.63677 Y6.55214
G01 X-8.62815 Y6.54303
G01 X-8.61993 Y6.53389
G01 X-8.61177 Y6.52437
G01 X-8.60418 Y6.51507
G01 X-8.59673 Y6.50547
G01 X-8.58952 Y6.49571
G01 X-8.58223 Y6.48532
G01 X-8.57558 Y6.47533
G01 X-8.56909 Y6.46507
G01 X-8.56286 Y6.45465
G01 X-8.55687 Y6.44408
G01 X-8.55107 Y6.43325
G01 X-8.54549 Y6.42217
G01 X-8.54029 Y6.41120
G01 X-8.53529 Y6.39998
G01 X-8.53068 Y6.38890
G01 X-8.52628 Y6.37758
G01 X-8.52198 Y6.36564
G01 X-8.51819 Y6.35426
G01 X-8.51451 Y6.34226
G01 X-8.51120 Y6.33043
G01 X-8.50824 Y6.31880
G01 X-8.50806 Y6.31758
G01 X-8.51003 Y6.31748
G01 X-8.51310 Y6.32994
G01 X-8.51639 Y6.34168
G01 X-8.52005 Y6.35363
G01 X-8.52385 Y6.36502
G01 X-8.52809 Y6.37677
G01 X-8.53250 Y6.38814
G01 X-8.53715 Y6.39931
G01 X-8.54207 Y6.41036
G01 X-8.54725 Y6.42129
G01 X-8.55288 Y6.43245
G01 X-8.55854 Y6.44303
G01 X-8.56450 Y6.45355
G01 X-8.57076 Y6.46401
G01 X-8.57717 Y6.47416
G01 X-8.58392 Y6.48431
G01 X-8.59110 Y6.49454
G01 X-8.59823 Y6.50419
G01 X-8.60565 Y6.51375
G01 X-8.61335 Y6.52320
G01 X-8.62149 Y6.53268
G01 X-8.62958 Y6.54167
G01 X-8.63810 Y6.55069
G01 X-8.64669 Y6.55934
G01 X-8.65535 Y6.56765
G01 X-8.66457 Y6.57608
G01 X-8.67377 Y6.58409
G01 X-8.68339 Y6.59206
G01 X-8.69289 Y6.59955
G01 X-8.70257 Y6.60680
G01 X-8.71242 Y6.61382
G01 X-8.72277 Y6.62083
G01 X-8.73295 Y6.62736
G01 X-8.74355 Y6.63380
G01 X-8.75404 Y6.63983
G01 X-8.76475 Y6.64565
G01 X-8.77543 Y6.65113
G01 X-8.78641 Y6.65643
G01 X-8.79770 Y6.66155
G01 X-8.80884 Y6.66627
G01 X-8.82017 Y6.67076
G01 X-8.83143 Y6.67491
G01 X-8.84288 Y6.67882
G01 X-8.85442 Y6.68245
G01 X-8.86652 Y6.68594
G01 X-8.87813 Y6.68898
G01 X-8.89039 Y6.69187
G01 X-8.90222 Y6.69436
G01 X-8.91451 Y6.69663
G01 X-8.92646 Y6.69854
G01 X-8.93884 Y6.70021
G01 X-8.95077 Y6.70153
G01 X-8.96282 Y6.70256
G01 X-8.97539 Y6.70334
G01 X-8.98748 Y6.70378
G01 X-8.99948 Y6.70394
G01 X-9.01167 Y6.70380
G01 X-9.02376 Y6.70338
G01 X-9.03614 Y6.70264
G01 X-9.04829 Y6.70162
G01 X-9.06031 Y6.70031
G01 X-9.07261 Y6.69868
G01 X-9.08465 Y6.69678
G01 X-9.09655 Y6.69460
G01 X-9.10840 Y6.69214
G01 X-9.10992 Y6.69147
G01 X-9.11080 Y6.69058
G01 X-9.11135 Y6.68946
G01 X-9.11152 Y6.68865
G01 X-9.11143 Y6.68740
G01 X-9.03269 Y6.34631
G01 X-9.03220 Y6.34514
G01 X-9.03103 Y6.34392
G01 X-9.02987 Y6.34340
G01 X-9.02903 Y6.34327
G01 X-9.02138 Y6.34449
G01 X-9.01442 Y6.34535
G01 X-9.00782 Y6.34585
G01 X-9.00081 Y6.34606
G01 X-8.99380 Y6.34593
G01 X-8.98719 Y6.34550
G01 X-8.98022 Y6.34472
G01 X-8.97369 Y6.34367
G01 X-8.96720 Y6.34233
G01 X-8.96041 Y6.34060
G01 X-8.95371 Y6.33853
G01 X-8.94711 Y6.33615
G01 X-8.94064 Y6.33346
G01 X-8.93465 Y6.33063
G01 X-8.92880 Y6.32754
G01 X-8.92276 Y6.32397
G01 X-8.91723 Y6.32034
G01 X-8.91154 Y6.31623
G01 X-8.90607 Y6.31185
G01 X-8.90081 Y6.30722
G01 X-8.89578 Y6.30233
G01 X-8.89125 Y6.29751
G01 X-8.88694 Y6.29248
G01 X-8.88263 Y6.28695
G01 X-8.87860 Y6.28121
G01 X-8.87484 Y6.27529
G01 X-8.87137 Y6.26920
G01 X-8.86837 Y6.26330
G01 X-8.86563 Y6.25727
G01 X-8.86304 Y6.25076
G01 X-8.86076 Y6.24412
G01 X-8.85869 Y6.23709
G01 X-8.85802 Y6.23601
G01 X-8.85704 Y6.23520
G01 X-8.85585 Y6.23474
G01 X-8.85416 Y6.23476
G01 X-8.51308 Y6.31351
G01 X-8.51158 Y6.31421
G01 X-8.51050 Y6.31547
G01 X-8.51009 Y6.31665
G01 X-8.51003 Y6.31748
G01 X-8.51200 Y6.31744
G01 X-8.51502 Y6.32950
G01 X-8.51827 Y6.34111
G01 X-8.52191 Y6.35296
G01 X-8.52573 Y6.36444
G01 X-8.52995 Y6.37615
G01 X-8.53432 Y6.38738
G01 X-8.53893 Y6.39846
G01 X-8.54383 Y6.40947
G01 X-8.54901 Y6.42040
G01 X-8.55461 Y6.43152
G01 X-8.56029 Y6.44214
G01 X-8.56621 Y6.45258
G01 X-8.57240 Y6.46292
G01 X-8.57886 Y6.47315
G01 X-8.58551 Y6.48314
G01 X-8.59268 Y6.49337
G01 X-8.59984 Y6.50306
G01 X-8.60723 Y6.51258
G01 X-8.61482 Y6.52188
G01 X-8.62295 Y6.53137
G01 X-8.63098 Y6.54029
G01 X-8.63953 Y6.54933
G01 X-8.64802 Y6.55788
G01 X-8.65671 Y6.56623
G01 X-8.66590 Y6.57463
G01 X-8.67502 Y6.58257
G01 X-8.68461 Y6.59051
G01 X-8.69407 Y6.59797
G01 X-8.70371 Y6.60520
G01 X-8.71352 Y6.61219
G01 X-8.72383 Y6.61917
G01 X-8.73393 Y6.62565
G01 X-8.74457 Y6.63212
G01 X-8.75502 Y6.63813
G01 X-8.76560 Y6.64388
G01 X-8.77632 Y6.64938
G01 X-8.78717 Y6.65462
G01 X-8.79851 Y6.65976
G01 X-8.80961 Y6.66446
G01 X-8.82085 Y6.66891
G01 X-8.83211 Y6.67306
G01 X-8.84352 Y6.67695
G01 X-8.85506 Y6.68059
G01 X-8.86702 Y6.68403
G01 X-8.87863 Y6.68707
G01 X-8.89079 Y6.68994
G01 X-8.90253 Y6.69241
G01 X-8.91482 Y6.69469
G01 X-8.92672 Y6.69659
G01 X-8.93901 Y6.69825
G01 X-8.95103 Y6.69957
G01 X-8.96299 Y6.70060
G01 X-8.97542 Y6.70137
G01 X-8.98746 Y6.70181
G01 X-8.99951 Y6.70197
G01 X-9.01160 Y6.70183
G01 X-9.02360 Y6.70141
G01 X-9.03602 Y6.70067
G01 X-9.04803 Y6.69967
G01 X-9.06001 Y6.69837
G01 X-9.07240 Y6.69672
G01 X-9.08430 Y6.69484
G01 X-9.09610 Y6.69268
G01 X-9.10800 Y6.69021
G01 X-9.10871 Y6.68991
G01 X-9.10943 Y6.68900
G01 X-9.10952 Y6.68784
G01 X-9.03065 Y6.34640
G01 X-9.02994 Y6.34556
G01 X-9.02889 Y6.34523
G01 X-9.02167 Y6.34644
G01 X-9.01461 Y6.34731
G01 X-9.00792 Y6.34782
G01 X-9.00082 Y6.34803
G01 X-8.99371 Y6.34790
G01 X-8.98702 Y6.34746
G01 X-8.97996 Y6.34667
G01 X-8.97333 Y6.34561
G01 X-8.96676 Y6.34425
G01 X-8.95988 Y6.34249
G01 X-8.95308 Y6.34040
G01 X-8.94640 Y6.33799
G01 X-8.93984 Y6.33526
G01 X-8.93377 Y6.33239
G01 X-8.92784 Y6.32925
G01 X-8.92172 Y6.32564
G01 X-8.91611 Y6.32196
G01 X-8.91035 Y6.31780
G01 X-8.90480 Y6.31336
G01 X-8.89947 Y6.30866
G01 X-8.89437 Y6.30371
G01 X-8.88978 Y6.29882
G01 X-8.88542 Y6.29372
G01 X-8.88105 Y6.28812
G01 X-8.87696 Y6.28231
G01 X-8.87315 Y6.27631
G01 X-8.86964 Y6.27013
G01 X-8.86659 Y6.26415
G01 X-8.86382 Y6.25804
G01 X-8.86119 Y6.25144
G01 X-8.85889 Y6.24472
G01 X-8.85694 Y6.23804
G01 X-8.85660 Y6.23738
G01 X-8.85605 Y6.23690
G01 X-8.85535 Y6.23665
G01 X-8.85461 Y6.23668
G01 X-8.51352 Y6.31542
G01 X-8.51252 Y6.31600
G01 X-8.51211 Y6.31667
G01 X-8.51200 Y6.31744
G04 P0 ( dwell for no time -- G64 should not smooth over this point )
G00 Z0.08000 ( retract )

G00 X-8.49409 Y6.19915 ( rapid move to begin. )
G01 F180.00000
( Mill infeed pass 1/1 )
G01 Z-0.04000
G04 P0 ( dwell for no time -- G64 should not smooth over this point )
G01 F360.00000
G01 X-8.49409 Y6.19915
G01 X-8.49426 Y6.18701
G01 X-8.49471 Y6.17502
G01 X-8.49547 Y6.16276
G01 X-8.49649 Y6.15080
G01 X-8.49784 Y6.13858
G01 X-8.49951 Y6.12615
G01 X-8.50141 Y6.11430
G01 X-8.50361 Y6.10236
G01 X-8.50621 Y6.08994
G01 X-8.50896 Y6.07826
G01 X-8.51202 Y6.06651
G01 X-8.51553 Y6.05431
G01 X-8.51916 Y6.04272
G01 X-8.52308 Y6.03123
G01 X-8.52726 Y6.01983
G01 X-8.53172 Y6.00854
G01 X-8.53645 Y5.99735
G01 X-8.54139 Y5.98642
G01 X-8.54683 Y5.97511
G01 X-8.55236 Y5.96430
G01 X-8.55841 Y5.95314
G01 X-8.56446 Y5.94261
G01 X-8.57090 Y5.93202
G01 X-8.57776 Y5.92134
G01 X-8.58449 Y5.91140
G01 X-8.59177 Y5.90118
G01 X-8.59906 Y5.89147
G01 X-8.60658 Y5.88194
G01 X-8.61442 Y5.87248
G01 X-8.62266 Y5.86302
G01 X-8.63086 Y5.85406
G01 X-8.63917 Y5.84540
G01 X-8.64818 Y5.83646
G01 X-8.65690 Y5.82822
G01 X-8.66592 Y5.82009
G01 X-8.67524 Y5.81209
G01 X-8.68454 Y5.80450
G01 X-8.69412 Y5.79704
G01 X-8.70421 Y5.78958
G01 X-8.71459 Y5.78229
G01 X-8.72470 Y5.77556
G01 X-8.73485 Y5.76915
G01 X-8.74526 Y5.76291
G01 X-8.75595 Y5.75685
G01 X-8.76666 Y5.75112
G01 X-8.77737 Y5.74571
G01 X-8.78884 Y5.74027
G01 X-8.79993 Y5.73534
G01 X-8.81101 Y5.73072
G01 X-8.82246 Y5.72627
G01 X-8.83427 Y5.72201
G01 X-8.84617 Y5.71805
G01 X-8.85778 Y5.71450
G01 X-8.86947 Y5.71122
G01 X-8.88160 Y5.70815
G01 X-8.88364 Y5.70814
G01 X-8.88560 Y5.70884
G01 X-8.96629 Y6.05837
G01 X-8.96519 Y6.05958
G01 X-8.96382 Y6.06044
G01 X-8.95647 Y6.06264
G01 X-8.94993 Y6.06489
G01 X-8.94350 Y6.06745
G01 X-8.93755 Y6.07014
G01 X-8.93173 Y6.07310
G01 X-8.92572 Y6.07653
G01 X-8.91988 Y6.08023
G01 X-8.91423 Y6.08422
G01 X-8.90877 Y6.08847
G01 X-8.90381 Y6.09271
G01 X-8.89905 Y6.09718
G01 X-8.89423 Y6.10215
G01 X-8.88965 Y6.10734
G01 X-8.88533 Y6.11274
G01 X-8.88128 Y6.11834
G01 X-8.87770 Y6.12380
G01 X-8.87418 Y6.12976
G01 X-8.87113 Y6.13553
G01 X-8.86834 Y6.14144
G01 X-8.86568 Y6.14783
G01 X-8.86333 Y6.15433
G01 X-8.86130 Y6.16094
G01 X-8.85958 Y6.16765
G01 X-8.85826 Y6.17404
G01 X-8.85723 Y6.18049
G01 X-8.85646 Y6.18737
G01 X-8.85604 Y6.19388
G01 X-8.85591 Y6.20080
G01 X-8.85611 Y6.20772
G01 X-8.85661 Y6.21422
G01 X-8.85746 Y6.22109
G01 X-8.85870 Y6.22866
G01 X-8.85853 Y6.23027
G01 X-8.85792 Y6.23179
G01 X-8.50840 Y6.31248
G01 X-8.50716 Y6.31135
G01 X-8.50615 Y6.30959
G01 X-8.50349 Y6.29705
G01 X-8.50128 Y6.28496
G01 X-8.49933 Y6.27257
G01 X-8.49775 Y6.26067
G01 X-8.49643 Y6.24860
G01 X-8.49541 Y6.23650
G01 X-8.49466 Y6.22398
G01 X-8.49423 Y6.21184
G01 X-8.49409 Y6.19915
G01 X-8.49606 Y6.19918
G01 X-8.49623 Y6.18708
G01 X-8.49668 Y6.17500
G01 X-8.49743 Y6.16292
G01 X-8.49845 Y6.15097
G01 X-8.49977 Y6.13894
G01 X-8.50144 Y6.12656
G01 X-8.50337 Y6.11452
G01 X-8.50554 Y6.10272
G01 X-8.50811 Y6.09049
G01 X-8.51088 Y6.07871
G01 X-8.51393 Y6.06700
G01 X-8.51740 Y6.05490
G01 X-8.52102 Y6.04336
G01 X-8.52492 Y6.03191
G01 X-8.52906 Y6.02064
G01 X-8.53354 Y6.00931
G01 X-8.53825 Y5.99816
G01 X-8.54318 Y5.98723
G01 X-8.54864 Y5.97588
G01 X-8.55411 Y5.96519
G01 X-8.56007 Y5.95421
G01 X-8.56615 Y5.94364
G01 X-8.57258 Y5.93304
G01 X-8.57939 Y5.92244
G01 X-8.58612 Y5.91250
G01 X-8.59343 Y5.90225
G01 X-8.60064 Y5.89265
G01 X-8.60813 Y5.88316
G01 X-8.61591 Y5.87377
G01 X-8.62412 Y5.86435
G01 X-8.63228 Y5.85542
G01 X-8.64059 Y5.84676
G01 X-8.64953 Y5.83789
G01 X-8.65832 Y5.82958
G01 X-8.66724 Y5.82155
G01 X-8.67649 Y5.81361
G01 X-8.68586 Y5.80596
G01 X-8.69533 Y5.79859
G01 X-8.70538 Y5.79116
G01 X-8.71569 Y5.78392
G01 X-8.72568 Y5.77727
G01 X-8.73590 Y5.77081
G01 X-8.74628 Y5.76459
G01 X-8.75680 Y5.75863
G01 X-8.76746 Y5.75292
G01 X-8.77826 Y5.74747
G01 X-8.78964 Y5.74207
G01 X-8.80060 Y5.73719
G01 X-8.81185 Y5.73250
G01 X-8.82313 Y5.72812
G01 X-8.83479 Y5.72391
G01 X-8.84665 Y5.71996
G01 X-8.85822 Y5.71642
G01 X-8.86987 Y5.71316
G01 X-8.88169 Y5.71015
G01 X-8.88293 Y5.71004
G01 X-8.88415 Y5.71032
G01 X-8.88521 Y5.71097
G01 X-8.88602 Y5.71192
G01 X-8.88649 Y5.71308
G01 X-8.96524 Y6.05416
G01 X-8.96532 Y6.05543
G01 X-8.96515 Y6.05627
G01 X-8.96457 Y6.05740
G01 X-8.96365 Y6.05828
G01 X-8.96291 Y6.05869
G01 X-8.95588 Y6.06076
G01 X-8.94924 Y6.06304
G01 X-8.94273 Y6.06564
G01 X-8.93670 Y6.06837
G01 X-8.93080 Y6.07137
G01 X-8.92470 Y6.07484
G01 X-8.91879 Y6.07860
G01 X-8.91305 Y6.08263
G01 X-8.90752 Y6.08694
G01 X-8.90249 Y6.09125
G01 X-8.89767 Y6.09578
G01 X-8.89278 Y6.10081
G01 X-8.88815 Y6.10607
G01 X-8.88377 Y6.11154
G01 X-8.87965 Y6.11723
G01 X-8.87603 Y6.12276
G01 X-8.87246 Y6.12880
G01 X-8.86937 Y6.13465
G01 X-8.86654 Y6.14064
G01 X-8.86385 Y6.14711
G01 X-8.86147 Y6.15371
G01 X-8.85940 Y6.16041
G01 X-8.85767 Y6.16720
G01 X-8.85633 Y6.17369
G01 X-8.85528 Y6.18022
G01 X-8.85450 Y6.18719
G01 X-8.85407 Y6.19380
G01 X-8.85394 Y6.20081
G01 X-8.85415 Y6.20782
G01 X-8.85465 Y6.21442
G01 X-8.85551 Y6.22138
G01 X-8.85673 Y6.22861
G01 X-8.85660 Y6.22987
G01 X-8.85582 Y6.23137
G01 X-8.85486 Y6.23221
G01 X-8.85369 Y6.23269
G01 X-8.51260 Y6.31143
G01 X-8.51135 Y6.31152
G01 X-8.51014 Y6.31121
G01 X-8.50909 Y6.31053
G01 X-8.50830 Y6.30957
G01 X-8.50786 Y6.30840
G01 X-8.50540 Y6.29655
G01 X-8.50324 Y6.28475
G01 X-8.50128 Y6.27231
G01 X-8.49970 Y6.26041
G01 X-8.49839 Y6.24839
G01 X-8.49737 Y6.23634
G01 X-8.49662 Y6.22377
G01 X-8.49620 Y6.21177
G01 X-8.49606 Y6.19918
G01 X-8.49803 Y6.19921
G01 X-8.49817 Y6.21165
G01 X-8.49859 Y6.22374
G01 X-8.49934 Y6.23617
G01 X-8.50035 Y6.24818
G01 X-8.50164 Y6.26011
G01 X-8.50323 Y6.27205
G01 X-8.50518 Y6.28440
G01 X-8.50734 Y6.29620
G01 X-8.50979 Y6.30800
G01 X-8.51035 Y6.30901
G01 X-8.51138 Y6.30954
G01 X-8.51216 Y6.30952
G01 X-8.85324 Y6.23077
G01 X-8.85392 Y6.23047
G01 X-8.85444 Y6.22994
G01 X-8.85473 Y6.22926
G01 X-8.85474 Y6.22852
G01 X-8.85356 Y6.22167
G01 X-8.85269 Y6.21461
G01 X-8.85218 Y6.20792
G01 X-8.85197 Y6.20082
G01 X-8.85210 Y6.19371
G01 X-8.85254 Y6.18702
G01 X-8.85333 Y6.17996
G01 X-8.85439 Y6.17333
G01 X-8.85575 Y6.16676
G01 X-8.85751 Y6.15988
G01 X-8.85960 Y6.15308
G01 X-8.86201 Y6.14640
G01 X-8.86474 Y6.13984
G01 X-8.86761 Y6.13377
G01 X-8.87075 Y6.12784
G01 X-8.87436 Y6.12172
G01 X-8.87803 Y6.11611
G01 X-8.88220 Y6.11035
G01 X-8.88664 Y6.10480
G01 X-8.89134 Y6.09947
G01 X-8.89629 Y6.09437
G01 X-8.90118 Y6.08978
G01 X-8.90628 Y6.08542
G01 X-8.91188 Y6.08105
G01 X-8.91769 Y6.07696
G01 X-8.92369 Y6.07315
G01 X-8.92987 Y6.06964
G01 X-8.93585 Y6.06659
G01 X-8.94196 Y6.06382
G01 X-8.94856 Y6.06119
G01 X-8.95528 Y6.05889
G01 X-8.96230 Y6.05680
G01 X-8.96310 Y6.05605
G01 X-8.96337 Y6.05498
G01 X-8.88458 Y5.71352
G01 X-8.88400 Y5.71252
G01 X-8.88295 Y5.71202
G01 X-8.88217 Y5.71206
G01 X-8.87040 Y5.71505
G01 X-8.85880 Y5.71830
G01 X-8.84727 Y5.72183
G01 X-8.83546 Y5.72576
G01 X-8.82380 Y5.72997
G01 X-8.81257 Y5.73434
G01 X-8.80140 Y5.73899
G01 X-8.79044 Y5.74387
G01 X-8.77915 Y5.74923
G01 X-8.76843 Y5.75464
G01 X-8.75781 Y5.76032
G01 X-8.74733 Y5.76626
G01 X-8.73695 Y5.77247
G01 X-8.72681 Y5.77888
G01 X-8.71678 Y5.78556
G01 X-8.70655 Y5.79274
G01 X-8.69658 Y5.80012
G01 X-8.68703 Y5.80754
G01 X-8.67774 Y5.81514
G01 X-8.66856 Y5.82301
G01 X-8.65964 Y5.83105
G01 X-8.65088 Y5.83932
G01 X-8.64201 Y5.84812
G01 X-8.63367 Y5.85682
G01 X-8.62554 Y5.86571
G01 X-8.61736 Y5.87510
G01 X-8.60967 Y5.88438
G01 X-8.60224 Y5.89380
G01 X-8.59498 Y5.90347
G01 X-8.58775 Y5.91361
G01 X-8.58102 Y5.92354
G01 X-8.57427 Y5.93406
G01 X-8.56783 Y5.94466
G01 X-8.56180 Y5.95515
G01 X-8.55588 Y5.96605
G01 X-8.55040 Y5.97677
G01 X-8.54498 Y5.98804
G01 X-8.54004 Y5.99897
G01 X-8.53533 Y6.01011
G01 X-8.53091 Y6.02132
G01 X-8.52675 Y6.03263
G01 X-8.52287 Y6.04404
G01 X-8.51927 Y6.05554
G01 X-8.51585 Y6.06745
G01 X-8.51280 Y6.07911
G01 X-8.51003 Y6.09089
G01 X-8.50749 Y6.10303
G01 X-8.50530 Y6.11487
G01 X-8.50339 Y6.12682
G01 X-8.50173 Y6.13916
G01 X-8.50042 Y6.15114
G01 X-8.49939 Y6.16314
G01 X-8.49865 Y6.17512
G01 X-8.49820 Y6.18716
G01 X-8.49803 Y6.19921
G04 P0 ( dwell for no time -- G64 should not smooth over this point )
G00 Z0.08000 ( retract )

G00 X-8.96163 Y6.19840 ( rapid move to begin. )
G01 F180.00000
( Mill infeed pass 1/1 )
G01 Z-0.04000
G04 P0 ( dwell for no time -- G64 should not smooth over this point )
G01 F360.00000
G01 X-8.96163 Y6.19840
G01 X-8.96198 Y6.19463
G01 X-8.96269 Y6.19092
G01 X-8.96362 Y6.18770
G01 X-8.96499 Y6.18422
G01 X-8.96672 Y6.18085
G01 X-8.96876 Y6.17767
G01 X-8.97111 Y6.17470
G01 X-8.97374 Y6.17198
G01 X-8.97663 Y6.16953
G01 X-8.97974 Y6.16738
G01 X-8.98305 Y6.16554
G01 X-8.98652 Y6.16404
G01 X-8.99012 Y6.16289
G01 X-8.99382 Y6.16210
G01 X-8.99758 Y6.16168
G01 X-9.00136 Y6.16162
G01 X-9.00513 Y6.16195
G01 X-9.00885 Y6.16263
G01 X-9.01249 Y6.16369
G01 X-9.01600 Y6.16509
G01 X-9.01936 Y6.16684
G01 X-9.02253 Y6.16890
G01 X-9.02548 Y6.17127
G01 X-9.02818 Y6.17392
G01 X-9.03061 Y6.17682
G01 X-9.03274 Y6.17994
G01 X-9.03456 Y6.18326
G01 X-9.03604 Y6.18674
G01 X-9.03717 Y6.19035
G01 X-9.03794 Y6.19406
G01 X-9.03834 Y6.19782
G01 X-9.03837 Y6.20160
G01 X-9.03802 Y6.20537
G01 X-9.03731 Y6.20908
G01 X-9.03620 Y6.21281
G01 X-9.03476 Y6.21631
G01 X-9.03299 Y6.21965
G01 X-9.03089 Y6.22281
G01 X-9.02850 Y6.22573
G01 X-9.02583 Y6.22841
G01 X-9.02291 Y6.23082
G01 X-9.01976 Y6.23292
G01 X-9.01643 Y6.23471
G01 X-9.01293 Y6.23616
G01 X-9.00931 Y6.23725
G01 X-9.00560 Y6.23799
G01 X-9.00184 Y6.23836
G01 X-8.99805 Y6.23835
G01 X-8.99429 Y6.23797
G01 X-8.99058 Y6.23723
G01 X-8.98751 Y6.23631
G01 X-8.98400 Y6.23491
G01 X-8.98064 Y6.23316
G01 X-8.97747 Y6.23110
G01 X-8.97452 Y6.22873
G01 X-8.97182 Y6.22608
G01 X-8.96939 Y6.22318
G01 X-8.96726 Y6.22006
G01 X-8.96544 Y6.21674
G01 X-8.96396 Y6.21326
G01 X-8.96283 Y6.20965
G01 X-8.96206 Y6.20594
G01 X-8.96166 Y6.20218
G01 X-8.96163 Y6.19840
G01 X-8.96360 Y6.19840
G01 X-8.96362 Y6.20199
G01 X-8.96399 Y6.20556
G01 X-8.96462 Y6.20870
G01 X-8.96578 Y6.21250
G01 X-8.96717 Y6.21581
G01 X-8.96869 Y6.21863
G01 X-8.97067 Y6.22162
G01 X-8.97294 Y6.22440
G01 X-8.97548 Y6.22694
G01 X-8.97825 Y6.22923
G01 X-8.98123 Y6.23123
G01 X-8.98474 Y6.23308
G01 X-8.98807 Y6.23442
G01 X-8.99152 Y6.23543
G01 X-8.99505 Y6.23609
G01 X-8.99823 Y6.23639
G01 X-9.00183 Y6.23639
G01 X-9.00578 Y6.23597
G01 X-9.00929 Y6.23523
G01 X-9.01235 Y6.23428
G01 X-9.01566 Y6.23289
G01 X-9.01882 Y6.23119
G01 X-9.02211 Y6.22896
G01 X-9.02485 Y6.22664
G01 X-9.02709 Y6.22436
G01 X-9.02936 Y6.22157
G01 X-9.03134 Y6.21858
G01 X-9.03302 Y6.21540
G01 X-9.03449 Y6.21174
G01 X-9.03538 Y6.20870
G01 X-9.03601 Y6.20556
G01 X-9.03638 Y6.20199
G01 X-9.03638 Y6.19801
G01 X-9.03601 Y6.19444
G01 X-9.03538 Y6.19130
G01 X-9.03435 Y6.18786
G01 X-9.03299 Y6.18454
G01 X-9.03111 Y6.18104
G01 X-9.02909 Y6.17807
G01 X-9.02679 Y6.17531
G01 X-9.02452 Y6.17305
G01 X-9.02144 Y6.17054
G01 X-9.01844 Y6.16858
G01 X-9.01525 Y6.16691
G01 X-9.01229 Y6.16570
G01 X-9.00848 Y6.16457
G01 X-9.00495 Y6.16390
G01 X-9.00176 Y6.16361
G01 X-8.99817 Y6.16361
G01 X-8.99422 Y6.16403
G01 X-8.99108 Y6.16467
G01 X-8.98765 Y6.16572
G01 X-8.98399 Y6.16727
G01 X-8.98085 Y6.16901
G01 X-8.97820 Y6.17081
G01 X-8.97543 Y6.17310
G01 X-8.97290 Y6.17564
G01 X-8.97041 Y6.17874
G01 X-8.96866 Y6.18142
G01 X-8.96698 Y6.18460
G01 X-8.96551 Y6.18826
G01 X-8.96462 Y6.19130
G01 X-8.96399 Y6.19444
G01 X-8.96360 Y6.19840
G01 X-8.96557 Y6.19840
G01 X-8.96557 Y6.20160
G01 X-8.96589 Y6.20498
G01 X-8.96660 Y6.20850
G01 X-8.96753 Y6.21156
G01 X-8.96883 Y6.21470
G01 X-8.97042 Y6.21770
G01 X-8.97242 Y6.22068
G01 X-8.97446 Y6.22315
G01 X-8.97687 Y6.22555
G01 X-8.97949 Y6.22770
G01 X-8.98248 Y6.22968
G01 X-8.98549 Y6.23126
G01 X-8.98845 Y6.23247
G01 X-8.99189 Y6.23350
G01 X-8.99523 Y6.23413
G01 X-8.99861 Y6.23444
G01 X-9.00181 Y6.23442
G01 X-9.00538 Y6.23404
G01 X-9.00871 Y6.23335
G01 X-9.01176 Y6.23240
G01 X-9.01489 Y6.23108
G01 X-9.01805 Y6.22936
G01 X-9.02085 Y6.22745
G01 X-9.02330 Y6.22539
G01 X-9.02582 Y6.22283
G01 X-9.02794 Y6.22018
G01 X-9.02969 Y6.21750
G01 X-9.03127 Y6.21449
G01 X-9.03261 Y6.21117
G01 X-9.03345 Y6.20831
G01 X-9.03410 Y6.20498
G01 X-9.03443 Y6.20160
G01 X-9.03443 Y6.19840
G01 X-9.03410 Y6.19502
G01 X-9.03340 Y6.19150
G01 X-9.03247 Y6.18844
G01 X-9.03117 Y6.18530
G01 X-9.02957 Y6.18230
G01 X-9.02757 Y6.17932
G01 X-9.02554 Y6.17685
G01 X-9.02313 Y6.17445
G01 X-9.02051 Y6.17230
G01 X-9.01752 Y6.17032
G01 X-9.01451 Y6.16874
G01 X-9.01136 Y6.16746
G01 X-9.00829 Y6.16655
G01 X-9.00477 Y6.16587
G01 X-9.00139 Y6.16556
G01 X-8.99819 Y6.16558
G01 X-8.99481 Y6.16593
G01 X-8.99129 Y6.16665
G01 X-8.98824 Y6.16760
G01 X-8.98511 Y6.16892
G01 X-8.98195 Y6.17063
G01 X-8.97915 Y6.17255
G01 X-8.97669 Y6.17461
G01 X-8.97418 Y6.17717
G01 X-8.97206 Y6.17982
G01 X-8.97031 Y6.18250
G01 X-8.96873 Y6.18551
G01 X-8.96745 Y6.18865
G01 X-8.96655 Y6.19169
G01 X-8.96592 Y6.19483
G01 X-8.96557 Y6.19840
G04 P0 ( dwell for no time -- G64 should not smooth over this point )
G00 Z0.08000 ( retract )

G00 X-9.03468 Y6.34585 ( rapid move to begin. )
G01 F180.00000
( Mill infeed pass 1/1 )
G01 Z-0.04000
G04 P0 ( dwell for no time -- G64 should not smooth over this point )
G01 F360.00000
G01 X-9.03468 Y6.34585
G01 X-9.03371 Y6.34163
G01 X-9.03450 Y6.34069
G01 X-9.03546 Y6.33994
G01 X-9.03656 Y6.33941
G01 X-9.04353 Y6.33736
G01 X-9.05007 Y6.33511
G01 X-9.05650 Y6.33255
G01 X-9.06245 Y6.32986
G01 X-9.06827 Y6.32690
G01 X-9.07428 Y6.32347
G01 X-9.08012 Y6.31977
G01 X-9.08577 Y6.31578
G01 X-9.09123 Y6.31153
G01 X-9.09619 Y6.30728
G01 X-9.10095 Y6.30282
G01 X-9.10577 Y6.29785
G01 X-9.11035 Y6.29266
G01 X-9.11467 Y6.28726
G01 X-9.11872 Y6.28165
G01 X-9.12230 Y6.27620
G01 X-9.12582 Y6.27023
G01 X-9.12887 Y6.26446
G01 X-9.13166 Y6.25856
G01 X-9.13432 Y6.25217
G01 X-9.13666 Y6.24567
G01 X-9.13870 Y6.23906
G01 X-9.14041 Y6.23235
G01 X-9.14174 Y6.22596
G01 X-9.14277 Y6.21951
G01 X-9.14354 Y6.21263
G01 X-9.14396 Y6.20612
G01 X-9.14409 Y6.19920
G01 X-9.14389 Y6.19228
G01 X-9.14339 Y6.18578
G01 X-9.14254 Y6.17891
G01 X-9.14130 Y6.17134
G01 X-9.14147 Y6.16973
G01 X-9.14208 Y6.16821
G01 X-9.49160 Y6.08751
G01 X-9.49257 Y6.08834
G01 X-9.49352 Y6.08967
G01 X-9.49407 Y6.09120
G01 X-9.49657 Y6.10329
G01 X-9.49873 Y6.11510
G01 X-9.50068 Y6.12749
G01 X-9.50230 Y6.13967
G01 X-9.50364 Y6.15214
G01 X-9.50464 Y6.16425
G01 X-9.50535 Y6.17622
G01 X-9.50577 Y6.18836
G01 X-9.50590 Y6.20064
G01 X-9.50575 Y6.21265
G01 X-9.50529 Y6.22492
G01 X-9.50453 Y6.23730
G01 X-9.50345 Y6.24980
G01 X-9.50211 Y6.26187
G01 X-9.50048 Y6.27391
G01 X-9.49853 Y6.28604
G01 X-9.49628 Y6.29823
G01 X-9.49377 Y6.31012
G01 X-9.49095 Y6.32207
G01 X-9.48792 Y6.33369
G01 X-9.48442 Y6.34588
G01 X-9.48077 Y6.35747
G01 X-9.47690 Y6.36883
G01 X-9.47266 Y6.38036
G01 X-9.46805 Y6.39202
G01 X-9.46330 Y6.40320
G01 X-9.45829 Y6.41426
G01 X-9.45290 Y6.42543
G01 X-9.44729 Y6.43637
G01 X-9.44156 Y6.44691
G01 X-9.43543 Y6.45756
G01 X-9.42899 Y6.46816
G01 X-9.42243 Y6.47838
G01 X-9.41554 Y6.48855
G01 X-9.40826 Y6.49877
G01 X-9.40106 Y6.50837
G01 X-9.39320 Y6.51833
G01 X-9.38545 Y6.52768
G01 X-9.37747 Y6.53683
G01 X-9.36937 Y6.54569
G01 X-9.36087 Y6.55456
G01 X-9.35207 Y6.56330
G01 X-9.34325 Y6.57165
G01 X-9.33412 Y6.57987
G01 X-9.32471 Y6.58795
G01 X-9.31530 Y6.59563
G01 X-9.30560 Y6.60317
G01 X-9.29595 Y6.61031
G01 X-9.28557 Y6.61760
G01 X-9.27558 Y6.62425
G01 X-9.26520 Y6.63082
G01 X-9.25491 Y6.63699
G01 X-9.24399 Y6.64318
G01 X-9.23316 Y6.64897
G01 X-9.22245 Y6.65438
G01 X-9.21148 Y6.65958
G01 X-9.20038 Y6.66453
G01 X-9.18918 Y6.66920
G01 X-9.17735 Y6.67380
G01 X-9.16606 Y6.67787
G01 X-9.15441 Y6.68177
G01 X-9.14241 Y6.68545
G01 X-9.13086 Y6.68869
G01 X-9.11840 Y6.69185
G01 X-9.11636 Y6.69186
G01 X-9.11440 Y6.69116
G01 X-9.03468 Y6.34585
G01 X-9.03466 Y6.34499
G01 X-9.11350 Y6.68692
G01 X-9.11421 Y6.68842
G01 X-9.11478 Y6.68903
G01 X-9.11585 Y6.68968
G01 X-9.11665 Y6.68991
G01 X-9.11790 Y6.68993
G01 X-9.13023 Y6.68682
G01 X-9.14197 Y6.68352
G01 X-9.15383 Y6.67988
G01 X-9.16530 Y6.67605
G01 X-9.17668 Y6.67195
G01 X-9.18842 Y6.66739
G01 X-9.19950 Y6.66277
G01 X-9.21063 Y6.65781
G01 X-9.22156 Y6.65262
G01 X-9.23236 Y6.64717
G01 X-9.24294 Y6.64151
G01 X-9.25390 Y6.63530
G01 X-9.26419 Y6.62913
G01 X-9.27449 Y6.62262
G01 X-9.28456 Y6.61591
G01 X-9.29478 Y6.60872
G01 X-9.30443 Y6.60159
G01 X-9.31399 Y6.59416
G01 X-9.32343 Y6.58645
G01 X-9.33291 Y6.57831
G01 X-9.34190 Y6.57022
G01 X-9.35061 Y6.56197
G01 X-9.35948 Y6.55316
G01 X-9.36792 Y6.54436
G01 X-9.37602 Y6.53550
G01 X-9.38396 Y6.52638
G01 X-9.39168 Y6.51707
G01 X-9.39943 Y6.50726
G01 X-9.40674 Y6.49751
G01 X-9.41400 Y6.48733
G01 X-9.42072 Y6.47739
G01 X-9.42731 Y6.46713
G01 X-9.43380 Y6.45645
G01 X-9.43983 Y6.44597
G01 X-9.44556 Y6.43543
G01 X-9.45113 Y6.42458
G01 X-9.45652 Y6.41341
G01 X-9.46151 Y6.40239
G01 X-9.46627 Y6.39116
G01 X-9.47083 Y6.37963
G01 X-9.47501 Y6.36828
G01 X-9.47891 Y6.35683
G01 X-9.48254 Y6.34529
G01 X-9.48602 Y6.33319
G01 X-9.48907 Y6.32149
G01 X-9.49183 Y6.30980
G01 X-9.49432 Y6.29797
G01 X-9.49660 Y6.28568
G01 X-9.49853 Y6.27364
G01 X-9.50014 Y6.26175
G01 X-9.50148 Y6.24973
G01 X-9.50256 Y6.23718
G01 X-9.50333 Y6.22471
G01 X-9.50378 Y6.21262
G01 X-9.50394 Y6.20062
G01 X-9.50381 Y6.18852
G01 X-9.50338 Y6.17634
G01 X-9.50267 Y6.16436
G01 X-9.50166 Y6.15221
G01 X-9.50033 Y6.13979
G01 X-9.49874 Y6.12779
G01 X-9.49681 Y6.11554
G01 X-9.49462 Y6.10355
G01 X-9.49214 Y6.09160
G01 X-9.49147 Y6.09008
G01 X-9.49058 Y6.08920
G01 X-9.48986 Y6.08879
G01 X-9.48864 Y6.08848
G01 X-9.48740 Y6.08857
G01 X-9.14631 Y6.16731
G01 X-9.14514 Y6.16779
G01 X-9.14392 Y6.16897
G01 X-9.14340 Y6.17013
G01 X-9.14327 Y6.17097
G01 X-9.14449 Y6.17862
G01 X-9.14535 Y6.18558
G01 X-9.14585 Y6.19218
G01 X-9.14606 Y6.19919
G01 X-9.14593 Y6.20620
G01 X-9.14550 Y6.21281
G01 X-9.14472 Y6.21978
G01 X-9.14367 Y6.22631
G01 X-9.14233 Y6.23280
G01 X-9.14059 Y6.23959
G01 X-9.13853 Y6.24629
G01 X-9.13615 Y6.25288
G01 X-9.13346 Y6.25936
G01 X-9.13063 Y6.26534
G01 X-9.12753 Y6.27119
G01 X-9.12397 Y6.27724
G01 X-9.12034 Y6.28277
G01 X-9.11623 Y6.28845
G01 X-9.11185 Y6.29393
G01 X-9.10722 Y6.29919
G01 X-9.10233 Y6.30422
G01 X-9.09750 Y6.30875
G01 X-9.09248 Y6.31306
G01 X-9.08695 Y6.31736
G01 X-9.08121 Y6.32140
G01 X-9.07529 Y6.32516
G01 X-9.06920 Y6.32863
G01 X-9.06330 Y6.33163
G01 X-9.05727 Y6.33436
G01 X-9.05076 Y6.33696
G01 X-9.04412 Y6.33924
G01 X-9.03709 Y6.34131
G01 X-9.03571 Y6.34227
G01 X-9.03500 Y6.34334
G01 X-9.03466 Y6.34499
G01 X-9.03663 Y6.34502
G01 X-9.11542 Y6.68648
G01 X-9.11575 Y6.68719
G01 X-9.11667 Y6.68789
G01 X-9.11783 Y6.68794
G01 X-9.12979 Y6.68490
G01 X-9.14140 Y6.68164
G01 X-9.15330 Y6.67799
G01 X-9.16468 Y6.67419
G01 X-9.17601 Y6.67010
G01 X-9.18766 Y6.66557
G01 X-9.19874 Y6.66095
G01 X-9.20974 Y6.65605
G01 X-9.22067 Y6.65086
G01 X-9.23139 Y6.64546
G01 X-9.24205 Y6.63975
G01 X-9.25288 Y6.63361
G01 X-9.26318 Y6.62744
G01 X-9.27340 Y6.62098
G01 X-9.28339 Y6.61432
G01 X-9.29361 Y6.60714
G01 X-9.30330 Y6.59997
G01 X-9.31278 Y6.59261
G01 X-9.32211 Y6.58499
G01 X-9.33156 Y6.57688
G01 X-9.34054 Y6.56879
G01 X-9.34926 Y6.56054
G01 X-9.35810 Y6.55177
G01 X-9.36647 Y6.54303
G01 X-9.37456 Y6.53418
G01 X-9.38248 Y6.52509
G01 X-9.39020 Y6.51578
G01 X-9.39788 Y6.50604
G01 X-9.40511 Y6.49641
G01 X-9.41234 Y6.48627
G01 X-9.41912 Y6.47625
G01 X-9.42563 Y6.46611
G01 X-9.43207 Y6.45551
G01 X-9.43810 Y6.44503
G01 X-9.44383 Y6.43448
G01 X-9.44936 Y6.42372
G01 X-9.45475 Y6.41255
G01 X-9.45972 Y6.40158
G01 X-9.46442 Y6.39048
G01 X-9.46900 Y6.37891
G01 X-9.47318 Y6.36756
G01 X-9.47705 Y6.35620
G01 X-9.48066 Y6.34470
G01 X-9.48410 Y6.33274
G01 X-9.48716 Y6.32103
G01 X-9.48991 Y6.30935
G01 X-9.49240 Y6.29752
G01 X-9.49466 Y6.28532
G01 X-9.49658 Y6.27338
G01 X-9.49819 Y6.26144
G01 X-9.49953 Y6.24946
G01 X-9.50060 Y6.23706
G01 X-9.50136 Y6.22468
G01 X-9.50181 Y6.21259
G01 X-9.50197 Y6.20059
G01 X-9.50184 Y6.18850
G01 X-9.50142 Y6.17650
G01 X-9.50071 Y6.16448
G01 X-9.49971 Y6.15242
G01 X-9.49838 Y6.14009
G01 X-9.49679 Y6.12810
G01 X-9.49486 Y6.11580
G01 X-9.49270 Y6.10400
G01 X-9.49021 Y6.09200
G01 X-9.48991 Y6.09129
G01 X-9.48900 Y6.09057
G01 X-9.48784 Y6.09048
G01 X-9.14640 Y6.16935
G01 X-9.14556 Y6.17006
G01 X-9.14523 Y6.17111
G01 X-9.14644 Y6.17833
G01 X-9.14731 Y6.18539
G01 X-9.14782 Y6.19208
G01 X-9.14803 Y6.19918
G01 X-9.14790 Y6.20629
G01 X-9.14746 Y6.21298
G01 X-9.14667 Y6.22004
G01 X-9.14561 Y6.22667
G01 X-9.14425 Y6.23324
G01 X-9.14249 Y6.24012
G01 X-9.14040 Y6.24691
G01 X-9.13799 Y6.25360
G01 X-9.13526 Y6.26016
G01 X-9.13239 Y6.26623
G01 X-9.12925 Y6.27216
G01 X-9.12564 Y6.27828
G01 X-9.12196 Y6.28389
G01 X-9.11780 Y6.28965
G01 X-9.11336 Y6.29520
G01 X-9.10866 Y6.30053
G01 X-9.10371 Y6.30563
G01 X-9.09882 Y6.31022
G01 X-9.09372 Y6.31458
G01 X-9.08812 Y6.31895
G01 X-9.08231 Y6.32304
G01 X-9.07631 Y6.32685
G01 X-9.07013 Y6.33036
G01 X-9.06415 Y6.33341
G01 X-9.05804 Y6.33618
G01 X-9.05144 Y6.33880
G01 X-9.04472 Y6.34111
G01 X-9.03770 Y6.34320
G01 X-9.03690 Y6.34395
G01 X-9.03663 Y6.34502
G04 P0 ( dwell for no time -- G64 should not smooth over this point )
G00 Z0.08000 ( retract )

G00 X-8.88849 Y5.71262 ( rapid move to begin. )
G01 F180.00000
( Mill infeed pass 1/1 )
G01 Z-0.04000
G04 P0 ( dwell for no time -- G64 should not smooth over this point )
G01 F360.00000
G01 X-8.88849 Y5.71262
G01 X-8.88751 Y5.70840
G01 X-8.88897 Y5.70691
G01 X-8.89003 Y5.70630
G01 X-8.89120 Y5.70593
G01 X-8.90325 Y5.70343
G01 X-8.91519 Y5.70125
G01 X-8.92773 Y5.69928
G01 X-8.93977 Y5.69769
G01 X-8.95170 Y5.69641
G01 X-8.96394 Y5.69538
G01 X-8.97607 Y5.69466
G01 X-8.98860 Y5.69422
G01 X-9.00075 Y5.69409
G01 X-9.01275 Y5.69426
G01 X-9.02488 Y5.69471
G01 X-9.03740 Y5.69548
G01 X-9.04950 Y5.69652
G01 X-9.06157 Y5.69785
G01 X-9.07415 Y5.69956
G01 X-9.08614 Y5.70148
G01 X-9.09808 Y5.70369
G01 X-9.11036 Y5.70628
G01 X-9.12217 Y5.70907
G01 X-9.13378 Y5.71210
G01 X-9.14546 Y5.71546
G01 X-9.15704 Y5.71909
G01 X-9.16854 Y5.72299
G01 X-9.18032 Y5.72732
G01 X-9.19198 Y5.73194
G01 X-9.20316 Y5.73668
G01 X-9.21423 Y5.74169
G01 X-9.22529 Y5.74703
G01 X-9.23633 Y5.75269
G01 X-9.24712 Y5.75856
G01 X-9.25764 Y5.76462
G01 X-9.26790 Y5.77085
G01 X-9.27824 Y5.77748
G01 X-9.28852 Y5.78443
G01 X-9.29852 Y5.79156
G01 X-9.30824 Y5.79884
G01 X-9.31778 Y5.80636
G01 X-9.32744 Y5.81436
G01 X-9.33661 Y5.82233
G01 X-9.34576 Y5.83069
G01 X-9.35463 Y5.83920
G01 X-9.36347 Y5.84810
G01 X-9.37181 Y5.85693
G01 X-9.37984 Y5.86585
G01 X-9.38775 Y5.87506
G01 X-9.39553 Y5.88457
G01 X-9.40290 Y5.89404
G01 X-9.41045 Y5.90424
G01 X-9.41757 Y5.91439
G01 X-9.42431 Y5.92450
G01 X-9.43080 Y5.93476
G01 X-9.43711 Y5.94530
G01 X-9.44323 Y5.95609
G01 X-9.44902 Y5.96693
G01 X-9.45448 Y5.97777
G01 X-9.45969 Y5.98874
G01 X-9.46457 Y5.99971
G01 X-9.46945 Y6.01142
G01 X-9.47379 Y6.02261
G01 X-9.47791 Y6.03403
G01 X-9.48192 Y6.04607
G01 X-9.48544 Y6.05755
G01 X-9.48871 Y6.06924
G01 X-9.49176 Y6.08120
G01 X-9.49194 Y6.08241
G01 X-9.49186 Y6.08364
G01 X-9.49116 Y6.08560
G01 X-9.14163 Y6.16629
G01 X-9.14042 Y6.16519
G01 X-9.13956 Y6.16382
G01 X-9.13736 Y6.15647
G01 X-9.13511 Y6.14993
G01 X-9.13255 Y6.14350
G01 X-9.12986 Y6.13755
G01 X-9.12690 Y6.13173
G01 X-9.12347 Y6.12572
G01 X-9.11976 Y6.11988
G01 X-9.11578 Y6.11423
G01 X-9.11153 Y6.10877
G01 X-9.10728 Y6.10381
G01 X-9.10282 Y6.09905
G01 X-9.09785 Y6.09423
G01 X-9.09266 Y6.08965
G01 X-9.08726 Y6.08533
G01 X-9.08165 Y6.08128
G01 X-9.07620 Y6.07770
G01 X-9.07023 Y6.07418
G01 X-9.06446 Y6.07113
G01 X-9.05856 Y6.06834
G01 X-9.05217 Y6.06568
G01 X-9.04567 Y6.06334
G01 X-9.03906 Y6.06130
G01 X-9.03235 Y6.05959
G01 X-9.02596 Y6.05826
G01 X-9.01951 Y6.05723
G01 X-9.01263 Y6.05646
G01 X-9.00612 Y6.05604
G01 X-8.99920 Y6.05591
G01 X-8.99228 Y6.05611
G01 X-8.98578 Y6.05661
G01 X-8.97891 Y6.05746
G01 X-8.97134 Y6.05870
G01 X-8.96973 Y6.05853
G01 X-8.96821 Y6.05792
G01 X-8.88849 Y5.71262
G01 X-8.88848 Y5.71135
G01 X-8.88879 Y5.71014
G01 X-8.88946 Y5.70909
G01 X-8.89008 Y5.70853
G01 X-8.89160 Y5.70786
G01 X-8.90365 Y5.70536
G01 X-8.91555 Y5.70319
G01 X-8.92789 Y5.70125
G01 X-8.93989 Y5.69966
G01 X-8.95191 Y5.69836
G01 X-8.96406 Y5.69735
G01 X-8.97613 Y5.69663
G01 X-8.98853 Y5.69619
G01 X-9.00072 Y5.69606
G01 X-9.01272 Y5.69622
G01 X-9.02490 Y5.69668
G01 X-9.03738 Y5.69745
G01 X-9.04933 Y5.69848
G01 X-9.06136 Y5.69981
G01 X-9.07374 Y5.70149
G01 X-9.08578 Y5.70342
G01 X-9.09758 Y5.70560
G01 X-9.10981 Y5.70817
G01 X-9.12158 Y5.71095
G01 X-9.13329 Y5.71401
G01 X-9.14500 Y5.71737
G01 X-9.15654 Y5.72099
G01 X-9.16791 Y5.72486
G01 X-9.17973 Y5.72920
G01 X-9.19126 Y5.73377
G01 X-9.20248 Y5.73853
G01 X-9.21341 Y5.74348
G01 X-9.22431 Y5.74874
G01 X-9.23551 Y5.75448
G01 X-9.24606 Y5.76022
G01 X-9.25654 Y5.76625
G01 X-9.26688 Y5.77253
G01 X-9.27706 Y5.77906
G01 X-9.28741 Y5.78606
G01 X-9.29727 Y5.79308
G01 X-9.30695 Y5.80033
G01 X-9.31645 Y5.80781
G01 X-9.32615 Y5.81584
G01 X-9.33528 Y5.82378
G01 X-9.34444 Y5.83215
G01 X-9.35323 Y5.84059
G01 X-9.36204 Y5.84946
G01 X-9.37035 Y5.85825
G01 X-9.37844 Y5.86723
G01 X-9.38626 Y5.87634
G01 X-9.39392 Y5.88570
G01 X-9.40135 Y5.89525
G01 X-9.40884 Y5.90537
G01 X-9.41596 Y5.91552
G01 X-9.42267 Y5.92559
G01 X-9.42914 Y5.93581
G01 X-9.43535 Y5.94619
G01 X-9.44151 Y5.95706
G01 X-9.44726 Y5.96781
G01 X-9.45266 Y5.97853
G01 X-9.45785 Y5.98946
G01 X-9.46281 Y6.00060
G01 X-9.46757 Y6.01205
G01 X-9.47198 Y6.02341
G01 X-9.47606 Y6.03470
G01 X-9.48004 Y6.04665
G01 X-9.48358 Y6.05821
G01 X-9.48684 Y6.06986
G01 X-9.48993 Y6.08210
G01 X-9.48996 Y6.08293
G01 X-9.48968 Y6.08415
G01 X-9.48928 Y6.08488
G01 X-9.48842 Y6.08579
G01 X-9.48692 Y6.08649
G01 X-9.14583 Y6.16524
G01 X-9.14457 Y6.16532
G01 X-9.14334 Y6.16500
G01 X-9.14227 Y6.16429
G01 X-9.14131 Y6.16291
G01 X-9.13924 Y6.15587
G01 X-9.13696 Y6.14924
G01 X-9.13436 Y6.14273
G01 X-9.13163 Y6.13670
G01 X-9.12863 Y6.13080
G01 X-9.12516 Y6.12470
G01 X-9.12140 Y6.11879
G01 X-9.11736 Y6.11305
G01 X-9.11306 Y6.10752
G01 X-9.10875 Y6.10249
G01 X-9.10422 Y6.09767
G01 X-9.09919 Y6.09278
G01 X-9.09393 Y6.08815
G01 X-9.08845 Y6.08377
G01 X-9.08277 Y6.07965
G01 X-9.07724 Y6.07603
G01 X-9.07119 Y6.07246
G01 X-9.06534 Y6.06937
G01 X-9.05936 Y6.06654
G01 X-9.05288 Y6.06385
G01 X-9.04629 Y6.06147
G01 X-9.03959 Y6.05940
G01 X-9.03280 Y6.05767
G01 X-9.02631 Y6.05633
G01 X-9.01978 Y6.05528
G01 X-9.01281 Y6.05450
G01 X-9.00620 Y6.05407
G01 X-8.99919 Y6.05394
G01 X-8.99218 Y6.05415
G01 X-8.98558 Y6.05465
G01 X-8.97862 Y6.05551
G01 X-8.97097 Y6.05673
G01 X-8.97013 Y6.05660
G01 X-8.96897 Y6.05608
G01 X-8.96779 Y6.05486
G01 X-8.96731 Y6.05369
G01 X-8.88847 Y5.71177
G01 X-8.89043 Y5.71177
G01 X-8.96923 Y6.05324
G01 X-8.96953 Y6.05392
G01 X-8.97039 Y6.05462
G01 X-8.97111 Y6.05477
G01 X-8.97833 Y6.05356
G01 X-8.98539 Y6.05269
G01 X-8.99208 Y6.05218
G01 X-8.99918 Y6.05197
G01 X-9.00629 Y6.05210
G01 X-9.01298 Y6.05254
G01 X-9.02004 Y6.05333
G01 X-9.02667 Y6.05439
G01 X-9.03324 Y6.05575
G01 X-9.04012 Y6.05751
G01 X-9.04691 Y6.05960
G01 X-9.05360 Y6.06201
G01 X-9.06016 Y6.06474
G01 X-9.06622 Y6.06761
G01 X-9.07216 Y6.07075
G01 X-9.07828 Y6.07436
G01 X-9.08389 Y6.07803
G01 X-9.08965 Y6.08220
G01 X-9.09520 Y6.08664
G01 X-9.10053 Y6.09134
G01 X-9.10562 Y6.09629
G01 X-9.11022 Y6.10118
G01 X-9.11458 Y6.10628
G01 X-9.11895 Y6.11188
G01 X-9.12304 Y6.11769
G01 X-9.12685 Y6.12369
G01 X-9.13036 Y6.12987
G01 X-9.13341 Y6.13584
G01 X-9.13618 Y6.14196
G01 X-9.13880 Y6.14856
G01 X-9.14111 Y6.15528
G01 X-9.14320 Y6.16230
G01 X-9.14365 Y6.16288
G01 X-9.14429 Y6.16326
G01 X-9.14539 Y6.16332
G01 X-9.48648 Y6.08458
G01 X-9.48719 Y6.08425
G01 X-9.48789 Y6.08333
G01 X-9.48794 Y6.08217
G01 X-9.48492 Y6.07030
G01 X-9.48168 Y6.05875
G01 X-9.47815 Y6.04723
G01 X-9.47422 Y6.03542
G01 X-9.47013 Y6.02408
G01 X-9.46576 Y6.01280
G01 X-9.46099 Y6.00135
G01 X-9.45609 Y5.99035
G01 X-9.45093 Y5.97946
G01 X-9.44550 Y5.96870
G01 X-9.43980 Y5.95803
G01 X-9.43366 Y5.94720
G01 X-9.42750 Y5.93691
G01 X-9.42106 Y5.92672
G01 X-9.41438 Y5.91669
G01 X-9.40723 Y5.90651
G01 X-9.39979 Y5.89646
G01 X-9.39242 Y5.88699
G01 X-9.38477 Y5.87762
G01 X-9.37695 Y5.86852
G01 X-9.36889 Y5.85956
G01 X-9.36061 Y5.85081
G01 X-9.35184 Y5.84197
G01 X-9.34311 Y5.83360
G01 X-9.33392 Y5.82520
G01 X-9.32486 Y5.81733
G01 X-9.31523 Y5.80936
G01 X-9.30580 Y5.80193
G01 X-9.29616 Y5.79471
G01 X-9.28635 Y5.78772
G01 X-9.27600 Y5.78072
G01 X-9.26590 Y5.77424
G01 X-9.25556 Y5.76796
G01 X-9.24512 Y5.76195
G01 X-9.23457 Y5.75621
G01 X-9.22345 Y5.75051
G01 X-9.21264 Y5.74530
G01 X-9.20167 Y5.74032
G01 X-9.19058 Y5.73562
G01 X-9.17896 Y5.73102
G01 X-9.16727 Y5.72672
G01 X-9.15587 Y5.72284
G01 X-9.14441 Y5.71925
G01 X-9.13279 Y5.71591
G01 X-9.12118 Y5.71288
G01 X-9.10945 Y5.71011
G01 X-9.09722 Y5.70754
G01 X-9.08537 Y5.70535
G01 X-9.07352 Y5.70345
G01 X-9.06114 Y5.70177
G01 X-9.04921 Y5.70045
G01 X-9.03716 Y5.69941
G01 X-9.02478 Y5.69864
G01 X-9.01269 Y5.69819
G01 X-9.00069 Y5.69803
G01 X-8.98860 Y5.69816
G01 X-8.97620 Y5.69860
G01 X-8.96413 Y5.69931
G01 X-8.95217 Y5.70031
G01 X-8.94019 Y5.70161
G01 X-8.92825 Y5.70319
G01 X-8.91590 Y5.70513
G01 X-8.90405 Y5.70729
G01 X-8.89200 Y5.70979
G01 X-8.89128 Y5.71009
G01 X-8.89074 Y5.71065
G01 X-8.89043 Y5.71177
G04 P0 ( dwell for no time -- G64 should not smooth over this point )
G00 Z0.08000 ( retract )

G00 X-8.75424 Y5.30888 ( rapid move to begin. )
G01 F180.00000
( Mill infeed pass 1/1 )
G01 Z-0.04000
G04 P0 ( dwell for no time -- G64 should not smooth over this point )
G01 F360.00000
G01 X-8.75424 Y5.30888
G01 X-8.75515 Y5.30877
G01 X-8.76548 Y5.31672
G01 X-8.77315 Y5.32225
G01 X-8.78094 Y5.32761
G01 X-8.78887 Y5.33277
G01 X-8.79692 Y5.33774
G01 X-8.80508 Y5.34251
G01 X-8.81370 Y5.34728
G01 X-8.82209 Y5.35165
G01 X-8.83058 Y5.35582
G01 X-8.83917 Y5.35978
G01 X-8.84785 Y5.36354
G01 X-8.85662 Y5.36709
G01 X-8.86547 Y5.37042
G01 X-8.87477 Y5.37367
G01 X-8.88377 Y5.37657
G01 X-8.89284 Y5.37925
G01 X-8.90198 Y5.38171
G01 X-8.91155 Y5.38404
G01 X-8.92079 Y5.38605
G01 X-8.93008 Y5.38784
G01 X-8.93980 Y5.38947
G01 X-8.94916 Y5.39080
G01 X-8.95855 Y5.39191
G01 X-8.96797 Y5.39279
G01 X-8.97741 Y5.39345
G01 X-8.98685 Y5.39387
G01 X-8.99631 Y5.39408
G01 X-9.00577 Y5.39405
G01 X-9.01522 Y5.39380
G01 X-9.02467 Y5.39332
G01 X-9.03450 Y5.39258
G01 X-9.04391 Y5.39164
G01 X-9.05329 Y5.39047
G01 X-9.06265 Y5.38908
G01 X-9.07235 Y5.38739
G01 X-9.08163 Y5.38555
G01 X-9.09086 Y5.38348
G01 X-9.10004 Y5.38119
G01 X-9.10915 Y5.37868
G01 X-9.11821 Y5.37595
G01 X-9.12720 Y5.37300
G01 X-9.13611 Y5.36984
G01 X-9.14532 Y5.36632
G01 X-9.15407 Y5.36273
G01 X-9.16273 Y5.35893
G01 X-9.17129 Y5.35492
G01 X-9.17976 Y5.35071
G01 X-9.18813 Y5.34629
G01 X-9.19638 Y5.34168
G01 X-9.20453 Y5.33687
G01 X-9.21255 Y5.33186
G01 X-9.22078 Y5.32644
G01 X-9.22855 Y5.32105
G01 X-9.23619 Y5.31547
G01 X-9.24369 Y5.30971
G01 X-9.25105 Y5.30378
G01 X-9.25827 Y5.29767
G01 X-9.26563 Y5.29111
G01 X-9.27254 Y5.28466
G01 X-9.27930 Y5.27803
G01 X-9.28589 Y5.27125
G01 X-9.29475 Y5.26156
G01 X-9.29566 Y5.26151
G01 X-9.29475 Y5.26156
G01 X-9.02118 Y5.03201
G01 X-9.02123 Y5.03161
G01 X-9.02118 Y5.03201
G01 X-9.02023 Y5.03264
G01 X-9.01773 Y5.03406
G01 X-9.01488 Y5.03540
G01 X-9.00938 Y5.03724
G01 X-9.00657 Y5.03783
G01 X-9.00329 Y5.03826
G01 X-9.00049 Y5.03840
G01 X-8.99762 Y5.03833
G01 X-8.99432 Y5.03798
G01 X-8.99111 Y5.03736
G01 X-8.98834 Y5.03659
G01 X-8.98505 Y5.03536
G01 X-8.98471 Y5.03519
G01 X-8.98460 Y5.03482
G01 X-8.98471 Y5.03519
G01 X-8.75515 Y5.30877
G01 X-8.75144 Y5.30915
G01 X-8.75234 Y5.30905
G01 X-8.98420 Y5.03273
G01 X-8.98409 Y5.03231
G01 X-8.98420 Y5.03273
G01 X-8.98637 Y5.03379
G01 X-8.98931 Y5.03483
G01 X-8.99193 Y5.03553
G01 X-8.99469 Y5.03604
G01 X-8.99768 Y5.03636
G01 X-9.00039 Y5.03643
G01 X-9.00319 Y5.03629
G01 X-9.00631 Y5.03588
G01 X-9.00896 Y5.03531
G01 X-9.01393 Y5.03366
G01 X-9.01689 Y5.03228
G01 X-9.01925 Y5.03094
G01 X-9.02131 Y5.02955
G01 X-9.02135 Y5.02913
G01 X-9.02131 Y5.02955
G01 X-9.29756 Y5.26135
G01 X-9.29847 Y5.26130
G01 X-9.29756 Y5.26135
G01 X-9.28732 Y5.27261
G01 X-9.28069 Y5.27942
G01 X-9.27390 Y5.28608
G01 X-9.26696 Y5.29257
G01 X-9.25956 Y5.29915
G01 X-9.25231 Y5.30530
G01 X-9.24491 Y5.31126
G01 X-9.23737 Y5.31705
G01 X-9.22969 Y5.32266
G01 X-9.22188 Y5.32807
G01 X-9.21361 Y5.33352
G01 X-9.20555 Y5.33855
G01 X-9.19736 Y5.34338
G01 X-9.18907 Y5.34802
G01 X-9.18066 Y5.35246
G01 X-9.17215 Y5.35669
G01 X-9.16354 Y5.36072
G01 X-9.15484 Y5.36454
G01 X-9.14604 Y5.36815
G01 X-9.13679 Y5.37169
G01 X-9.12783 Y5.37486
G01 X-9.11880 Y5.37782
G01 X-9.10970 Y5.38057
G01 X-9.10054 Y5.38309
G01 X-9.09131 Y5.38539
G01 X-9.08204 Y5.38747
G01 X-9.07272 Y5.38933
G01 X-9.06296 Y5.39103
G01 X-9.05356 Y5.39242
G01 X-9.04412 Y5.39360
G01 X-9.03467 Y5.39454
G01 X-9.02479 Y5.39529
G01 X-9.01530 Y5.39577
G01 X-9.00580 Y5.39602
G01 X-8.99629 Y5.39604
G01 X-8.98679 Y5.39584
G01 X-8.97729 Y5.39541
G01 X-8.96781 Y5.39475
G01 X-8.95835 Y5.39387
G01 X-8.94891 Y5.39275
G01 X-8.93950 Y5.39141
G01 X-8.92973 Y5.38978
G01 X-8.92039 Y5.38798
G01 X-8.91111 Y5.38596
G01 X-8.90149 Y5.38361
G01 X-8.89231 Y5.38114
G01 X-8.88319 Y5.37845
G01 X-8.87415 Y5.37553
G01 X-8.86480 Y5.37227
G01 X-8.85590 Y5.36892
G01 X-8.84709 Y5.36536
G01 X-8.83837 Y5.36158
G01 X-8.82973 Y5.35760
G01 X-8.82120 Y5.35341
G01 X-8.81277 Y5.34902
G01 X-8.80410 Y5.34422
G01 X-8.79590 Y5.33943
G01 X-8.78782 Y5.33443
G01 X-8.77985 Y5.32924
G01 X-8.77201 Y5.32386
G01 X-8.76431 Y5.31830
G01 X-8.75234 Y5.30905
G01 X-8.74954 Y5.30933
G01 X-8.98370 Y5.03027
G01 X-8.98704 Y5.03193
G01 X-8.98967 Y5.03288
G01 X-8.99229 Y5.03359
G01 X-8.99505 Y5.03411
G01 X-8.99759 Y5.03438
G01 X-9.00030 Y5.03446
G01 X-9.00310 Y5.03433
G01 X-9.00604 Y5.03393
G01 X-9.00854 Y5.03339
G01 X-9.01330 Y5.03179
G01 X-9.01604 Y5.03050
G01 X-9.01826 Y5.02923
G01 X-9.02136 Y5.02702
G01 X-9.30037 Y5.26114
G01 X-9.29524 Y5.26695
G01 X-9.28874 Y5.27396
G01 X-9.28209 Y5.28081
G01 X-9.27527 Y5.28750
G01 X-9.26829 Y5.29402
G01 X-9.26085 Y5.30064
G01 X-9.25356 Y5.30681
G01 X-9.24613 Y5.31281
G01 X-9.23855 Y5.31863
G01 X-9.23083 Y5.32426
G01 X-9.22299 Y5.32970
G01 X-9.21467 Y5.33518
G01 X-9.20657 Y5.34023
G01 X-9.19834 Y5.34509
G01 X-9.19001 Y5.34975
G01 X-9.18156 Y5.35421
G01 X-9.17300 Y5.35847
G01 X-9.16435 Y5.36251
G01 X-9.15560 Y5.36635
G01 X-9.14677 Y5.36998
G01 X-9.13747 Y5.37354
G01 X-9.12847 Y5.37673
G01 X-9.11939 Y5.37970
G01 X-9.11025 Y5.38246
G01 X-9.10103 Y5.38499
G01 X-9.09177 Y5.38731
G01 X-9.08245 Y5.38940
G01 X-9.07308 Y5.39126
G01 X-9.06327 Y5.39297
G01 X-9.05382 Y5.39438
G01 X-9.04434 Y5.39555
G01 X-9.03484 Y5.39650
G01 X-9.02492 Y5.39725
G01 X-9.01538 Y5.39773
G01 X-9.00583 Y5.39799
G01 X-8.99627 Y5.39801
G01 X-8.98672 Y5.39781
G01 X-8.97718 Y5.39738
G01 X-8.96765 Y5.39671
G01 X-8.95814 Y5.39582
G01 X-8.94865 Y5.39471
G01 X-8.93919 Y5.39336
G01 X-8.92938 Y5.39172
G01 X-8.92000 Y5.38991
G01 X-8.91067 Y5.38788
G01 X-8.90100 Y5.38552
G01 X-8.89177 Y5.38303
G01 X-8.88261 Y5.38033
G01 X-8.87352 Y5.37740
G01 X-8.86412 Y5.37412
G01 X-8.85519 Y5.37075
G01 X-8.84633 Y5.36717
G01 X-8.83756 Y5.36338
G01 X-8.82889 Y5.35937
G01 X-8.82031 Y5.35516
G01 X-8.81184 Y5.35075
G01 X-8.80313 Y5.34594
G01 X-8.79489 Y5.34111
G01 X-8.78676 Y5.33609
G01 X-8.77876 Y5.33088
G01 X-8.77088 Y5.32547
G01 X-8.76313 Y5.31988
G01 X-8.75553 Y5.31410
G01 X-8.74954 Y5.30933
G04 P0 ( dwell for no time -- G64 should not smooth over this point )
G00 Z0.08000 ( retract )

G00 X-8.49803 Y4.99955 ( rapid move to begin. )
G01 F180.00000
( Mill infeed pass 1/1 )
G01 Z-0.04000
G04 P0 ( dwell for no time -- G64 should not smooth over this point )
G01 F360.00000
G01 X-8.49803 Y4.99955
G01 X-8.49409 Y6.19915
G04 P0 ( dwell for no time -- G64 should not smooth over this point )
G00 Z0.08000 ( retract )

G00 X-8.49409 Y4.99950 ( rapid move to begin. )
G01 F180.00000
( Mill infeed pass 1/1 )
G01 Z-0.04000
G04 P0 ( dwell for no time -- G64 should not smooth over this point )
G01 F360.00000
G01 X-8.49409 Y4.99950
G01 X-8.49425 Y4.98736
G01 X-8.49471 Y4.97496
G01 X-8.49550 Y4.96230
G01 X-8.49655 Y4.95020
G01 X-8.49792 Y4.93787
G01 X-8.49964 Y4.92530
G01 X-8.50155 Y4.91345
G01 X-8.50385 Y4.90112
G01 X-8.50649 Y4.88870
G01 X-8.50937 Y4.87664
G01 X-8.51258 Y4.86451
G01 X-8.51597 Y4.85284
G01 X-8.51981 Y4.84075
G01 X-8.52391 Y4.82889
G01 X-8.52810 Y4.81765
G01 X-8.53283 Y4.80587
G01 X-8.53778 Y4.79434
G01 X-8.54285 Y4.78331
G01 X-8.54819 Y4.77240
G01 X-8.55397 Y4.76126
G01 X-8.55976 Y4.75075
G01 X-8.56615 Y4.73978
G01 X-8.57273 Y4.72910
G01 X-8.57958 Y4.71859
G01 X-8.58646 Y4.70858
G01 X-8.59373 Y4.69853
G01 X-8.60108 Y4.68887
G01 X-8.60924 Y4.67864
G01 X-8.61577 Y4.67086
G01 X-8.62568 Y4.65967
G01 X-8.63396 Y4.65078
G01 X-8.64263 Y4.64191
G01 X-8.65173 Y4.63306
G01 X-8.66093 Y4.62454
G01 X-8.67004 Y4.61651
G01 X-8.67965 Y4.60844
G01 X-8.68946 Y4.60062
G01 X-8.69902 Y4.59336
G01 X-8.70899 Y4.58617
G01 X-8.71934 Y4.57908
G01 X-8.72974 Y4.57233
G01 X-8.74009 Y4.56597
G01 X-8.75093 Y4.55966
G01 X-8.76205 Y4.55354
G01 X-8.77320 Y4.54778
G01 X-8.78448 Y4.54230
G01 X-8.79540 Y4.53731
G01 X-8.80707 Y4.53233
G01 X-8.81835 Y4.52783
G01 X-8.82998 Y4.52352
G01 X-8.84199 Y4.51940
G01 X-8.85382 Y4.51567
G01 X-8.86587 Y4.51220
G01 X-8.87776 Y4.50908
G01 X-8.88997 Y4.50620
G01 X-8.90225 Y4.50363
G01 X-8.91419 Y4.50142
G01 X-8.92658 Y4.49945
G01 X-8.93848 Y4.49785
G01 X-8.95109 Y4.49646
G01 X-8.96319 Y4.49543
G01 X-8.97572 Y4.49468
G01 X-8.98811 Y4.49423
G01 X-9.00080 Y4.49409
G01 X-9.01320 Y4.49427
G01 X-9.02534 Y4.49473
G01 X-9.03786 Y4.49551
G01 X-9.05036 Y4.49661
G01 X-9.06297 Y4.49803
G01 X-9.07526 Y4.49972
G01 X-9.08764 Y4.50174
G01 X-9.09972 Y4.50402
G01 X-9.11185 Y4.50661
G01 X-9.12366 Y4.50944
G01 X-9.13554 Y4.51259
G01 X-9.14744 Y4.51606
G01 X-9.15940 Y4.51986
G01 X-9.17126 Y4.52396
G01 X-9.18277 Y4.52826
G01 X-9.19428 Y4.53289
G01 X-9.20557 Y4.53774
G01 X-9.21684 Y4.54292
G01 X-9.22823 Y4.54850
G01 X-9.23888 Y4.55404
G01 X-9.24951 Y4.55991
G01 X-9.26047 Y4.56630
G01 X-9.27115 Y4.57289
G01 X-9.28132 Y4.57953
G01 X-9.29133 Y4.58640
G01 X-9.30150 Y4.59375
G01 X-9.31116 Y4.60110
G01 X-9.32136 Y4.60924
G01 X-9.32914 Y4.61577
G01 X-9.34015 Y4.62551
G01 X-9.34944 Y4.63417
G01 X-9.35812 Y4.64266
G01 X-9.36687 Y4.65165
G01 X-9.37513 Y4.66056
G01 X-9.38343 Y4.66997
G01 X-9.39150 Y4.67958
G01 X-9.39932 Y4.68938
G01 X-9.40666 Y4.69906
G01 X-9.41400 Y4.70923
G01 X-9.42108 Y4.71959
G01 X-9.42761 Y4.72966
G01 X-9.43426 Y4.74047
G01 X-9.44030 Y4.75084
G01 X-9.44634 Y4.76183
G01 X-9.45217 Y4.77311
G01 X-9.45766 Y4.78439
G01 X-9.46270 Y4.79544
G01 X-9.46763 Y4.80698
G01 X-9.47208 Y4.81812
G01 X-9.47645 Y4.82988
G01 X-9.48052 Y4.84175
G01 X-9.48422 Y4.85347
G01 X-9.48756 Y4.86500
G01 X-9.49079 Y4.87727
G01 X-9.49365 Y4.88933
G01 X-9.49627 Y4.90176
G01 X-9.49856 Y4.91409
G01 X-9.50051 Y4.92634
G01 X-9.50216 Y4.93852
G01 X-9.50351 Y4.95085
G01 X-9.50455 Y4.96295
G01 X-9.50531 Y4.97547
G01 X-9.50577 Y4.98815
G01 X-9.50590 Y5.00070
G01 X-9.50573 Y5.01310
G01 X-9.50525 Y5.02579
G01 X-9.50446 Y5.03816
G01 X-9.50340 Y5.05026
G01 X-9.50205 Y5.06233
G01 X-9.50033 Y5.07490
G01 X-9.49839 Y5.08689
G01 X-9.49608 Y5.09922
G01 X-9.49359 Y5.11096
G01 X-9.49065 Y5.12331
G01 X-9.48744 Y5.13544
G01 X-9.48397 Y5.14735
G01 X-9.48012 Y5.15944
G01 X-9.47616 Y5.17092
G01 X-9.47192 Y5.18230
G01 X-9.46725 Y5.19394
G01 X-9.46252 Y5.20497
G01 X-9.45730 Y5.21638
G01 X-9.45172 Y5.22778
G01 X-9.44600 Y5.23879
G01 X-9.44014 Y5.24943
G01 X-9.43375 Y5.26039
G01 X-9.42716 Y5.27106
G01 X-9.42053 Y5.28124
G01 X-9.41374 Y5.29113
G01 X-9.40631 Y5.30142
G01 X-9.39896 Y5.31108
G01 X-9.39076 Y5.32136
G01 X-9.38423 Y5.32914
G01 X-9.37418 Y5.34048
G01 X-9.36562 Y5.34966
G01 X-9.35723 Y5.35823
G01 X-9.34813 Y5.36708
G01 X-9.33932 Y5.37523
G01 X-9.32981 Y5.38362
G01 X-9.32061 Y5.39134
G01 X-9.31113 Y5.39892
G01 X-9.30102 Y5.40660
G01 X-9.29118 Y5.41371
G01 X-9.28083 Y5.42080
G01 X-9.27043 Y5.42756
G01 X-9.25962 Y5.43421
G01 X-9.24925 Y5.44024
G01 X-9.23812 Y5.44636
G01 X-9.22711 Y5.45206
G01 X-9.21606 Y5.45744
G01 X-9.20466 Y5.46266
G01 X-9.19349 Y5.46744
G01 X-9.18184 Y5.47210
G01 X-9.17008 Y5.47646
G01 X-9.15873 Y5.48036
G01 X-9.14677 Y5.48415
G01 X-9.13457 Y5.48768
G01 X-9.12258 Y5.49083
G01 X-9.11062 Y5.49366
G01 X-9.09849 Y5.49623
G01 X-9.08615 Y5.49852
G01 X-9.07376 Y5.50050
G01 X-9.06118 Y5.50219
G01 X-9.04911 Y5.50352
G01 X-9.03715 Y5.50454
G01 X-9.02463 Y5.50530
G01 X-9.01195 Y5.50576
G01 X-8.99940 Y5.50590
G01 X-8.98685 Y5.50573
G01 X-8.97486 Y5.50528
G01 X-8.96234 Y5.50450
G01 X-8.94984 Y5.50341
G01 X-8.93722 Y5.50199
G01 X-8.92480 Y5.50028
G01 X-8.91295 Y5.49836
G01 X-8.90062 Y5.49605
G01 X-8.88874 Y5.49352
G01 X-8.87640 Y5.49057
G01 X-8.86466 Y5.48747
G01 X-8.85275 Y5.48400
G01 X-8.84117 Y5.48033
G01 X-8.82931 Y5.47624
G01 X-8.81742 Y5.47181
G01 X-8.80628 Y5.46735
G01 X-8.79462 Y5.46234
G01 X-8.78335 Y5.45717
G01 X-8.77230 Y5.45177
G01 X-8.76130 Y5.44605
G01 X-8.75066 Y5.44019
G01 X-8.73970 Y5.43380
G01 X-8.72902 Y5.42721
G01 X-8.71851 Y5.42036
G01 X-8.70850 Y5.41348
G01 X-8.69834 Y5.40613
G01 X-8.68879 Y5.39886
G01 X-8.67864 Y5.39076
G01 X-8.67098 Y5.38433
G01 X-8.65959 Y5.37425
G01 X-8.65081 Y5.36607
G01 X-8.64174 Y5.35720
G01 X-8.63327 Y5.34849
G01 X-8.62474 Y5.33929
G01 X-8.61670 Y5.33019
G01 X-8.60863 Y5.32058
G01 X-8.60089 Y5.31089
G01 X-8.59346 Y5.30110
G01 X-8.58620 Y5.29105
G01 X-8.57903 Y5.28058
G01 X-8.57249 Y5.27051
G01 X-8.56592 Y5.25983
G01 X-8.55980 Y5.24933
G01 X-8.55369 Y5.23821
G01 X-8.54792 Y5.22707
G01 X-8.54249 Y5.21592
G01 X-8.53727 Y5.20451
G01 X-8.53244 Y5.19321
G01 X-8.52779 Y5.18156
G01 X-8.52357 Y5.17017
G01 X-8.51967 Y5.15882
G01 X-8.51588 Y5.14686
G01 X-8.51239 Y5.13481
G01 X-8.50919 Y5.12268
G01 X-8.50639 Y5.11086
G01 X-8.50379 Y5.09858
G01 X-8.50148 Y5.08611
G01 X-8.49955 Y5.07411
G01 X-8.49787 Y5.06168
G01 X-8.49649 Y5.04921
G01 X-8.49544 Y5.03685
G01 X-8.49468 Y5.02433
G01 X-8.49423 Y5.01164
G01 X-8.49409 Y4.99950
G01 X-8.49606 Y4.99953
G01 X-8.49620 Y5.01172
G01 X-8.49664 Y5.02411
G01 X-8.49740 Y5.03669
G01 X-8.49846 Y5.04914
G01 X-8.49982 Y5.06146
G01 X-8.50150 Y5.07385
G01 X-8.50344 Y5.08589
G01 X-8.50572 Y5.09818
G01 X-8.50831 Y5.11041
G01 X-8.51110 Y5.12218
G01 X-8.51425 Y5.13417
G01 X-8.51776 Y5.14627
G01 X-8.52153 Y5.15818
G01 X-8.52543 Y5.16953
G01 X-8.52964 Y5.18087
G01 X-8.53431 Y5.19257
G01 X-8.53906 Y5.20369
G01 X-8.54421 Y5.21497
G01 X-8.54969 Y5.22621
G01 X-8.55548 Y5.23739
G01 X-8.56146 Y5.24826
G01 X-8.56754 Y5.25871
G01 X-8.57409 Y5.26936
G01 X-8.58073 Y5.27958
G01 X-8.58780 Y5.28990
G01 X-8.59505 Y5.29995
G01 X-8.60237 Y5.30959
G01 X-8.61017 Y5.31935
G01 X-8.61821 Y5.32892
G01 X-8.62628 Y5.33806
G01 X-8.63478 Y5.34722
G01 X-8.64315 Y5.35582
G01 X-8.65208 Y5.36456
G01 X-8.66101 Y5.37288
G01 X-8.67225 Y5.38282
G01 X-8.67990 Y5.38925
G01 X-8.68991 Y5.39724
G01 X-8.69953 Y5.40456
G01 X-8.70965 Y5.41189
G01 X-8.71962 Y5.41874
G01 X-8.73018 Y5.42561
G01 X-8.74081 Y5.43217
G01 X-8.75153 Y5.43842
G01 X-8.76212 Y5.44426
G01 X-8.77330 Y5.45007
G01 X-8.78408 Y5.45534
G01 X-8.79553 Y5.46059
G01 X-8.80701 Y5.46552
G01 X-8.81815 Y5.46998
G01 X-8.82986 Y5.47435
G01 X-8.84177 Y5.47845
G01 X-8.85330 Y5.48211
G01 X-8.86530 Y5.48560
G01 X-8.87700 Y5.48869
G01 X-8.88906 Y5.49157
G01 X-8.90098 Y5.49411
G01 X-8.91317 Y5.49640
G01 X-8.92511 Y5.49834
G01 X-8.93749 Y5.50005
G01 X-8.95001 Y5.50145
G01 X-8.96246 Y5.50254
G01 X-8.97494 Y5.50331
G01 X-8.98693 Y5.50377
G01 X-8.99942 Y5.50394
G01 X-9.01202 Y5.50379
G01 X-9.02451 Y5.50334
G01 X-9.03698 Y5.50258
G01 X-9.04904 Y5.50155
G01 X-9.06097 Y5.50023
G01 X-9.07345 Y5.49855
G01 X-9.08569 Y5.49660
G01 X-9.09808 Y5.49430
G01 X-9.11031 Y5.49172
G01 X-9.12208 Y5.48893
G01 X-9.13407 Y5.48577
G01 X-9.14608 Y5.48230
G01 X-9.15808 Y5.47850
G01 X-9.16953 Y5.47457
G01 X-9.18115 Y5.47025
G01 X-9.19276 Y5.46561
G01 X-9.20397 Y5.46081
G01 X-9.21533 Y5.45561
G01 X-9.22612 Y5.45036
G01 X-9.23730 Y5.44456
G01 X-9.24826 Y5.43854
G01 X-9.25863 Y5.43251
G01 X-9.26936 Y5.42591
G01 X-9.27984 Y5.41910
G01 X-9.29014 Y5.41203
G01 X-9.29987 Y5.40500
G01 X-9.30990 Y5.39738
G01 X-9.31935 Y5.38983
G01 X-9.32861 Y5.38205
G01 X-9.33791 Y5.37385
G01 X-9.34686 Y5.36557
G01 X-9.35575 Y5.35692
G01 X-9.36422 Y5.34828
G01 X-9.37274 Y5.33914
G01 X-9.38275 Y5.32783
G01 X-9.38925 Y5.32009
G01 X-9.39742 Y5.30985
G01 X-9.40480 Y5.30015
G01 X-9.41212 Y5.29002
G01 X-9.41891 Y5.28012
G01 X-9.42556 Y5.26991
G01 X-9.43212 Y5.25927
G01 X-9.43837 Y5.24856
G01 X-9.44421 Y5.23796
G01 X-9.45002 Y5.22679
G01 X-9.45551 Y5.21556
G01 X-9.46067 Y5.20428
G01 X-9.46548 Y5.19308
G01 X-9.47012 Y5.18148
G01 X-9.47434 Y5.17014
G01 X-9.47829 Y5.15871
G01 X-9.48205 Y5.14689
G01 X-9.48557 Y5.13480
G01 X-9.48877 Y5.12271
G01 X-9.49164 Y5.11065
G01 X-9.49417 Y5.09872
G01 X-9.49645 Y5.08653
G01 X-9.49840 Y5.07449
G01 X-9.50009 Y5.06211
G01 X-9.50144 Y5.05009
G01 X-9.50249 Y5.03813
G01 X-9.50329 Y5.02557
G01 X-9.50377 Y5.01308
G01 X-9.50394 Y5.00068
G01 X-9.50380 Y4.98818
G01 X-9.50334 Y4.97559
G01 X-9.50259 Y4.96321
G01 X-9.50156 Y4.95116
G01 X-9.50020 Y4.93874
G01 X-9.49858 Y4.92675
G01 X-9.49661 Y4.91441
G01 X-9.49432 Y4.90202
G01 X-9.49174 Y4.88979
G01 X-9.48885 Y4.87763
G01 X-9.48567 Y4.86554
G01 X-9.48230 Y4.85393
G01 X-9.47869 Y4.84248
G01 X-9.47463 Y4.83066
G01 X-9.47029 Y4.81894
G01 X-9.46580 Y4.80771
G01 X-9.46086 Y4.79612
G01 X-9.45583 Y4.78512
G01 X-9.45040 Y4.77397
G01 X-9.44466 Y4.76287
G01 X-9.43864 Y4.75192
G01 X-9.43251 Y4.74137
G01 X-9.42596 Y4.73073
G01 X-9.41938 Y4.72058
G01 X-9.41238 Y4.71035
G01 X-9.40507 Y4.70021
G01 X-9.39769 Y4.69050
G01 X-9.38989 Y4.68073
G01 X-9.38186 Y4.67116
G01 X-9.37359 Y4.66179
G01 X-9.36543 Y4.65299
G01 X-9.35664 Y4.64397
G01 X-9.34799 Y4.63551
G01 X-9.33892 Y4.62706
G01 X-9.32783 Y4.61724
G01 X-9.32002 Y4.61069
G01 X-9.30986 Y4.60258
G01 X-9.30031 Y4.59532
G01 X-9.29018 Y4.58800
G01 X-9.28021 Y4.58115
G01 X-9.26999 Y4.57449
G01 X-9.25944 Y4.56798
G01 X-9.24865 Y4.56168
G01 X-9.23797 Y4.55579
G01 X-9.22733 Y4.55025
G01 X-9.21610 Y4.54475
G01 X-9.20466 Y4.53949
G01 X-9.19355 Y4.53471
G01 X-9.18204 Y4.53009
G01 X-9.17070 Y4.52586
G01 X-9.15880 Y4.52174
G01 X-9.14689 Y4.51795
G01 X-9.13499 Y4.51448
G01 X-9.12329 Y4.51138
G01 X-9.11144 Y4.50854
G01 X-9.09921 Y4.50593
G01 X-9.08733 Y4.50369
G01 X-9.07509 Y4.50169
G01 X-9.06271 Y4.49998
G01 X-9.05029 Y4.49858
G01 X-9.03783 Y4.49749
G01 X-9.02526 Y4.49670
G01 X-9.01318 Y4.49624
G01 X-9.00078 Y4.49606
G01 X-8.98818 Y4.49620
G01 X-8.97569 Y4.49665
G01 X-8.96331 Y4.49740
G01 X-8.95116 Y4.49843
G01 X-8.93874 Y4.49980
G01 X-8.92685 Y4.50140
G01 X-8.91450 Y4.50337
G01 X-8.90261 Y4.50556
G01 X-8.89028 Y4.50815
G01 X-8.87812 Y4.51102
G01 X-8.86642 Y4.51409
G01 X-8.85450 Y4.51752
G01 X-8.84249 Y4.52131
G01 X-8.83066 Y4.52536
G01 X-8.81903 Y4.52968
G01 X-8.80771 Y4.53419
G01 X-8.79631 Y4.53906
G01 X-8.78530 Y4.54409
G01 X-8.77406 Y4.54955
G01 X-8.76287 Y4.55534
G01 X-8.75192 Y4.56136
G01 X-8.74112 Y4.56764
G01 X-8.73081 Y4.57398
G01 X-8.72033 Y4.58079
G01 X-8.71010 Y4.58780
G01 X-8.70029 Y4.59488
G01 X-8.69058 Y4.60224
G01 X-8.68088 Y4.60998
G01 X-8.67131 Y4.61801
G01 X-8.66216 Y4.62608
G01 X-8.65306 Y4.63450
G01 X-8.64410 Y4.64322
G01 X-8.63537 Y4.65216
G01 X-8.62706 Y4.66108
G01 X-8.61724 Y4.67217
G01 X-8.61069 Y4.67998
G01 X-8.60265 Y4.69006
G01 X-8.59538 Y4.69961
G01 X-8.58800 Y4.70981
G01 X-8.58115 Y4.71979
G01 X-8.57438 Y4.73018
G01 X-8.56782 Y4.74082
G01 X-8.56148 Y4.75170
G01 X-8.55565 Y4.76230
G01 X-8.54989 Y4.77339
G01 X-8.54462 Y4.78417
G01 X-8.53957 Y4.79516
G01 X-8.53463 Y4.80664
G01 X-8.52995 Y4.81833
G01 X-8.52572 Y4.82967
G01 X-8.52167 Y4.84139
G01 X-8.51786 Y4.85339
G01 X-8.51448 Y4.86501
G01 X-8.51130 Y4.87700
G01 X-8.50840 Y4.88916
G01 X-8.50581 Y4.90138
G01 X-8.50350 Y4.91376
G01 X-8.50158 Y4.92561
G01 X-8.49989 Y4.93799
G01 X-8.49851 Y4.95041
G01 X-8.49746 Y4.96247
G01 X-8.49668 Y4.97504
G01 X-8.49622 Y4.98753
G01 X-8.49606 Y4.99953
G01 X-8.49803 Y4.99955
G01 X-8.49817 Y5.01165
G01 X-8.49861 Y5.02404
G01 X-8.49936 Y5.03652
G01 X-8.50042 Y5.04887
G01 X-8.50179 Y5.06130
G01 X-8.50345 Y5.07359
G01 X-8.50536 Y5.08548
G01 X-8.50765 Y5.09777
G01 X-8.51021 Y5.10990
G01 X-8.51300 Y5.12167
G01 X-8.51616 Y5.13367
G01 X-8.51962 Y5.14563
G01 X-8.52339 Y5.15754
G01 X-8.52730 Y5.16889
G01 X-8.53150 Y5.18023
G01 X-8.53612 Y5.19179
G01 X-8.54085 Y5.20287
G01 X-8.54603 Y5.21420
G01 X-8.55148 Y5.22539
G01 X-8.55718 Y5.23640
G01 X-8.56321 Y5.24735
G01 X-8.56924 Y5.25772
G01 X-8.57577 Y5.26833
G01 X-8.58236 Y5.27847
G01 X-8.58939 Y5.28874
G01 X-8.59668 Y5.29884
G01 X-8.60397 Y5.30843
G01 X-8.61171 Y5.31812
G01 X-8.61972 Y5.32765
G01 X-8.62769 Y5.33669
G01 X-8.63619 Y5.34585
G01 X-8.64456 Y5.35445
G01 X-8.65346 Y5.36316
G01 X-8.66231 Y5.37140
G01 X-8.67351 Y5.38132
G01 X-8.68117 Y5.38774
G01 X-8.69114 Y5.39570
G01 X-8.70072 Y5.40299
G01 X-8.71081 Y5.41029
G01 X-8.72078 Y5.41714
G01 X-8.73121 Y5.42394
G01 X-8.74181 Y5.43047
G01 X-8.75256 Y5.43675
G01 X-8.76312 Y5.44256
G01 X-8.77412 Y5.44827
G01 X-8.78495 Y5.45357
G01 X-8.79630 Y5.45878
G01 X-8.80770 Y5.46367
G01 X-8.81888 Y5.46816
G01 X-8.83055 Y5.47250
G01 X-8.84236 Y5.47657
G01 X-8.85385 Y5.48022
G01 X-8.86576 Y5.48369
G01 X-8.87745 Y5.48678
G01 X-8.88951 Y5.48966
G01 X-8.90130 Y5.49217
G01 X-8.91353 Y5.49446
G01 X-8.92548 Y5.49641
G01 X-8.93781 Y5.49810
G01 X-8.95018 Y5.49949
G01 X-8.96259 Y5.50057
G01 X-8.97496 Y5.50134
G01 X-8.98705 Y5.50180
G01 X-8.99945 Y5.50197
G01 X-9.01190 Y5.50183
G01 X-9.02439 Y5.50138
G01 X-9.03682 Y5.50062
G01 X-9.04877 Y5.49959
G01 X-9.06075 Y5.49828
G01 X-9.07314 Y5.49661
G01 X-9.08538 Y5.49465
G01 X-9.09767 Y5.49237
G01 X-9.10981 Y5.48981
G01 X-9.12153 Y5.48703
G01 X-9.13357 Y5.48387
G01 X-9.14558 Y5.48039
G01 X-9.15745 Y5.47664
G01 X-9.16884 Y5.47272
G01 X-9.18047 Y5.46840
G01 X-9.19207 Y5.46377
G01 X-9.20311 Y5.45904
G01 X-9.21443 Y5.45387
G01 X-9.22530 Y5.44857
G01 X-9.23636 Y5.44284
G01 X-9.24722 Y5.43687
G01 X-9.25768 Y5.43078
G01 X-9.26824 Y5.42429
G01 X-9.27872 Y5.41747
G01 X-9.28899 Y5.41043
G01 X-9.29872 Y5.40341
G01 X-9.30863 Y5.39588
G01 X-9.31808 Y5.38832
G01 X-9.32728 Y5.38061
G01 X-9.33661 Y5.37237
G01 X-9.34549 Y5.36416
G01 X-9.35438 Y5.35551
G01 X-9.36281 Y5.34690
G01 X-9.37134 Y5.33776
G01 X-9.38132 Y5.32649
G01 X-9.38777 Y5.31879
G01 X-9.39588 Y5.30863
G01 X-9.40317 Y5.29904
G01 X-9.41047 Y5.28895
G01 X-9.41728 Y5.27901
G01 X-9.42389 Y5.26887
G01 X-9.43042 Y5.25828
G01 X-9.43670 Y5.24753
G01 X-9.44249 Y5.23702
G01 X-9.44823 Y5.22597
G01 X-9.45372 Y5.21474
G01 X-9.45888 Y5.20346
G01 X-9.46365 Y5.19235
G01 X-9.46826 Y5.18084
G01 X-9.47247 Y5.16954
G01 X-9.47640 Y5.15815
G01 X-9.48018 Y5.14629
G01 X-9.48366 Y5.13434
G01 X-9.48684 Y5.12230
G01 X-9.48973 Y5.11014
G01 X-9.49223 Y5.09840
G01 X-9.49452 Y5.08617
G01 X-9.49645 Y5.07423
G01 X-9.49814 Y5.06189
G01 X-9.49948 Y5.04992
G01 X-9.50053 Y5.03791
G01 X-9.50132 Y5.02554
G01 X-9.50180 Y5.01310
G01 X-9.50197 Y5.00065
G01 X-9.50183 Y4.98815
G01 X-9.50138 Y4.97571
G01 X-9.50063 Y4.96333
G01 X-9.49960 Y4.95128
G01 X-9.49824 Y4.93895
G01 X-9.49663 Y4.92701
G01 X-9.49466 Y4.91467
G01 X-9.49240 Y4.90247
G01 X-9.48982 Y4.89024
G01 X-9.48695 Y4.87813
G01 X-9.48379 Y4.86614
G01 X-9.48042 Y4.85452
G01 X-9.47679 Y4.84303
G01 X-9.47277 Y4.83130
G01 X-9.46842 Y4.81958
G01 X-9.46398 Y4.80843
G01 X-9.45908 Y4.79699
G01 X-9.45406 Y4.78598
G01 X-9.44861 Y4.77479
G01 X-9.44289 Y4.76373
G01 X-9.43689 Y4.75282
G01 X-9.43086 Y4.74245
G01 X-9.42431 Y4.73180
G01 X-9.41778 Y4.72173
G01 X-9.41075 Y4.71146
G01 X-9.40347 Y4.70136
G01 X-9.39618 Y4.69176
G01 X-9.38842 Y4.68203
G01 X-9.38041 Y4.67250
G01 X-9.37214 Y4.66313
G01 X-9.36395 Y4.65429
G01 X-9.35530 Y4.64541
G01 X-9.34668 Y4.63698
G01 X-9.33754 Y4.62846
G01 X-9.32649 Y4.61868
G01 X-9.31879 Y4.61222
G01 X-9.30870 Y4.60418
G01 X-9.29908 Y4.59686
G01 X-9.28903 Y4.58959
G01 X-9.27909 Y4.58277
G01 X-9.26900 Y4.57619
G01 X-9.25841 Y4.56965
G01 X-9.24761 Y4.56335
G01 X-9.23706 Y4.55754
G01 X-9.22642 Y4.55199
G01 X-9.21524 Y4.54652
G01 X-9.20388 Y4.54130
G01 X-9.19286 Y4.53656
G01 X-9.18126 Y4.53190
G01 X-9.17002 Y4.52770
G01 X-9.15825 Y4.52363
G01 X-9.14634 Y4.51984
G01 X-9.13439 Y4.51635
G01 X-9.12274 Y4.51327
G01 X-9.11102 Y4.51046
G01 X-9.09890 Y4.50787
G01 X-9.08706 Y4.50564
G01 X-9.07477 Y4.50363
G01 X-9.06239 Y4.50192
G01 X-9.05002 Y4.50053
G01 X-9.03761 Y4.49944
G01 X-9.02524 Y4.49867
G01 X-9.01315 Y4.49820
G01 X-9.00075 Y4.49803
G01 X-8.98830 Y4.49817
G01 X-8.97581 Y4.49861
G01 X-8.96338 Y4.49937
G01 X-8.95143 Y4.50039
G01 X-8.93905 Y4.50174
G01 X-8.92706 Y4.50336
G01 X-8.91477 Y4.50532
G01 X-8.90297 Y4.50750
G01 X-8.89078 Y4.51006
G01 X-8.87862 Y4.51293
G01 X-8.86701 Y4.51597
G01 X-8.85505 Y4.51942
G01 X-8.84313 Y4.52317
G01 X-8.83135 Y4.52721
G01 X-8.81972 Y4.53152
G01 X-8.80853 Y4.53598
G01 X-8.79703 Y4.54089
G01 X-8.78607 Y4.54590
G01 X-8.77492 Y4.55132
G01 X-8.76386 Y4.55704
G01 X-8.75291 Y4.56306
G01 X-8.74215 Y4.56932
G01 X-8.73189 Y4.57563
G01 X-8.72148 Y4.58239
G01 X-8.71117 Y4.58945
G01 X-8.70140 Y4.59650
G01 X-8.69184 Y4.60375
G01 X-8.68207 Y4.61155
G01 X-8.67254 Y4.61955
G01 X-8.66353 Y4.62749
G01 X-8.65440 Y4.63595
G01 X-8.64544 Y4.64466
G01 X-8.63674 Y4.65357
G01 X-8.62853 Y4.66239
G01 X-8.61868 Y4.67351
G01 X-8.61223 Y4.68121
G01 X-8.60424 Y4.69122
G01 X-8.59692 Y4.70084
G01 X-8.58962 Y4.71093
G01 X-8.58280 Y4.72086
G01 X-8.57603 Y4.73125
G01 X-8.56950 Y4.74185
G01 X-8.56320 Y4.75265
G01 X-8.55742 Y4.76316
G01 X-8.55166 Y4.77425
G01 X-8.54639 Y4.78503
G01 X-8.54136 Y4.79598
G01 X-8.53644 Y4.80742
G01 X-8.53179 Y4.81902
G01 X-8.52760 Y4.83027
G01 X-8.52353 Y4.84203
G01 X-8.51976 Y4.85390
G01 X-8.51638 Y4.86551
G01 X-8.51319 Y4.87755
G01 X-8.51031 Y4.88966
G01 X-8.50772 Y4.90184
G01 X-8.50545 Y4.91403
G01 X-8.50352 Y4.92597
G01 X-8.50184 Y4.93831
G01 X-8.50046 Y4.95068
G01 X-8.49942 Y4.96268
G01 X-8.49865 Y4.97511
G01 X-8.49819 Y4.98750
G01 X-8.49803 Y4.99955
G04 P0 ( dwell for no time -- G64 should not smooth over this point )
G00 Z0.08000 ( retract )

G00 X-8.60592 Y4.99621 ( rapid move to begin. )
G01 F180.00000
( Mill infeed pass 1/1 )
G01 Z-0.04000
G04 P0 ( dwell for no time -- G64 should not smooth over this point )
G01 F360.00000
G01 X-8.60592 Y4.99621
G01 X-8.60595 Y5.00567
G01 X-8.60619 Y5.01513
G01 X-8.60667 Y5.02457
G01 X-8.60741 Y5.03440
G01 X-8.60835 Y5.04381
G01 X-8.60951 Y5.05319
G01 X-8.61096 Y5.06294
G01 X-8.61259 Y5.07226
G01 X-8.61443 Y5.08153
G01 X-8.61650 Y5.09076
G01 X-8.61879 Y5.09994
G01 X-8.62130 Y5.10906
G01 X-8.62414 Y5.11849
G01 X-8.62709 Y5.12748
G01 X-8.63026 Y5.13639
G01 X-8.63364 Y5.14522
G01 X-8.63723 Y5.15397
G01 X-8.64103 Y5.16264
G01 X-8.64504 Y5.17120
G01 X-8.64925 Y5.17967
G01 X-8.65366 Y5.18804
G01 X-8.65847 Y5.19664
G01 X-8.66329 Y5.20478
G01 X-8.66830 Y5.21280
G01 X-8.67350 Y5.22070
G01 X-8.67889 Y5.22847
G01 X-8.68447 Y5.23611
G01 X-8.69022 Y5.24362
G01 X-8.69616 Y5.25098
G01 X-8.70227 Y5.25820
G01 X-8.70882 Y5.26556
G01 X-8.71527 Y5.27247
G01 X-8.72189 Y5.27923
G01 X-8.72868 Y5.28582
G01 X-8.73844 Y5.29475
G01 X-8.73849 Y5.29566
G01 X-8.73844 Y5.29475
G01 X-8.96799 Y5.02118
G01 X-8.96837 Y5.02122
G01 X-8.96799 Y5.02118
G01 X-8.96785 Y5.02099
G01 X-8.96607 Y5.01797
G01 X-8.96481 Y5.01539
G01 X-8.96363 Y5.01233
G01 X-8.96281 Y5.00958
G01 X-8.96221 Y5.00680
G01 X-8.96172 Y5.00309
G01 X-8.96160 Y5.00022
G01 X-8.96169 Y4.99742
G01 X-8.96206 Y4.99409
G01 X-8.96271 Y4.99085
G01 X-8.96347 Y4.98815
G01 X-8.96472 Y4.98485
G01 X-8.96517 Y4.98459
G01 X-8.96480 Y4.98470
G01 X-8.69123 Y4.75515
G01 X-8.69112 Y4.75424
G01 X-8.69123 Y4.75515
G01 X-8.68334 Y4.76540
G01 X-8.67780 Y4.77306
G01 X-8.67245 Y4.78086
G01 X-8.66707 Y4.78912
G01 X-8.66211 Y4.79717
G01 X-8.65734 Y4.80534
G01 X-8.65277 Y4.81362
G01 X-8.64839 Y4.82200
G01 X-8.64422 Y4.83049
G01 X-8.64010 Y4.83944
G01 X-8.63635 Y4.84812
G01 X-8.63281 Y4.85689
G01 X-8.62948 Y4.86575
G01 X-8.62636 Y4.87468
G01 X-8.62346 Y4.88368
G01 X-8.62078 Y4.89275
G01 X-8.61832 Y4.90188
G01 X-8.61607 Y4.91107
G01 X-8.61405 Y4.92031
G01 X-8.61218 Y4.92998
G01 X-8.61061 Y4.93931
G01 X-8.60926 Y4.94867
G01 X-8.60814 Y4.95806
G01 X-8.60725 Y4.96748
G01 X-8.60658 Y4.97691
G01 X-8.60614 Y4.98636
G01 X-8.60592 Y4.99621
G01 X-8.60395 Y4.99619
G01 X-8.60417 Y4.98629
G01 X-8.60462 Y4.97680
G01 X-8.60529 Y4.96732
G01 X-8.60618 Y4.95785
G01 X-8.60731 Y4.94841
G01 X-8.60866 Y4.93901
G01 X-8.61024 Y4.92963
G01 X-8.61212 Y4.91991
G01 X-8.61415 Y4.91062
G01 X-8.61641 Y4.90139
G01 X-8.61889 Y4.89221
G01 X-8.62158 Y4.88310
G01 X-8.62450 Y4.87405
G01 X-8.62763 Y4.86508
G01 X-8.63097 Y4.85618
G01 X-8.63453 Y4.84736
G01 X-8.63830 Y4.83864
G01 X-8.64245 Y4.82964
G01 X-8.64664 Y4.82111
G01 X-8.65103 Y4.81269
G01 X-8.65563 Y4.80436
G01 X-8.66042 Y4.79616
G01 X-8.66541 Y4.78807
G01 X-8.67081 Y4.77977
G01 X-8.67619 Y4.77193
G01 X-8.68176 Y4.76423
G01 X-8.69095 Y4.75234
G01 X-8.69084 Y4.75144
G01 X-8.69095 Y4.75234
G01 X-8.96726 Y4.98420
G01 X-8.96773 Y4.98408
G01 X-8.96726 Y4.98420
G01 X-8.96630 Y4.98614
G01 X-8.96537 Y4.98869
G01 X-8.96452 Y4.99171
G01 X-8.96399 Y4.99446
G01 X-8.96368 Y4.99716
G01 X-8.96357 Y5.00028
G01 X-8.96369 Y5.00299
G01 X-8.96408 Y5.00608
G01 X-8.96463 Y5.00875
G01 X-8.96537 Y5.01133
G01 X-8.96647 Y5.01425
G01 X-8.96762 Y5.01671
G01 X-8.96917 Y5.01942
G01 X-8.97050 Y5.02125
G01 X-8.97098 Y5.02128
G01 X-8.97050 Y5.02125
G01 X-8.73865 Y5.29756
G01 X-8.73870 Y5.29847
G01 X-8.73865 Y5.29756
G01 X-8.72732 Y5.28725
G01 X-8.72050 Y5.28062
G01 X-8.71385 Y5.27383
G01 X-8.70736 Y5.26689
G01 X-8.70078 Y5.25949
G01 X-8.69464 Y5.25223
G01 X-8.68867 Y5.24483
G01 X-8.68289 Y5.23729
G01 X-8.67729 Y5.22961
G01 X-8.67187 Y5.22180
G01 X-8.66664 Y5.21386
G01 X-8.66160 Y5.20580
G01 X-8.65676 Y5.19762
G01 X-8.65193 Y5.18898
G01 X-8.64749 Y5.18057
G01 X-8.64326 Y5.17206
G01 X-8.63924 Y5.16345
G01 X-8.63542 Y5.15474
G01 X-8.63181 Y5.14595
G01 X-8.62841 Y5.13707
G01 X-8.62523 Y5.12812
G01 X-8.62226 Y5.11909
G01 X-8.61940 Y5.10960
G01 X-8.61688 Y5.10044
G01 X-8.61458 Y5.09122
G01 X-8.61251 Y5.08194
G01 X-8.61065 Y5.07262
G01 X-8.60902 Y5.06325
G01 X-8.60756 Y5.05346
G01 X-8.60639 Y5.04403
G01 X-8.60545 Y5.03457
G01 X-8.60471 Y5.02469
G01 X-8.60423 Y5.01520
G01 X-8.60398 Y5.00570
G01 X-8.60395 Y4.99619
G01 X-8.60199 Y4.99617
G01 X-8.60221 Y4.98623
G01 X-8.60265 Y4.97668
G01 X-8.60333 Y4.96715
G01 X-8.60423 Y4.95764
G01 X-8.60536 Y4.94816
G01 X-8.60672 Y4.93870
G01 X-8.60830 Y4.92928
G01 X-8.61019 Y4.91951
G01 X-8.61224 Y4.91018
G01 X-8.61450 Y4.90090
G01 X-8.61699 Y4.89168
G01 X-8.61970 Y4.88252
G01 X-8.62263 Y4.87343
G01 X-8.62578 Y4.86440
G01 X-8.62914 Y4.85546
G01 X-8.63271 Y4.84661
G01 X-8.63650 Y4.83784
G01 X-8.64067 Y4.82880
G01 X-8.64488 Y4.82022
G01 X-8.64930 Y4.81175
G01 X-8.65391 Y4.80339
G01 X-8.65873 Y4.79514
G01 X-8.66375 Y4.78701
G01 X-8.66918 Y4.77867
G01 X-8.67458 Y4.77080
G01 X-8.68018 Y4.76305
G01 X-8.68596 Y4.75545
G01 X-8.69067 Y4.74954
G01 X-8.96972 Y4.98369
G01 X-8.96815 Y4.98683
G01 X-8.96726 Y4.98923
G01 X-8.96645 Y4.99209
G01 X-8.96592 Y4.99484
G01 X-8.96563 Y4.99738
G01 X-8.96553 Y5.00034
G01 X-8.96565 Y5.00290
G01 X-8.96606 Y5.00599
G01 X-8.96659 Y5.00848
G01 X-8.96731 Y5.01093
G01 X-8.96831 Y5.01355
G01 X-8.96940 Y5.01587
G01 X-8.97088 Y5.01843
G01 X-8.97302 Y5.02132
G01 X-8.73886 Y5.30037
G01 X-8.73297 Y5.29517
G01 X-8.72597 Y5.28868
G01 X-8.71912 Y5.28202
G01 X-8.71243 Y5.27519
G01 X-8.70591 Y5.26821
G01 X-8.69929 Y5.26078
G01 X-8.69312 Y5.25349
G01 X-8.68713 Y5.24605
G01 X-8.68131 Y5.23847
G01 X-8.67568 Y5.23075
G01 X-8.67024 Y5.22290
G01 X-8.66498 Y5.21493
G01 X-8.65992 Y5.20682
G01 X-8.65506 Y5.19860
G01 X-8.65020 Y5.18992
G01 X-8.64574 Y5.18147
G01 X-8.64149 Y5.17291
G01 X-8.63744 Y5.16426
G01 X-8.63361 Y5.15551
G01 X-8.62998 Y5.14668
G01 X-8.62657 Y5.13775
G01 X-8.62337 Y5.12875
G01 X-8.62039 Y5.11968
G01 X-8.61751 Y5.11015
G01 X-8.61498 Y5.10094
G01 X-8.61267 Y5.09167
G01 X-8.61058 Y5.08235
G01 X-8.60872 Y5.07298
G01 X-8.60708 Y5.06357
G01 X-8.60561 Y5.05373
G01 X-8.60444 Y5.04425
G01 X-8.60349 Y5.03474
G01 X-8.60274 Y5.02482
G01 X-8.60226 Y5.01528
G01 X-8.60201 Y5.00573
G01 X-8.60199 Y4.99617
G04 P0 ( dwell for no time -- G64 should not smooth over this point )
G00 Z0.08000 ( retract )

G00 X-8.70434 Y4.73849 ( rapid move to begin. )
G01 F180.00000
( Mill infeed pass 1/1 )
G01 Z-0.04000
G04 P0 ( dwell for no time -- G64 should not smooth over this point )
G01 F360.00000
G01 X-8.70434 Y4.73849
G01 X-8.70525 Y4.73844
G01 X-8.97882 Y4.96799
G01 X-8.97877 Y4.96839
G01 X-8.97882 Y4.96799
G01 X-8.97977 Y4.96736
G01 X-8.98227 Y4.96594
G01 X-8.98511 Y4.96460
G01 X-8.99062 Y4.96276
G01 X-8.99343 Y4.96216
G01 X-8.99671 Y4.96174
G01 X-8.99951 Y4.96160
G01 X-9.00238 Y4.96167
G01 X-9.00567 Y4.96202
G01 X-9.00889 Y4.96264
G01 X-9.01166 Y4.96341
G01 X-9.01495 Y4.96464
G01 X-9.01529 Y4.96481
G01 X-9.01540 Y4.96518
G01 X-9.01529 Y4.96481
G01 X-9.24485 Y4.69123
G01 X-9.24576 Y4.69112
G01 X-9.24485 Y4.69123
G01 X-9.23436 Y4.68317
G01 X-9.22669 Y4.67763
G01 X-9.21889 Y4.67228
G01 X-9.21096 Y4.66713
G01 X-9.20257 Y4.66196
G01 X-9.19440 Y4.65719
G01 X-9.18612 Y4.65263
G01 X-9.17773 Y4.64826
G01 X-9.16924 Y4.64410
G01 X-9.16065 Y4.64014
G01 X-9.15197 Y4.63638
G01 X-9.14320 Y4.63284
G01 X-9.13435 Y4.62951
G01 X-9.12504 Y4.62627
G01 X-9.11604 Y4.62338
G01 X-9.10697 Y4.62070
G01 X-9.09783 Y4.61824
G01 X-9.08864 Y4.61600
G01 X-9.07940 Y4.61399
G01 X-9.07011 Y4.61219
G01 X-9.06079 Y4.61062
G01 X-9.05143 Y4.60928
G01 X-9.04164 Y4.60811
G01 X-9.03223 Y4.60722
G01 X-9.02279 Y4.60656
G01 X-9.01334 Y4.60613
G01 X-9.00389 Y4.60593
G01 X-8.99443 Y4.60595
G01 X-8.98458 Y4.60621
G01 X-8.97513 Y4.60669
G01 X-8.96570 Y4.60740
G01 X-8.95590 Y4.60838
G01 X-8.94651 Y4.60955
G01 X-8.93716 Y4.61095
G01 X-8.92784 Y4.61257
G01 X-8.91856 Y4.61441
G01 X-8.90895 Y4.61657
G01 X-8.89977 Y4.61886
G01 X-8.89066 Y4.62138
G01 X-8.88160 Y4.62411
G01 X-8.87261 Y4.62706
G01 X-8.86333 Y4.63036
G01 X-8.85450 Y4.63375
G01 X-8.84575 Y4.63735
G01 X-8.83709 Y4.64115
G01 X-8.82853 Y4.64517
G01 X-8.82006 Y4.64938
G01 X-8.81170 Y4.65380
G01 X-8.80310 Y4.65862
G01 X-8.79497 Y4.66344
G01 X-8.78695 Y4.66846
G01 X-8.77905 Y4.67367
G01 X-8.77129 Y4.67906
G01 X-8.76365 Y4.68464
G01 X-8.75615 Y4.69041
G01 X-8.74879 Y4.69635
G01 X-8.74158 Y4.70246
G01 X-8.73422 Y4.70902
G01 X-8.72731 Y4.71548
G01 X-8.72056 Y4.72210
G01 X-8.71397 Y4.72889
G01 X-8.70525 Y4.73844
G01 X-8.70153 Y4.73870
G01 X-8.70244 Y4.73865
G01 X-8.97869 Y4.97045
G01 X-8.97865 Y4.97087
G01 X-8.97869 Y4.97045
G01 X-8.98075 Y4.96906
G01 X-8.98311 Y4.96772
G01 X-8.98607 Y4.96634
G01 X-8.99104 Y4.96469
G01 X-8.99369 Y4.96412
G01 X-8.99681 Y4.96371
G01 X-8.99961 Y4.96357
G01 X-9.00232 Y4.96364
G01 X-9.00531 Y4.96396
G01 X-9.00807 Y4.96447
G01 X-9.01069 Y4.96517
G01 X-9.01363 Y4.96621
G01 X-9.01580 Y4.96727
G01 X-9.01591 Y4.96769
G01 X-9.01580 Y4.96727
G01 X-9.24765 Y4.69095
G01 X-9.24856 Y4.69084
G01 X-9.24765 Y4.69095
G01 X-9.23553 Y4.68158
G01 X-9.22782 Y4.67602
G01 X-9.21998 Y4.67065
G01 X-9.21202 Y4.66546
G01 X-9.20359 Y4.66027
G01 X-9.19538 Y4.65548
G01 X-9.18705 Y4.65089
G01 X-9.17862 Y4.64650
G01 X-9.17009 Y4.64232
G01 X-9.16145 Y4.63834
G01 X-9.15273 Y4.63457
G01 X-9.14391 Y4.63101
G01 X-9.13502 Y4.62766
G01 X-9.12566 Y4.62440
G01 X-9.11662 Y4.62149
G01 X-9.10750 Y4.61881
G01 X-9.09832 Y4.61634
G01 X-9.08909 Y4.61409
G01 X-9.07980 Y4.61206
G01 X-9.07047 Y4.61026
G01 X-9.06109 Y4.60868
G01 X-9.05168 Y4.60732
G01 X-9.04185 Y4.60615
G01 X-9.03239 Y4.60526
G01 X-9.02290 Y4.60460
G01 X-9.01341 Y4.60416
G01 X-9.00390 Y4.60396
G01 X-8.99440 Y4.60398
G01 X-8.98450 Y4.60424
G01 X-8.97501 Y4.60473
G01 X-8.96553 Y4.60544
G01 X-8.95568 Y4.60642
G01 X-8.94624 Y4.60760
G01 X-8.93684 Y4.60900
G01 X-8.92748 Y4.61063
G01 X-8.91816 Y4.61249
G01 X-8.90849 Y4.61465
G01 X-8.89927 Y4.61696
G01 X-8.89011 Y4.61949
G01 X-8.88101 Y4.62223
G01 X-8.87198 Y4.62520
G01 X-8.86265 Y4.62852
G01 X-8.85377 Y4.63192
G01 X-8.84498 Y4.63553
G01 X-8.83628 Y4.63936
G01 X-8.82767 Y4.64339
G01 X-8.81916 Y4.64763
G01 X-8.81076 Y4.65207
G01 X-8.80212 Y4.65691
G01 X-8.79394 Y4.66176
G01 X-8.78589 Y4.66680
G01 X-8.77795 Y4.67204
G01 X-8.77014 Y4.67746
G01 X-8.76247 Y4.68307
G01 X-8.75493 Y4.68886
G01 X-8.74754 Y4.69483
G01 X-8.74029 Y4.70098
G01 X-8.73289 Y4.70756
G01 X-8.72595 Y4.71406
G01 X-8.71917 Y4.72072
G01 X-8.71255 Y4.72754
G01 X-8.70244 Y4.73865
G01 X-8.69963 Y4.73886
G01 X-8.70463 Y4.73319
G01 X-8.71112 Y4.72618
G01 X-8.71777 Y4.71933
G01 X-8.72459 Y4.71264
G01 X-8.73156 Y4.70611
G01 X-8.73900 Y4.69949
G01 X-8.74628 Y4.69331
G01 X-8.75371 Y4.68731
G01 X-8.76129 Y4.68149
G01 X-8.76900 Y4.67586
G01 X-8.77685 Y4.67040
G01 X-8.78482 Y4.66514
G01 X-8.79292 Y4.66008
G01 X-8.80114 Y4.65521
G01 X-8.80982 Y4.65034
G01 X-8.81826 Y4.64588
G01 X-8.82681 Y4.64162
G01 X-8.83546 Y4.63757
G01 X-8.84421 Y4.63372
G01 X-8.85305 Y4.63009
G01 X-8.86196 Y4.62667
G01 X-8.87134 Y4.62333
G01 X-8.88042 Y4.62036
G01 X-8.88956 Y4.61760
G01 X-8.89877 Y4.61506
G01 X-8.90804 Y4.61274
G01 X-8.91775 Y4.61056
G01 X-8.92712 Y4.60870
G01 X-8.93653 Y4.60706
G01 X-8.94598 Y4.60565
G01 X-8.95546 Y4.60447
G01 X-8.96536 Y4.60348
G01 X-8.97488 Y4.60276
G01 X-8.98442 Y4.60227
G01 X-8.99437 Y4.60201
G01 X-9.00393 Y4.60199
G01 X-9.01347 Y4.60220
G01 X-9.02302 Y4.60263
G01 X-9.03255 Y4.60330
G01 X-9.04206 Y4.60420
G01 X-9.05194 Y4.60537
G01 X-9.06139 Y4.60673
G01 X-9.07081 Y4.60832
G01 X-9.08019 Y4.61013
G01 X-9.08953 Y4.61217
G01 X-9.09881 Y4.61443
G01 X-9.10803 Y4.61691
G01 X-9.11720 Y4.61961
G01 X-9.12629 Y4.62254
G01 X-9.13569 Y4.62581
G01 X-9.14463 Y4.62917
G01 X-9.15349 Y4.63275
G01 X-9.16226 Y4.63654
G01 X-9.17093 Y4.64054
G01 X-9.17951 Y4.64475
G01 X-9.18798 Y4.64916
G01 X-9.19635 Y4.65377
G01 X-9.20460 Y4.65858
G01 X-9.21307 Y4.66380
G01 X-9.22108 Y4.66901
G01 X-9.22896 Y4.67441
G01 X-9.23671 Y4.68000
G01 X-9.24432 Y4.68577
G01 X-9.25046 Y4.69067
G01 X-9.01630 Y4.96973
G01 X-9.01296 Y4.96806
G01 X-9.01033 Y4.96712
G01 X-9.00770 Y4.96640
G01 X-9.00495 Y4.96589
G01 X-9.00241 Y4.96562
G01 X-8.99970 Y4.96553
G01 X-8.99690 Y4.96567
G01 X-8.99396 Y4.96607
G01 X-8.99146 Y4.96661
G01 X-8.98670 Y4.96821
G01 X-8.98396 Y4.96949
G01 X-8.98174 Y4.97077
G01 X-8.97864 Y4.97298
G01 X-8.69963 Y4.73886
G04 P0 ( dwell for no time -- G64 should not smooth over this point )
G00 Z0.08000 ( retract )

G00 X-9.03163 Y4.97878 ( rapid move to begin. )
G01 F180.00000
( Mill infeed pass 1/1 )
G01 Z-0.04000
G04 P0 ( dwell for no time -- G64 should not smooth over this point )
G01 F360.00000
G01 X-9.03163 Y4.97878
G01 X-9.03200 Y4.97882
G01 X-9.03215 Y4.97901
G01 X-9.03393 Y4.98203
G01 X-9.03518 Y4.98461
G01 X-9.03637 Y4.98767
G01 X-9.03719 Y4.99042
G01 X-9.03779 Y4.99319
G01 X-9.03828 Y4.99691
G01 X-9.03840 Y4.99978
G01 X-9.03831 Y5.00258
G01 X-9.03794 Y5.00591
G01 X-9.03729 Y5.00915
G01 X-9.03653 Y5.01185
G01 X-9.03527 Y5.01515
G01 X-9.03483 Y5.01541
G01 X-9.03520 Y5.01530
G01 X-9.30877 Y5.24485
G01 X-9.30888 Y5.24576
G01 X-9.30877 Y5.24485
G01 X-9.31677 Y5.23444
G01 X-9.32231 Y5.22677
G01 X-9.32766 Y5.21897
G01 X-9.33282 Y5.21105
G01 X-9.33799 Y5.20266
G01 X-9.34276 Y5.19449
G01 X-9.34733 Y5.18621
G01 X-9.35187 Y5.17747
G01 X-9.35603 Y5.16897
G01 X-9.35998 Y5.16038
G01 X-9.36373 Y5.15170
G01 X-9.36726 Y5.14292
G01 X-9.37059 Y5.13407
G01 X-9.37370 Y5.12514
G01 X-9.37659 Y5.11613
G01 X-9.37938 Y5.10668
G01 X-9.38183 Y5.09755
G01 X-9.38406 Y5.08835
G01 X-9.38607 Y5.07911
G01 X-9.38786 Y5.06982
G01 X-9.38942 Y5.06050
G01 X-9.39076 Y5.05113
G01 X-9.39188 Y5.04174
G01 X-9.39277 Y5.03232
G01 X-9.39343 Y5.02289
G01 X-9.39386 Y5.01344
G01 X-9.39407 Y5.00398
G01 X-9.39406 Y4.99453
G01 X-9.39381 Y4.98507
G01 X-9.39331 Y4.97523
G01 X-9.39261 Y4.96580
G01 X-9.39163 Y4.95599
G01 X-9.39046 Y4.94661
G01 X-9.38907 Y4.93726
G01 X-9.38745 Y4.92794
G01 X-9.38561 Y4.91866
G01 X-9.38354 Y4.90943
G01 X-9.38126 Y4.90025
G01 X-9.37876 Y4.89113
G01 X-9.37603 Y4.88207
G01 X-9.37310 Y4.87308
G01 X-9.36981 Y4.86379
G01 X-9.36643 Y4.85496
G01 X-9.36269 Y4.84584
G01 X-9.35889 Y4.83718
G01 X-9.35488 Y4.82862
G01 X-9.35066 Y4.82015
G01 X-9.34624 Y4.81179
G01 X-9.34163 Y4.80353
G01 X-9.33681 Y4.79539
G01 X-9.33181 Y4.78737
G01 X-9.32661 Y4.77946
G01 X-9.32122 Y4.77169
G01 X-9.31541 Y4.76373
G01 X-9.30965 Y4.75623
G01 X-9.30372 Y4.74887
G01 X-9.29760 Y4.74165
G01 X-9.29132 Y4.73459
G01 X-9.28459 Y4.72738
G01 X-9.27797 Y4.72063
G01 X-9.27118 Y4.71404
G01 X-9.26156 Y4.70525
G01 X-9.26151 Y4.70434
G01 X-9.26156 Y4.70525
G01 X-9.03200 Y4.97882
G01 X-9.02902 Y4.97872
G01 X-9.02949 Y4.97875
G01 X-9.26135 Y4.70244
G01 X-9.26130 Y4.70153
G01 X-9.26135 Y4.70244
G01 X-9.27253 Y4.71262
G01 X-9.27935 Y4.71924
G01 X-9.28601 Y4.72602
G01 X-9.29277 Y4.73326
G01 X-9.29909 Y4.74036
G01 X-9.30523 Y4.74761
G01 X-9.31120 Y4.75501
G01 X-9.31699 Y4.76255
G01 X-9.32283 Y4.77055
G01 X-9.32824 Y4.77836
G01 X-9.33347 Y4.78630
G01 X-9.33850 Y4.79437
G01 X-9.34333 Y4.80255
G01 X-9.34797 Y4.81085
G01 X-9.35241 Y4.81925
G01 X-9.35665 Y4.82776
G01 X-9.36068 Y4.83637
G01 X-9.36450 Y4.84507
G01 X-9.36826 Y4.85423
G01 X-9.37165 Y4.86311
G01 X-9.37496 Y4.87245
G01 X-9.37791 Y4.88148
G01 X-9.38065 Y4.89058
G01 X-9.38316 Y4.89975
G01 X-9.38546 Y4.90897
G01 X-9.38753 Y4.91825
G01 X-9.38938 Y4.92758
G01 X-9.39101 Y4.93694
G01 X-9.39241 Y4.94634
G01 X-9.39358 Y4.95578
G01 X-9.39457 Y4.96563
G01 X-9.39528 Y4.97511
G01 X-9.39578 Y4.98500
G01 X-9.39602 Y4.99450
G01 X-9.39604 Y5.00400
G01 X-9.39583 Y5.01351
G01 X-9.39539 Y5.02300
G01 X-9.39473 Y5.03249
G01 X-9.39383 Y5.04195
G01 X-9.39271 Y5.05139
G01 X-9.39137 Y5.06080
G01 X-9.38980 Y5.07017
G01 X-9.38800 Y5.07951
G01 X-9.38598 Y5.08880
G01 X-9.38374 Y5.09803
G01 X-9.38128 Y5.10721
G01 X-9.37847 Y5.11671
G01 X-9.37557 Y5.12576
G01 X-9.37244 Y5.13474
G01 X-9.36910 Y5.14364
G01 X-9.36554 Y5.15245
G01 X-9.36178 Y5.16118
G01 X-9.35781 Y5.16982
G01 X-9.35363 Y5.17835
G01 X-9.34906 Y5.18714
G01 X-9.34447 Y5.19546
G01 X-9.33968 Y5.20367
G01 X-9.33448 Y5.21210
G01 X-9.32930 Y5.22007
G01 X-9.32392 Y5.22791
G01 X-9.31836 Y5.23561
G01 X-9.30905 Y5.24765
G01 X-9.30916 Y5.24856
G01 X-9.30905 Y5.24765
G01 X-9.03274 Y5.01580
G01 X-9.03227 Y5.01592
G01 X-9.03274 Y5.01580
G01 X-9.03369 Y5.01386
G01 X-9.03453 Y5.01161
G01 X-9.03540 Y5.00861
G01 X-9.03601 Y5.00553
G01 X-9.03632 Y5.00284
G01 X-9.03643 Y4.99972
G01 X-9.03631 Y4.99701
G01 X-9.03592 Y4.99391
G01 X-9.03537 Y4.99125
G01 X-9.03463 Y4.98867
G01 X-9.03353 Y4.98575
G01 X-9.03238 Y4.98329
G01 X-9.03083 Y4.98058
G01 X-9.02949 Y4.97875
G01 X-9.02698 Y4.97868
G01 X-9.26114 Y4.69963
G01 X-9.26688 Y4.70470
G01 X-9.27389 Y4.71119
G01 X-9.28074 Y4.71784
G01 X-9.28743 Y4.72466
G01 X-9.29423 Y4.73193
G01 X-9.30057 Y4.73907
G01 X-9.30675 Y4.74636
G01 X-9.31275 Y4.75379
G01 X-9.31857 Y4.76137
G01 X-9.32443 Y4.76941
G01 X-9.32987 Y4.77726
G01 X-9.33512 Y4.78524
G01 X-9.34018 Y4.79335
G01 X-9.34504 Y4.80157
G01 X-9.34970 Y4.80991
G01 X-9.35417 Y4.81835
G01 X-9.35842 Y4.82691
G01 X-9.36247 Y4.83556
G01 X-9.36632 Y4.84430
G01 X-9.37009 Y4.85351
G01 X-9.37350 Y4.86243
G01 X-9.37682 Y4.87181
G01 X-9.37979 Y4.88089
G01 X-9.38254 Y4.89004
G01 X-9.38507 Y4.89925
G01 X-9.38738 Y4.90852
G01 X-9.38946 Y4.91785
G01 X-9.39132 Y4.92722
G01 X-9.39295 Y4.93663
G01 X-9.39436 Y4.94608
G01 X-9.39554 Y4.95556
G01 X-9.39653 Y4.96546
G01 X-9.39724 Y4.97498
G01 X-9.39775 Y4.98492
G01 X-9.39799 Y4.99447
G01 X-9.39801 Y5.00402
G01 X-9.39780 Y5.01358
G01 X-9.39736 Y5.02312
G01 X-9.39669 Y5.03265
G01 X-9.39579 Y5.04216
G01 X-9.39467 Y5.05164
G01 X-9.39331 Y5.06110
G01 X-9.39173 Y5.07052
G01 X-9.38993 Y5.07990
G01 X-9.38790 Y5.08924
G01 X-9.38565 Y5.09852
G01 X-9.38317 Y5.10775
G01 X-9.38036 Y5.11729
G01 X-9.37743 Y5.12638
G01 X-9.37429 Y5.13541
G01 X-9.37093 Y5.14435
G01 X-9.36736 Y5.15321
G01 X-9.36358 Y5.16198
G01 X-9.35959 Y5.17066
G01 X-9.35539 Y5.17924
G01 X-9.35080 Y5.18807
G01 X-9.34618 Y5.19643
G01 X-9.34137 Y5.20468
G01 X-9.33615 Y5.21316
G01 X-9.33093 Y5.22116
G01 X-9.32553 Y5.22904
G01 X-9.31994 Y5.23679
G01 X-9.31416 Y5.24439
G01 X-9.30933 Y5.25046
G01 X-9.03027 Y5.01631
G01 X-9.03185 Y5.01317
G01 X-9.03274 Y5.01077
G01 X-9.03355 Y5.00791
G01 X-9.03408 Y5.00516
G01 X-9.03437 Y5.00262
G01 X-9.03447 Y4.99966
G01 X-9.03435 Y4.99710
G01 X-9.03394 Y4.99401
G01 X-9.03341 Y4.99152
G01 X-9.03269 Y4.98907
G01 X-9.03169 Y4.98645
G01 X-9.03060 Y4.98413
G01 X-9.02912 Y4.98157
G01 X-9.02698 Y4.97868
G04 P0 ( dwell for no time -- G64 should not smooth over this point )
G00 Z0.08000 ( retract )

G00 X-4.96160 Y4.99974 ( rapid move to begin. )
G01 F180.00000
( Mill infeed pass 1/1 )
G01 Z-0.04000
G04 P0 ( dwell for no time -- G64 should not smooth over this point )
G01 F360.00000
G01 X-4.96160 Y4.99974
G01 X-4.96176 Y4.99647
G01 X-4.96213 Y4.99362
G01 X-4.96281 Y4.99042
G01 X-4.96363 Y4.98767
G01 X-4.96502 Y4.98415
G01 X-4.96652 Y4.98119
G01 X-4.96798 Y4.97880
G01 X-4.97022 Y4.97576
G01 X-4.97212 Y4.97360
G01 X-4.97447 Y4.97132
G01 X-4.97668 Y4.96949
G01 X-4.97897 Y4.96787
G01 X-4.98143 Y4.96638
G01 X-4.98397 Y4.96511
G01 X-4.98744 Y4.96371
G01 X-4.99019 Y4.96287
G01 X-4.99339 Y4.96217
G01 X-4.99624 Y4.96178
G01 X-4.99954 Y4.96160
G01 X-5.00235 Y4.96167
G01 X-5.00521 Y4.96195
G01 X-5.00889 Y4.96264
G01 X-5.01162 Y4.96340
G01 X-5.01433 Y4.96437
G01 X-5.01731 Y4.96572
G01 X-5.01983 Y4.96711
G01 X-5.02265 Y4.96899
G01 X-5.02271 Y4.96953
G01 X-5.02265 Y4.96899
G01 X-5.56151 Y4.43014
G01 X-5.56279 Y4.42917
G01 X-5.56429 Y4.42858
G01 X-5.56548 Y4.42841
G01 X-5.56708 Y4.42858
G01 X-5.56858 Y4.42917
G01 X-5.56986 Y4.43014
G01 X-5.92341 Y4.78369
G01 X-5.92439 Y4.78497
G01 X-5.92498 Y4.78647
G01 X-5.92514 Y4.78767
G01 X-5.92498 Y4.78927
G01 X-5.92439 Y4.79076
G01 X-5.92341 Y4.79204
G01 X-5.35773 Y5.35773
G01 X-5.35645 Y5.35870
G01 X-5.35495 Y5.35929
G01 X-5.35335 Y5.35945
G01 X-5.35177 Y5.35918
G01 X-5.35031 Y5.35849
G01 X-5.34938 Y5.35773
G01 X-5.02263 Y5.03098
G01 X-5.02269 Y5.03047
G01 X-5.02263 Y5.03098
G01 X-5.01920 Y5.03326
G01 X-5.01453 Y5.03555
G01 X-5.00961 Y5.03718
G01 X-5.00494 Y5.03809
G01 X-4.99976 Y5.03840
G01 X-4.99458 Y5.03802
G01 X-4.98951 Y5.03694
G01 X-4.98467 Y5.03520
G01 X-4.98039 Y5.03302
G01 X-4.97611 Y5.03007
G01 X-4.97226 Y5.02656
G01 X-4.96870 Y5.02224
G01 X-4.96616 Y5.01817
G01 X-4.96389 Y5.01305
G01 X-4.96256 Y5.00854
G01 X-4.96205 Y5.00587
G01 X-4.96169 Y5.00262
G01 X-4.96160 Y4.99974
G01 X-4.96357 Y4.99970
G01 X-4.96365 Y5.00241
G01 X-4.96398 Y5.00551
G01 X-4.96452 Y5.00827
G01 X-4.96578 Y5.01249
G01 X-4.96778 Y5.01700
G01 X-4.97037 Y5.02120
G01 X-4.97351 Y5.02500
G01 X-4.97713 Y5.02835
G01 X-4.98117 Y5.03118
G01 X-4.98555 Y5.03344
G01 X-4.99029 Y5.03511
G01 X-4.99512 Y5.03610
G01 X-5.00004 Y5.03643
G01 X-5.00494 Y5.03609
G01 X-5.00936 Y5.03521
G01 X-5.01403 Y5.03362
G01 X-5.01844 Y5.03141
G01 X-5.02251 Y5.02865
G01 X-5.02281 Y5.02838
G01 X-5.02286 Y5.02778
G01 X-5.02281 Y5.02838
G01 X-5.35077 Y5.35634
G01 X-5.35177 Y5.35706
G01 X-5.35335 Y5.35748
G01 X-5.35496 Y5.35723
G01 X-5.35634 Y5.35634
G01 X-5.92202 Y4.79065
G01 X-5.92254 Y4.79001
G01 X-5.92304 Y4.78889
G01 X-5.92317 Y4.78807
G01 X-5.92304 Y4.78685
G01 X-5.92254 Y4.78572
G01 X-5.92202 Y4.78508
G01 X-5.56847 Y4.43153
G01 X-5.56747 Y4.43081
G01 X-5.56589 Y4.43038
G01 X-5.56427 Y4.43064
G01 X-5.56290 Y4.43153
G01 X-5.02281 Y4.97162
G01 X-5.02287 Y4.97218
G01 X-5.02281 Y4.97162
G01 X-5.02137 Y4.97049
G01 X-5.01875 Y4.96876
G01 X-5.01637 Y4.96745
G01 X-5.01323 Y4.96605
G01 X-5.01069 Y4.96517
G01 X-5.00807 Y4.96447
G01 X-5.00531 Y4.96396
G01 X-5.00261 Y4.96366
G01 X-4.99916 Y4.96358
G01 X-4.99636 Y4.96375
G01 X-4.99367 Y4.96412
G01 X-4.99062 Y4.96479
G01 X-4.98803 Y4.96559
G01 X-4.98484 Y4.96687
G01 X-4.98244 Y4.96808
G01 X-4.98011 Y4.96948
G01 X-4.97782 Y4.97109
G01 X-4.97573 Y4.97283
G01 X-4.97328 Y4.97523
G01 X-4.97151 Y4.97729
G01 X-4.96985 Y4.97955
G01 X-4.96803 Y4.98252
G01 X-4.96665 Y4.98534
G01 X-4.96551 Y4.98824
G01 X-4.96474 Y4.99084
G01 X-4.96414 Y4.99358
G01 X-4.96376 Y4.99627
G01 X-4.96357 Y4.99970
G01 X-4.96553 Y4.99965
G01 X-4.96560 Y5.00221
G01 X-4.96592 Y5.00515
G01 X-4.96641 Y5.00771
G01 X-4.96776 Y5.01218
G01 X-4.96970 Y5.01642
G01 X-4.97204 Y5.02015
G01 X-4.97520 Y5.02393
G01 X-4.97866 Y5.02707
G01 X-4.98229 Y5.02956
G01 X-4.98644 Y5.03169
G01 X-4.99045 Y5.03311
G01 X-4.99500 Y5.03410
G01 X-4.99965 Y5.03446
G01 X-5.00457 Y5.03416
G01 X-5.00874 Y5.03334
G01 X-5.01292 Y5.03195
G01 X-5.01735 Y5.02978
G01 X-5.02100 Y5.02733
G01 X-5.02290 Y5.02568
G01 X-5.35216 Y5.35494
G01 X-5.35280 Y5.35537
G01 X-5.35355 Y5.35552
G01 X-5.35431 Y5.35537
G01 X-5.35494 Y5.35494
G01 X-5.92063 Y4.78926
G01 X-5.92117 Y4.78825
G01 X-5.92117 Y4.78748
G01 X-5.92063 Y4.78648
G01 X-5.56708 Y4.43292
G01 X-5.56644 Y4.43250
G01 X-5.56569 Y4.43235
G01 X-5.56493 Y4.43250
G01 X-5.56429 Y4.43292
G01 X-5.02293 Y4.97429
G01 X-5.02002 Y4.97194
G01 X-5.01754 Y4.97033
G01 X-5.01529 Y4.96911
G01 X-5.01258 Y4.96791
G01 X-5.01032 Y4.96711
G01 X-5.00770 Y4.96640
G01 X-5.00495 Y4.96589
G01 X-5.00241 Y4.96562
G01 X-4.99945 Y4.96554
G01 X-4.99632 Y4.96573
G01 X-4.99379 Y4.96610
G01 X-4.99091 Y4.96675
G01 X-4.98846 Y4.96752
G01 X-4.98586 Y4.96856
G01 X-4.98344 Y4.96977
G01 X-4.98125 Y4.97108
G01 X-4.97896 Y4.97270
G01 X-4.97699 Y4.97434
G01 X-4.97487 Y4.97640
G01 X-4.97319 Y4.97834
G01 X-4.97134 Y4.98086
G01 X-4.96988 Y4.98325
G01 X-4.96855 Y4.98590
G01 X-4.96740 Y4.98881
G01 X-4.96666 Y4.99126
G01 X-4.96603 Y4.99416
G01 X-4.96569 Y4.99669
G01 X-4.96553 Y4.99965
G04 P0 ( dwell for no time -- G64 should not smooth over this point )
G00 Z0.08000 ( retract )

G00 X-3.87429 Y4.91161 ( rapid move to begin. )
G01 F180.00000
( Mill infeed pass 1/1 )
G01 Z-0.04000
G04 P0 ( dwell for no time -- G64 should not smooth over this point )
G01 F360.00000
G01 X-3.87429 Y4.91161
G01 X-0.03783 Y0.03783
G04 P0 ( dwell for no time -- G64 should not smooth over this point )
G00 Z0.08000 ( retract )

G00 X0.03841 Y0.00000 ( rapid move to begin. )
G01 F180.00000
( Mill infeed pass 1/1 )
G01 Z-0.04000
G04 P0 ( dwell for no time -- G64 should not smooth over this point )
G01 F360.00000
G01 X0.03841 Y0.00000
G01 X0.03824 Y-0.00350
G01 X0.03771 Y-0.00726
G01 X0.03680 Y-0.01095
G01 X0.03554 Y-0.01453
G01 X0.03393 Y-0.01797
G01 X0.03199 Y-0.02124
G01 X0.02974 Y-0.02430
G01 X0.02719 Y-0.02711
G01 X0.02438 Y-0.02967
G01 X0.02133 Y-0.03193
G01 X0.01807 Y-0.03388
G01 X0.01464 Y-0.03550
G01 X0.01106 Y-0.03677
G01 X0.00737 Y-0.03769
G01 X0.00361 Y-0.03823
G01 X-0.00000 Y-0.03841
G01 X-10.00000 Y-0.03841
G01 X-10.00350 Y-0.03824
G01 X-10.00726 Y-0.03771
G01 X-10.01095 Y-0.03680
G01 X-10.01453 Y-0.03554
G01 X-10.01797 Y-0.03393
G01 X-10.02124 Y-0.03199
G01 X-10.02430 Y-0.02974
G01 X-10.02711 Y-0.02719
G01 X-10.02967 Y-0.02438
G01 X-10.03193 Y-0.02133
G01 X-10.03388 Y-0.01807
G01 X-10.03550 Y-0.01464
G01 X-10.03677 Y-0.01106
G01 X-10.03768 Y-0.00737
G01 X-10.03823 Y-0.00361
G01 X-10.03840 Y0.00000
G01 X-10.03840 Y10.00000
G01 X-10.03824 Y10.00350
G01 X-10.03771 Y10.00726
G01 X-10.03680 Y10.01095
G01 X-10.03554 Y10.01453
G01 X-10.03393 Y10.01797
G01 X-10.03199 Y10.02124
G01 X-10.02974 Y10.02430
G01 X-10.02719 Y10.02711
G01 X-10.02438 Y10.02967
G01 X-10.02133 Y10.03193
G01 X-10.01807 Y10.03388
G01 X-10.01464 Y10.03550
G01 X-10.01106 Y10.03677
G01 X-10.00737 Y10.03768
G01 X-10.00361 Y10.03823
G01 X-10.00000 Y10.03840
G01 X-0.00000 Y10.03840
G01 X0.00350 Y10.03824
G01 X0.00726 Y10.03771
G01 X0.01095 Y10.03680
G01 X0.01453 Y10.03554
G01 X0.01797 Y10.03393
G01 X0.02124 Y10.03199
G01 X0.02430 Y10.02974
G01 X0.02711 Y10.02719
G01 X0.02967 Y10.02438
G01 X0.03193 Y10.02133
G01 X0.03388 Y10.01807
G01 X0.03550 Y10.01464
G01 X0.03677 Y10.01106
G01 X0.03769 Y10.00737
G01 X0.03823 Y10.00361
G01 X0.03841 Y10.00000
G01 X0.03841 Y0.00000
G01 X0.03644 Y0.00000
G01 X0.03644 Y10.00000
G01 X0.03628 Y10.00334
G01 X0.03577 Y10.00691
G01 X0.03491 Y10.01041
G01 X0.03371 Y10.01381
G01 X0.03218 Y10.01707
G01 X0.03034 Y10.02017
G01 X0.02820 Y10.02307
G01 X0.02578 Y10.02574
G01 X0.02311 Y10.02816
G01 X0.02022 Y10.03031
G01 X0.01713 Y10.03216
G01 X0.01387 Y10.03369
G01 X0.01047 Y10.03490
G01 X0.00697 Y10.03576
G01 X0.00341 Y10.03627
G01 X-0.00000 Y10.03644
G01 X-10.00000 Y10.03644
G01 X-10.00334 Y10.03628
G01 X-10.00691 Y10.03577
G01 X-10.01041 Y10.03491
G01 X-10.01381 Y10.03371
G01 X-10.01707 Y10.03218
G01 X-10.02017 Y10.03034
G01 X-10.02307 Y10.02820
G01 X-10.02574 Y10.02578
G01 X-10.02816 Y10.02311
G01 X-10.03031 Y10.02022
G01 X-10.03216 Y10.01713
G01 X-10.03369 Y10.01387
G01 X-10.03490 Y10.01047
G01 X-10.03576 Y10.00697
G01 X-10.03627 Y10.00341
G01 X-10.03644 Y10.00000
G01 X-10.03644 Y0.00000
G01 X-10.03628 Y-0.00334
G01 X-10.03577 Y-0.00691
G01 X-10.03491 Y-0.01041
G01 X-10.03371 Y-0.01381
G01 X-10.03218 Y-0.01707
G01 X-10.03034 Y-0.02017
G01 X-10.02820 Y-0.02307
G01 X-10.02578 Y-0.02574
G01 X-10.02311 Y-0.02816
G01 X-10.02022 Y-0.03031
G01 X-10.01713 Y-0.03216
G01 X-10.01387 Y-0.03369
G01 X-10.01047 Y-0.03490
G01 X-10.00697 Y-0.03576
G01 X-10.00341 Y-0.03627
G01 X-10.00000 Y-0.03644
G01 X-0.00000 Y-0.03644
G01 X0.00334 Y-0.03628
G01 X0.00691 Y-0.03577
G01 X0.01041 Y-0.03491
G01 X0.01381 Y-0.03371
G01 X0.01707 Y-0.03218
G01 X0.02017 Y-0.03034
G01 X0.02307 Y-0.02820
G01 X0.02574 Y-0.02578
G01 X0.02816 Y-0.02311
G01 X0.03031 Y-0.02022
G01 X0.03216 Y-0.01713
G01 X0.03369 Y-0.01387
G01 X0.03490 Y-0.01047
G01 X0.03576 Y-0.00697
G01 X0.03627 Y-0.00341
G01 X0.03644 Y0.00000
G01 X0.03447 Y0.00000
G01 X0.03447 Y10.00000
G01 X0.03433 Y10.00308
G01 X0.03386 Y10.00645
G01 X0.03305 Y10.00977
G01 X0.03193 Y10.01298
G01 X0.03049 Y10.01607
G01 X0.02875 Y10.01901
G01 X0.02686 Y10.02160
G01 X0.02445 Y10.02429
G01 X0.02193 Y10.02659
G01 X0.01920 Y10.02862
G01 X0.01645 Y10.03029
G01 X0.01320 Y10.03184
G01 X0.00999 Y10.03299
G01 X0.00687 Y10.03377
G01 X0.00331 Y10.03431
G01 X-0.00000 Y10.03447
G01 X-10.00000 Y10.03447
G01 X-10.00308 Y10.03433
G01 X-10.00645 Y10.03386
G01 X-10.00977 Y10.03305
G01 X-10.01298 Y10.03193
G01 X-10.01607 Y10.03049
G01 X-10.01901 Y10.02875
G01 X-10.02160 Y10.02685
G01 X-10.02429 Y10.02445
G01 X-10.02659 Y10.02193
G01 X-10.02862 Y10.01920
G01 X-10.03029 Y10.01645
