( pcb2gcode 2.5.0 )
( Software-independent Gcode )

G94 ( Inches per minute feed rate. )
G20 ( Units == INCHES. )

G90 ( Absolute coordinates. )
G00 S12000 ( RPM spindle speed. )
G64 P0.00040 ( set maximum deviation from commanded toolpath )
G01 F360.00000 ( Feedrate. )


G00 Z1.00000 (Retract to tool change height)
T1
M5      (Spindle stop.)
G04 P1.00000 (Wait for spindle to stop)
(MSG, Change tool bit to mill diameter 0.03937in)
M6      (Tool change.)
M0      (Temporary machine stop.)
M3 ( Spindle on clockwise. )
G04 P1.00000 (Wait for spindle to get up to speed)
G04 P0 ( dwell for no time -- G64 should not smooth over this point )
G00 Z0.08000 ( retract )

G00 X4.50000 Y-3.83779 ( rapid move to begin. )
G01 F180.00000
( Mill infeed pass 1/1 )
G01 Z-0.04000
G04 P0 ( dwell for no time -- G64 should not smooth over this point )
G01 F360.00000
G01 X4.50000 Y-3.83779
G01 X4.50000 Y-4.00000
G01 X4.95000 Y-4.00000
G01 X4.95000 Y-3.70000
G01 X4.50000 Y-3.70000
G01 X4.50000 Y-3.79014
G01 X4.50033 Y-3.78995
G01 X4.50519 Y-3.78937
G01 X4.53940 Y-3.78940
G01 X4.53940 Y-3.78853
G01 X4.52712 Y-3.75841
G01 X4.53940 Y-3.78853
G01 X4.54025 Y-3.78941
G01 X4.55282 Y-3.78941
G01 X4.55525 Y-3.78962
G01 X4.55527 Y-3.78944
G01 X4.55525 Y-3.78962
G01 X4.55920 Y-3.79051
G01 X4.56226 Y-3.79163
G01 X4.56231 Y-3.79150
G01 X4.56226 Y-3.79163
G01 X4.56619 Y-3.79378
G01 X4.57010 Y-3.79733
G01 X4.57019 Y-3.79726
G01 X4.57010 Y-3.79733
G01 X4.57164 Y-3.79923
G01 X4.57364 Y-3.80229
G01 X4.57484 Y-3.80487
G01 X4.57563 Y-3.80718
G01 X4.57634 Y-3.81076
G01 X4.57659 Y-3.81319
G01 X4.57657 Y-3.81522
G01 X4.57634 Y-3.81724
G01 X4.57583 Y-3.82003
G01 X4.57514 Y-3.82237
G01 X4.57324 Y-3.82642
G01 X4.57115 Y-3.82942
G01 X4.56954 Y-3.83125
G01 X4.56974 Y-3.83145
G01 X4.56954 Y-3.83125
G01 X4.56679 Y-3.83366
G01 X4.56262 Y-3.83619
G01 X4.56273 Y-3.83641
G01 X4.56262 Y-3.83619
G01 X4.55882 Y-3.83764
G01 X4.55605 Y-3.83825
G01 X4.55608 Y-3.83842
G01 X4.55605 Y-3.83825
G01 X4.55281 Y-3.83859
G01 X4.54615 Y-3.83860
G01 X4.54518 Y-3.84052
G01 X4.53942 Y-3.84938
G01 X4.52724 Y-3.89191
G01 X4.51975 Y-3.89940
G01 X4.50752 Y-3.92939
G01 X4.51975 Y-3.89940
G01 X4.51973 Y-3.83859
G01 X4.50518 Y-3.83859
G01 X4.50275 Y-3.83838
G01 X4.50076 Y-3.83799
G01 X4.49687 Y-3.83684
G01 X4.49358 Y-3.83523
G01 X4.49122 Y-3.83365
G01 X4.48818 Y-3.83096
G01 X4.48613 Y-3.82844
G01 X4.48458 Y-3.82605
G01 X4.48363 Y-3.82425
G01 X4.48251 Y-3.82120
G01 X4.48156 Y-3.81684
G01 X4.48143 Y-3.81278
G01 X4.48183 Y-3.80955
G01 X4.48286 Y-3.80563
G01 X4.48476 Y-3.80158
G01 X4.48762 Y-3.79764
G01 X4.48964 Y-3.79563
G01 X4.49121 Y-3.79433
G01 X4.49538 Y-3.79181
G01 X4.49725 Y-3.79101
G01 X4.50000 Y-3.79014
G01 X4.50000 Y-3.83779
G01 X4.50315 Y-3.83844
G01 X4.50314 Y-3.83855
G01 X4.50315 Y-3.83844
G01 X4.50559 Y-3.83859
G01 X4.53942 Y-3.83860
G01 X4.53942 Y-3.84938
G01 X4.53942 Y-3.83860
G01 X4.50559 Y-3.83859
G01 X4.51973 Y-3.83860
G01 X4.51975 Y-3.89940
G01 X4.53784 Y-3.88131
G01 X4.54641 Y-3.87222
G01 X4.55588 Y-3.86036
G01 X4.56223 Y-3.85045
G01 X4.56671 Y-3.84164
G01 X4.56954 Y-3.83405
G01 X4.57060 Y-3.83011
G01 X4.57352 Y-3.82611
G01 X4.57527 Y-3.82199
G01 X4.57540 Y-3.82203
G01 X4.57527 Y-3.82199
G01 X4.57600 Y-3.81924
G01 X4.57657 Y-3.81522
G01 X4.57675 Y-3.81523
G01 X4.57657 Y-3.81522
G01 X4.57657 Y-3.81278
G01 X4.57616 Y-3.80915
G01 X4.57563 Y-3.80718
G01 X4.57508 Y-3.80521
G01 X4.57298 Y-3.80116
G01 X4.57305 Y-3.79490
G01 X4.57455 Y-3.79431
G01 X4.57305 Y-3.79490
G01 X4.53834 Y-3.75917
G01 X4.52773 Y-3.74747
G01 X4.51970 Y-3.73744
G01 X4.51971 Y-3.78940
G01 X4.53940 Y-3.78940
G01 X4.53940 Y-3.78853
G01 X4.53940 Y-3.78940
G01 X4.51971 Y-3.78940
G01 X4.51970 Y-3.73744
G01 X4.50654 Y-3.70000
G01 X4.51720 Y-3.70000
G01 X4.51897 Y-3.70279
G01 X4.53005 Y-3.71878
G01 X4.54275 Y-3.73475
G01 X4.55243 Y-3.74543
G01 X4.59285 Y-3.78705
G01 X4.62205 Y-3.78189
G01 X4.62816 Y-3.78119
G01 X4.63621 Y-3.78108
G01 X4.64353 Y-3.78183
G01 X4.65240 Y-3.78380
G01 X4.65402 Y-3.78428
G01 X4.66539 Y-3.78875
G01 X4.66701 Y-3.78954
G01 X4.67705 Y-3.79528
G01 X4.68757 Y-3.80292
G01 X4.68877 Y-3.80390
G01 X4.68680 Y-3.81459
G01 X4.68573 Y-3.82184
G01 X4.68505 Y-3.83675
G01 X4.70472 Y-3.83583
G01 X4.70531 Y-3.84462
G01 X4.70653 Y-3.85166
G01 X4.70838 Y-3.85863
G01 X4.70608 Y-3.86074
G01 X4.70838 Y-3.85863
G01 X4.71676 Y-3.86126
G01 X4.72529 Y-3.86296
G01 X4.73383 Y-3.86376
G01 X4.81721 Y-3.86381
G01 X4.82222 Y-3.86414
G01 X4.83361 Y-3.86405
G01 X4.83814 Y-3.86340
G01 X4.83993 Y-3.86575
G01 X4.83814 Y-3.86340
G01 X4.84195 Y-3.85447
G01 X4.84381 Y-3.85296
G01 X4.84550 Y-3.85120
G01 X4.84559 Y-3.85128
G01 X4.84550 Y-3.85120
G01 X4.84725 Y-3.84896
G01 X4.84873 Y-3.84653
G01 X4.84882 Y-3.84658
G01 X4.84873 Y-3.84653
G01 X4.84977 Y-3.84432
G01 X4.85045 Y-3.84240
G01 X4.85055 Y-3.84244
G01 X4.85045 Y-3.84240
G01 X4.85126 Y-3.83884
G01 X4.85153 Y-3.83683
G01 X4.85168 Y-3.83684
G01 X4.85153 Y-3.83683
G01 X4.85159 Y-3.83439
G01 X4.85123 Y-3.83075
G01 X4.85138 Y-3.83072
G01 X4.85123 Y-3.83075
G01 X4.85045 Y-3.82759
G01 X4.84944 Y-3.82493
G01 X4.84957 Y-3.82488
G01 X4.84944 Y-3.82493
G01 X4.84792 Y-3.82206
G01 X4.84654 Y-3.82005
G01 X4.84665 Y-3.81996
G01 X4.84654 Y-3.82005
G01 X4.84440 Y-3.81760
G01 X4.84182 Y-3.81528
G01 X4.84137 Y-3.81382
G01 X4.83863 Y-3.80717
G01 X4.83199 Y-3.79540
G01 X4.83419 Y-3.78879
G01 X4.83199 Y-3.79540
G01 X4.82561 Y-3.79861
G01 X4.81485 Y-3.80302
G01 X4.79779 Y-3.80794
G01 X4.78770 Y-3.80940
G01 X4.73577 Y-3.80935
G01 X4.73255 Y-3.80983
G01 X4.72906 Y-3.81071
G01 X4.72290 Y-3.81165
G01 X4.71351 Y-3.81423
G01 X4.70629 Y-3.81748
G01 X4.70410 Y-3.81581
G01 X4.70629 Y-3.81748
G01 X4.70533 Y-3.82357
G01 X4.70468 Y-3.83583
G01 X4.71241 Y-3.83400
G01 X4.71273 Y-3.83805
G01 X4.71386 Y-3.84237
G01 X4.71357 Y-3.84248
G01 X4.71386 Y-3.84237
G01 X4.71556 Y-3.84607
G01 X4.71810 Y-3.84974
G01 X4.71788 Y-3.84992
G01 X4.71810 Y-3.84974
G01 X4.72066 Y-3.85235
G01 X4.72254 Y-3.85390
G01 X4.72423 Y-3.85503
G01 X4.72409 Y-3.85526
G01 X4.72423 Y-3.85503
G01 X4.72749 Y-3.85669
G01 X4.73175 Y-3.85803
G01 X4.73171 Y-3.85821
G01 X4.73175 Y-3.85803
G01 X4.73376 Y-3.85839
G01 X4.73700 Y-3.85864
G01 X4.82006 Y-3.85861
G01 X4.82276 Y-3.85920
G01 X4.82720 Y-3.85960
G01 X4.82720 Y-3.85976
G01 X4.82720 Y-3.85960
G01 X4.83246 Y-3.85907
G01 X4.83669 Y-3.85761
G01 X4.83678 Y-3.85778
G01 X4.83669 Y-3.85761
G01 X4.83993 Y-3.85590
G01 X4.84289 Y-3.85376
G01 X4.84496 Y-3.85181
G01 X4.84725 Y-3.84896
G01 X4.84873 Y-3.84653
G01 X4.85007 Y-3.84356
G01 X4.85085 Y-3.84083
G01 X4.85150 Y-3.83723
G01 X4.85153 Y-3.83358
G01 X4.85116 Y-3.83035
G01 X4.85020 Y-3.82682
G01 X4.84909 Y-3.82420
G01 X4.84726 Y-3.82104
G01 X4.84468 Y-3.81789
G01 X4.84028 Y-3.81388
G01 X4.83641 Y-3.81162
G01 X4.83332 Y-3.81051
G01 X4.83141 Y-3.81000
G01 X4.83143 Y-3.80988
G01 X4.83141 Y-3.81000
G01 X4.82814 Y-3.80951
G01 X4.82600 Y-3.80936
G01 X4.73659 Y-3.80941
G01 X4.73375 Y-3.80962
G01 X4.72940 Y-3.81060
G01 X4.72638 Y-3.81181
G01 X4.72423 Y-3.81297
G01 X4.72409 Y-3.81274
G01 X4.72423 Y-3.81297
G01 X4.72035 Y-3.81591
G01 X4.71784 Y-3.81858
G01 X4.71762 Y-3.81840
G01 X4.71784 Y-3.81858
G01 X4.71538 Y-3.82230
G01 X4.71387 Y-3.82563
G01 X4.71360 Y-3.82553
G01 X4.71387 Y-3.82563
G01 X4.71268 Y-3.83035
G01 X4.71241 Y-3.83400
G01 X4.70472 Y-3.83583
G01 X4.68505 Y-3.83675
G01 X4.68576 Y-3.84660
G01 X4.68719 Y-3.85535
G01 X4.69016 Y-3.86671
G01 X4.69250 Y-3.87350
G01 X4.70014 Y-3.87662
G01 X4.71234 Y-3.88042
G01 X4.72316 Y-3.88251
G01 X4.73332 Y-3.88342
G01 X4.81721 Y-3.88350
G01 X4.82171 Y-3.88383
G01 X4.83453 Y-3.88369
G01 X4.84501 Y-3.88234
G01 X4.85105 Y-3.88105
G01 X4.85534 Y-3.87326
G01 X4.86029 Y-3.86171
G01 X4.86287 Y-3.85297
G01 X4.86464 Y-3.84208
G01 X4.86494 Y-3.83245
G01 X4.86425 Y-3.82433
G01 X4.86271 Y-3.81638
G01 X4.86003 Y-3.80752
G01 X4.85740 Y-3.80102
G01 X4.85619 Y-3.79832
G01 X4.84774 Y-3.78322
G01 X4.83775 Y-3.76982
G01 X4.83872 Y-3.76396
G01 X4.83985 Y-3.75184
G01 X4.84148 Y-3.70000
G01 X4.83985 Y-3.75184
G01 X4.83872 Y-3.76396
G01 X4.83775 Y-3.76982
G01 X4.82599 Y-3.77636
G01 X4.81733 Y-3.78075
G01 X4.80789 Y-3.78461
G01 X4.79395 Y-3.78863
G01 X4.78107 Y-3.79034
G01 X4.77600 Y-3.79050
G01 X4.73658 Y-3.79051
G01 X4.72736 Y-3.79105
G01 X4.71839 Y-3.79250
G01 X4.70796 Y-3.79538
G01 X4.70634 Y-3.79594
G01 X4.69075 Y-3.80283
G01 X4.68877 Y-3.80390
G01 X4.67705 Y-3.79528
G01 X4.66701 Y-3.78954
G01 X4.66539 Y-3.78875
G01 X4.65402 Y-3.78428
G01 X4.65240 Y-3.78380
G01 X4.64353 Y-3.78183
G01 X4.63621 Y-3.78108
G01 X4.62816 Y-3.78119
G01 X4.62205 Y-3.78189
G01 X4.59285 Y-3.78705
G01 X4.57427 Y-3.76790
G01 X4.58847 Y-3.75427
G01 X4.59608 Y-3.74782
G01 X4.59641 Y-3.74781
G01 X4.59708 Y-3.75264
G01 X4.59816 Y-3.75613
G01 X4.59787 Y-3.75625
G01 X4.59816 Y-3.75613
G01 X4.59997 Y-3.75977
G01 X4.60290 Y-3.76367
G01 X4.60265 Y-3.76389
G01 X4.60290 Y-3.76367
G01 X4.60427 Y-3.76502
G01 X4.60654 Y-3.76690
G01 X4.60858 Y-3.76823
G01 X4.61111 Y-3.76953
G01 X4.61100 Y-3.76980
G01 X4.61111 Y-3.76953
G01 X4.61341 Y-3.77037
G01 X4.61655 Y-3.77120
G01 X4.61937 Y-3.77154
G01 X4.61936 Y-3.77168
G01 X4.61937 Y-3.77154
G01 X4.72429 Y-3.77161
G01 X4.71436 Y-3.77323
G01 X4.70272 Y-3.77641
G01 X4.69995 Y-3.77732
G01 X4.69114 Y-3.78113
G01 X4.69097 Y-3.78344
G01 X4.69114 Y-3.78113
G01 X4.68681 Y-3.77818
G01 X4.67514 Y-3.77161
G01 X4.77600 Y-3.77161
G01 X4.77815 Y-3.77156
G01 X4.78179 Y-3.77091
G01 X4.78444 Y-3.77009
G01 X4.78783 Y-3.76857
G01 X4.78791 Y-3.76873
G01 X4.78783 Y-3.76857
G01 X4.79022 Y-3.76704
G01 X4.79356 Y-3.76430
G01 X4.79678 Y-3.76063
G01 X4.79688 Y-3.76070
G01 X4.79678 Y-3.76063
G01 X4.79812 Y-3.75858
G01 X4.79961 Y-3.75570
G01 X4.79972 Y-3.75574
G01 X4.79961 Y-3.75570
G01 X4.80045 Y-3.75340
G01 X4.80116 Y-3.75065
G01 X4.80127 Y-3.75067
G01 X4.80116 Y-3.75065
G01 X4.80170 Y-3.74539
G01 X4.80086 Y-3.74004
G01 X4.80089 Y-3.73937
G01 X4.80114 Y-3.73930
G01 X4.80070 Y-3.73937
G01 X4.79945 Y-3.73593
G01 X4.79790 Y-3.73307
G01 X4.79805 Y-3.73298
G01 X4.79790 Y-3.73307
G01 X4.79523 Y-3.72949
G01 X4.79289 Y-3.72724
G01 X4.79305 Y-3.72705
G01 X4.79289 Y-3.72724
G01 X4.78960 Y-3.72486
G01 X4.78632 Y-3.72323
G01 X4.78641 Y-3.72301
G01 X4.78632 Y-3.72323
G01 X4.78362 Y-3.72233
G01 X4.77923 Y-3.72150
G01 X4.77925 Y-3.72122
G01 X4.77923 Y-3.72150
G01 X4.77720 Y-3.72140
G01 X4.77517 Y-3.72150
G01 X4.77237 Y-3.72186
G01 X4.77006 Y-3.72239
G01 X4.62018 Y-3.72237
G01 X4.61533 Y-3.72295
G01 X4.61070 Y-3.72454
G01 X4.60648 Y-3.72702
G01 X4.60290 Y-3.73033
G01 X4.60282 Y-3.73026
G01 X4.60290 Y-3.73033
G01 X4.59968 Y-3.73453
G01 X4.59786 Y-3.73863
G01 X4.59767 Y-3.73857
G01 X4.59786 Y-3.73863
G01 X4.59700 Y-3.74176
G01 X4.59641 Y-3.74619
G01 X4.59643 Y-3.74822
G01 X4.59666 Y-3.75024
G01 X4.59748 Y-3.75421
G01 X4.59899 Y-3.75799
G01 X4.59997 Y-3.75977
G01 X4.60136 Y-3.76177
G01 X4.60346 Y-3.76425
G01 X4.60687 Y-3.76714
G01 X4.61038 Y-3.76919
G01 X4.61225 Y-3.76999
G01 X4.61457 Y-3.77072
G01 X4.61816 Y-3.77143
G01 X4.62100 Y-3.77161
G01 X4.77600 Y-3.77161
G01 X4.78024 Y-3.77121
G01 X4.78218 Y-3.77082
G01 X4.78431 Y-3.77014
G01 X4.78936 Y-3.76949
G01 X4.80168 Y-3.76594
G01 X4.80328 Y-3.76530
G01 X4.80953 Y-3.76269
G01 X4.81956 Y-3.75739
G01 X4.82211 Y-3.75901
G01 X4.81956 Y-3.75739
G01 X4.82021 Y-3.75051
G01 X4.82121 Y-3.71969
G01 X4.82756 Y-3.71361
G01 X4.82121 Y-3.71969
G01 X4.55583 Y-3.71969
G01 X4.52983 Y-3.70804
G01 X4.55583 Y-3.71969
G01 X4.55756 Y-3.72178
G01 X4.56677 Y-3.73194
G01 X4.59969 Y-3.76583
G01 X4.59889 Y-3.76831
G01 X4.59969 Y-3.76583
G01 X4.60435 Y-3.76509
G01 X4.59969 Y-3.76583
G01 X4.58847 Y-3.75427
G01 X4.57427 Y-3.76790
G01 X4.59285 Y-3.78705
G01 X4.59249 Y-3.81500
G01 X4.59225 Y-3.81991
G01 X4.59080 Y-3.83054
G01 X4.58852 Y-3.83934
G01 X4.58451 Y-3.84995
G01 X4.57906 Y-3.86062
G01 X4.57158 Y-3.87220
G01 X4.56147 Y-3.88486
G01 X4.55197 Y-3.89503
G01 X4.51598 Y-3.93100
G01 X4.50555 Y-3.94192
G01 X4.50000 Y-3.94798
G01 X4.50000 Y-4.00000
G01 X4.51968 Y-3.98031
G01 X4.93031 Y-3.98031
G01 X4.93608 Y-3.98608
G01 X4.93031 Y-3.98031
G01 X4.93031 Y-3.71969
G01 X4.93608 Y-3.71392
G01 X4.93031 Y-3.71969
G01 X4.86061 Y-3.71969
G01 X4.85526 Y-3.71415
G01 X4.86061 Y-3.71969
G01 X4.85945 Y-3.75368
G01 X4.85843 Y-3.76456
G01 X4.85712 Y-3.76492
G01 X4.85843 Y-3.76456
G01 X4.86260 Y-3.77009
G01 X4.86492 Y-3.77361
G01 X4.87413 Y-3.79023
G01 X4.87840 Y-3.80045
G01 X4.87840 Y-3.86942
G01 X4.87284 Y-3.88226
G01 X4.86823 Y-3.89066
G01 X4.86583 Y-3.89405
G01 X4.86277 Y-3.89687
G01 X4.85918 Y-3.89897
G01 X4.85523 Y-3.90028
G01 X4.84766 Y-3.90184
G01 X4.83616 Y-3.90331
G01 X4.82192 Y-3.90351
G01 X4.81644 Y-3.90318
G01 X4.73292 Y-3.90310
G01 X4.72031 Y-3.90199
G01 X4.70750 Y-3.89950
G01 X4.69459 Y-3.89555
G01 X4.68505 Y-3.89172
G01 X4.68139 Y-3.88975
G01 X4.67822 Y-3.88705
G01 X4.67569 Y-3.88375
G01 X4.67391 Y-3.87999
G01 X4.67141 Y-3.87272
G01 X4.66834 Y-3.86121
G01 X4.66778 Y-3.85860
G01 X4.66623 Y-3.84904
G01 X4.66537 Y-3.83715
G01 X4.66536 Y-3.83450
G01 X4.66607 Y-3.82082
G01 X4.66722 Y-3.81242
G01 X4.67096 Y-3.81054
G01 X4.66722 Y-3.81242
G01 X4.65780 Y-3.80695
G01 X4.65599 Y-3.80625
G01 X4.65410 Y-3.80219
G01 X4.65109 Y-3.79835
G01 X4.65121 Y-3.79823
G01 X4.65109 Y-3.79835
G01 X4.64966 Y-3.79690
G01 X4.64810 Y-3.79560
G01 X4.64470 Y-3.79338
G01 X4.64483 Y-3.79314
G01 X4.64470 Y-3.79338
G01 X4.64137 Y-3.79187
G01 X4.63705 Y-3.79073
G01 X4.63710 Y-3.79044
G01 X4.63705 Y-3.79073
G01 X4.63341 Y-3.79040
G01 X4.63137 Y-3.79046
G01 X4.62855 Y-3.79081
G01 X4.62852 Y-3.79060
G01 X4.62855 Y-3.79081
G01 X4.62579 Y-3.79148
G01 X4.62274 Y-3.79263
G01 X4.62268 Y-3.79249
G01 X4.62274 Y-3.79263
G01 X4.61955 Y-3.79442
G01 X4.61757 Y-3.79583
G01 X4.61748 Y-3.79572
G01 X4.61757 Y-3.79583
G01 X4.61546 Y-3.79775
G01 X4.61360 Y-3.79990
G01 X4.61348 Y-3.79981
G01 X4.61360 Y-3.79990
G01 X4.61197 Y-3.80223
G01 X4.61032 Y-3.80549
G01 X4.61010 Y-3.80541
G01 X4.61032 Y-3.80549
G01 X4.60960 Y-3.80740
G01 X4.60908 Y-3.80936
G01 X4.60843 Y-3.81378
G01 X4.60831 Y-3.81377
G01 X4.60843 Y-3.81378
G01 X4.60839 Y-3.88781
G01 X4.60530 Y-3.89264
G01 X4.60234 Y-3.89676
G01 X4.59224 Y-3.90943
G01 X4.58991 Y-3.91214
G01 X4.57981 Y-3.92287
G01 X4.54213 Y-3.96063
G01 X4.51968 Y-3.97022
G01 X4.51968 Y-3.98031
G01 X4.51380 Y-3.98615
G01 X4.51968 Y-3.98031
G01 X4.51968 Y-3.95563
G01 X4.51992 Y-3.95537
G01 X4.51850 Y-3.95478
G01 X4.51992 Y-3.95537
G01 X4.53006 Y-3.94476
G01 X4.56589 Y-3.90895
G01 X4.57473 Y-3.89958
G01 X4.57685 Y-3.89714
G01 X4.58760 Y-3.88364
G01 X4.59617 Y-3.87035
G01 X4.60290 Y-3.85705
G01 X4.60687 Y-3.84657
G01 X4.60839 Y-3.84118
G01 X4.60841 Y-3.81419
G01 X4.60908 Y-3.80936
G01 X4.61001 Y-3.80625
G01 X4.61156 Y-3.80293
G01 X4.61336 Y-3.80023
G01 X4.61517 Y-3.79804
G01 X4.61725 Y-3.79610
G01 X4.61921 Y-3.79464
G01 X4.62238 Y-3.79281
G01 X4.62540 Y-3.79161
G01 X4.62775 Y-3.79096
G01 X4.63219 Y-3.79041
G01 X4.63624 Y-3.79061
G01 X4.63825 Y-3.79097
G01 X4.64098 Y-3.79175
G01 X4.64435 Y-3.79318
G01 X4.64842 Y-3.79584
G01 X4.65109 Y-3.79835
G01 X4.65403 Y-3.80223
G01 X4.65501 Y-3.80401
G01 X4.65599 Y-3.80625
G01 X4.65692 Y-3.80936
G01 X4.65768 Y-3.81417
G01 X4.65760 Y-3.89128
G01 X4.65889 Y-3.89401
G01 X4.66395 Y-3.90061
G01 X4.67028 Y-3.90600
G01 X4.67473 Y-3.90839
G01 X4.87081 Y-3.90839
G01 X4.87839 Y-3.90081
G01 X4.87837 Y-3.74959
G01 X4.87868 Y-3.74635
G01 X4.87957 Y-3.74250
G01 X4.87967 Y-3.73937
G01 X4.87530 Y-3.73443
G01 X4.87967 Y-3.73937
G01 X4.88085 Y-3.73937
G01 X4.88264 Y-3.73621
G01 X4.88436 Y-3.73395
G01 X4.88421 Y-3.73381
G01 X4.88436 Y-3.73395
G01 X4.88758 Y-3.73086
G01 X4.88988 Y-3.72918
G01 X4.88977 Y-3.72900
G01 X4.88988 Y-3.72918
G01 X4.89240 Y-3.72785
G01 X4.89618 Y-3.72636
G01 X4.89612 Y-3.72620
G01 X4.89618 Y-3.72636
G01 X4.89855 Y-3.72581
G01 X4.90219 Y-3.72541
G01 X4.90218 Y-3.72522
G01 X4.90219 Y-3.72541
G01 X4.90543 Y-3.72554
G01 X4.90943 Y-3.72626
G01 X4.90948 Y-3.72607
G01 X4.90943 Y-3.72626
G01 X4.91175 Y-3.72701
G01 X4.91539 Y-3.72880
G01 X4.91546 Y-3.72868
G01 X4.91539 Y-3.72880
G01 X4.91811 Y-3.73058
G01 X4.91994 Y-3.73220
G01 X4.92006 Y-3.73208
G01 X4.91994 Y-3.73220
G01 X4.92265 Y-3.73522
G01 X4.92424 Y-3.73758
G01 X4.92439 Y-3.73749
G01 X4.92424 Y-3.73758
G01 X4.92568 Y-3.74049
G01 X4.92663 Y-3.74318
G01 X4.92679 Y-3.74313
G01 X4.92663 Y-3.74318
G01 X4.92734 Y-3.74676
G01 X4.92766 Y-3.74959
G01 X4.92755 Y-3.91262
G01 X4.92766 Y-3.91263
G01 X4.92755 Y-3.91262
G01 X4.92711 Y-3.91575
G01 X4.92612 Y-3.91933
G01 X4.92627 Y-3.91939
G01 X4.92612 Y-3.91933
G01 X4.92521 Y-3.92158
G01 X4.92389 Y-3.92408
G01 X4.92094 Y-3.92790
G01 X4.91063 Y-3.93813
G01 X4.91063 Y-3.96063
G01 X4.91639 Y-3.96639
G01 X4.91063 Y-3.96063
G01 X4.54213 Y-3.96063

G04 P0 ( dwell for no time -- G64 should not smooth over this point )
G00 Z1.000000 ( retract )

M5 ( Spindle off. )
G04 P1.000000
M9 ( Coolant off. )
M2 ( Program end. )

