( pcb2gcode 2.5.0 )
( Software-independent Gcode )

G94 ( Inches per minute feed rate. )
G20 ( Units == INCHES. )

G90 ( Absolute coordinates. )
G00 S12000 ( RPM spindle speed. )
G64 P0.00040 ( set maximum deviation from commanded toolpath )
G01 F360.00000 ( Feedrate. )


G00 Z1.00000 (Retract to tool change height)
T1
M5      (Spindle stop.)
G04 P1.00000 (Wait for spindle to stop)
(MSG, Change tool bit to mill diameter 0.11811in)
M6      (Tool change.)
M0      (Temporary machine stop.)
M3 ( Spindle on clockwise. )
G04 P1.00000 (Wait for spindle to get up to speed)
G04 P0 ( dwell for no time -- G64 should not smooth over this point )
G00 Z0.08000 ( retract )

G00 X-5.39999 Y-4.16015 ( rapid move to begin. )
G01 F180.00000
( Mill infeed pass 1/1 )
G01 Z-0.04000
G04 P0 ( dwell for no time -- G64 should not smooth over this point )
G01 F360.00000
G01 X-5.39999 Y-4.16015
G01 X-5.40000 Y-3.65845
G01 X-5.40845 Y-3.65000
G01 X-5.49196 Y-3.65000
G01 X-5.40000 Y-3.74196
G01 X-5.39999 Y-4.16015
G01 X-5.40000 Y-3.99250
G01 X-5.74250 Y-3.65000
G01 X-5.82601 Y-3.65000
G01 X-5.40000 Y-4.07601
G01 X-5.39999 Y-4.16015
G01 X-5.40000 Y-3.82547
G01 X-5.57547 Y-3.65000
G01 X-5.65899 Y-3.65000
G01 X-5.40000 Y-3.90899
G01 X-5.39999 Y-4.16015
G01 X-5.40000 Y-3.65000
G01 X-5.91014 Y-3.65000
G01 X-5.91520 Y-3.64636
G01 X-5.91937 Y-3.64384
G01 X-5.92412 Y-3.64150
G01 X-5.92904 Y-3.63956
G01 X-5.93370 Y-3.63814
G01 X-5.93847 Y-3.63710
G01 X-5.94411 Y-3.63630
G01 X-5.94980 Y-3.63603
G01 X-5.95508 Y-3.63623
G01 X-5.96033 Y-3.63687
G01 X-5.96668 Y-3.63827
G01 X-5.97135 Y-3.63969
G01 X-5.97625 Y-3.64167
G01 X-5.98134 Y-3.64423
G01 X-5.98583 Y-3.64701
G01 X-5.98986 Y-3.65000
G01 X-6.15000 Y-3.65000
G01 X-6.15000 Y-3.83469
G01 X-6.14426 Y-3.84282
G01 X-6.13764 Y-3.85140
G01 X-6.13146 Y-3.85878
G01 X-6.12471 Y-3.86620
G01 X-6.03215 Y-3.95887
G01 X-5.94665 Y-3.99351
G01 X-6.03215 Y-3.95887
G01 X-6.05398 Y-3.95890
G01 X-6.06593 Y-3.95940
G01 X-6.07268 Y-3.95996
G01 X-6.07981 Y-3.96075
G01 X-6.09441 Y-3.96305
G01 X-6.10186 Y-3.96454
G01 X-6.10886 Y-3.96618
G01 X-6.11620 Y-3.96814
G01 X-6.12309 Y-3.97021
G01 X-6.12991 Y-3.97249
G01 X-6.13666 Y-3.97498
G01 X-6.14334 Y-3.97768
G01 X-6.15000 Y-3.98061
G01 X-6.15000 Y-4.25000
G01 X-6.08989 Y-4.25000
G01 X-6.09320 Y-4.24718
G01 X-6.09659 Y-4.24383
G01 X-6.09919 Y-4.24083
G01 X-6.10259 Y-4.23638
G01 X-6.10497 Y-4.23272
G01 X-6.10708 Y-4.22889
G01 X-6.10874 Y-4.22528
G01 X-6.11063 Y-4.22038
G01 X-6.11192 Y-4.21610
G01 X-6.11281 Y-4.21213
G01 X-6.11357 Y-4.20691
G01 X-6.11392 Y-4.20255
G01 X-6.11395 Y-4.19818
G01 X-6.11365 Y-4.19382
G01 X-6.11290 Y-4.18868
G01 X-6.11212 Y-4.18478
G01 X-6.11095 Y-4.18055
G01 X-6.10947 Y-4.17643
G01 X-6.10769 Y-4.17242
G01 X-6.10524 Y-4.16782
G01 X-6.10294 Y-4.16409
G01 X-6.10061 Y-4.16086
G01 X-6.09780 Y-4.15750
G01 X-6.09504 Y-4.15462
G01 X-6.09120 Y-4.15111
G01 X-6.08811 Y-4.14862
G01 X-6.08451 Y-4.14613
G01 X-6.08110 Y-4.14410
G01 X-6.07646 Y-4.14178
G01 X-6.07243 Y-4.14009
G01 X-6.06829 Y-4.13870
G01 X-6.06366 Y-4.13753
G01 X-6.05650 Y-4.13638
G01 X-6.05000 Y-4.13602
G01 X-5.60445 Y-4.13602
G01 X-5.99524 Y-3.74524
G01 X-5.99906 Y-3.74102
G01 X-6.00299 Y-3.73583
G01 X-6.00517 Y-3.73240
G01 X-6.00728 Y-3.72845
G01 X-6.00914 Y-3.72439
G01 X-6.01070 Y-3.72019
G01 X-6.01196 Y-3.71590
G01 X-6.01293 Y-3.71153
G01 X-6.01351 Y-3.70751
G01 X-6.01390 Y-3.70269
G01 X-6.01395 Y-3.69832
G01 X-6.01368 Y-3.69396
G01 X-6.01309 Y-3.68963
G01 X-6.01212 Y-3.68490
G01 X-6.01107 Y-3.68097
G01 X-6.00975 Y-3.67712
G01 X-6.00816 Y-3.67338
G01 X-6.00617 Y-3.66937
G01 X-6.00411 Y-3.66587
G01 X-6.00181 Y-3.66251
G01 X-5.99880 Y-3.65866
G01 X-5.99609 Y-3.65563
G01 X-5.99318 Y-3.65280
G01 X-5.99007 Y-3.65017
G01 X-5.98617 Y-3.64724
G01 X-5.98240 Y-3.64483
G01 X-5.97882 Y-3.64290
G01 X-5.97439 Y-3.64086
G01 X-5.97058 Y-3.63943
G01 X-5.96668 Y-3.63827
G01 X-5.96193 Y-3.63716
G01 X-5.95791 Y-3.63651
G01 X-5.95386 Y-3.63615
G01 X-5.94898 Y-3.63603
G01 X-5.94290 Y-3.63643
G01 X-5.93648 Y-3.63748
G01 X-5.93097 Y-3.63892
G01 X-5.92524 Y-3.64102
G01 X-5.92009 Y-3.64345
G01 X-5.91554 Y-3.64614
G01 X-5.91014 Y-3.65000
G01 X-5.90563 Y-3.65391
G01 X-5.40476 Y-4.15476
G01 X-5.40100 Y-4.15890
G01 X-5.39856 Y-4.16207
G01 X-5.39567 Y-4.16637
G01 X-5.39382 Y-4.16946
G01 X-5.39217 Y-4.17266
G01 X-5.39072 Y-4.17595
G01 X-5.38934 Y-4.17970
G01 X-5.38832 Y-4.18315
G01 X-5.38743 Y-4.18705
G01 X-5.38662 Y-4.19176
G01 X-5.38622 Y-4.19534
G01 X-5.38603 Y-4.19933
G01 X-5.38611 Y-4.20333
G01 X-5.38646 Y-4.20731
G01 X-5.38708 Y-4.21126
G01 X-5.38832 Y-4.21671
G01 X-5.38932 Y-4.22016
G01 X-5.39097 Y-4.22466
G01 X-5.39299 Y-4.22902
G01 X-5.39514 Y-4.23285
G01 X-5.39800 Y-4.23718
G01 X-5.40065 Y-4.24069
G01 X-5.40355 Y-4.24400
G01 X-5.40669 Y-4.24707
G01 X-5.41017 Y-4.25000
G01 X-5.40000 Y-4.25000
G01 X-5.39990 Y-4.23976
G01 X-5.40328 Y-4.24371
G01 X-5.40699 Y-4.24734
G01 X-5.41101 Y-4.25064
G01 X-5.41591 Y-4.25406
G01 X-5.42004 Y-4.25651
G01 X-5.42435 Y-4.25861
G01 X-5.42920 Y-4.26048
G01 X-5.43380 Y-4.26183
G01 X-5.44203 Y-4.26344
G01 X-5.44600 Y-4.26384
G01 X-5.44960 Y-4.26398
G01 X-6.05081 Y-4.26397
G01 X-6.05609 Y-4.26366
G01 X-6.06212 Y-4.26276
G01 X-6.06688 Y-4.26170
G01 X-6.07154 Y-4.26024
G01 X-6.07681 Y-4.25808
G01 X-6.08116 Y-4.25587
G01 X-6.08532 Y-4.25332
G01 X-6.08989 Y-4.25000
G01 X-6.15000 Y-4.25000
G01 X-6.15000 Y-4.12834
G01 X-6.14696 Y-4.12427
G01 X-6.14391 Y-4.12053
G01 X-6.14044 Y-4.11662
G01 X-6.13708 Y-4.11314
G01 X-6.13239 Y-4.10871
G01 X-6.12876 Y-4.10553
G01 X-6.12469 Y-4.10226
G01 X-6.12048 Y-4.09916
G01 X-6.11613 Y-4.09626
G01 X-6.11131 Y-4.09335
G01 X-6.10708 Y-4.09104
G01 X-6.10202 Y-4.08854
G01 X-6.09725 Y-4.08642
G01 X-6.09276 Y-4.08464
G01 X-6.08820 Y-4.08305
G01 X-6.08320 Y-4.08154
G01 X-6.07538 Y-4.07966
G01 X-6.06708 Y-4.07821
G01 X-6.05916 Y-4.07733
G01 X-6.05159 Y-4.07698
G01 X-5.74702 Y-4.07697
G01 X-5.65903 Y-4.11341
G01 X-5.74702 Y-4.07697
G01 X-6.03699 Y-3.78699
G01 X-6.04266 Y-3.78091
G01 X-6.04840 Y-3.77379
G01 X-6.05323 Y-3.76692
G01 X-6.05776 Y-3.75936
G01 X-6.06172 Y-3.75150
G01 X-6.06497 Y-3.74379
G01 X-6.06767 Y-3.73587
G01 X-6.06995 Y-3.72736
G01 X-6.07165 Y-3.71832
G01 X-6.07265 Y-3.70915
G01 X-6.07302 Y-3.70072
G01 X-6.07278 Y-3.69228
G01 X-6.07195 Y-3.68388
G01 X-6.07059 Y-3.67595
G01 X-6.06827 Y-3.66618
G01 X-6.06569 Y-3.65816
G01 X-6.06240 Y-3.65000
G01 X-6.12506 Y-3.65000
G01 X-6.12544 Y-3.65137
G01 X-6.12764 Y-3.66029
G01 X-6.12971 Y-3.67092
G01 X-6.13097 Y-3.68004
G01 X-6.13176 Y-3.68922
G01 X-6.13207 Y-3.69842
G01 X-6.13190 Y-3.70763
G01 X-6.13115 Y-3.71804
G01 X-6.12997 Y-3.72763
G01 X-6.12834 Y-3.73673
G01 X-6.12613 Y-3.74614
G01 X-6.12331 Y-3.75579
G01 X-6.12013 Y-3.76488
G01 X-6.11662 Y-3.77341
G01 X-6.11231 Y-3.78249
G01 X-6.10772 Y-3.79098
G01 X-6.10311 Y-3.79854
G01 X-6.09789 Y-3.80618
G01 X-6.09230 Y-3.81355
G01 X-6.08667 Y-3.82030
G01 X-6.08043 Y-3.82704
G01 X-5.88958 Y-4.01792
G01 X-5.80159 Y-4.05437
G01 X-5.88958 Y-4.01792
G01 X-6.05120 Y-4.01792
G01 X-6.06083 Y-4.01825
G01 X-6.07042 Y-4.01910
G01 X-6.08194 Y-4.02080
G01 X-6.09175 Y-4.02280
G01 X-6.10182 Y-4.02545
G01 X-6.11209 Y-4.02883
G01 X-6.12176 Y-4.03267
G01 X-6.13158 Y-4.03725
G01 X-6.14076 Y-4.04216
G01 X-6.15000 Y-4.04784
G01 X-6.15000 Y-3.83469

G00 Z1.00000 (Retract to tool change height)
T2
M5      (Spindle stop.)
G04 P1.00000 (Wait for spindle to stop)
(MSG, Change tool bit to mill diameter 0.00394in)
M6      (Tool change.)
M0      (Temporary machine stop.)
M3 ( Spindle on clockwise. )
G04 P1.00000 (Wait for spindle to get up to speed)
G04 P0 ( dwell for no time -- G64 should not smooth over this point )
G00 Z0.08000 ( retract )

G00 X-5.54925 Y-4.15889 ( rapid move to begin. )
G01 F180.00000
( Mill infeed pass 1/1 )
G01 Z-0.04000
G04 P0 ( dwell for no time -- G64 should not smooth over this point )
G01 F360.00000
G01 X-5.54925 Y-4.15889
G01 X-5.55134 Y-4.15802
G01 X-5.55204 Y-4.15965
G01 X-5.54742 Y-4.15965
G01 X-5.54449 Y-4.16086
G01 X-5.54742 Y-4.15965
G01 X-5.55069 Y-4.15638
G01 X-5.54996 Y-4.15433
G01 X-5.54267 Y-4.16161
G01 X-5.53974 Y-4.16283
G01 X-5.54267 Y-4.16161
G01 X-5.55298 Y-4.16161
G01 X-5.55400 Y-4.16358
G01 X-5.53792 Y-4.16358
G01 X-5.53499 Y-4.16480
G01 X-5.53792 Y-4.16358
G01 X-5.54929 Y-4.15221
G01 X-5.54870 Y-4.15002
G01 X-5.53317 Y-4.16555
G01 X-5.53024 Y-4.16676
G01 X-5.53317 Y-4.16555
G01 X-5.55513 Y-4.16555
G01 X-5.55636 Y-4.16752
G01 X-5.52841 Y-4.16752
G01 X-5.52548 Y-4.16873
G01 X-5.52841 Y-4.16752
G01 X-5.54817 Y-4.14776
G01 X-5.54774 Y-4.14541
G01 X-5.52366 Y-4.16949
G01 X-5.52073 Y-4.17070
G01 X-5.52366 Y-4.16949
G01 X-5.55771 Y-4.16949
G01 X-5.55918 Y-4.17146
G01 X-5.51891 Y-4.17146
G01 X-5.51598 Y-4.17267
G01 X-5.51891 Y-4.17146
G01 X-5.54739 Y-4.14298
G01 X-5.54713 Y-4.14045
G01 X-5.51416 Y-4.17342
G01 X-5.51122 Y-4.17464
G01 X-5.51416 Y-4.17342
G01 X-5.56080 Y-4.17342
G01 X-5.56256 Y-4.17539
G01 X-5.50940 Y-4.17539
G01 X-5.50647 Y-4.17661
G01 X-5.50940 Y-4.17539
G01 X-5.54699 Y-4.13781
G01 X-5.54697 Y-4.13504
G01 X-5.50465 Y-4.17736
G01 X-5.50172 Y-4.17858
G01 X-5.50465 Y-4.17736
G01 X-5.56450 Y-4.17736
G01 X-5.56665 Y-4.17933
G01 X-5.49990 Y-4.17933
G01 X-5.49697 Y-4.18055
G01 X-5.49990 Y-4.17933
G01 X-5.54710 Y-4.13213
G01 X-5.54739 Y-4.12906
G01 X-5.49515 Y-4.18130
G01 X-5.49221 Y-4.18251
G01 X-5.49515 Y-4.18130
G01 X-5.56903 Y-4.18130
G01 X-5.57170 Y-4.18327
G01 X-5.49040 Y-4.18327
G01 X-5.48746 Y-4.18448
G01 X-5.49040 Y-4.18327
G01 X-5.54789 Y-4.12578
G01 X-5.54864 Y-4.12223
G01 X-5.48564 Y-4.18523
G01 X-5.48271 Y-4.18645
G01 X-5.48564 Y-4.18523
G01 X-5.57474 Y-4.18523
G01 X-5.57828 Y-4.18720
G01 X-5.48089 Y-4.18720
G01 X-5.47796 Y-4.18842
G01 X-5.48089 Y-4.18720
G01 X-5.54975 Y-4.11834
G01 X-5.55138 Y-4.11393
G01 X-5.47614 Y-4.18917
G01 X-5.47320 Y-4.19039
G01 X-5.47614 Y-4.18917
G01 X-5.58255 Y-4.18917
G01 X-5.58812 Y-4.19114
G01 X-5.47138 Y-4.19114
G01 X-5.46845 Y-4.19236
G01 X-5.47138 Y-4.19114
G01 X-5.55393 Y-4.10860
G01 X-5.55930 Y-4.10045
G01 X-5.46663 Y-4.19311
G01 X-5.59769 Y-4.19311

G04 P0 ( dwell for no time -- G64 should not smooth over this point )
G00 Z1.000000 ( retract )

M5 ( Spindle off. )
G04 P1.000000
M9 ( Coolant off. )
M2 ( Program end. )

