( pcb2gcode 2.5.0 )
( Gcode for linuxcnc )

G94 ( Inches per minute feed rate. )
G20 ( Units == INCHES. )

G90 ( Absolute coordinates. )
G00 S12000 ( RPM spindle speed. )
G64 P0.00040 ( set maximum deviation from commanded toolpath )
G01 F360.00000 ( Feedrate. )

o1 sub ( G01 with Z-correction subroutine )
    #4 = [ #5211 - #107 ] ( x-tile offset [minus the initial offset] )
    #5 = [ #5212 - #108 ] ( y-tile offset [minus the initial offset] )
    #6 = [ FIX[ [ #1 - -8.74625 + #4 ] / 0.37343 ] ] ( Lower left point X index )
    #7 = [ FIX[ [ #2 - -3.42217 + #5 ] / 0.34515 ] ] ( Lower left point Y index )
    #8 = [ #6 * 8 + [ #7 + 1 ] + 500 ] ( Upper left point parameter number )
    #9 = [ [ #6 + 1 ] *8 + [ #7 + 1 ] + 500 ] ( Upper right point parameter number )
    #10 = [ #6 * 8 + #7 + 500 ] ( Lower left point parameter number )
    #11 = [ [ #6 + 1 ] * 8 + #7 + 500 ] ( Lower right point parameter number )
    #12 = [ [ #2 + #5 - -3.42217 - #7 * 0.34515 ] / 0.34515 ] ( Distance between the point and the left border of the rectangle, normalized to 1 )
    #13 = [ [ #1 + #4 - -8.74625 - #6 * 0.37343 ] / 0.37343 ] ( Distance between the point and the bottom border of the rectangle, normalized to 1 ) 
    #14 = [ ##10 + [ ##8 - ##10 ] * #12 ] ( Linear interpolation of the x-min elements )
    #15 = [ ##11 + [ ##9 - ##11 ] * #12 ] ( Linear interpolation of the x-max elements )
    #16 = [ #14 + [ #15 - #14 ] * #13 ] ( Linear interpolation of previously interpolated points )
    G01 X#1 Y#2 Z[#3 + #16]
o1 endsub

o2 sub ( Y probe subroutine )
    G0 Z0.080 ( Move to probe height )
    X[#101 * 0.37343 + -8.74625] Y[#102 * 0.34515 + -3.42217] ( Move to the current probe point )
    G38.2 Z-0.1 F2.362205 ( Probe it )
    #[#101 * 8 + #102 + 500] = #5063 ( Save the probe in the correct parameter )
    #102 = [#102 + #103] ( Increment/decrement by 1 the Y counter )
o2 endsub

o3 sub ( X probe subroutine )
    o4 repeat [#104]
        o2 call
    o4 endrepeat
    #104 = 8
    #103 = [0 - #103]
    #102 = [#102 + #103]
    #101 = [#101 + 1] ( Increment by 1 the X counter )
o3 endsub

#107 = #5211
#108 = #5212

(MSG, Attach the probe tool)
M0 ( Temporary machine stop. )
G0 Z0.080 ( Move Z to safe height )
G0 X-8.74625 Y-3.42217 ( Move XY to start point )
G0 Z0.080 ( Move Z to probe height )
(PROBEOPEN RawProbeLog.txt) ( Record all probes in RawProbeLog.txt )
G38.2 Z-0.1 F2.362205 ( Z-probe )
#500 = 0 ( Probe point [0, 0] is our reference )
G10 L20 P0 Z0 ( Set the current Z as zero-value )

( We now start the real probing: move the Z axis to the probing height, move to )
( the probing XY position, probe it and save the result, parameter #5063, )
( in a numbered parameter; we will make 16 probes on the X-axis and )
( 8 probes on the Y-axis, for a grand total of 128 probes )

#101 = 0 ( X iterator )
#102 = 1 ( Y iterator )
#103 = 1 ( UP or DOWN increment )
#104 = 7 ( number of Y points; the 1st Y row can be done one time less )
o5 repeat [16]
    o3 call
o5 endrepeat

G0 Z0.080 ( Move Z to safe height )
(PROBECLOSE) ( Close the probe log file )
( Probing has ended, each Z-coordinate will be corrected with a bilinear interpolation )
(MSG, Detach the probe tool)
M0 ( Temporary machine stop. )


G00 Z1.00000 (Retract to tool change height)
T1
M5      (Spindle stop.)
G04 P1.00000 (Wait for spindle to stop)
(MSG, Change tool bit to mill diameter 0.00787in)
M6      (Tool change.)
M0      (Temporary machine stop.)
M3 ( Spindle on clockwise. )
G04 P1.00000 (Wait for spindle to get up to speed)

o200 sub ( Main subroutine )

G04 P0 ( dwell for no time -- G64 should not smooth over this point )
G00 Z0.08000 ( retract )

G00 X-7.15082 Y-2.55036 ( rapid move to begin. )
G01 F180.00000
( Mill infeed pass 1/1 )
o1 call [-7.15082] [-2.55036] [-0.04000]
G04 P0 ( dwell for no time -- G64 should not smooth over this point )
G01 F360.00000
o1 call [-7.15101] [-2.54566] [-0.04000]
o1 call [-7.15168] [-2.54095] [-0.04000]
o1 call [-7.15271] [-2.53674] [-0.04000]
o1 call [-7.15412] [-2.53263] [-0.04000]
o1 call [-7.15609] [-2.52830] [-0.04000]
o1 call [-7.15826] [-2.52454] [-0.04000]
o1 call [-7.16076] [-2.52100] [-0.04000]
o1 call [-7.16388] [-2.51738] [-0.04000]
o1 call [-7.16736] [-2.51410] [-0.04000]
o1 call [-7.17080] [-2.51142] [-0.04000]
o1 call [-7.17482] [-2.50887] [-0.04000]
o1 call [-7.17871] [-2.50691] [-0.04000]
o1 call [-7.18315] [-2.50518] [-0.04000]
o1 call [-7.18734] [-2.50400] [-0.04000]
o1 call [-7.19203] [-2.50316] [-0.04000]
o1 call [-7.19631] [-2.50281] [-0.04000]
o1 call [-7.20003] [-2.50282] [-0.04000]
o1 call [-7.20354] [-2.50310] [-0.04000]
o1 call [-7.20702] [-2.50364] [-0.04000]
o1 call [-7.21033] [-2.50441] [-0.04000]
o1 call [-7.21411] [-2.50560] [-0.04000]
o1 call [-7.21748] [-2.50697] [-0.04000]
o1 call [-7.22280] [-2.50981] [-0.04000]
o1 call [-7.22860] [-2.51401] [-0.04000]
o1 call [-7.23170] [-2.51689] [-0.04000]
o1 call [-7.23397] [-2.51937] [-0.04000]
o1 call [-7.23608] [-2.52204] [-0.04000]
o1 call [-7.23889] [-2.52637] [-0.04000]
o1 call [-7.23869] [-2.52679] [-0.04000]
o1 call [-7.23889] [-2.52637] [-0.04000]
o1 call [-7.25252] [-2.52637] [-0.04000]
o1 call [-7.55716] [-2.52637] [-0.04000]
o1 call [-7.55740] [-2.52682] [-0.04000]
o1 call [-7.55716] [-2.52637] [-0.04000]
o1 call [-7.55929] [-2.52302] [-0.04000]
o1 call [-7.56195] [-2.51954] [-0.04000]
o1 call [-7.56519] [-2.51608] [-0.04000]
o1 call [-7.56846] [-2.51318] [-0.04000]
o1 call [-7.57199] [-2.51061] [-0.04000]
o1 call [-7.57608] [-2.50819] [-0.04000]
o1 call [-7.58003] [-2.50634] [-0.04000]
o1 call [-7.58452] [-2.50475] [-0.04000]
o1 call [-7.58875] [-2.50370] [-0.04000]
o1 call [-7.59346] [-2.50300] [-0.04000]
o1 call [-7.59743] [-2.50279] [-0.04000]
o1 call [-7.60213] [-2.50295] [-0.04000]
o1 call [-7.60684] [-2.50360] [-0.04000]
o1 call [-7.61051] [-2.50447] [-0.04000]
o1 call [-7.61066] [-2.50495] [-0.04000]
o1 call [-7.61051] [-2.50447] [-0.04000]
o1 call [-7.62595] [-2.48902] [-0.04000]
o1 call [-7.72828] [-2.38672] [-0.04000]
o1 call [-7.72863] [-2.38637] [-0.04000]
o1 call [-7.73200] [-2.38377] [-0.04000]
o1 call [-7.73563] [-2.38188] [-0.04000]
o1 call [-7.74022] [-2.38053] [-0.04000]
o1 call [-7.74453] [-2.38012] [-0.04000]
o1 call [-7.99939] [-2.38012] [-0.04000]
o1 call [-8.10153] [-2.38012] [-0.04000]
o1 call [-8.10532] [-2.38043] [-0.04000]
o1 call [-8.10840] [-2.38116] [-0.04000]
o1 call [-8.11178] [-2.38249] [-0.04000]
o1 call [-8.11494] [-2.38435] [-0.04000]
o1 call [-8.11777] [-2.38669] [-0.04000]
o1 call [-8.11780] [-2.38672] [-0.04000]
o1 call [-8.23556] [-2.50447] [-0.04000]
o1 call [-8.23540] [-2.50495] [-0.04000]
o1 call [-8.23556] [-2.50447] [-0.04000]
o1 call [-8.23922] [-2.50360] [-0.04000]
o1 call [-8.24394] [-2.50295] [-0.04000]
o1 call [-8.24863] [-2.50279] [-0.04000]
o1 call [-8.25261] [-2.50300] [-0.04000]
o1 call [-8.25731] [-2.50370] [-0.04000]
o1 call [-8.26154] [-2.50475] [-0.04000]
o1 call [-8.26603] [-2.50634] [-0.04000]
o1 call [-8.26998] [-2.50819] [-0.04000]
o1 call [-8.27408] [-2.51061] [-0.04000]
o1 call [-8.27760] [-2.51318] [-0.04000]
o1 call [-8.28088] [-2.51608] [-0.04000]
o1 call [-8.28412] [-2.51954] [-0.04000]
o1 call [-8.28678] [-2.52302] [-0.04000]
o1 call [-8.28890] [-2.52637] [-0.04000]
o1 call [-8.28867] [-2.52682] [-0.04000]
o1 call [-8.28890] [-2.52637] [-0.04000]
o1 call [-8.37282] [-2.52637] [-0.04000]
o1 call [-8.60717] [-2.52637] [-0.04000]
o1 call [-8.60737] [-2.52679] [-0.04000]
o1 call [-8.60717] [-2.52637] [-0.04000]
o1 call [-8.60998] [-2.52204] [-0.04000]
o1 call [-8.61209] [-2.51937] [-0.04000]
o1 call [-8.61436] [-2.51689] [-0.04000]
o1 call [-8.61746] [-2.51401] [-0.04000]
o1 call [-8.62326] [-2.50981] [-0.04000]
o1 call [-8.62858] [-2.50697] [-0.04000]
o1 call [-8.63196] [-2.50560] [-0.04000]
o1 call [-8.63573] [-2.50441] [-0.04000]
o1 call [-8.63904] [-2.50364] [-0.04000]
o1 call [-8.64252] [-2.50310] [-0.04000]
o1 call [-8.64603] [-2.50282] [-0.04000]
o1 call [-8.64975] [-2.50281] [-0.04000]
o1 call [-8.65404] [-2.50316] [-0.04000]
o1 call [-8.65872] [-2.50400] [-0.04000]
o1 call [-8.66292] [-2.50518] [-0.04000]
o1 call [-8.66735] [-2.50691] [-0.04000]
o1 call [-8.67124] [-2.50887] [-0.04000]
o1 call [-8.67526] [-2.51142] [-0.04000]
o1 call [-8.67871] [-2.51410] [-0.04000]
o1 call [-8.68218] [-2.51738] [-0.04000]
o1 call [-8.68530] [-2.52100] [-0.04000]
o1 call [-8.68781] [-2.52454] [-0.04000]
o1 call [-8.68997] [-2.52830] [-0.04000]
o1 call [-8.69195] [-2.53263] [-0.04000]
o1 call [-8.69335] [-2.53674] [-0.04000]
o1 call [-8.69438] [-2.54095] [-0.04000]
o1 call [-8.69506] [-2.54566] [-0.04000]
o1 call [-8.69526] [-2.55000] [-0.04000]
o1 call [-8.69506] [-2.55434] [-0.04000]
o1 call [-8.69438] [-2.55905] [-0.04000]
o1 call [-8.69335] [-2.56326] [-0.04000]
o1 call [-8.69195] [-2.56737] [-0.04000]
o1 call [-8.68997] [-2.57170] [-0.04000]
o1 call [-8.68781] [-2.57546] [-0.04000]
o1 call [-8.68531] [-2.57898] [-0.04000]
o1 call [-8.68251] [-2.58227] [-0.04000]
o1 call [-8.67942] [-2.58529] [-0.04000]
o1 call [-8.67604] [-2.58802] [-0.04000]
o1 call [-8.67207] [-2.59064] [-0.04000]
o1 call [-8.66822] [-2.59269] [-0.04000]
o1 call [-8.66382] [-2.59450] [-0.04000]
o1 call [-8.65967] [-2.59577] [-0.04000]
o1 call [-8.65544] [-2.59664] [-0.04000]
o1 call [-8.65117] [-2.59712] [-0.04000]
o1 call [-8.64763] [-2.59722] [-0.04000]
o1 call [-8.64423] [-2.59707] [-0.04000]
o1 call [-8.64046] [-2.59661] [-0.04000]
o1 call [-8.63713] [-2.59594] [-0.04000]
o1 call [-8.63347] [-2.59492] [-0.04000]
o1 call [-8.63028] [-2.59375] [-0.04000]
o1 call [-8.62628] [-2.59191] [-0.04000]
o1 call [-8.62336] [-2.59026] [-0.04000]
o1 call [-8.62052] [-2.58838] [-0.04000]
o1 call [-8.61774] [-2.58623] [-0.04000]
o1 call [-8.61470] [-2.58345] [-0.04000]
o1 call [-8.61238] [-2.58096] [-0.04000]
o1 call [-8.61000] [-2.57799] [-0.04000]
o1 call [-8.60718] [-2.57362] [-0.04000]
o1 call [-8.60743] [-2.57315] [-0.04000]
o1 call [-8.60718] [-2.57362] [-0.04000]
o1 call [-8.37282] [-2.57362] [-0.04000]
o1 call [-8.28891] [-2.57362] [-0.04000]
o1 call [-8.28871] [-2.57321] [-0.04000]
o1 call [-8.28891] [-2.57362] [-0.04000]
o1 call [-8.28881] [-2.57381] [-0.04000]
o1 call [-8.28560] [-2.57860] [-0.04000]
o1 call [-8.28219] [-2.58261] [-0.04000]
o1 call [-8.27798] [-2.58650] [-0.04000]
o1 call [-8.27408] [-2.58939] [-0.04000]
o1 call [-8.26911] [-2.59226] [-0.04000]
o1 call [-8.26382] [-2.59450] [-0.04000]
o1 call [-8.25874] [-2.59599] [-0.04000]
o1 call [-8.25354] [-2.59690] [-0.04000]
o1 call [-8.24827] [-2.59722] [-0.04000]
o1 call [-8.24298] [-2.59695] [-0.04000]
o1 call [-8.23779] [-2.59609] [-0.04000]
o1 call [-8.23224] [-2.59450] [-0.04000]
o1 call [-8.22739] [-2.59246] [-0.04000]
o1 call [-8.22236] [-2.58963] [-0.04000]
o1 call [-8.22203] [-2.58941] [-0.04000]
o1 call [-8.22203] [-2.58894] [-0.04000]
o1 call [-8.22203] [-2.58941] [-0.04000]
o1 call [-8.02481] [-2.68803] [-0.04000]
o1 call [-8.02422] [-2.68766] [-0.04000]
o1 call [-8.02481] [-2.68803] [-0.04000]
o1 call [-8.02480] [-2.73187] [-0.04000]
o1 call [-8.02479] [-2.81341] [-0.04000]
o1 call [-8.02463] [-2.81464] [-0.04000]
o1 call [-8.02412] [-2.81620] [-0.04000]
o1 call [-8.02330] [-2.81763] [-0.04000]
o1 call [-8.02220] [-2.81885] [-0.04000]
o1 call [-8.02087] [-2.81982] [-0.04000]
o1 call [-8.01975] [-2.82035] [-0.04000]
o1 call [-8.01816] [-2.82078] [-0.04000]
o1 call [-8.01693] [-2.82087] [-0.04000]
o1 call [-7.99939] [-2.82087] [-0.04000]
o1 call [-7.87913] [-2.82087] [-0.04000]
o1 call [-7.87790] [-2.82078] [-0.04000]
o1 call [-7.87631] [-2.82035] [-0.04000]
o1 call [-7.87484] [-2.81960] [-0.04000]
o1 call [-7.87356] [-2.81857] [-0.04000]
o1 call [-7.87253] [-2.81729] [-0.04000]
o1 call [-7.87178] [-2.81582] [-0.04000]
o1 call [-7.87135] [-2.81423] [-0.04000]
o1 call [-7.87126] [-2.81300] [-0.04000]
o1 call [-7.87126] [-2.73187] [-0.04000]
o1 call [-7.87126] [-2.67520] [-0.04000]
o1 call [-7.87143] [-2.67356] [-0.04000]
o1 call [-7.87231] [-2.67126] [-0.04000]
o1 call [-7.87301] [-2.67024] [-0.04000]
o1 call [-7.87418] [-2.66908] [-0.04000]
o1 call [-7.87631] [-2.66785] [-0.04000]
o1 call [-7.87872] [-2.66734] [-0.04000]
o1 call [-7.96055] [-2.66732] [-0.04000]
o1 call [-7.96058] [-2.66743] [-0.04000]
o1 call [-7.96055] [-2.66732] [-0.04000]
o1 call [-7.99939] [-2.64791] [-0.04000]
o1 call [-8.20090] [-2.54715] [-0.04000]
o1 call [-8.20129] [-2.54744] [-0.04000]
o1 call [-8.20090] [-2.54715] [-0.04000]
o1 call [-8.20143] [-2.54235] [-0.04000]
o1 call [-8.20249] [-2.53752] [-0.04000]
o1 call [-8.20296] [-2.53737] [-0.04000]
o1 call [-8.20249] [-2.53752] [-0.04000]
o1 call [-8.09185] [-2.42687] [-0.04000]
o1 call [-8.09197] [-2.42657] [-0.04000]
o1 call [-8.09185] [-2.42687] [-0.04000]
o1 call [-7.99939] [-2.42687] [-0.04000]
o1 call [-7.75421] [-2.42687] [-0.04000]
o1 call [-7.75409] [-2.42657] [-0.04000]
o1 call [-7.75421] [-2.42687] [-0.04000]
o1 call [-7.64357] [-2.53751] [-0.04000]
o1 call [-7.64312] [-2.53737] [-0.04000]
o1 call [-7.64361] [-2.53765] [-0.04000]
o1 call [-7.64463] [-2.54239] [-0.04000]
o1 call [-7.64522] [-2.54808] [-0.04000]
o1 call [-7.64513] [-2.55338] [-0.04000]
o1 call [-7.64428] [-2.55950] [-0.04000]
o1 call [-7.64308] [-2.56418] [-0.04000]
o1 call [-7.64102] [-2.56952] [-0.04000]
o1 call [-7.63858] [-2.57419] [-0.04000]
o1 call [-7.63589] [-2.57822] [-0.04000]
o1 call [-7.63280] [-2.58194] [-0.04000]
o1 call [-7.62835] [-2.58619] [-0.04000]
o1 call [-7.62595] [-2.58801] [-0.04000]
o1 call [-7.62449] [-2.58911] [-0.04000]
o1 call [-7.61996] [-2.59182] [-0.04000]
o1 call [-7.61470] [-2.59417] [-0.04000]
o1 call [-7.60969] [-2.59576] [-0.04000]
o1 call [-7.60455] [-2.59677] [-0.04000]
o1 call [-7.60067] [-2.59715] [-0.04000]
o1 call [-7.59683] [-2.59721] [-0.04000]
o1 call [-7.59300] [-2.59695] [-0.04000]
o1 call [-7.58952] [-2.59644] [-0.04000]
o1 call [-7.58546] [-2.59552] [-0.04000]
o1 call [-7.58211] [-2.59445] [-0.04000]
o1 call [-7.57797] [-2.59274] [-0.04000]
o1 call [-7.57484] [-2.59113] [-0.04000]
o1 call [-7.57157] [-2.58911] [-0.04000]
o1 call [-7.56848] [-2.58684] [-0.04000]
o1 call [-7.56559] [-2.58431] [-0.04000]
o1 call [-7.56290] [-2.58156] [-0.04000]
o1 call [-7.56046] [-2.57861] [-0.04000]
o1 call [-7.55826] [-2.57546] [-0.04000]
o1 call [-7.55718] [-2.57362] [-0.04000]
o1 call [-7.55743] [-2.57315] [-0.04000]
o1 call [-7.55718] [-2.57362] [-0.04000]
o1 call [-7.25252] [-2.57362] [-0.04000]
o1 call [-7.23888] [-2.57362] [-0.04000]
o1 call [-7.23866] [-2.57319] [-0.04000]
o1 call [-7.23888] [-2.57362] [-0.04000]
o1 call [-7.23606] [-2.57799] [-0.04000]
o1 call [-7.23368] [-2.58096] [-0.04000]
o1 call [-7.23094] [-2.58387] [-0.04000]
o1 call [-7.22832] [-2.58623] [-0.04000]
o1 call [-7.22528] [-2.58857] [-0.04000]
o1 call [-7.22206] [-2.59065] [-0.04000]
o1 call [-7.21896] [-2.59233] [-0.04000]
o1 call [-7.21586] [-2.59372] [-0.04000]
o1 call [-7.21271] [-2.59488] [-0.04000]
o1 call [-7.20905] [-2.59591] [-0.04000]
o1 call [-7.20572] [-2.59659] [-0.04000]
o1 call [-7.20131] [-2.59710] [-0.04000]
o1 call [-7.19779] [-2.59722] [-0.04000]
o1 call [-7.19394] [-2.59705] [-0.04000]
o1 call [-7.18967] [-2.59648] [-0.04000]
o1 call [-7.18546] [-2.59552] [-0.04000]
o1 call [-7.18135] [-2.59418] [-0.04000]
o1 call [-7.17737] [-2.59246] [-0.04000]
o1 call [-7.17320] [-2.59017] [-0.04000]
o1 call [-7.16962] [-2.58772] [-0.04000]
o1 call [-7.16629] [-2.58496] [-0.04000]
o1 call [-7.16323] [-2.58192] [-0.04000]
o1 call [-7.16046] [-2.57861] [-0.04000]
o1 call [-7.15799] [-2.57504] [-0.04000]
o1 call [-7.15567] [-2.57088] [-0.04000]
o1 call [-7.15393] [-2.56690] [-0.04000]
o1 call [-7.15258] [-2.56280] [-0.04000]
o1 call [-7.15160] [-2.55859] [-0.04000]
o1 call [-7.15100] [-2.55431] [-0.04000]
o1 call [-7.15082] [-2.55036] [-0.04000]
o1 call [-7.15475] [-2.55018] [-0.04000]
o1 call [-7.15495] [-2.55413] [-0.04000]
o1 call [-7.15550] [-2.55805] [-0.04000]
o1 call [-7.15632] [-2.56156] [-0.04000]
o1 call [-7.15755] [-2.56532] [-0.04000]
o1 call [-7.15912] [-2.56896] [-0.04000]
o1 call [-7.16124] [-2.57279] [-0.04000]
o1 call [-7.16348] [-2.57607] [-0.04000]
o1 call [-7.16601] [-2.57912] [-0.04000]
o1 call [-7.16881] [-2.58193] [-0.04000]
o1 call [-7.17184] [-2.58446] [-0.04000]
o1 call [-7.17510] [-2.58671] [-0.04000]
o1 call [-7.17927] [-2.58901] [-0.04000]
o1 call [-7.18291] [-2.59056] [-0.04000]
o1 call [-7.18668] [-2.59177] [-0.04000]
o1 call [-7.19055] [-2.59263] [-0.04000]
o1 call [-7.19412] [-2.59310] [-0.04000]
o1 call [-7.19765] [-2.59328] [-0.04000]
o1 call [-7.20117] [-2.59317] [-0.04000]
o1 call [-7.20467] [-2.59277] [-0.04000]
o1 call [-7.20771] [-2.59219] [-0.04000]
o1 call [-7.21109] [-2.59127] [-0.04000]
o1 call [-7.21401] [-2.59023] [-0.04000]
o1 call [-7.21683] [-2.58899] [-0.04000]
o1 call [-7.21992] [-2.58734] [-0.04000]
o1 call [-7.22288] [-2.58544] [-0.04000]
o1 call [-7.22567] [-2.58331] [-0.04000]
o1 call [-7.22829] [-2.58095] [-0.04000]
o1 call [-7.23043] [-2.57871] [-0.04000]
o1 call [-7.23264] [-2.57599] [-0.04000]
o1 call [-7.23441] [-2.57345] [-0.04000]
o1 call [-7.23656] [-2.56969] [-0.04000]
o1 call [-7.25252] [-2.56969] [-0.04000]
o1 call [-7.55950] [-2.56969] [-0.04000]
o1 call [-7.56166] [-2.57347] [-0.04000]
o1 call [-7.56369] [-2.57634] [-0.04000]
o1 call [-7.56594] [-2.57905] [-0.04000]
o1 call [-7.56841] [-2.58156] [-0.04000]
o1 call [-7.57107] [-2.58386] [-0.04000]
o1 call [-7.57391] [-2.58594] [-0.04000]
o1 call [-7.57691] [-2.58778] [-0.04000]
o1 call [-7.58005] [-2.58937] [-0.04000]
o1 call [-7.58331] [-2.59070] [-0.04000]
o1 call [-7.58666] [-2.59176] [-0.04000]
o1 call [-7.59009] [-2.59255] [-0.04000]
o1 call [-7.59326] [-2.59302] [-0.04000]
o1 call [-7.59677] [-2.59327] [-0.04000]
o1 call [-7.60029] [-2.59322] [-0.04000]
o1 call [-7.60379] [-2.59290] [-0.04000]
o1 call [-7.60893] [-2.59188] [-0.04000]
o1 call [-7.61350] [-2.59042] [-0.04000]
o1 call [-7.61793] [-2.58843] [-0.04000]
o1 call [-7.62246] [-2.58573] [-0.04000]
o1 call [-7.62595] [-2.58304] [-0.04000]
o1 call [-7.62630] [-2.58277] [-0.04000]
o1 call [-7.62978] [-2.57942] [-0.04000]
o1 call [-7.63286] [-2.57569] [-0.04000]
o1 call [-7.63551] [-2.57164] [-0.04000]
o1 call [-7.63752] [-2.56772] [-0.04000]
o1 call [-7.63925] [-2.56321] [-0.04000]
o1 call [-7.64046] [-2.55852] [-0.04000]
o1 call [-7.64118] [-2.55332] [-0.04000]
o1 call [-7.64127] [-2.54802] [-0.04000]
o1 call [-7.64078] [-2.54321] [-0.04000]
o1 call [-7.63987] [-2.53890] [-0.04000]
o1 call [-7.63907] [-2.53645] [-0.04000]
o1 call [-7.75258] [-2.42294] [-0.04000]
o1 call [-7.99939] [-2.42294] [-0.04000]
o1 call [-8.09348] [-2.42294] [-0.04000]
o1 call [-8.20698] [-2.53644] [-0.04000]
o1 call [-8.20631] [-2.53848] [-0.04000]
o1 call [-8.20536] [-2.54277] [-0.04000]
o1 call [-8.20482] [-2.54758] [-0.04000]
o1 call [-8.20480] [-2.54961] [-0.04000]
o1 call [-7.99939] [-2.65231] [-0.04000]
o1 call [-7.96148] [-2.67126] [-0.04000]
o1 call [-7.87913] [-2.67126] [-0.04000]
o1 call [-7.87791] [-2.67145] [-0.04000]
o1 call [-7.87682] [-2.67201] [-0.04000]
o1 call [-7.87595] [-2.67288] [-0.04000]
o1 call [-7.87528] [-2.67438] [-0.04000]
o1 call [-7.87524] [-2.73187] [-0.04000]
o1 call [-7.87519] [-2.81300] [-0.04000]
o1 call [-7.87539] [-2.81422] [-0.04000]
o1 call [-7.87621] [-2.81563] [-0.04000]
o1 call [-7.87753] [-2.81660] [-0.04000]
o1 call [-7.87913] [-2.81694] [-0.04000]
o1 call [-7.99939] [-2.81694] [-0.04000]
o1 call [-8.01693] [-2.81694] [-0.04000]
o1 call [-8.01853] [-2.81660] [-0.04000]
o1 call [-8.01986] [-2.81563] [-0.04000]
o1 call [-8.02053] [-2.81460] [-0.04000]
o1 call [-8.02087] [-2.81300] [-0.04000]
o1 call [-8.02087] [-2.73187] [-0.04000]
o1 call [-8.02087] [-2.68559] [-0.04000]
o1 call [-8.22243] [-2.58481] [-0.04000]
o1 call [-8.22470] [-2.58645] [-0.04000]
o1 call [-8.22893] [-2.58884] [-0.04000]
o1 call [-8.23378] [-2.59087] [-0.04000]
o1 call [-8.23845] [-2.59221] [-0.04000]
o1 call [-8.24364] [-2.59306] [-0.04000]
o1 call [-8.24847] [-2.59328] [-0.04000]
o1 call [-8.25330] [-2.59296] [-0.04000]
o1 call [-8.25806] [-2.59210] [-0.04000]
o1 call [-8.26271] [-2.59071] [-0.04000]
o1 call [-8.26756] [-2.58862] [-0.04000]
o1 call [-8.27172] [-2.58622] [-0.04000]
o1 call [-8.27563] [-2.58334] [-0.04000]
o1 call [-8.27918] [-2.58006] [-0.04000]
o1 call [-8.28259] [-2.57606] [-0.04000]
o1 call [-8.28529] [-2.57202] [-0.04000]
o1 call [-8.28651] [-2.56969] [-0.04000]
o1 call [-8.37282] [-2.56969] [-0.04000]
o1 call [-8.60950] [-2.56969] [-0.04000]
o1 call [-8.61165] [-2.57345] [-0.04000]
o1 call [-8.61342] [-2.57599] [-0.04000]
o1 call [-8.61563] [-2.57871] [-0.04000]
o1 call [-8.61777] [-2.58095] [-0.04000]
o1 call [-8.62039] [-2.58331] [-0.04000]
o1 call [-8.62292] [-2.58526] [-0.04000]
o1 call [-8.62575] [-2.58711] [-0.04000]
o1 call [-8.62846] [-2.58861] [-0.04000]
o1 call [-8.63165] [-2.59006] [-0.04000]
o1 call [-8.63456] [-2.59113] [-0.04000]
o1 call [-8.63792] [-2.59209] [-0.04000]
o1 call [-8.64096] [-2.59270] [-0.04000]
o1 call [-8.64443] [-2.59314] [-0.04000]
o1 call [-8.64753] [-2.59328] [-0.04000]
o1 call [-8.65107] [-2.59318] [-0.04000]
o1 call [-8.65500] [-2.59272] [-0.04000]
o1 call [-8.65853] [-2.59199] [-0.04000]
o1 call [-8.66232] [-2.59086] [-0.04000]
o1 call [-8.66637] [-2.58920] [-0.04000]
o1 call [-8.67022] [-2.58716] [-0.04000]
o1 call [-8.67387] [-2.58473] [-0.04000]
o1 call [-8.67693] [-2.58222] [-0.04000]
o1 call [-8.67975] [-2.57945] [-0.04000]
o1 call [-8.68209] [-2.57671] [-0.04000]
o1 call [-8.68458] [-2.57318] [-0.04000]
o1 call [-8.68656] [-2.56973] [-0.04000]
o1 call [-8.68821] [-2.56609] [-0.04000]
o1 call [-8.68952] [-2.56233] [-0.04000]
o1 call [-8.69055] [-2.55811] [-0.04000]
o1 call [-8.69115] [-2.55377] [-0.04000]
o1 call [-8.69131] [-2.55018] [-0.04000]
o1 call [-8.69115] [-2.54622] [-0.04000]
o1 call [-8.69055] [-2.54189] [-0.04000]
o1 call [-8.68952] [-2.53767] [-0.04000]
o1 call [-8.68821] [-2.53391] [-0.04000]
o1 call [-8.68638] [-2.52994] [-0.04000]
o1 call [-8.68439] [-2.52651] [-0.04000]
o1 call [-8.68208] [-2.52328] [-0.04000]
o1 call [-8.67919] [-2.51996] [-0.04000]
o1 call [-8.67600] [-2.51696] [-0.04000]
o1 call [-8.67284] [-2.51453] [-0.04000]
o1 call [-8.66946] [-2.51240] [-0.04000]
o1 call [-8.66592] [-2.51059] [-0.04000]
o1 call [-8.66149] [-2.50886] [-0.04000]
o1 call [-8.65765] [-2.50780] [-0.04000]
o1 call [-8.65372] [-2.50709] [-0.04000]
o1 call [-8.64943] [-2.50674] [-0.04000]
o1 call [-8.64633] [-2.50675] [-0.04000]
o1 call [-8.64282] [-2.50703] [-0.04000]
o1 call [-8.63966] [-2.50753] [-0.04000]
o1 call [-8.63664] [-2.50824] [-0.04000]
o1 call [-8.63370] [-2.50915] [-0.04000]
o1 call [-8.63045] [-2.51045] [-0.04000]
o1 call [-8.62512] [-2.51328] [-0.04000]
o1 call [-8.61981] [-2.51718] [-0.04000]
o1 call [-8.61746] [-2.51936] [-0.04000]
o1 call [-8.61534] [-2.52162] [-0.04000]
o1 call [-8.61341] [-2.52402] [-0.04000]
o1 call [-8.61142] [-2.52690] [-0.04000]
o1 call [-8.60950] [-2.53031] [-0.04000]
o1 call [-8.37282] [-2.53031] [-0.04000]
o1 call [-8.28653] [-2.53031] [-0.04000]
o1 call [-8.28575] [-2.52877] [-0.04000]
o1 call [-8.28364] [-2.52540] [-0.04000]
o1 call [-8.28098] [-2.52193] [-0.04000]
o1 call [-8.27826] [-2.51902] [-0.04000]
o1 call [-8.27527] [-2.51636] [-0.04000]
o1 call [-8.27207] [-2.51400] [-0.04000]
o1 call [-8.26831] [-2.51176] [-0.04000]
o1 call [-8.26471] [-2.51006] [-0.04000]
o1 call [-8.26059] [-2.50858] [-0.04000]
o1 call [-8.25673] [-2.50760] [-0.04000]
o1 call [-8.25240] [-2.50694] [-0.04000]
o1 call [-8.24843] [-2.50672] [-0.04000]
o1 call [-8.24410] [-2.50690] [-0.04000]
o1 call [-8.24013] [-2.50744] [-0.04000]
o1 call [-8.23626] [-2.50835] [-0.04000]
o1 call [-8.23446] [-2.50894] [-0.04000]
o1 call [-8.11498] [-2.38947] [-0.04000]
o1 call [-8.11279] [-2.38767] [-0.04000]
o1 call [-8.11120] [-2.38672] [-0.04000]
o1 call [-8.11017] [-2.38610] [-0.04000]
o1 call [-8.10680] [-2.38480] [-0.04000]
o1 call [-8.10426] [-2.38426] [-0.04000]
o1 call [-8.10153] [-2.38406] [-0.04000]
o1 call [-7.99939] [-2.38406] [-0.04000]
o1 call [-7.74453] [-2.38406] [-0.04000]
o1 call [-7.74096] [-2.38439] [-0.04000]
o1 call [-7.73712] [-2.38553] [-0.04000]
o1 call [-7.73486] [-2.38672] [-0.04000]
o1 call [-7.73394] [-2.38720] [-0.04000]
o1 call [-7.73108] [-2.38947] [-0.04000]
o1 call [-7.62595] [-2.49459] [-0.04000]
o1 call [-7.61160] [-2.50894] [-0.04000]
o1 call [-7.60980] [-2.50835] [-0.04000]
o1 call [-7.60593] [-2.50744] [-0.04000]
o1 call [-7.60197] [-2.50690] [-0.04000]
o1 call [-7.59763] [-2.50672] [-0.04000]
o1 call [-7.59366] [-2.50694] [-0.04000]
o1 call [-7.58933] [-2.50760] [-0.04000]
o1 call [-7.58547] [-2.50858] [-0.04000]
o1 call [-7.58135] [-2.51006] [-0.04000]
o1 call [-7.57775] [-2.51176] [-0.04000]
o1 call [-7.57399] [-2.51400] [-0.04000]
o1 call [-7.57079] [-2.51636] [-0.04000]
o1 call [-7.56780] [-2.51902] [-0.04000]
o1 call [-7.56509] [-2.52193] [-0.04000]
o1 call [-7.56242] [-2.52540] [-0.04000]
o1 call [-7.56031] [-2.52877] [-0.04000]
o1 call [-7.55953] [-2.53031] [-0.04000]
o1 call [-7.25252] [-2.53031] [-0.04000]
o1 call [-7.23656] [-2.53031] [-0.04000]
o1 call [-7.23464] [-2.52690] [-0.04000]
o1 call [-7.23265] [-2.52402] [-0.04000]
o1 call [-7.23072] [-2.52162] [-0.04000]
o1 call [-7.22860] [-2.51936] [-0.04000]
o1 call [-7.22625] [-2.51718] [-0.04000]
o1 call [-7.22094] [-2.51328] [-0.04000]
o1 call [-7.21561] [-2.51045] [-0.04000]
o1 call [-7.21236] [-2.50915] [-0.04000]
o1 call [-7.20942] [-2.50824] [-0.04000]
o1 call [-7.20640] [-2.50753] [-0.04000]
o1 call [-7.20292] [-2.50699] [-0.04000]
o1 call [-7.19943] [-2.50674] [-0.04000]
o1 call [-7.19631] [-2.50675] [-0.04000]
o1 call [-7.19235] [-2.50709] [-0.04000]
o1 call [-7.18804] [-2.50788] [-0.04000]
o1 call [-7.18422] [-2.50898] [-0.04000]
o1 call [-7.18014] [-2.51059] [-0.04000]
o1 call [-7.17660] [-2.51240] [-0.04000]
o1 call [-7.17291] [-2.51475] [-0.04000]
o1 call [-7.16978] [-2.51721] [-0.04000]
o1 call [-7.16660] [-2.52025] [-0.04000]
o1 call [-7.16375] [-2.52358] [-0.04000]
o1 call [-7.16148] [-2.52682] [-0.04000]
o1 call [-7.15951] [-2.53027] [-0.04000]
o1 call [-7.15771] [-2.53427] [-0.04000]
o1 call [-7.15644] [-2.53802] [-0.04000]
o1 call [-7.15552] [-2.54189] [-0.04000]
o1 call [-7.15491] [-2.54622] [-0.04000]
o1 call [-7.15475] [-2.55018] [-0.04000]
G04 P0 ( dwell for no time -- G64 should not smooth over this point )
G00 Z0.08000 ( retract )

G00 X-7.15081 Y-2.95012 ( rapid move to begin. )
G01 F180.00000
( Mill infeed pass 1/1 )
o1 call [-7.15081] [-2.95012] [-0.04000]
G04 P0 ( dwell for no time -- G64 should not smooth over this point )
G01 F360.00000
o1 call [-7.15110] [-2.95525] [-0.04000]
o1 call [-7.15187] [-2.95993] [-0.04000]
o1 call [-7.15298] [-2.96416] [-0.04000]
o1 call [-7.15434] [-2.96790] [-0.04000]
o1 call [-7.15673] [-2.97288] [-0.04000]
o1 call [-7.15879] [-2.97628] [-0.04000]
o1 call [-7.16140] [-2.97979] [-0.04000]
o1 call [-7.16455] [-2.98331] [-0.04000]
o1 call [-7.16775] [-2.98624] [-0.04000]
o1 call [-7.17124] [-2.98888] [-0.04000]
o1 call [-7.17466] [-2.99101] [-0.04000]
o1 call [-7.17507] [-2.99081] [-0.04000]
o1 call [-7.17466] [-2.99101] [-0.04000]
o1 call [-7.17470] [-3.07702] [-0.04000]
o1 call [-7.17474] [-3.18183] [-0.04000]
o1 call [-7.17487] [-3.18327] [-0.04000]
o1 call [-7.17564] [-3.18685] [-0.04000]
o1 call [-7.17676] [-3.18991] [-0.04000]
o1 call [-7.17858] [-3.19317] [-0.04000]
o1 call [-7.18122] [-3.19645] [-0.04000]
o1 call [-7.25129] [-3.26653] [-0.04000]
o1 call [-7.25252] [-3.26757] [-0.04000]
o1 call [-7.25425] [-3.26903] [-0.04000]
o1 call [-7.25763] [-3.27102] [-0.04000]
o1 call [-7.26177] [-3.27258] [-0.04000]
o1 call [-7.26659] [-3.27334] [-0.04000]
o1 call [-7.29976] [-3.27337] [-0.04000]
o1 call [-7.29986] [-3.27310] [-0.04000]
o1 call [-7.29976] [-3.27337] [-0.04000]
o1 call [-7.30178] [-3.27549] [-0.04000]
o1 call [-7.30493] [-3.27820] [-0.04000]
o1 call [-7.30802] [-3.28031] [-0.04000]
o1 call [-7.31095] [-3.28189] [-0.04000]
o1 call [-7.31479] [-3.28348] [-0.04000]
o1 call [-7.31798] [-3.28441] [-0.04000]
o1 call [-7.32255] [-3.28521] [-0.04000]
o1 call [-7.32638] [-3.28543] [-0.04000]
o1 call [-7.36980] [-3.28543] [-0.04000]
o1 call [-7.37315] [-3.28525] [-0.04000]
o1 call [-7.37952] [-3.28402] [-0.04000]
o1 call [-7.38425] [-3.28230] [-0.04000]
o1 call [-7.38883] [-3.27981] [-0.04000]
o1 call [-7.39288] [-3.27678] [-0.04000]
o1 call [-7.39645] [-3.27319] [-0.04000]
o1 call [-7.40032] [-3.26776] [-0.04000]
o1 call [-7.40256] [-3.26322] [-0.04000]
o1 call [-7.40411] [-3.25840] [-0.04000]
o1 call [-7.40499] [-3.25301] [-0.04000]
o1 call [-7.40504] [-3.24795] [-0.04000]
o1 call [-7.40403] [-3.24135] [-0.04000]
o1 call [-7.40246] [-3.23654] [-0.04000]
o1 call [-7.40021] [-3.23201] [-0.04000]
o1 call [-7.39724] [-3.22773] [-0.04000]
o1 call [-7.39379] [-3.22406] [-0.04000]
o1 call [-7.38892] [-3.22024] [-0.04000]
o1 call [-7.38525] [-3.21817] [-0.04000]
o1 call [-7.38102] [-3.21643] [-0.04000]
o1 call [-7.37682] [-3.21529] [-0.04000]
o1 call [-7.37242] [-3.21467] [-0.04000]
o1 call [-7.32398] [-3.21465] [-0.04000]
o1 call [-7.31993] [-3.21516] [-0.04000]
o1 call [-7.31602] [-3.21611] [-0.04000]
o1 call [-7.31224] [-3.21751] [-0.04000]
o1 call [-7.30903] [-3.21911] [-0.04000]
o1 call [-7.30527] [-3.22154] [-0.04000]
o1 call [-7.30251] [-3.22382] [-0.04000]
o1 call [-7.29977] [-3.22662] [-0.04000]
o1 call [-7.29987] [-3.22690] [-0.04000]
o1 call [-7.29977] [-3.22662] [-0.04000]
o1 call [-7.27750] [-3.22662] [-0.04000]
o1 call [-7.27738] [-3.22693] [-0.04000]
o1 call [-7.27750] [-3.22662] [-0.04000]
o1 call [-7.25252] [-3.20165] [-0.04000]
o1 call [-7.22141] [-3.17053] [-0.04000]
o1 call [-7.22111] [-3.17065] [-0.04000]
o1 call [-7.22141] [-3.17053] [-0.04000]
o1 call [-7.22141] [-3.07702] [-0.04000]
o1 call [-7.22141] [-2.99101] [-0.04000]
o1 call [-7.22095] [-2.99078] [-0.04000]
o1 call [-7.22141] [-2.99101] [-0.04000]
o1 call [-7.22482] [-2.98888] [-0.04000]
o1 call [-7.22831] [-2.98624] [-0.04000]
o1 call [-7.23176] [-2.98305] [-0.04000]
o1 call [-7.23442] [-2.98009] [-0.04000]
o1 call [-7.23727] [-2.97628] [-0.04000]
o1 call [-7.23952] [-2.97255] [-0.04000]
o1 call [-7.24158] [-2.96826] [-0.04000]
o1 call [-7.24308] [-2.96416] [-0.04000]
o1 call [-7.24428] [-2.95956] [-0.04000]
o1 call [-7.24496] [-2.95525] [-0.04000]
o1 call [-7.24524] [-2.95088] [-0.04000]
o1 call [-7.24510] [-2.94614] [-0.04000]
o1 call [-7.24447] [-2.94141] [-0.04000]
o1 call [-7.24355] [-2.93753] [-0.04000]
o1 call [-7.24307] [-2.93738] [-0.04000]
o1 call [-7.24355] [-2.93753] [-0.04000]
o1 call [-7.25252] [-2.92856] [-0.04000]
o1 call [-7.30771] [-2.87337] [-0.04000]
o1 call [-7.30759] [-2.87307] [-0.04000]
o1 call [-7.30771] [-2.87337] [-0.04000]
o1 call [-7.31457] [-2.87337] [-0.04000]
o1 call [-7.31561] [-2.87228] [-0.04000]
o1 call [-7.31457] [-2.87337] [-0.04000]
o1 call [-7.31466] [-2.87682] [-0.04000]
o1 call [-7.31542] [-2.87916] [-0.04000]
o1 call [-7.31659] [-2.88086] [-0.04000]
o1 call [-7.31815] [-2.88219] [-0.04000]
o1 call [-7.32001] [-2.88308] [-0.04000]
o1 call [-7.32162] [-2.88342] [-0.04000]
o1 call [-7.37403] [-2.88345] [-0.04000]
o1 call [-7.37644] [-2.88294] [-0.04000]
o1 call [-7.37791] [-2.88219] [-0.04000]
o1 call [-7.37889] [-2.88144] [-0.04000]
o1 call [-7.37999] [-2.88022] [-0.04000]
o1 call [-7.38081] [-2.87879] [-0.04000]
o1 call [-7.38132] [-2.87723] [-0.04000]
o1 call [-7.38150] [-2.87559] [-0.04000]
o1 call [-7.38148] [-2.82400] [-0.04000]
o1 call [-7.38111] [-2.82198] [-0.04000]
o1 call [-7.37999] [-2.81978] [-0.04000]
o1 call [-7.37889] [-2.81856] [-0.04000]
o1 call [-7.37720] [-2.81739] [-0.04000]
o1 call [-7.37566] [-2.81680] [-0.04000]
o1 call [-7.37403] [-2.81655] [-0.04000]
o1 call [-7.32162] [-2.81658] [-0.04000]
o1 call [-7.32001] [-2.81692] [-0.04000]
o1 call [-7.31815] [-2.81780] [-0.04000]
o1 call [-7.31659] [-2.81914] [-0.04000]
o1 call [-7.31542] [-2.82083] [-0.04000]
o1 call [-7.31466] [-2.82318] [-0.04000]
o1 call [-7.31457] [-2.82665] [-0.04000]
o1 call [-7.31561] [-2.82773] [-0.04000]
o1 call [-7.31457] [-2.82665] [-0.04000]
o1 call [-7.29595] [-2.82672] [-0.04000]
o1 call [-7.29198] [-2.82744] [-0.04000]
o1 call [-7.28896] [-2.82846] [-0.04000]
o1 call [-7.28646] [-2.82969] [-0.04000]
o1 call [-7.28382] [-2.83147] [-0.04000]
o1 call [-7.28271] [-2.83238] [-0.04000]
o1 call [-7.25252] [-2.86252] [-0.04000]
o1 call [-7.21051] [-2.90447] [-0.04000]
o1 call [-7.21066] [-2.90500] [-0.04000]
o1 call [-7.21051] [-2.90447] [-0.04000]
o1 call [-7.20678] [-2.90360] [-0.04000]
o1 call [-7.20127] [-2.90289] [-0.04000]
o1 call [-7.19729] [-2.90278] [-0.04000]
o1 call [-7.19292] [-2.90306] [-0.04000]
o1 call [-7.18779] [-2.90390] [-0.04000]
o1 call [-7.18283] [-2.90530] [-0.04000]
o1 call [-7.17911] [-2.90673] [-0.04000]
o1 call [-7.17519] [-2.90868] [-0.04000]
o1 call [-7.17080] [-2.91142] [-0.04000]
o1 call [-7.16736] [-2.91410] [-0.04000]
o1 call [-7.16388] [-2.91738] [-0.04000]
o1 call [-7.16076] [-2.92100] [-0.04000]
o1 call [-7.15826] [-2.92454] [-0.04000]
o1 call [-7.15592] [-2.92864] [-0.04000]
o1 call [-7.15412] [-2.93263] [-0.04000]
o1 call [-7.15282] [-2.93639] [-0.04000]
o1 call [-7.15168] [-2.94101] [-0.04000]
o1 call [-7.15096] [-2.94614] [-0.04000]
o1 call [-7.15081] [-2.95012] [-0.04000]
o1 call [-7.15475] [-2.95026] [-0.04000]
o1 call [-7.15491] [-2.94628] [-0.04000]
o1 call [-7.15551] [-2.94193] [-0.04000]
o1 call [-7.15654] [-2.93767] [-0.04000]
o1 call [-7.15785] [-2.93391] [-0.04000]
o1 call [-7.15951] [-2.93027] [-0.04000]
o1 call [-7.16148] [-2.92682] [-0.04000]
o1 call [-7.16398] [-2.92328] [-0.04000]
o1 call [-7.16687] [-2.91996] [-0.04000]
o1 call [-7.17007] [-2.91696] [-0.04000]
o1 call [-7.17322] [-2.91453] [-0.04000]
o1 call [-7.17660] [-2.91240] [-0.04000]
o1 call [-7.18053] [-2.91041] [-0.04000]
o1 call [-7.18460] [-2.90885] [-0.04000]
o1 call [-7.18884] [-2.90770] [-0.04000]
o1 call [-7.19318] [-2.90699] [-0.04000]
o1 call [-7.19717] [-2.90673] [-0.04000]
o1 call [-7.20115] [-2.90683] [-0.04000]
o1 call [-7.20589] [-2.90744] [-0.04000]
o1 call [-7.20978] [-2.90834] [-0.04000]
o1 call [-7.21160] [-2.90895] [-0.04000]
o1 call [-7.25252] [-2.86809] [-0.04000]
o1 call [-7.28549] [-2.83517] [-0.04000]
o1 call [-7.28854] [-2.83304] [-0.04000]
o1 call [-7.29088] [-2.83194] [-0.04000]
o1 call [-7.29320] [-2.83118] [-0.04000]
o1 call [-7.29607] [-2.83066] [-0.04000]
o1 call [-7.31850] [-2.83058] [-0.04000]
o1 call [-7.31850] [-2.82441] [-0.04000]
o1 call [-7.31870] [-2.82319] [-0.04000]
o1 call [-7.31903] [-2.82244] [-0.04000]
o1 call [-7.31981] [-2.82148] [-0.04000]
o1 call [-7.32084] [-2.82081] [-0.04000]
o1 call [-7.32203] [-2.82049] [-0.04000]
o1 call [-7.37362] [-2.82047] [-0.04000]
o1 call [-7.37444] [-2.82056] [-0.04000]
o1 call [-7.37559] [-2.82100] [-0.04000]
o1 call [-7.37681] [-2.82210] [-0.04000]
o1 call [-7.37737] [-2.82319] [-0.04000]
o1 call [-7.37756] [-2.82441] [-0.04000]
o1 call [-7.37756] [-2.87559] [-0.04000]
o1 call [-7.37722] [-2.87719] [-0.04000]
o1 call [-7.37626] [-2.87852] [-0.04000]
o1 call [-7.37522] [-2.87919] [-0.04000]
o1 call [-7.37362] [-2.87953] [-0.04000]
o1 call [-7.32203] [-2.87950] [-0.04000]
o1 call [-7.32084] [-2.87919] [-0.04000]
o1 call [-7.31981] [-2.87852] [-0.04000]
o1 call [-7.31903] [-2.87756] [-0.04000]
o1 call [-7.31870] [-2.87681] [-0.04000]
o1 call [-7.31850] [-2.87559] [-0.04000]
o1 call [-7.31850] [-2.86944] [-0.04000]
o1 call [-7.30608] [-2.86944] [-0.04000]
o1 call [-7.25252] [-2.92300] [-0.04000]
o1 call [-7.23909] [-2.93643] [-0.04000]
o1 call [-7.23963] [-2.93804] [-0.04000]
o1 call [-7.24063] [-2.94232] [-0.04000]
o1 call [-7.24119] [-2.94666] [-0.04000]
o1 call [-7.24131] [-2.95064] [-0.04000]
o1 call [-7.24106] [-2.95463] [-0.04000]
o1 call [-7.24046] [-2.95856] [-0.04000]
o1 call [-7.23938] [-2.96281] [-0.04000]
o1 call [-7.23803] [-2.96655] [-0.04000]
o1 call [-7.23615] [-2.97051] [-0.04000]
o1 call [-7.23410] [-2.97392] [-0.04000]
o1 call [-7.23150] [-2.97744] [-0.04000]
o1 call [-7.22884] [-2.98040] [-0.04000]
o1 call [-7.22593] [-2.98309] [-0.04000]
o1 call [-7.22245] [-2.98574] [-0.04000]
o1 call [-7.21906] [-2.98783] [-0.04000]
o1 call [-7.21747] [-2.98863] [-0.04000]
o1 call [-7.21747] [-3.07702] [-0.04000]
o1 call [-7.21747] [-3.17216] [-0.04000]
o1 call [-7.25252] [-3.20722] [-0.04000]
o1 call [-7.27587] [-3.23056] [-0.04000]
o1 call [-7.30164] [-3.23056] [-0.04000]
o1 call [-7.30254] [-3.22942] [-0.04000]
o1 call [-7.30503] [-3.22685] [-0.04000]
o1 call [-7.30780] [-3.22457] [-0.04000]
o1 call [-7.31081] [-3.22263] [-0.04000]
o1 call [-7.31402] [-3.22104] [-0.04000]
o1 call [-7.31739] [-3.21982] [-0.04000]
o1 call [-7.32087] [-3.21899] [-0.04000]
o1 call [-7.32398] [-3.21860] [-0.04000]
o1 call [-7.37224] [-3.21861] [-0.04000]
o1 call [-7.37579] [-3.21911] [-0.04000]
o1 call [-7.37952] [-3.22008] [-0.04000]
o1 call [-7.38330] [-3.22160] [-0.04000]
o1 call [-7.38666] [-3.22348] [-0.04000]
o1 call [-7.39094] [-3.22677] [-0.04000]
o1 call [-7.39425] [-3.23031] [-0.04000]
o1 call [-7.39687] [-3.23411] [-0.04000]
o1 call [-7.39899] [-3.23848] [-0.04000]
o1 call [-7.40027] [-3.24254] [-0.04000]
o1 call [-7.40106] [-3.24733] [-0.04000]
o1 call [-7.40109] [-3.25219] [-0.04000]
o1 call [-7.40024] [-3.25759] [-0.04000]
o1 call [-7.39871] [-3.26220] [-0.04000]
o1 call [-7.39680] [-3.26600] [-0.04000]
o1 call [-7.39363] [-3.27044] [-0.04000]
o1 call [-7.39020] [-3.27388] [-0.04000]
o1 call [-7.38630] [-3.27675] [-0.04000]
o1 call [-7.38221] [-3.27889] [-0.04000]
o1 call [-7.37820] [-3.28031] [-0.04000]
o1 call [-7.37293] [-3.28132] [-0.04000]
o1 call [-7.36980] [-3.28150] [-0.04000]
o1 call [-7.32638] [-3.28150] [-0.04000]
o1 call [-7.32279] [-3.28128] [-0.04000]
o1 call [-7.31947] [-3.28072] [-0.04000]
o1 call [-7.31627] [-3.27983] [-0.04000]
o1 call [-7.31318] [-3.27859] [-0.04000]
o1 call [-7.31024] [-3.27704] [-0.04000]
o1 call [-7.30748] [-3.27519] [-0.04000]
o1 call [-7.30493] [-3.27306] [-0.04000]
o1 call [-7.30262] [-3.27067] [-0.04000]
o1 call [-7.30165] [-3.26944] [-0.04000]
o1 call [-7.26700] [-3.26941] [-0.04000]
o1 call [-7.26279] [-3.26877] [-0.04000]
o1 call [-7.25937] [-3.26749] [-0.04000]
o1 call [-7.25639] [-3.26572] [-0.04000]
o1 call [-7.25407] [-3.26374] [-0.04000]
o1 call [-7.25252] [-3.26219] [-0.04000]
o1 call [-7.18400] [-3.19367] [-0.04000]
o1 call [-7.18174] [-3.19082] [-0.04000]
o1 call [-7.18041] [-3.18839] [-0.04000]
o1 call [-7.17935] [-3.18554] [-0.04000]
o1 call [-7.17868] [-3.18183] [-0.04000]
o1 call [-7.17863] [-3.07702] [-0.04000]
o1 call [-7.17860] [-2.98863] [-0.04000]
o1 call [-7.17700] [-2.98783] [-0.04000]
o1 call [-7.17393] [-2.98595] [-0.04000]
o1 call [-7.17013] [-2.98309] [-0.04000]
o1 call [-7.16722] [-2.98040] [-0.04000]
o1 call [-7.16480] [-2.97774] [-0.04000]
o1 call [-7.16196] [-2.97392] [-0.04000]
o1 call [-7.15991] [-2.97051] [-0.04000]
o1 call [-7.15818] [-2.96690] [-0.04000]
o1 call [-7.15669] [-2.96281] [-0.04000]
o1 call [-7.15568] [-2.95894] [-0.04000]
o1 call [-7.15504] [-2.95501] [-0.04000]
o1 call [-7.15475] [-2.95026] [-0.04000]
G04 P0 ( dwell for no time -- G64 should not smooth over this point )
G00 Z0.08000 ( retract )

G00 X-7.29491 Y-3.17001 ( rapid move to begin. )
G01 F180.00000
( Mill infeed pass 1/1 )
o1 call [-7.29491] [-3.17001] [-0.04000]
G04 P0 ( dwell for no time -- G64 should not smooth over this point )
G01 F360.00000
o1 call [-7.29526] [-3.16645] [-0.04000]
o1 call [-7.29600] [-3.16294] [-0.04000]
o1 call [-7.29731] [-3.15914] [-0.04000]
o1 call [-7.29888] [-3.15591] [-0.04000]
o1 call [-7.30080] [-3.15289] [-0.04000]
o1 call [-7.30275] [-3.15044] [-0.04000]
o1 call [-7.30527] [-3.14789] [-0.04000]
o1 call [-7.30843] [-3.14539] [-0.04000]
o1 call [-7.31149] [-3.14351] [-0.04000]
o1 call [-7.31453] [-3.14208] [-0.04000]
o1 call [-7.31837] [-3.14080] [-0.04000]
o1 call [-7.32188] [-3.14009] [-0.04000]
o1 call [-7.32537] [-3.13978] [-0.04000]
o1 call [-7.36991] [-3.13976] [-0.04000]
o1 call [-7.37524] [-3.14026] [-0.04000]
o1 call [-7.37808] [-3.14091] [-0.04000]
o1 call [-7.38101] [-3.14187] [-0.04000]
o1 call [-7.38382] [-3.14312] [-0.04000]
o1 call [-7.38649] [-3.14463] [-0.04000]
o1 call [-7.38900] [-3.14639] [-0.04000]
o1 call [-7.39133] [-3.14839] [-0.04000]
o1 call [-7.39423] [-3.15157] [-0.04000]
o1 call [-7.62595] [-3.15157] [-0.04000]
o1 call [-7.98268] [-3.15157] [-0.04000]
o1 call [-7.99939] [-3.13487] [-0.04000]
o1 call [-8.05723] [-3.07702] [-0.04000]
o1 call [-8.22835] [-2.90591] [-0.04000]
o1 call [-8.22844] [-2.84805] [-0.04000]
o1 call [-8.22882] [-2.84573] [-0.04000]
o1 call [-8.22938] [-2.84373] [-0.04000]
o1 call [-8.23115] [-2.83987] [-0.04000]
o1 call [-8.23358] [-2.83663] [-0.04000]
o1 call [-8.23656] [-2.83400] [-0.04000]
o1 call [-8.23905] [-2.83249] [-0.04000]
o1 call [-8.24185] [-2.83132] [-0.04000]
o1 call [-8.24480] [-2.83059] [-0.04000]
o1 call [-8.24763] [-2.83032] [-0.04000]
o1 call [-8.37282] [-2.83031] [-0.04000]
o1 call [-8.37765] [-2.83031] [-0.04000]
o1 call [-8.37870] [-2.82916] [-0.04000]
o1 call [-8.38147] [-2.82671] [-0.04000]
o1 call [-8.38410] [-2.82488] [-0.04000]
o1 call [-8.38697] [-2.82332] [-0.04000]
o1 call [-8.39082] [-2.82181] [-0.04000]
o1 call [-8.39399] [-2.82102] [-0.04000]
o1 call [-8.39763] [-2.82054] [-0.04000]
o1 call [-8.40095] [-2.82051] [-0.04000]
o1 call [-8.40493] [-2.82097] [-0.04000]
o1 call [-8.40998] [-2.82237] [-0.04000]
o1 call [-8.41416] [-2.82432] [-0.04000]
o1 call [-8.41751] [-2.82653] [-0.04000]
o1 call [-8.42137] [-2.83006] [-0.04000]
o1 call [-8.42387] [-2.83319] [-0.04000]
o1 call [-8.42620] [-2.83718] [-0.04000]
o1 call [-8.42802] [-2.84199] [-0.04000]
o1 call [-8.42872] [-2.84512] [-0.04000]
o1 call [-8.42905] [-2.84790] [-0.04000]
o1 call [-8.42912] [-2.85071] [-0.04000]
o1 call [-8.42880] [-2.85436] [-0.04000]
o1 call [-8.42815] [-2.85753] [-0.04000]
o1 call [-8.42715] [-2.86061] [-0.04000]
o1 call [-8.42583] [-2.86356] [-0.04000]
o1 call [-8.42419] [-2.86635] [-0.04000]
o1 call [-8.42252] [-2.86861] [-0.04000]
o1 call [-8.42035] [-2.87101] [-0.04000]
o1 call [-8.41826] [-2.87288] [-0.04000]
o1 call [-8.41567] [-2.87477] [-0.04000]
o1 call [-8.41286] [-2.87638] [-0.04000]
o1 call [-8.40989] [-2.87767] [-0.04000]
o1 call [-8.40680] [-2.87863] [-0.04000]
o1 call [-8.40363] [-2.87925] [-0.04000]
o1 call [-8.39991] [-2.87952] [-0.04000]
o1 call [-8.39579] [-2.87927] [-0.04000]
o1 call [-8.39213] [-2.87855] [-0.04000]
o1 call [-8.38821] [-2.87723] [-0.04000]
o1 call [-8.38487] [-2.87558] [-0.04000]
o1 call [-8.38145] [-2.87328] [-0.04000]
o1 call [-8.37903] [-2.87117] [-0.04000]
o1 call [-8.37767] [-2.86969] [-0.04000]
o1 call [-8.37282] [-2.86969] [-0.04000]
o1 call [-8.26772] [-2.86969] [-0.04000]
o1 call [-8.26772] [-2.91154] [-0.04000]
o1 call [-8.27065] [-2.91310] [-0.04000]
o1 call [-8.27532] [-2.91640] [-0.04000]
o1 call [-8.27949] [-2.92028] [-0.04000]
o1 call [-8.28289] [-2.92434] [-0.04000]
o1 call [-8.28595] [-2.92914] [-0.04000]
o1 call [-8.28821] [-2.93391] [-0.04000]
o1 call [-8.28987] [-2.93894] [-0.04000]
o1 call [-8.29096] [-2.94449] [-0.04000]
o1 call [-8.29130] [-2.94890] [-0.04000]
o1 call [-8.29119] [-2.95330] [-0.04000]
o1 call [-8.29063] [-2.95768] [-0.04000]
o1 call [-8.28963] [-2.96196] [-0.04000]
o1 call [-8.28820] [-2.96612] [-0.04000]
o1 call [-8.28616] [-2.97049] [-0.04000]
o1 call [-8.28387] [-2.97427] [-0.04000]
o1 call [-8.28122] [-2.97778] [-0.04000]
o1 call [-8.27762] [-2.98158] [-0.04000]
o1 call [-8.27390] [-2.98470] [-0.04000]
o1 call [-8.26950] [-2.98758] [-0.04000]
o1 call [-8.26476] [-2.98991] [-0.04000]
o1 call [-8.26019] [-2.99154] [-0.04000]
o1 call [-8.25506] [-2.99270] [-0.04000]
o1 call [-8.24933] [-2.99326] [-0.04000]
o1 call [-8.24408] [-2.99310] [-0.04000]
o1 call [-8.23927] [-2.99238] [-0.04000]
o1 call [-8.23418] [-2.99100] [-0.04000]
o1 call [-8.22929] [-2.98901] [-0.04000]
o1 call [-8.22470] [-2.98645] [-0.04000]
o1 call [-8.22076] [-2.98361] [-0.04000]
o1 call [-8.21687] [-2.98004] [-0.04000]
o1 call [-8.21365] [-2.97629] [-0.04000]
o1 call [-8.11291] [-3.07702] [-0.04000]
o1 call [-8.00476] [-3.18518] [-0.04000]
o1 call [-8.00265] [-3.18700] [-0.04000]
o1 call [-8.00090] [-3.18817] [-0.04000]
o1 call [-7.99939] [-3.18894] [-0.04000]
o1 call [-7.99860] [-3.18934] [-0.04000]
o1 call [-7.99618] [-3.19020] [-0.04000]
o1 call [-7.99361] [-3.19074] [-0.04000]
o1 call [-7.99084] [-3.19095] [-0.04000]
o1 call [-7.62595] [-3.19095] [-0.04000]
o1 call [-7.39423] [-3.19095] [-0.04000]
o1 call [-7.39124] [-3.19422] [-0.04000]
o1 call [-7.38890] [-3.19621] [-0.04000]
o1 call [-7.38638] [-3.19796] [-0.04000]
o1 call [-7.38370] [-3.19946] [-0.04000]
o1 call [-7.38089] [-3.20069] [-0.04000]
o1 call [-7.37834] [-3.20154] [-0.04000]
o1 call [-7.37535] [-3.20224] [-0.04000]
o1 call [-7.37002] [-3.20275] [-0.04000]
o1 call [-7.32615] [-3.20275] [-0.04000]
o1 call [-7.32127] [-3.20234] [-0.04000]
o1 call [-7.31603] [-3.20100] [-0.04000]
o1 call [-7.31184] [-3.19920] [-0.04000]
o1 call [-7.30778] [-3.19666] [-0.04000]
o1 call [-7.30408] [-3.19349] [-0.04000]
o1 call [-7.30043] [-3.18909] [-0.04000]
o1 call [-7.29811] [-3.18516] [-0.04000]
o1 call [-7.29634] [-3.18071] [-0.04000]
o1 call [-7.29536] [-3.17670] [-0.04000]
o1 call [-7.29497] [-3.17359] [-0.04000]
o1 call [-7.29491] [-3.17001] [-0.04000]
o1 call [-7.29097] [-3.17005] [-0.04000]
o1 call [-7.29098] [-3.16960] [-0.04000]
o1 call [-7.29140] [-3.16560] [-0.04000]
o1 call [-7.29216] [-3.16209] [-0.04000]
o1 call [-7.29376] [-3.15744] [-0.04000]
o1 call [-7.29531] [-3.15421] [-0.04000]
o1 call [-7.29745] [-3.15080] [-0.04000]
o1 call [-7.29996] [-3.14764] [-0.04000]
o1 call [-7.30249] [-3.14510] [-0.04000]
o1 call [-7.30635] [-3.14204] [-0.04000]
o1 call [-7.30941] [-3.14015] [-0.04000]
o1 call [-7.31329] [-3.13833] [-0.04000]
o1 call [-7.31756] [-3.13695] [-0.04000]
o1 call [-7.32107] [-3.13623] [-0.04000]
o1 call [-7.32500] [-3.13585] [-0.04000]
o1 call [-7.36991] [-3.13583] [-0.04000]
o1 call [-7.37577] [-3.13635] [-0.04000]
o1 call [-7.37934] [-3.13717] [-0.04000]
o1 call [-7.38227] [-3.13814] [-0.04000]
o1 call [-7.38611] [-3.13987] [-0.04000]
o1 call [-7.38877] [-3.14141] [-0.04000]
o1 call [-7.39159] [-3.14341] [-0.04000]
o1 call [-7.39447] [-3.14595] [-0.04000]
o1 call [-7.39607] [-3.14763] [-0.04000]
o1 call [-7.39596] [-3.14791] [-0.04000]
o1 call [-7.39607] [-3.14763] [-0.04000]
o1 call [-7.62595] [-3.14763] [-0.04000]
o1 call [-7.98105] [-3.14763] [-0.04000]
o1 call [-7.98117] [-3.14793] [-0.04000]
o1 call [-7.98105] [-3.14763] [-0.04000]
o1 call [-7.99939] [-3.12930] [-0.04000]
o1 call [-8.05166] [-3.07702] [-0.04000]
o1 call [-8.22441] [-2.90427] [-0.04000]
o1 call [-8.22471] [-2.90440] [-0.04000]
o1 call [-8.22441] [-2.90427] [-0.04000]
o1 call [-8.22454] [-2.84750] [-0.04000]
o1 call [-8.22503] [-2.84462] [-0.04000]
o1 call [-8.22572] [-2.84224] [-0.04000]
o1 call [-8.22778] [-2.83784] [-0.04000]
o1 call [-8.23069] [-2.83395] [-0.04000]
o1 call [-8.23440] [-2.83071] [-0.04000]
o1 call [-8.23714] [-2.82904] [-0.04000]
o1 call [-8.24046] [-2.82762] [-0.04000]
o1 call [-8.24400] [-2.82672] [-0.04000]
o1 call [-8.24722] [-2.82639] [-0.04000]
o1 call [-8.37282] [-2.82638] [-0.04000]
o1 call [-8.37591] [-2.82638] [-0.04000]
o1 call [-8.37599] [-2.82659] [-0.04000]
o1 call [-8.37591] [-2.82638] [-0.04000]
o1 call [-8.37923] [-2.82347] [-0.04000]
o1 call [-8.38225] [-2.82139] [-0.04000]
o1 call [-8.38596] [-2.81946] [-0.04000]
o1 call [-8.38939] [-2.81813] [-0.04000]
o1 call [-8.39299] [-2.81719] [-0.04000]
o1 call [-8.39709] [-2.81663] [-0.04000]
o1 call [-8.40140] [-2.81660] [-0.04000]
o1 call [-8.40619] [-2.81719] [-0.04000]
o1 call [-8.41045] [-2.81836] [-0.04000]
o1 call [-8.41525] [-2.82044] [-0.04000]
o1 call [-8.42001] [-2.82348] [-0.04000]
o1 call [-8.42418] [-2.82729] [-0.04000]
o1 call [-8.42764] [-2.83175] [-0.04000]
o1 call [-8.42981] [-2.83560] [-0.04000]
o1 call [-8.43155] [-2.84010] [-0.04000]
o1 call [-8.43263] [-2.84463] [-0.04000]
o1 call [-8.43297] [-2.84741] [-0.04000]
o1 call [-8.43305] [-2.85105] [-0.04000]
o1 call [-8.43267] [-2.85513] [-0.04000]
o1 call [-8.43202] [-2.85830] [-0.04000]
o1 call [-8.43092] [-2.86180] [-0.04000]
o1 call [-8.42944] [-2.86516] [-0.04000]
o1 call [-8.42783] [-2.86796] [-0.04000]
o1 call [-8.42514] [-2.87161] [-0.04000]
o1 call [-8.42296] [-2.87396] [-0.04000]
o1 call [-8.42056] [-2.87609] [-0.04000]
o1 call [-8.41761] [-2.87821] [-0.04000]
o1 call [-8.41479] [-2.87981] [-0.04000]
o1 call [-8.41063] [-2.88159] [-0.04000]
o1 call [-8.40756] [-2.88251] [-0.04000]
o1 call [-8.40438] [-2.88312] [-0.04000]
o1 call [-8.40006] [-2.88346] [-0.04000]
o1 call [-8.39576] [-2.88324] [-0.04000]
o1 call [-8.39157] [-2.88248] [-0.04000]
o1 call [-8.38747] [-2.88117] [-0.04000]
o1 call [-8.38330] [-2.87922] [-0.04000]
o1 call [-8.37969] [-2.87688] [-0.04000]
o1 call [-8.37608] [-2.87380] [-0.04000]
o1 call [-8.37591] [-2.87362] [-0.04000]
o1 call [-8.37598] [-2.87342] [-0.04000]
o1 call [-8.37591] [-2.87362] [-0.04000]
o1 call [-8.37282] [-2.87362] [-0.04000]
o1 call [-8.27166] [-2.87362] [-0.04000]
o1 call [-8.27050] [-2.87247] [-0.04000]
o1 call [-8.27166] [-2.87362] [-0.04000]
o1 call [-8.27166] [-2.90915] [-0.04000]
o1 call [-8.27120] [-2.90939] [-0.04000]
o1 call [-8.27166] [-2.90915] [-0.04000]
o1 call [-8.27232] [-2.90950] [-0.04000]
o1 call [-8.27772] [-2.91327] [-0.04000]
o1 call [-8.28216] [-2.91737] [-0.04000]
o1 call [-8.28619] [-2.92220] [-0.04000]
o1 call [-8.28927] [-2.92700] [-0.04000]
o1 call [-8.29177] [-2.93221] [-0.04000]
o1 call [-8.29362] [-2.93768] [-0.04000]
o1 call [-8.29483] [-2.94372] [-0.04000]
o1 call [-8.29523] [-2.94858] [-0.04000]
o1 call [-8.29510] [-2.95382] [-0.04000]
o1 call [-8.29447] [-2.95859] [-0.04000]
o1 call [-8.29335] [-2.96326] [-0.04000]
o1 call [-8.29177] [-2.96781] [-0.04000]
o1 call [-8.28952] [-2.97255] [-0.04000]
o1 call [-8.28701] [-2.97666] [-0.04000]
o1 call [-8.28408] [-2.98051] [-0.04000]
o1 call [-8.28014] [-2.98463] [-0.04000]
o1 call [-8.27604] [-2.98802] [-0.04000]
o1 call [-8.27123] [-2.99113] [-0.04000]
o1 call [-8.26649] [-2.99345] [-0.04000]
o1 call [-8.26104] [-2.99539] [-0.04000]
o1 call [-8.25591] [-2.99655] [-0.04000]
o1 call [-8.24923] [-2.99720] [-0.04000]
o1 call [-8.24397] [-2.99705] [-0.04000]
o1 call [-8.23871] [-2.99629] [-0.04000]
o1 call [-8.23316] [-2.99482] [-0.04000]
o1 call [-8.22782] [-2.99268] [-0.04000]
o1 call [-8.22279] [-2.98991] [-0.04000]
o1 call [-8.21846] [-2.98682] [-0.04000]
o1 call [-8.21456] [-2.98330] [-0.04000]
o1 call [-8.21343] [-2.98207] [-0.04000]
o1 call [-8.21340] [-2.98054] [-0.04000]
o1 call [-8.21343] [-2.98207] [-0.04000]
o1 call [-8.11848] [-3.07702] [-0.04000]
o1 call [-8.00754] [-3.18796] [-0.04000]
o1 call [-8.00526] [-3.18997] [-0.04000]
o1 call [-8.00313] [-3.19143] [-0.04000]
o1 call [-8.00044] [-3.19284] [-0.04000]
o1 call [-7.99939] [-3.19323] [-0.04000]
o1 call [-7.99754] [-3.19391] [-0.04000]
o1 call [-7.99429] [-3.19463] [-0.04000]
o1 call [-7.99084] [-3.19488] [-0.04000]
o1 call [-7.62595] [-3.19488] [-0.04000]
o1 call [-7.39607] [-3.19488] [-0.04000]
o1 call [-7.39596] [-3.19461] [-0.04000]
o1 call [-7.39607] [-3.19488] [-0.04000]
o1 call [-7.39381] [-3.19720] [-0.04000]
o1 call [-7.39148] [-3.19920] [-0.04000]
o1 call [-7.38832] [-3.20139] [-0.04000]
o1 call [-7.38565] [-3.20289] [-0.04000]
o1 call [-7.38249] [-3.20430] [-0.04000]
o1 call [-7.37921] [-3.20539] [-0.04000]
o1 call [-7.37572] [-3.20617] [-0.04000]
o1 call [-7.37002] [-3.20669] [-0.04000]
o1 call [-7.32615] [-3.20669] [-0.04000]
o1 call [-7.32083] [-3.20625] [-0.04000]
o1 call [-7.31527] [-3.20491] [-0.04000]
o1 call [-7.30983] [-3.20259] [-0.04000]
o1 call [-7.30500] [-3.19952] [-0.04000]
o1 call [-7.30089] [-3.19587] [-0.04000]
o1 call [-7.29726] [-3.19145] [-0.04000]
o1 call [-7.29449] [-3.18670] [-0.04000]
o1 call [-7.29245] [-3.18147] [-0.04000]
o1 call [-7.29145] [-3.17719] [-0.04000]
o1 call [-7.29102] [-3.17363] [-0.04000]
o1 call [-7.29097] [-3.17005] [-0.04000]
o1 call [-7.32776] [-3.07702] [-0.04000]
o1 call [-7.41697] [-2.85140] [-0.04000]
o1 call [-7.41700] [-2.84810] [-0.04000]
o1 call [-7.41755] [-2.84401] [-0.04000]
o1 call [-7.41837] [-2.84091] [-0.04000]
o1 call [-7.41972] [-2.83747] [-0.04000]
o1 call [-7.42174] [-2.83387] [-0.04000]
o1 call [-7.42396] [-2.83088] [-0.04000]
o1 call [-7.42685] [-2.82793] [-0.04000]
o1 call [-7.42979] [-2.82563] [-0.04000]
o1 call [-7.43297] [-2.82374] [-0.04000]
o1 call [-7.43636] [-2.82226] [-0.04000]
o1 call [-7.43990] [-2.82122] [-0.04000]
o1 call [-7.44398] [-2.82058] [-0.04000]
o1 call [-7.44824] [-2.82053] [-0.04000]
o1 call [-7.45233] [-2.82107] [-0.04000]
o1 call [-7.45590] [-2.82203] [-0.04000]
o1 call [-7.45935] [-2.82344] [-0.04000]
o1 call [-7.46249] [-2.82522] [-0.04000]
o1 call [-7.46623] [-2.82808] [-0.04000]
o1 call [-7.46912] [-2.83108] [-0.04000]
o1 call [-7.47125] [-2.83398] [-0.04000]
o1 call [-7.47349] [-2.83813] [-0.04000]
o1 call [-7.47473] [-2.84152] [-0.04000]
o1 call [-7.47564] [-2.84558] [-0.04000]
o1 call [-7.47597] [-2.84972] [-0.04000]
o1 call [-7.47586] [-2.85192] [-0.04000]
o1 call [-7.55451] [-2.93056] [-0.04000]
o1 call [-7.55938] [-2.93056] [-0.04000]
o1 call [-7.56167] [-2.92652] [-0.04000]
o1 call [-7.56375] [-2.92358] [-0.04000]
o1 call [-7.56624] [-2.92063] [-0.04000]
o1 call [-7.56875] [-2.91813] [-0.04000]
o1 call [-7.57150] [-2.91580] [-0.04000]
o1 call [-7.57473] [-2.91352] [-0.04000]
o1 call [-7.57779] [-2.91174] [-0.04000]
o1 call [-7.58256] [-2.90958] [-0.04000]
o1 call [-7.58759] [-2.90800] [-0.04000]
o1 call [-7.59278] [-2.90704] [-0.04000]
o1 call [-7.59757] [-2.90672] [-0.04000]
o1 call [-7.60411] [-2.90714] [-0.04000]
o1 call [-7.60726] [-2.90771] [-0.04000]
o1 call [-7.61026] [-2.90848] [-0.04000]
o1 call [-7.61358] [-2.90960] [-0.04000]
o1 call [-7.61643] [-2.91082] [-0.04000]
o1 call [-7.62168] [-2.91376] [-0.04000]
o1 call [-7.62465] [-2.91587] [-0.04000]
o1 call [-7.62595] [-2.91696] [-0.04000]
o1 call [-7.62702] [-2.91786] [-0.04000]
o1 call [-7.63119] [-2.92219] [-0.04000]
o1 call [-7.63480] [-2.92718] [-0.04000]
o1 call [-7.63669] [-2.93056] [-0.04000]
o1 call [-7.93578] [-2.93056] [-0.04000]
o1 call [-7.99939] [-2.86695] [-0.04000]
o1 call [-8.09118] [-2.77516] [-0.04000]
o1 call [-8.09330] [-2.77334] [-0.04000]
o1 call [-8.09548] [-2.77193] [-0.04000]
o1 call [-8.09820] [-2.77068] [-0.04000]
o1 call [-8.10058] [-2.76997] [-0.04000]
o1 call [-8.10264] [-2.76961] [-0.04000]
o1 call [-8.10492] [-2.76947] [-0.04000]
o1 call [-8.37282] [-2.76950] [-0.04000]
o1 call [-8.59909] [-2.76953] [-0.04000]
o1 call [-8.60223] [-2.77000] [-0.04000]
o1 call [-8.60518] [-2.77096] [-0.04000]
o1 call [-8.60830] [-2.77261] [-0.04000]
o1 call [-8.61117] [-2.77488] [-0.04000]
o1 call [-8.73662] [-2.90033] [-0.04000]
o1 call [-8.73890] [-2.90306] [-0.04000]
o1 call [-8.74064] [-2.90617] [-0.04000]
o1 call [-8.74168] [-2.90919] [-0.04000]
o1 call [-8.74230] [-2.91326] [-0.04000]
o1 call [-8.74231] [-2.98633] [-0.04000]
o1 call [-8.74211] [-2.98871] [-0.04000]
o1 call [-8.74145] [-2.99164] [-0.04000]
o1 call [-8.74028] [-2.99457] [-0.04000]
o1 call [-8.73888] [-2.99696] [-0.04000]
o1 call [-8.73662] [-2.99967] [-0.04000]
o1 call [-8.65926] [-3.07702] [-0.04000]
o1 call [-8.55070] [-3.18556] [-0.04000]
o1 call [-8.54811] [-3.18757] [-0.04000]
o1 call [-8.54470] [-3.18932] [-0.04000]
o1 call [-8.54178] [-3.19022] [-0.04000]
o1 call [-8.53877] [-3.19065] [-0.04000]
o1 call [-8.49442] [-3.19069] [-0.04000]
o1 call [-8.49123] [-3.19423] [-0.04000]
o1 call [-8.48869] [-3.19637] [-0.04000]
o1 call [-8.48593] [-3.19824] [-0.04000]
o1 call [-8.48299] [-3.19980] [-0.04000]
o1 call [-8.47991] [-3.20104] [-0.04000]
o1 call [-8.47671] [-3.20196] [-0.04000]
o1 call [-8.47340] [-3.20253] [-0.04000]
o1 call [-8.46979] [-3.20275] [-0.04000]
o1 call [-8.42503] [-3.20272] [-0.04000]
o1 call [-8.42032] [-3.20216] [-0.04000]
o1 call [-8.41587] [-3.20094] [-0.04000]
o1 call [-8.41144] [-3.19898] [-0.04000]
o1 call [-8.40755] [-3.19649] [-0.04000]
o1 call [-8.40390] [-3.19331] [-0.04000]
o1 call [-8.40078] [-3.18959] [-0.04000]
o1 call [-8.39837] [-3.18565] [-0.04000]
o1 call [-8.39631] [-3.18060] [-0.04000]
o1 call [-8.39523] [-3.17587] [-0.04000]
o1 call [-8.39489] [-3.17104] [-0.04000]
o1 call [-8.39526] [-3.16643] [-0.04000]
o1 call [-8.39638] [-3.16170] [-0.04000]
o1 call [-8.39794] [-3.15775] [-0.04000]
o1 call [-8.40035] [-3.15354] [-0.04000]
o1 call [-8.40323] [-3.14992] [-0.04000]
o1 call [-8.40677] [-3.14662] [-0.04000]
o1 call [-8.41038] [-3.14414] [-0.04000]
o1 call [-8.41449] [-3.14210] [-0.04000]
o1 call [-8.41887] [-3.14068] [-0.04000]
o1 call [-8.42317] [-3.13994] [-0.04000]
o1 call [-8.42638] [-3.13976] [-0.04000]
o1 call [-8.47103] [-3.13980] [-0.04000]
o1 call [-8.47480] [-3.14019] [-0.04000]
o1 call [-8.47831] [-3.14097] [-0.04000]
o1 call [-8.48169] [-3.14215] [-0.04000]
o1 call [-8.48492] [-3.14370] [-0.04000]
o1 call [-8.48795] [-3.14561] [-0.04000]
o1 call [-8.49074] [-3.14785] [-0.04000]
o1 call [-8.49327] [-3.15039] [-0.04000]
o1 call [-8.49441] [-3.15182] [-0.04000]
o1 call [-8.52950] [-3.15182] [-0.04000]
o1 call [-8.60430] [-3.07702] [-0.04000]
o1 call [-8.70344] [-2.97788] [-0.04000]
o1 call [-8.70344] [-2.92212] [-0.04000]
o1 call [-8.58967] [-2.80835] [-0.04000]
o1 call [-8.37282] [-2.80835] [-0.04000]
o1 call [-8.11297] [-2.80835] [-0.04000]
o1 call [-7.99939] [-2.92193] [-0.04000]
o1 call [-7.95758] [-2.96374] [-0.04000]
o1 call [-7.95586] [-2.96526] [-0.04000]
o1 call [-7.95390] [-2.96663] [-0.04000]
o1 call [-7.95034] [-2.96831] [-0.04000]
o1 call [-7.94690] [-2.96919] [-0.04000]
o1 call [-7.94383] [-2.96944] [-0.04000]
o1 call [-7.63661] [-2.96944] [-0.04000]
o1 call [-7.63503] [-2.97245] [-0.04000]
o1 call [-7.63147] [-2.97747] [-0.04000]
o1 call [-7.62724] [-2.98194] [-0.04000]
o1 call [-7.62595] [-2.98295] [-0.04000]
o1 call [-7.62241] [-2.98576] [-0.04000]
o1 call [-7.61709] [-2.98885] [-0.04000]
o1 call [-7.61139] [-2.99116] [-0.04000]
o1 call [-7.60541] [-2.99264] [-0.04000]
o1 call [-7.59943] [-2.99326] [-0.04000]
o1 call [-7.59633] [-2.99325] [-0.04000]
o1 call [-7.59282] [-2.99297] [-0.04000]
o1 call [-7.58966] [-2.99247] [-0.04000]
o1 call [-7.58664] [-2.99176] [-0.04000]
o1 call [-7.58370] [-2.99084] [-0.04000]
o1 call [-7.58045] [-2.98955] [-0.04000]
o1 call [-7.57512] [-2.98672] [-0.04000]
o1 call [-7.57212] [-2.98467] [-0.04000]
o1 call [-7.56970] [-2.98272] [-0.04000]
o1 call [-7.56745] [-2.98063] [-0.04000]
o1 call [-7.56507] [-2.97806] [-0.04000]
o1 call [-7.56315] [-2.97563] [-0.04000]
o1 call [-7.56119] [-2.97272] [-0.04000]
o1 call [-7.55937] [-2.96944] [-0.04000]
o1 call [-7.54646] [-2.96944] [-0.04000]
o1 call [-7.54366] [-2.96923] [-0.04000]
o1 call [-7.54168] [-2.96883] [-0.04000]
o1 call [-7.53926] [-2.96805] [-0.04000]
o1 call [-7.53696] [-2.96695] [-0.04000]
o1 call [-7.53483] [-2.96557] [-0.04000]
o1 call [-7.53271] [-2.96374] [-0.04000]
o1 call [-7.44839] [-2.87942] [-0.04000]
o1 call [-7.44401] [-2.87942] [-0.04000]
o1 call [-7.44039] [-2.87889] [-0.04000]
o1 call [-7.43723] [-2.87804] [-0.04000]
o1 call [-7.43422] [-2.87687] [-0.04000]
o1 call [-7.43135] [-2.87536] [-0.04000]
o1 call [-7.42832] [-2.87329] [-0.04000]
o1 call [-7.42586] [-2.87115] [-0.04000]
o1 call [-7.42394] [-2.86910] [-0.04000]
o1 call [-7.42177] [-2.86619] [-0.04000]
o1 call [-7.42014] [-2.86339] [-0.04000]
o1 call [-7.41899] [-2.86083] [-0.04000]
o1 call [-7.41809] [-2.85817] [-0.04000]
o1 call [-7.41737] [-2.85505] [-0.04000]
o1 call [-7.41697] [-2.85140] [-0.04000]
o1 call [-7.41303] [-2.85140] [-0.04000]
o1 call [-7.41305] [-2.84810] [-0.04000]
o1 call [-7.41354] [-2.84403] [-0.04000]
o1 call [-7.41487] [-2.83897] [-0.04000]
o1 call [-7.41636] [-2.83536] [-0.04000]
o1 call [-7.41869] [-2.83133] [-0.04000]
o1 call [-7.42128] [-2.82796] [-0.04000]
o1 call [-7.42485] [-2.82446] [-0.04000]
o1 call [-7.42821] [-2.82196] [-0.04000]
o1 call [-7.43142] [-2.82010] [-0.04000]
o1 call [-7.43481] [-2.81864] [-0.04000]
o1 call [-7.43916] [-2.81734] [-0.04000]
o1 call [-7.44342] [-2.81669] [-0.04000]
o1 call [-7.44871] [-2.81663] [-0.04000]
o1 call [-7.45298] [-2.81718] [-0.04000]
o1 call [-7.45690] [-2.81820] [-0.04000]
o1 call [-7.46066] [-2.81970] [-0.04000]
o1 call [-7.46442] [-2.82179] [-0.04000]
o1 call [-7.46904] [-2.82533] [-0.04000]
o1 call [-7.47206] [-2.82845] [-0.04000]
o1 call [-7.47442] [-2.83165] [-0.04000]
o1 call [-7.47704] [-2.83643] [-0.04000]
o1 call [-7.47865] [-2.84086] [-0.04000]
o1 call [-7.47956] [-2.84511] [-0.04000]
o1 call [-7.47992] [-2.84981] [-0.04000]
o1 call [-7.47991] [-2.85040] [-0.04000]
o1 call [-7.47967] [-2.85051] [-0.04000]
o1 call [-7.47991] [-2.85040] [-0.04000]
o1 call [-7.55614] [-2.92663] [-0.04000]
o1 call [-7.55601] [-2.92693] [-0.04000]
o1 call [-7.55614] [-2.92663] [-0.04000]
o1 call [-7.55703] [-2.92663] [-0.04000]
o1 call [-7.55728] [-2.92709] [-0.04000]
o1 call [-7.55703] [-2.92663] [-0.04000]
o1 call [-7.55827] [-2.92453] [-0.04000]
o1 call [-7.56053] [-2.92130] [-0.04000]
o1 call [-7.56323] [-2.91808] [-0.04000]
o1 call [-7.56571] [-2.91558] [-0.04000]
o1 call [-7.56924] [-2.91257] [-0.04000]
o1 call [-7.57305] [-2.90993] [-0.04000]
o1 call [-7.57615] [-2.90815] [-0.04000]
o1 call [-7.58050] [-2.90616] [-0.04000]
o1 call [-7.58593] [-2.90436] [-0.04000]
o1 call [-7.59205] [-2.90316] [-0.04000]
o1 call [-7.59766] [-2.90278] [-0.04000]
o1 call [-7.60437] [-2.90320] [-0.04000]
o1 call [-7.60796] [-2.90384] [-0.04000]
o1 call [-7.61125] [-2.90467] [-0.04000]
o1 call [-7.61486] [-2.90588] [-0.04000]
o1 call [-7.61799] [-2.90720] [-0.04000]
o1 call [-7.62361] [-2.91032] [-0.04000]
o1 call [-7.62595] [-2.91197] [-0.04000]
o1 call [-7.62695] [-2.91267] [-0.04000]
o1 call [-7.62956] [-2.91485] [-0.04000]
o1 call [-7.63429] [-2.91975] [-0.04000]
o1 call [-7.63824] [-2.92524] [-0.04000]
o1 call [-7.63904] [-2.92663] [-0.04000]
o1 call [-7.63880] [-2.92707] [-0.04000]
o1 call [-7.63904] [-2.92663] [-0.04000]
o1 call [-7.93415] [-2.92663] [-0.04000]
o1 call [-7.93427] [-2.92693] [-0.04000]
o1 call [-7.93415] [-2.92663] [-0.04000]
o1 call [-7.99939] [-2.86139] [-0.04000]
o1 call [-8.08839] [-2.77238] [-0.04000]
o1 call [-8.09083] [-2.77026] [-0.04000]
o1 call [-8.09344] [-2.76855] [-0.04000]
o1 call [-8.09632] [-2.76718] [-0.04000]
o1 call [-8.09941] [-2.76619] [-0.04000]
o1 call [-8.10192] [-2.76573] [-0.04000]
o1 call [-8.10492] [-2.76553] [-0.04000]
o1 call [-8.37282] [-2.76559] [-0.04000]
o1 call [-8.59966] [-2.76564] [-0.04000]
o1 call [-8.60334] [-2.76622] [-0.04000]
o1 call [-8.60691] [-2.76742] [-0.04000]
o1 call [-8.61065] [-2.76944] [-0.04000]
o1 call [-8.61396] [-2.77210] [-0.04000]
o1 call [-8.73941] [-2.89754] [-0.04000]
o1 call [-8.74214] [-2.90083] [-0.04000]
o1 call [-8.74423] [-2.90456] [-0.04000]
o1 call [-8.74541] [-2.90792] [-0.04000]
o1 call [-8.74575] [-2.90932] [-0.04000]
o1 call [-8.74622] [-2.91288] [-0.04000]
o1 call [-8.74625] [-2.98633] [-0.04000]
o1 call [-8.74603] [-2.98907] [-0.04000]
o1 call [-8.74518] [-2.99292] [-0.04000]
o1 call [-8.74387] [-2.99621] [-0.04000]
o1 call [-8.74198] [-2.99939] [-0.04000]
o1 call [-8.73941] [-3.00246] [-0.04000]
o1 call [-8.66483] [-3.07702] [-0.04000]
o1 call [-8.55349] [-3.18835] [-0.04000]
o1 call [-8.55042] [-3.19077] [-0.04000]
o1 call [-8.54591] [-3.19307] [-0.04000]
o1 call [-8.54280] [-3.19403] [-0.04000]
o1 call [-8.53918] [-3.19457] [-0.04000]
o1 call [-8.49630] [-3.19463] [-0.04000]
o1 call [-8.49619] [-3.19435] [-0.04000]
o1 call [-8.49630] [-3.19463] [-0.04000]
o1 call [-8.49379] [-3.19722] [-0.04000]
o1 call [-8.49125] [-3.19937] [-0.04000]
o1 call [-8.48780] [-3.20170] [-0.04000]
o1 call [-8.48487] [-3.20327] [-0.04000]
o1 call [-8.48141] [-3.20470] [-0.04000]
o1 call [-8.47782] [-3.20575] [-0.04000]
o1 call [-8.47411] [-3.20642] [-0.04000]
o1 call [-8.46979] [-3.20669] [-0.04000]
o1 call [-8.42404] [-3.20660] [-0.04000]
o1 call [-8.41905] [-3.20593] [-0.04000]
o1 call [-8.41404] [-3.20447] [-0.04000]
o1 call [-8.40911] [-3.20220] [-0.04000]
o1 call [-8.40476] [-3.19933] [-0.04000]
o1 call [-8.40070] [-3.19568] [-0.04000]
o1 call [-8.39727] [-3.19146] [-0.04000]
o1 call [-8.39462] [-3.18697] [-0.04000]
o1 call [-8.39258] [-3.18190] [-0.04000]
o1 call [-8.39135] [-3.17658] [-0.04000]
o1 call [-8.39095] [-3.17115] [-0.04000]
o1 call [-8.39135] [-3.16595] [-0.04000]
o1 call [-8.39258] [-3.16064] [-0.04000]
o1 call [-8.39461] [-3.15557] [-0.04000]
o1 call [-8.39717] [-3.15121] [-0.04000]
o1 call [-8.40042] [-3.14714] [-0.04000]
o1 call [-8.40441] [-3.14346] [-0.04000]
o1 call [-8.40849] [-3.14067] [-0.04000]
o1 call [-8.41312] [-3.13840] [-0.04000]
o1 call [-8.41805] [-3.13682] [-0.04000]
o1 call [-8.42298] [-3.13599] [-0.04000]
o1 call [-8.42638] [-3.13583] [-0.04000]
o1 call [-8.47146] [-3.13587] [-0.04000]
o1 call [-8.47569] [-3.13634] [-0.04000]
o1 call [-8.47963] [-3.13725] [-0.04000]
o1 call [-8.48343] [-3.13860] [-0.04000]
o1 call [-8.48665] [-3.14016] [-0.04000]
o1 call [-8.49044] [-3.14254] [-0.04000]
o1 call [-8.49323] [-3.14479] [-0.04000]
o1 call [-8.49631] [-3.14788] [-0.04000]
o1 call [-8.49621] [-3.14815] [-0.04000]
o1 call [-8.49631] [-3.14788] [-0.04000]
o1 call [-8.52787] [-3.14788] [-0.04000]
o1 call [-8.52799] [-3.14818] [-0.04000]
o1 call [-8.52787] [-3.14788] [-0.04000]
o1 call [-8.59873] [-3.07702] [-0.04000]
o1 call [-8.69951] [-2.97625] [-0.04000]
o1 call [-8.69981] [-2.97637] [-0.04000]
o1 call [-8.69951] [-2.97625] [-0.04000]
o1 call [-8.69951] [-2.92375] [-0.04000]
o1 call [-8.69981] [-2.92363] [-0.04000]
o1 call [-8.69951] [-2.92375] [-0.04000]
o1 call [-8.58804] [-2.81228] [-0.04000]
o1 call [-8.58816] [-2.81198] [-0.04000]
o1 call [-8.58804] [-2.81228] [-0.04000]
o1 call [-8.37282] [-2.81228] [-0.04000]
o1 call [-8.11460] [-2.81228] [-0.04000]
o1 call [-8.11448] [-2.81198] [-0.04000]
o1 call [-8.11460] [-2.81228] [-0.04000]
o1 call [-7.99939] [-2.92750] [-0.04000]
o1 call [-7.96036] [-2.96653] [-0.04000]
o1 call [-7.95810] [-2.96851] [-0.04000]
o1 call [-7.95604] [-2.96993] [-0.04000]
o1 call [-7.95168] [-2.97201] [-0.04000]
o1 call [-7.94776] [-2.97304] [-0.04000]
o1 call [-7.94383] [-2.97337] [-0.04000]
o1 call [-7.63902] [-2.97337] [-0.04000]
o1 call [-7.63878] [-2.97292] [-0.04000]
o1 call [-7.63902] [-2.97337] [-0.04000]
o1 call [-7.63846] [-2.97440] [-0.04000]
o1 call [-7.63460] [-2.97988] [-0.04000]
o1 call [-7.62999] [-2.98477] [-0.04000]
o1 call [-7.62595] [-2.98798] [-0.04000]
o1 call [-7.62473] [-2.98895] [-0.04000]
o1 call [-7.61894] [-2.99234] [-0.04000]
o1 call [-7.61272] [-2.99488] [-0.04000]
o1 call [-7.60657] [-2.99644] [-0.04000]
o1 call [-7.59985] [-2.99719] [-0.04000]
o1 call [-7.59603] [-2.99718] [-0.04000]
o1 call [-7.59252] [-2.99690] [-0.04000]
o1 call [-7.58904] [-2.99635] [-0.04000]
o1 call [-7.58573] [-2.99559] [-0.04000]
o1 call [-7.58196] [-2.99440] [-0.04000]
o1 call [-7.57858] [-2.99303] [-0.04000]
o1 call [-7.57326] [-2.99018] [-0.04000]
o1 call [-7.56940] [-2.98755] [-0.04000]
o1 call [-7.56680] [-2.98542] [-0.04000]
o1 call [-7.56433] [-2.98307] [-0.04000]
o1 call [-7.56178] [-2.98026] [-0.04000]
o1 call [-7.55970] [-2.97757] [-0.04000]
o1 call [-7.55703] [-2.97337] [-0.04000]
o1 call [-7.55728] [-2.97292] [-0.04000]
o1 call [-7.55703] [-2.97337] [-0.04000]
o1 call [-7.54646] [-2.97337] [-0.04000]
o1 call [-7.54290] [-2.97309] [-0.04000]
o1 call [-7.54041] [-2.97258] [-0.04000]
o1 call [-7.53735] [-2.97153] [-0.04000]
o1 call [-7.53462] [-2.97015] [-0.04000]
o1 call [-7.53223] [-2.96854] [-0.04000]
o1 call [-7.52993] [-2.96653] [-0.04000]
o1 call [-7.44686] [-2.88346] [-0.04000]
o1 call [-7.44696] [-2.88324] [-0.04000]
o1 call [-7.44686] [-2.88346] [-0.04000]
o1 call [-7.44296] [-2.88327] [-0.04000]
o1 call [-7.43933] [-2.88270] [-0.04000]
o1 call [-7.43536] [-2.88156] [-0.04000]
o1 call [-7.43236] [-2.88035] [-0.04000]
o1 call [-7.42910] [-2.87861] [-0.04000]
o1 call [-7.42570] [-2.87625] [-0.04000]
o1 call [-7.42295] [-2.87382] [-0.04000]
o1 call [-7.42078] [-2.87146] [-0.04000]
o1 call [-7.41860] [-2.86855] [-0.04000]
o1 call [-7.41674] [-2.86539] [-0.04000]
o1 call [-7.41540] [-2.86244] [-0.04000]
o1 call [-7.41423] [-2.85903] [-0.04000]
o1 call [-7.41353] [-2.85590] [-0.04000]
o1 call [-7.41303] [-2.85140] [-0.04000]
G04 P0 ( dwell for no time -- G64 should not smooth over this point )
G00 Z0.08000 ( retract )

G00 X-7.87364 Y-2.54502 ( rapid move to begin. )
G01 F180.00000
( Mill infeed pass 1/1 )
o1 call [-7.87364] [-2.54502] [-0.04000]
G04 P0 ( dwell for no time -- G64 should not smooth over this point )
G01 F360.00000
o1 call [-7.87126] [-2.55083] [-0.04000]
o1 call [-7.83981] [-2.58228] [-0.04000]
o1 call [-7.83951] [-2.58216] [-0.04000]
o1 call [-7.83981] [-2.58228] [-0.04000]
o1 call [-7.83979] [-2.69531] [-0.04000]
o1 call [-7.83928] [-2.69772] [-0.04000]
o1 call [-7.83830] [-2.69953] [-0.04000]
o1 call [-7.83656] [-2.70127] [-0.04000]
o1 call [-7.83436] [-2.70239] [-0.04000]
o1 call [-7.83193] [-2.70277] [-0.04000]
o1 call [-7.69413] [-2.70277] [-0.04000]
o1 call [-7.69170] [-2.70239] [-0.04000]
o1 call [-7.68950] [-2.70127] [-0.04000]
o1 call [-7.68776] [-2.69953] [-0.04000]
o1 call [-7.68678] [-2.69772] [-0.04000]
o1 call [-7.68627] [-2.69531] [-0.04000]
o1 call [-7.68626] [-2.64937] [-0.04000]
o1 call [-7.68741] [-2.64822] [-0.04000]
o1 call [-7.68626] [-2.64937] [-0.04000]
o1 call [-7.67281] [-2.64937] [-0.04000]
o1 call [-7.67269] [-2.64907] [-0.04000]
o1 call [-7.67281] [-2.64937] [-0.04000]
o1 call [-7.62595] [-2.69623] [-0.04000]
o1 call [-7.59032] [-2.73187] [-0.04000]
o1 call [-7.53751] [-2.78468] [-0.04000]
o1 call [-7.53521] [-2.78669] [-0.04000]
o1 call [-7.53267] [-2.78839] [-0.04000]
o1 call [-7.52993] [-2.78974] [-0.04000]
o1 call [-7.52703] [-2.79073] [-0.04000]
o1 call [-7.52403] [-2.79132] [-0.04000]
o1 call [-7.52098] [-2.79152] [-0.04000]
o1 call [-7.25252] [-2.79152] [-0.04000]
o1 call [-7.16842] [-2.79152] [-0.04000]
o1 call [-7.16830] [-2.79122] [-0.04000]
o1 call [-7.16842] [-2.79152] [-0.04000]
o1 call [-7.13955] [-2.82039] [-0.04000]
o1 call [-7.13925] [-2.82027] [-0.04000]
o1 call [-7.13955] [-2.82039] [-0.04000]
o1 call [-7.13955] [-3.07702] [-0.04000]
o1 call [-7.13955] [-3.20794] [-0.04000]
o1 call [-7.13925] [-3.20806] [-0.04000]
o1 call [-7.13955] [-3.20794] [-0.04000]
o1 call [-7.25252] [-3.32091] [-0.04000]
o1 call [-7.30704] [-3.37542] [-0.04000]
o1 call [-7.30691] [-3.37572] [-0.04000]
o1 call [-7.30704] [-3.37542] [-0.04000]
o1 call [-7.62595] [-3.37542] [-0.04000]
o1 call [-7.75992] [-3.37542] [-0.04000]
o1 call [-7.76004] [-3.37572] [-0.04000]
o1 call [-7.75992] [-3.37542] [-0.04000]
o1 call [-7.77466] [-3.36069] [-0.04000]
o1 call [-7.77496] [-3.36081] [-0.04000]
o1 call [-7.77466] [-3.36069] [-0.04000]
o1 call [-7.77466] [-3.34724] [-0.04000]
o1 call [-7.77578] [-3.34615] [-0.04000]
o1 call [-7.77466] [-3.34724] [-0.04000]
o1 call [-7.76063] [-3.34724] [-0.04000]
o1 call [-7.75859] [-3.34698] [-0.04000]
o1 call [-7.75669] [-3.34619] [-0.04000]
o1 call [-7.75478] [-3.34464] [-0.04000]
o1 call [-7.75361] [-3.34294] [-0.04000]
o1 call [-7.75285] [-3.34060] [-0.04000]
o1 call [-7.75280] [-3.25981] [-0.04000]
o1 call [-7.75314] [-3.25820] [-0.04000]
o1 call [-7.75361] [-3.25705] [-0.04000]
o1 call [-7.75426] [-3.25600] [-0.04000]
o1 call [-7.75536] [-3.25478] [-0.04000]
o1 call [-7.75669] [-3.25381] [-0.04000]
o1 call [-7.75781] [-3.25328] [-0.04000]
o1 call [-7.76022] [-3.25277] [-0.04000]
o1 call [-7.83543] [-3.25276] [-0.04000]
o1 call [-7.83787] [-3.25314] [-0.04000]
o1 call [-7.83972] [-3.25403] [-0.04000]
o1 call [-7.84128] [-3.25536] [-0.04000]
o1 call [-7.84245] [-3.25705] [-0.04000]
o1 call [-7.84321] [-3.25940] [-0.04000]
o1 call [-7.84331] [-3.27663] [-0.04000]
o1 call [-7.84219] [-3.27776] [-0.04000]
o1 call [-7.84331] [-3.27663] [-0.04000]
o1 call [-7.95276] [-3.27663] [-0.04000]
o1 call [-7.95387] [-3.27776] [-0.04000]
o1 call [-7.95276] [-3.27663] [-0.04000]
o1 call [-7.95276] [-3.26063] [-0.04000]
o1 call [-7.95293] [-3.25899] [-0.04000]
o1 call [-7.95361] [-3.25705] [-0.04000]
o1 call [-7.95478] [-3.25536] [-0.04000]
o1 call [-7.95634] [-3.25403] [-0.04000]
o1 call [-7.95859] [-3.25302] [-0.04000]
o1 call [-7.96063] [-3.25276] [-0.04000]
o1 call [-7.99939] [-3.25276] [-0.04000]
o1 call [-8.03543] [-3.25276] [-0.04000]
o1 call [-8.03786] [-3.25314] [-0.04000]
o1 call [-8.03972] [-3.25403] [-0.04000]
o1 call [-8.04155] [-3.25567] [-0.04000]
o1 call [-8.04278] [-3.25781] [-0.04000]
o1 call [-8.04330] [-3.26022] [-0.04000]
o1 call [-8.04331] [-3.33937] [-0.04000]
o1 call [-8.04304] [-3.34141] [-0.04000]
o1 call [-8.04204] [-3.34366] [-0.04000]
o1 call [-8.04070] [-3.34522] [-0.04000]
o1 call [-8.03937] [-3.34619] [-0.04000]
o1 call [-8.03747] [-3.34698] [-0.04000]
o1 call [-8.03584] [-3.34723] [-0.04000]
o1 call [-7.99939] [-3.34722] [-0.04000]
o1 call [-7.95981] [-3.34720] [-0.04000]
o1 call [-7.95743] [-3.34656] [-0.04000]
o1 call [-7.95536] [-3.34522] [-0.04000]
o1 call [-7.95381] [-3.34331] [-0.04000]
o1 call [-7.95293] [-3.34101] [-0.04000]
o1 call [-7.95276] [-3.33937] [-0.04000]
o1 call [-7.95276] [-3.32337] [-0.04000]
o1 call [-7.95387] [-3.32224] [-0.04000]
o1 call [-7.95276] [-3.32337] [-0.04000]
o1 call [-7.84331] [-3.32337] [-0.04000]
o1 call [-7.84216] [-3.32222] [-0.04000]
o1 call [-7.84331] [-3.32337] [-0.04000]
o1 call [-7.84330] [-3.33978] [-0.04000]
o1 call [-7.84278] [-3.34219] [-0.04000]
o1 call [-7.84204] [-3.34366] [-0.04000]
o1 call [-7.84128] [-3.34464] [-0.04000]
o1 call [-7.84006] [-3.34574] [-0.04000]
o1 call [-7.83864] [-3.34656] [-0.04000]
o1 call [-7.83707] [-3.34707] [-0.04000]
o1 call [-7.83584] [-3.34723] [-0.04000]
o1 call [-7.82140] [-3.34724] [-0.04000]
o1 call [-7.82026] [-3.34610] [-0.04000]
o1 call [-7.82140] [-3.34724] [-0.04000]
o1 call [-7.82137] [-3.37165] [-0.04000]
o1 call [-7.82098] [-3.37480] [-0.04000]
o1 call [-7.82021] [-3.37776] [-0.04000]
o1 call [-7.81905] [-3.38059] [-0.04000]
o1 call [-7.81742] [-3.38341] [-0.04000]
o1 call [-7.81456] [-3.38690] [-0.04000]
o1 call [-7.78516] [-3.41624] [-0.04000]
o1 call [-7.78250] [-3.41829] [-0.04000]
o1 call [-7.77930] [-3.42007] [-0.04000]
o1 call [-7.77585] [-3.42132] [-0.04000]
o1 call [-7.77218] [-3.42203] [-0.04000]
o1 call [-7.62595] [-3.42207] [-0.04000]
o1 call [-7.29736] [-3.42217] [-0.04000]
o1 call [-7.29390] [-3.42191] [-0.04000]
o1 call [-7.29030] [-3.42108] [-0.04000]
o1 call [-7.28645] [-3.41947] [-0.04000]
o1 call [-7.28363] [-3.41770] [-0.04000]
o1 call [-7.28083] [-3.41533] [-0.04000]
o1 call [-7.25252] [-3.38702] [-0.04000]
o1 call [-7.09965] [-3.23415] [-0.04000]
o1 call [-7.09734] [-3.23143] [-0.04000]
o1 call [-7.09585] [-3.22916] [-0.04000]
o1 call [-7.09461] [-3.22661] [-0.04000]
o1 call [-7.09374] [-3.22416] [-0.04000]
o1 call [-7.09311] [-3.22128] [-0.04000]
o1 call [-7.09281] [-3.21762] [-0.04000]
o1 call [-7.09674] [-3.21762] [-0.04000]
o1 call [-7.09696] [-3.22046] [-0.04000]
o1 call [-7.09747] [-3.22284] [-0.04000]
o1 call [-7.09815] [-3.22487] [-0.04000]
o1 call [-7.09948] [-3.22756] [-0.04000]
o1 call [-7.10092] [-3.22965] [-0.04000]
o1 call [-7.10244] [-3.23137] [-0.04000]
o1 call [-7.25252] [-3.38145] [-0.04000]
o1 call [-7.28361] [-3.41254] [-0.04000]
o1 call [-7.28578] [-3.41440] [-0.04000]
o1 call [-7.28811] [-3.41589] [-0.04000]
o1 call [-7.29133] [-3.41728] [-0.04000]
o1 call [-7.29432] [-3.41800] [-0.04000]
o1 call [-7.29736] [-3.41824] [-0.04000]
o1 call [-7.62595] [-3.41817] [-0.04000]
o1 call [-7.77158] [-3.41813] [-0.04000]
o1 call [-7.77433] [-3.41764] [-0.04000]
o1 call [-7.77722] [-3.41667] [-0.04000]
o1 call [-7.77992] [-3.41526] [-0.04000]
o1 call [-7.78237] [-3.41344] [-0.04000]
o1 call [-7.81177] [-3.38411] [-0.04000]
o1 call [-7.81429] [-3.38102] [-0.04000]
o1 call [-7.81546] [-3.37897] [-0.04000]
o1 call [-7.81643] [-3.37662] [-0.04000]
o1 call [-7.81709] [-3.37416] [-0.04000]
o1 call [-7.81742] [-3.37164] [-0.04000]
o1 call [-7.81747] [-3.34331] [-0.04000]
o1 call [-7.83584] [-3.34328] [-0.04000]
o1 call [-7.83740] [-3.34278] [-0.04000]
o1 call [-7.83836] [-3.34200] [-0.04000]
o1 call [-7.83903] [-3.34097] [-0.04000]
o1 call [-7.83937] [-3.33937] [-0.04000]
o1 call [-7.83937] [-3.31944] [-0.04000]
o1 call [-7.95669] [-3.31944] [-0.04000]
o1 call [-7.95671] [-3.33978] [-0.04000]
o1 call [-7.95703] [-3.34097] [-0.04000]
o1 call [-7.95770] [-3.34200] [-0.04000]
o1 call [-7.95832] [-3.34255] [-0.04000]
o1 call [-7.95941] [-3.34311] [-0.04000]
o1 call [-7.96063] [-3.34331] [-0.04000]
o1 call [-7.99939] [-3.34331] [-0.04000]
o1 call [-8.03543] [-3.34331] [-0.04000]
o1 call [-8.03703] [-3.34297] [-0.04000]
o1 call [-8.03775] [-3.34255] [-0.04000]
o1 call [-8.03862] [-3.34168] [-0.04000]
o1 call [-8.03918] [-3.34059] [-0.04000]
o1 call [-8.03937] [-3.33937] [-0.04000]
o1 call [-8.03937] [-3.26063] [-0.04000]
o1 call [-8.03918] [-3.25941] [-0.04000]
o1 call [-8.03862] [-3.25832] [-0.04000]
o1 call [-8.03775] [-3.25744] [-0.04000]
o1 call [-8.03665] [-3.25689] [-0.04000]
o1 call [-8.03543] [-3.25669] [-0.04000]
o1 call [-7.99939] [-3.25669] [-0.04000]
o1 call [-7.96063] [-3.25669] [-0.04000]
o1 call [-7.95941] [-3.25689] [-0.04000]
o1 call [-7.95832] [-3.25744] [-0.04000]
o1 call [-7.95770] [-3.25800] [-0.04000]
o1 call [-7.95703] [-3.25903] [-0.04000]
o1 call [-7.95671] [-3.26022] [-0.04000]
o1 call [-7.95669] [-3.28056] [-0.04000]
o1 call [-7.83937] [-3.28056] [-0.04000]
o1 call [-7.83935] [-3.26022] [-0.04000]
o1 call [-7.83903] [-3.25903] [-0.04000]
o1 call [-7.83836] [-3.25800] [-0.04000]
o1 call [-7.83775] [-3.25744] [-0.04000]
o1 call [-7.83665] [-3.25689] [-0.04000]
o1 call [-7.83543] [-3.25669] [-0.04000]
o1 call [-7.76063] [-3.25669] [-0.04000]
o1 call [-7.75903] [-3.25703] [-0.04000]
o1 call [-7.75770] [-3.25800] [-0.04000]
o1 call [-7.75703] [-3.25903] [-0.04000]
o1 call [-7.75669] [-3.26063] [-0.04000]
o1 call [-7.75678] [-3.34019] [-0.04000]
o1 call [-7.75722] [-3.34134] [-0.04000]
o1 call [-7.75800] [-3.34230] [-0.04000]
o1 call [-7.75903] [-3.34297] [-0.04000]
o1 call [-7.76022] [-3.34328] [-0.04000]
o1 call [-7.77859] [-3.34331] [-0.04000]
o1 call [-7.77859] [-3.36232] [-0.04000]
o1 call [-7.76155] [-3.37936] [-0.04000]
o1 call [-7.62595] [-3.37936] [-0.04000]
o1 call [-7.30541] [-3.37936] [-0.04000]
o1 call [-7.25252] [-3.32648] [-0.04000]
o1 call [-7.13562] [-3.20957] [-0.04000]
o1 call [-7.13562] [-3.07702] [-0.04000]
o1 call [-7.13562] [-2.81876] [-0.04000]
o1 call [-7.16679] [-2.78759] [-0.04000]
o1 call [-7.25252] [-2.78759] [-0.04000]
o1 call [-7.52098] [-2.78759] [-0.04000]
o1 call [-7.52377] [-2.78738] [-0.04000]
o1 call [-7.52626] [-2.78685] [-0.04000]
o1 call [-7.52865] [-2.78600] [-0.04000]
o1 call [-7.53092] [-2.78484] [-0.04000]
o1 call [-7.53301] [-2.78341] [-0.04000]
o1 call [-7.53472] [-2.78189] [-0.04000]
o1 call [-7.58475] [-2.73187] [-0.04000]
o1 call [-7.62595] [-2.69066] [-0.04000]
o1 call [-7.67118] [-2.64544] [-0.04000]
o1 call [-7.69019] [-2.64544] [-0.04000]
o1 call [-7.69019] [-2.69490] [-0.04000]
o1 call [-7.69039] [-2.69612] [-0.04000]
o1 call [-7.69095] [-2.69721] [-0.04000]
o1 call [-7.69182] [-2.69808] [-0.04000]
o1 call [-7.69291] [-2.69864] [-0.04000]
o1 call [-7.69413] [-2.69884] [-0.04000]
o1 call [-7.83193] [-2.69884] [-0.04000]
o1 call [-7.83353] [-2.69850] [-0.04000]
o1 call [-7.83425] [-2.69808] [-0.04000]
o1 call [-7.83512] [-2.69721] [-0.04000]
o1 call [-7.83568] [-2.69612] [-0.04000]
o1 call [-7.83587] [-2.69490] [-0.04000]
o1 call [-7.83587] [-2.58065] [-0.04000]
o1 call [-7.87519] [-2.54133] [-0.04000]
o1 call [-7.87522] [-2.57721] [-0.04000]
o1 call [-7.87553] [-2.57840] [-0.04000]
o1 call [-7.87621] [-2.57943] [-0.04000]
o1 call [-7.87716] [-2.58021] [-0.04000]
o1 call [-7.87831] [-2.58065] [-0.04000]
o1 call [-7.99939] [-2.58073] [-0.04000]
o1 call [-8.01693] [-2.58074] [-0.04000]
o1 call [-8.01815] [-2.58054] [-0.04000]
o1 call [-8.01890] [-2.58021] [-0.04000]
o1 call [-8.02012] [-2.57911] [-0.04000]
o1 call [-8.02068] [-2.57802] [-0.04000]
o1 call [-8.02087] [-2.57680] [-0.04000]
o1 call [-8.02087] [-2.43900] [-0.04000]
o1 call [-8.02053] [-2.43740] [-0.04000]
o1 call [-8.01986] [-2.43636] [-0.04000]
o1 call [-8.01890] [-2.43559] [-0.04000]
o1 call [-8.01734] [-2.43508] [-0.04000]
o1 call [-7.99939] [-2.43508] [-0.04000]
o1 call [-7.87913] [-2.43506] [-0.04000]
o1 call [-7.87791] [-2.43526] [-0.04000]
o1 call [-7.87716] [-2.43559] [-0.04000]
o1 call [-7.87621] [-2.43636] [-0.04000]
o1 call [-7.87572] [-2.43703] [-0.04000]
o1 call [-7.87539] [-2.43778] [-0.04000]
o1 call [-7.87519] [-2.43900] [-0.04000]
o1 call [-7.87519] [-2.48941] [-0.04000]
o1 call [-7.87249] [-2.49050] [-0.04000]
o1 call [-7.87038] [-2.49172] [-0.04000]
o1 call [-7.86768] [-2.49387] [-0.04000]
o1 call [-7.80838] [-2.55316] [-0.04000]
o1 call [-7.69413] [-2.55316] [-0.04000]
o1 call [-7.69291] [-2.55335] [-0.04000]
o1 call [-7.69182] [-2.55391] [-0.04000]
o1 call [-7.69095] [-2.55478] [-0.04000]
o1 call [-7.69053] [-2.55550] [-0.04000]
o1 call [-7.69019] [-2.55710] [-0.04000]
o1 call [-7.69019] [-2.60657] [-0.04000]
o1 call [-7.66130] [-2.60666] [-0.04000]
o1 call [-7.65890] [-2.60704] [-0.04000]
o1 call [-7.65598] [-2.60793] [-0.04000]
o1 call [-7.65324] [-2.60928] [-0.04000]
o1 call [-7.65084] [-2.61094] [-0.04000]
o1 call [-7.62595] [-2.63580] [-0.04000]
o1 call [-7.52979] [-2.73187] [-0.04000]
o1 call [-7.51293] [-2.74871] [-0.04000]
o1 call [-7.25252] [-2.74871] [-0.04000]
o1 call [-7.15874] [-2.74871] [-0.04000]
o1 call [-7.15590] [-2.74893] [-0.04000]
o1 call [-7.15352] [-2.74944] [-0.04000]
o1 call [-7.15107] [-2.75029] [-0.04000]
o1 call [-7.14842] [-2.75169] [-0.04000]
o1 call [-7.14597] [-2.75351] [-0.04000]
o1 call [-7.10226] [-2.79715] [-0.04000]
o1 call [-7.10058] [-2.79913] [-0.04000]
o1 call [-7.09909] [-2.80146] [-0.04000]
o1 call [-7.09770] [-2.80468] [-0.04000]
o1 call [-7.09695] [-2.80798] [-0.04000]
o1 call [-7.09674] [-2.81071] [-0.04000]
o1 call [-7.09674] [-3.07702] [-0.04000]
o1 call [-7.09674] [-3.21762] [-0.04000]
o1 call [-7.09281] [-3.21762] [-0.04000]
o1 call [-7.09281] [-3.07702] [-0.04000]
o1 call [-7.09281] [-2.81071] [-0.04000]
o1 call [-7.09306] [-2.80726] [-0.04000]
o1 call [-7.09390] [-2.80365] [-0.04000]
o1 call [-7.09551] [-2.79980] [-0.04000]
o1 call [-7.09749] [-2.79667] [-0.04000]
o1 call [-7.09930] [-2.79456] [-0.04000]
o1 call [-7.14318] [-2.75071] [-0.04000]
o1 call [-7.14619] [-2.74844] [-0.04000]
o1 call [-7.14971] [-2.74660] [-0.04000]
o1 call [-7.15234] [-2.74567] [-0.04000]
o1 call [-7.15508] [-2.74508] [-0.04000]
o1 call [-7.15874] [-2.74477] [-0.04000]
o1 call [-7.25252] [-2.74477] [-0.04000]
o1 call [-7.51130] [-2.74477] [-0.04000]
o1 call [-7.51142] [-2.74507] [-0.04000]
o1 call [-7.51130] [-2.74477] [-0.04000]
o1 call [-7.52422] [-2.73187] [-0.04000]
o1 call [-7.62595] [-2.63028] [-0.04000]
o1 call [-7.64848] [-2.60779] [-0.04000]
o1 call [-7.65113] [-2.60595] [-0.04000]
o1 call [-7.65438] [-2.60433] [-0.04000]
o1 call [-7.65747] [-2.60332] [-0.04000]
o1 call [-7.66109] [-2.60272] [-0.04000]
o1 call [-7.68626] [-2.60264] [-0.04000]
o1 call [-7.68740] [-2.60378] [-0.04000]
o1 call [-7.68626] [-2.60264] [-0.04000]
o1 call [-7.68627] [-2.55669] [-0.04000]
o1 call [-7.68664] [-2.55467] [-0.04000]
o1 call [-7.68731] [-2.55316] [-0.04000]
o1 call [-7.68828] [-2.55183] [-0.04000]
o1 call [-7.68984] [-2.55050] [-0.04000]
o1 call [-7.69170] [-2.54961] [-0.04000]
o1 call [-7.69413] [-2.54922] [-0.04000]
o1 call [-7.80675] [-2.54922] [-0.04000]
o1 call [-7.80687] [-2.54953] [-0.04000]
o1 call [-7.80675] [-2.54922] [-0.04000]
o1 call [-7.86489] [-2.49109] [-0.04000]
o1 call [-7.86841] [-2.48831] [-0.04000]
o1 call [-7.87126] [-2.48672] [-0.04000]
o1 call [-7.87171] [-2.48695] [-0.04000]
o1 call [-7.87126] [-2.48672] [-0.04000]
o1 call [-7.87127] [-2.43859] [-0.04000]
o1 call [-7.87164] [-2.43657] [-0.04000]
o1 call [-7.87231] [-2.43506] [-0.04000]
o1 call [-7.87356] [-2.43343] [-0.04000]
o1 call [-7.87519] [-2.43218] [-0.04000]
o1 call [-7.87709] [-2.43139] [-0.04000]
o1 call [-7.87913] [-2.43113] [-0.04000]
o1 call [-7.99939] [-2.43113] [-0.04000]
o1 call [-8.01693] [-2.43113] [-0.04000]
o1 call [-8.01857] [-2.43130] [-0.04000]
o1 call [-8.02013] [-2.43181] [-0.04000]
o1 call [-8.02189] [-2.43288] [-0.04000]
o1 call [-8.02305] [-2.43404] [-0.04000]
o1 call [-8.02428] [-2.43618] [-0.04000]
o1 call [-8.02471] [-2.43777] [-0.04000]
o1 call [-8.02481] [-2.43900] [-0.04000]
o1 call [-8.02481] [-2.57680] [-0.04000]
o1 call [-8.02463] [-2.57844] [-0.04000]
o1 call [-8.02412] [-2.58000] [-0.04000]
o1 call [-8.02305] [-2.58175] [-0.04000]
o1 call [-8.02189] [-2.58292] [-0.04000]
o1 call [-8.01975] [-2.58415] [-0.04000]
o1 call [-8.01816] [-2.58458] [-0.04000]
o1 call [-8.01693] [-2.58467] [-0.04000]
o1 call [-7.99939] [-2.58467] [-0.04000]
o1 call [-7.87913] [-2.58467] [-0.04000]
o1 call [-7.87749] [-2.58450] [-0.04000]
o1 call [-7.87519] [-2.58362] [-0.04000]
o1 call [-7.87328] [-2.58207] [-0.04000]
o1 call [-7.87194] [-2.58000] [-0.04000]
o1 call [-7.87135] [-2.57803] [-0.04000]
o1 call [-7.87126] [-2.55083] [-0.04000]
G04 P0 ( dwell for no time -- G64 should not smooth over this point )
G00 Z0.08000 ( retract )

G00 X-8.34388 Y-3.04130 ( rapid move to begin. )
G01 F180.00000
( Mill infeed pass 1/1 )
o1 call [-8.34388] [-3.04130] [-0.04000]
G04 P0 ( dwell for no time -- G64 should not smooth over this point )
G01 F360.00000
o1 call [-8.34420] [-3.03779] [-0.04000]
o1 call [-8.34501] [-3.03477] [-0.04000]
o1 call [-8.34671] [-3.03121] [-0.04000]
o1 call [-8.34806] [-3.02928] [-0.04000]
o1 call [-8.34957] [-3.02756] [-0.04000]
o1 call [-8.37282] [-3.00431] [-0.04000]
o1 call [-8.47859] [-2.89854] [-0.04000]
o1 call [-8.47859] [-2.87953] [-0.04000]
o1 call [-8.47244] [-2.87953] [-0.04000]
o1 call [-8.47122] [-2.87933] [-0.04000]
o1 call [-8.47047] [-2.87900] [-0.04000]
o1 call [-8.46951] [-2.87822] [-0.04000]
o1 call [-8.46884] [-2.87719] [-0.04000]
o1 call [-8.46853] [-2.87600] [-0.04000]
o1 call [-8.46850] [-2.82441] [-0.04000]
o1 call [-8.46870] [-2.82319] [-0.04000]
o1 call [-8.46926] [-2.82210] [-0.04000]
o1 call [-8.47013] [-2.82122] [-0.04000]
o1 call [-8.47122] [-2.82066] [-0.04000]
o1 call [-8.47244] [-2.82047] [-0.04000]
o1 call [-8.52403] [-2.82049] [-0.04000]
o1 call [-8.52522] [-2.82081] [-0.04000]
o1 call [-8.52626] [-2.82148] [-0.04000]
o1 call [-8.52703] [-2.82244] [-0.04000]
o1 call [-8.52737] [-2.82319] [-0.04000]
o1 call [-8.52756] [-2.82441] [-0.04000]
o1 call [-8.52756] [-2.83058] [-0.04000]
o1 call [-8.54999] [-2.83066] [-0.04000]
o1 call [-8.55287] [-2.83118] [-0.04000]
o1 call [-8.55518] [-2.83194] [-0.04000]
o1 call [-8.55752] [-2.83304] [-0.04000]
o1 call [-8.56057] [-2.83517] [-0.04000]
o1 call [-8.63450] [-2.90898] [-0.04000]
o1 call [-8.63804] [-2.90789] [-0.04000]
o1 call [-8.64316] [-2.90700] [-0.04000]
o1 call [-8.64929] [-2.90674] [-0.04000]
o1 call [-8.65553] [-2.90738] [-0.04000]
o1 call [-8.66148] [-2.90887] [-0.04000]
o1 call [-8.66679] [-2.91100] [-0.04000]
o1 call [-8.67133] [-2.91353] [-0.04000]
o1 call [-8.67593] [-2.91691] [-0.04000]
o1 call [-8.68062] [-2.92152] [-0.04000]
o1 call [-8.68282] [-2.92424] [-0.04000]
o1 call [-8.68599] [-2.92919] [-0.04000]
o1 call [-8.68754] [-2.93233] [-0.04000]
o1 call [-8.68871] [-2.93520] [-0.04000]
o1 call [-8.68977] [-2.93854] [-0.04000]
o1 call [-8.69048] [-2.94155] [-0.04000]
o1 call [-8.69103] [-2.94501] [-0.04000]
o1 call [-8.69129] [-2.94852] [-0.04000]
o1 call [-8.69129] [-2.95162] [-0.04000]
o1 call [-8.69106] [-2.95469] [-0.04000]
o1 call [-8.69054] [-2.95815] [-0.04000]
o1 call [-8.68985] [-2.96117] [-0.04000]
o1 call [-8.68868] [-2.96487] [-0.04000]
o1 call [-8.68676] [-2.96931] [-0.04000]
o1 call [-8.68438] [-2.97350] [-0.04000]
o1 call [-8.68179] [-2.97708] [-0.04000]
o1 call [-8.67856] [-2.98068] [-0.04000]
o1 call [-8.67529] [-2.98362] [-0.04000]
o1 call [-8.67136] [-2.98645] [-0.04000]
o1 call [-8.66715] [-2.98883] [-0.04000]
o1 call [-8.66228] [-2.99087] [-0.04000]
o1 call [-8.65806] [-2.99210] [-0.04000]
o1 call [-8.65372] [-2.99291] [-0.04000]
o1 call [-8.64847] [-2.99328] [-0.04000]
o1 call [-8.64408] [-2.99310] [-0.04000]
o1 call [-8.63929] [-2.99239] [-0.04000]
o1 call [-8.63420] [-2.99101] [-0.04000]
o1 call [-8.63011] [-2.98940] [-0.04000]
o1 call [-8.62582] [-2.98715] [-0.04000]
o1 call [-8.62249] [-2.98494] [-0.04000]
o1 call [-8.61972] [-2.98274] [-0.04000]
o1 call [-8.61686] [-2.98003] [-0.04000]
o1 call [-8.61424] [-2.97705] [-0.04000]
o1 call [-8.61191] [-2.97385] [-0.04000]
o1 call [-8.60993] [-2.97054] [-0.04000]
o1 call [-8.60838] [-2.96736] [-0.04000]
o1 call [-8.60708] [-2.96400] [-0.04000]
o1 call [-8.60597] [-2.96020] [-0.04000]
o1 call [-8.60521] [-2.95632] [-0.04000]
o1 call [-8.60481] [-2.95238] [-0.04000]
o1 call [-8.60476] [-2.94884] [-0.04000]
o1 call [-8.60504] [-2.94499] [-0.04000]
o1 call [-8.60568] [-2.94108] [-0.04000]
o1 call [-8.60696] [-2.93642] [-0.04000]
o1 call [-8.53998] [-2.86944] [-0.04000]
o1 call [-8.52756] [-2.86944] [-0.04000]
o1 call [-8.52754] [-2.87600] [-0.04000]
o1 call [-8.52703] [-2.87756] [-0.04000]
o1 call [-8.52626] [-2.87852] [-0.04000]
o1 call [-8.52522] [-2.87919] [-0.04000]
o1 call [-8.52403] [-2.87950] [-0.04000]
o1 call [-8.51746] [-2.87953] [-0.04000]
o1 call [-8.51737] [-2.90842] [-0.04000]
o1 call [-8.51685] [-2.91142] [-0.04000]
o1 call [-8.51588] [-2.91426] [-0.04000]
o1 call [-8.51470] [-2.91657] [-0.04000]
o1 call [-8.51310] [-2.91886] [-0.04000]
o1 call [-8.38276] [-3.04935] [-0.04000]
o1 call [-8.38276] [-3.07702] [-0.04000]
o1 call [-8.38276] [-3.23056] [-0.04000]
o1 call [-8.40164] [-3.23056] [-0.04000]
o1 call [-8.40483] [-3.22703] [-0.04000]
o1 call [-8.40738] [-3.22489] [-0.04000]
o1 call [-8.41013] [-3.22302] [-0.04000]
o1 call [-8.41308] [-3.22145] [-0.04000]
o1 call [-8.41639] [-3.22013] [-0.04000]
o1 call [-8.41960] [-3.21925] [-0.04000]
o1 call [-8.42290] [-3.21870] [-0.04000]
o1 call [-8.42627] [-3.21850] [-0.04000]
o1 call [-8.47015] [-3.21851] [-0.04000]
o1 call [-8.47347] [-3.21874] [-0.04000]
o1 call [-8.47674] [-3.21931] [-0.04000]
o1 call [-8.47994] [-3.22023] [-0.04000]
o1 call [-8.48302] [-3.22147] [-0.04000]
o1 call [-8.48597] [-3.22305] [-0.04000]
o1 call [-8.48857] [-3.22480] [-0.04000]
o1 call [-8.49131] [-3.22711] [-0.04000]
o1 call [-8.49388] [-3.22985] [-0.04000]
o1 call [-8.49588] [-3.23252] [-0.04000]
o1 call [-8.49749] [-3.23522] [-0.04000]
o1 call [-8.49905] [-3.23863] [-0.04000]
o1 call [-8.50009] [-3.24181] [-0.04000]
o1 call [-8.50075] [-3.24487] [-0.04000]
o1 call [-8.50112] [-3.24819] [-0.04000]
o1 call [-8.50112] [-3.25193] [-0.04000]
o1 call [-8.50080] [-3.25483] [-0.04000]
o1 call [-8.50012] [-3.25808] [-0.04000]
o1 call [-8.49901] [-3.26147] [-0.04000]
o1 call [-8.49705] [-3.26557] [-0.04000]
o1 call [-8.49449] [-3.26939] [-0.04000]
o1 call [-8.49117] [-3.27302] [-0.04000]
o1 call [-8.48758] [-3.27591] [-0.04000]
o1 call [-8.48361] [-3.27824] [-0.04000]
o1 call [-8.47935] [-3.27997] [-0.04000]
o1 call [-8.47489] [-3.28105] [-0.04000]
o1 call [-8.47069] [-3.28148] [-0.04000]
o1 call [-8.42638] [-3.28150] [-0.04000]
o1 call [-8.42279] [-3.28128] [-0.04000]
o1 call [-8.41947] [-3.28072] [-0.04000]
o1 call [-8.41627] [-3.27983] [-0.04000]
o1 call [-8.41318] [-3.27859] [-0.04000]
o1 call [-8.41024] [-3.27704] [-0.04000]
o1 call [-8.40748] [-3.27519] [-0.04000]
o1 call [-8.40493] [-3.27306] [-0.04000]
o1 call [-8.40262] [-3.27067] [-0.04000]
o1 call [-8.40165] [-3.26944] [-0.04000]
o1 call [-8.37282] [-3.26943] [-0.04000]
o1 call [-8.36741] [-3.26943] [-0.04000]
o1 call [-8.36397] [-3.26904] [-0.04000]
o1 call [-8.36130] [-3.26831] [-0.04000]
o1 call [-8.35842] [-3.26700] [-0.04000]
o1 call [-8.35583] [-3.26529] [-0.04000]
o1 call [-8.34824] [-3.25777] [-0.04000]
o1 call [-8.34634] [-3.25494] [-0.04000]
o1 call [-8.34507] [-3.25217] [-0.04000]
o1 call [-8.34425] [-3.24923] [-0.04000]
o1 call [-8.34390] [-3.24631] [-0.04000]
o1 call [-8.34388] [-3.07702] [-0.04000]
o1 call [-8.34388] [-3.04130] [-0.04000]
o1 call [-8.33994] [-3.04130] [-0.04000]
o1 call [-8.34029] [-3.03731] [-0.04000]
o1 call [-8.34110] [-3.03409] [-0.04000]
o1 call [-8.34160] [-3.03274] [-0.04000]
o1 call [-8.34342] [-3.02903] [-0.04000]
o1 call [-8.34512] [-3.02663] [-0.04000]
o1 call [-8.34679] [-3.02477] [-0.04000]
o1 call [-8.37282] [-2.99875] [-0.04000]
o1 call [-8.47466] [-2.89691] [-0.04000]
o1 call [-8.47496] [-2.89703] [-0.04000]
o1 call [-8.47466] [-2.89691] [-0.04000]
o1 call [-8.47466] [-2.88346] [-0.04000]
o1 call [-8.47575] [-2.88242] [-0.04000]
o1 call [-8.47466] [-2.88346] [-0.04000]
o1 call [-8.47121] [-2.88337] [-0.04000]
o1 call [-8.46887] [-2.88261] [-0.04000]
o1 call [-8.46717] [-2.88144] [-0.04000]
o1 call [-8.46584] [-2.87988] [-0.04000]
o1 call [-8.46495] [-2.87802] [-0.04000]
o1 call [-8.46461] [-2.87641] [-0.04000]
o1 call [-8.46457] [-2.82441] [-0.04000]
o1 call [-8.46483] [-2.82237] [-0.04000]
o1 call [-8.46584] [-2.82012] [-0.04000]
o1 call [-8.46717] [-2.81856] [-0.04000]
o1 call [-8.46850] [-2.81759] [-0.04000]
o1 call [-8.47040] [-2.81680] [-0.04000]
o1 call [-8.47203] [-2.81655] [-0.04000]
o1 call [-8.52444] [-2.81658] [-0.04000]
o1 call [-8.52605] [-2.81692] [-0.04000]
o1 call [-8.52791] [-2.81780] [-0.04000]
o1 call [-8.52947] [-2.81914] [-0.04000]
o1 call [-8.53064] [-2.82083] [-0.04000]
o1 call [-8.53140] [-2.82318] [-0.04000]
o1 call [-8.53150] [-2.82665] [-0.04000]
o1 call [-8.53042] [-2.82774] [-0.04000]
o1 call [-8.53150] [-2.82665] [-0.04000]
o1 call [-8.55011] [-2.82672] [-0.04000]
o1 call [-8.55408] [-2.82744] [-0.04000]
o1 call [-8.55675] [-2.82832] [-0.04000]
o1 call [-8.55926] [-2.82951] [-0.04000]
o1 call [-8.56225] [-2.83147] [-0.04000]
o1 call [-8.56335] [-2.83238] [-0.04000]
o1 call [-8.63558] [-2.90450] [-0.04000]
o1 call [-8.63543] [-2.90499] [-0.04000]
o1 call [-8.63558] [-2.90450] [-0.04000]
o1 call [-8.63666] [-2.90417] [-0.04000]
o1 call [-8.64284] [-2.90306] [-0.04000]
o1 call [-8.64987] [-2.90281] [-0.04000]
o1 call [-8.65576] [-2.90341] [-0.04000]
o1 call [-8.66190] [-2.90488] [-0.04000]
o1 call [-8.66870] [-2.90756] [-0.04000]
o1 call [-8.67384] [-2.91045] [-0.04000]
o1 call [-8.67828] [-2.91376] [-0.04000]
o1 call [-8.68368] [-2.91904] [-0.04000]
o1 call [-8.68570] [-2.92152] [-0.04000]
o1 call [-8.68765] [-2.92431] [-0.04000]
o1 call [-8.68966] [-2.92772] [-0.04000]
o1 call [-8.69132] [-2.93114] [-0.04000]
o1 call [-8.69256] [-2.93430] [-0.04000]
o1 call [-8.69352] [-2.93735] [-0.04000]
o1 call [-8.69432] [-2.94066] [-0.04000]
o1 call [-8.69496] [-2.94473] [-0.04000]
o1 call [-8.69522] [-2.94824] [-0.04000]
o1 call [-8.69522] [-2.95164] [-0.04000]
o1 call [-8.69499] [-2.95499] [-0.04000]
o1 call [-8.69443] [-2.95875] [-0.04000]
o1 call [-8.69368] [-2.96207] [-0.04000]
o1 call [-8.69256] [-2.96570] [-0.04000]
o1 call [-8.69040] [-2.97086] [-0.04000]
o1 call [-8.68758] [-2.97579] [-0.04000]
o1 call [-8.68500] [-2.97938] [-0.04000]
o1 call [-8.68181] [-2.98299] [-0.04000]
o1 call [-8.67792] [-2.98655] [-0.04000]
o1 call [-8.67329] [-2.98990] [-0.04000]
o1 call [-8.66827] [-2.99265] [-0.04000]
o1 call [-8.66339] [-2.99465] [-0.04000]
o1 call [-8.65876] [-2.99599] [-0.04000]
o1 call [-8.65400] [-2.99684] [-0.04000]
o1 call [-8.64875] [-2.99722] [-0.04000]
o1 call [-8.64304] [-2.99695] [-0.04000]
o1 call [-8.63826] [-2.99620] [-0.04000]
o1 call [-8.63359] [-2.99495] [-0.04000]
o1 call [-8.62866] [-2.99306] [-0.04000]
o1 call [-8.62363] [-2.99043] [-0.04000]
o1 call [-8.62002] [-2.98802] [-0.04000]
o1 call [-8.61699] [-2.98559] [-0.04000]
o1 call [-8.61388] [-2.98262] [-0.04000]
o1 call [-8.61105] [-2.97936] [-0.04000]
o1 call [-8.60853] [-2.97588] [-0.04000]
o1 call [-8.60655] [-2.97256] [-0.04000]
o1 call [-8.60484] [-2.96910] [-0.04000]
o1 call [-8.60328] [-2.96509] [-0.04000]
o1 call [-8.60209] [-2.96094] [-0.04000]
o1 call [-8.60128] [-2.95670] [-0.04000]
o1 call [-8.60087] [-2.95242] [-0.04000]
o1 call [-8.60083] [-2.94856] [-0.04000]
o1 call [-8.60115] [-2.94437] [-0.04000]
o1 call [-8.60178] [-2.94046] [-0.04000]
o1 call [-8.60252] [-2.93754] [-0.04000]
o1 call [-8.60302] [-2.93739] [-0.04000]
o1 call [-8.60252] [-2.93754] [-0.04000]
o1 call [-8.53835] [-2.87337] [-0.04000]
o1 call [-8.53847] [-2.87307] [-0.04000]
o1 call [-8.53835] [-2.87337] [-0.04000]
o1 call [-8.53150] [-2.87337] [-0.04000]
o1 call [-8.53054] [-2.87233] [-0.04000]
o1 call [-8.53150] [-2.87337] [-0.04000]
o1 call [-8.53140] [-2.87682] [-0.04000]
o1 call [-8.53064] [-2.87916] [-0.04000]
o1 call [-8.52919] [-2.88116] [-0.04000]
o1 call [-8.52720] [-2.88261] [-0.04000]
o1 call [-8.52485] [-2.88337] [-0.04000]
o1 call [-8.52139] [-2.88346] [-0.04000]
o1 call [-8.52034] [-2.88247] [-0.04000]
o1 call [-8.52139] [-2.88346] [-0.04000]
o1 call [-8.52131] [-2.90863] [-0.04000]
o1 call [-8.52071] [-2.91225] [-0.04000]
o1 call [-8.51971] [-2.91531] [-0.04000]
o1 call [-8.51834] [-2.91816] [-0.04000]
o1 call [-8.51628] [-2.92119] [-0.04000]
o1 call [-8.38669] [-3.05098] [-0.04000]
o1 call [-8.38639] [-3.05086] [-0.04000]
o1 call [-8.38669] [-3.05098] [-0.04000]
o1 call [-8.38669] [-3.07702] [-0.04000]
o1 call [-8.38669] [-3.22662] [-0.04000]
o1 call [-8.38554] [-3.22778] [-0.04000]
o1 call [-8.38669] [-3.22662] [-0.04000]
o1 call [-8.39977] [-3.22662] [-0.04000]
o1 call [-8.39988] [-3.22690] [-0.04000]
o1 call [-8.39977] [-3.22662] [-0.04000]
o1 call [-8.40167] [-3.22461] [-0.04000]
o1 call [-8.40481] [-3.22188] [-0.04000]
o1 call [-8.40790] [-3.21977] [-0.04000]
o1 call [-8.41082] [-3.21818] [-0.04000]
o1 call [-8.41532] [-3.21635] [-0.04000]
o1 call [-8.41852] [-3.21545] [-0.04000]
o1 call [-8.42266] [-3.21477] [-0.04000]
o1 call [-8.42627] [-3.21457] [-0.04000]
o1 call [-8.46991] [-3.21457] [-0.04000]
o1 call [-8.47329] [-3.21476] [-0.04000]
o1 call [-8.47740] [-3.21542] [-0.04000]
o1 call [-8.48100] [-3.21642] [-0.04000]
o1 call [-8.48448] [-3.21780] [-0.04000]
o1 call [-8.48781] [-3.21955] [-0.04000]
o1 call [-8.49148] [-3.22208] [-0.04000]
o1 call [-8.49419] [-3.22440] [-0.04000]
o1 call [-8.49648] [-3.22683] [-0.04000]
o1 call [-8.49903] [-3.23014] [-0.04000]
o1 call [-8.50127] [-3.23396] [-0.04000]
o1 call [-8.50264] [-3.23699] [-0.04000]
o1 call [-8.50371] [-3.24014] [-0.04000]
o1 call [-8.50468] [-3.24446] [-0.04000]
o1 call [-8.50508] [-3.24862] [-0.04000]
o1 call [-8.50506] [-3.25194] [-0.04000]
o1 call [-8.50472] [-3.25525] [-0.04000]
o1 call [-8.50387] [-3.25934] [-0.04000]
o1 call [-8.50257] [-3.26320] [-0.04000]
o1 call [-8.50022] [-3.26796] [-0.04000]
o1 call [-8.49729] [-3.27221] [-0.04000]
o1 call [-8.49395] [-3.27582] [-0.04000]
o1 call [-8.48993] [-3.27908] [-0.04000]
o1 call [-8.48548] [-3.28172] [-0.04000]
o1 call [-8.48068] [-3.28368] [-0.04000]
o1 call [-8.47568] [-3.28492] [-0.04000]
o1 call [-8.47070] [-3.28541] [-0.04000]
o1 call [-8.42638] [-3.28543] [-0.04000]
o1 call [-8.42210] [-3.28517] [-0.04000]
o1 call [-8.41879] [-3.28460] [-0.04000]
o1 call [-8.41440] [-3.28334] [-0.04000]
o1 call [-8.41132] [-3.28207] [-0.04000]
o1 call [-8.40802] [-3.28031] [-0.04000]
o1 call [-8.40493] [-3.27820] [-0.04000]
o1 call [-8.40238] [-3.27606] [-0.04000]
o1 call [-8.39977] [-3.27338] [-0.04000]
o1 call [-8.39987] [-3.27310] [-0.04000]
o1 call [-8.39976] [-3.27337] [-0.04000]
o1 call [-8.37282] [-3.27337] [-0.04000]
o1 call [-8.36741] [-3.27337] [-0.04000]
o1 call [-8.36376] [-3.27302] [-0.04000]
o1 call [-8.36018] [-3.27209] [-0.04000]
o1 call [-8.35637] [-3.27037] [-0.04000]
o1 call [-8.35303] [-3.26810] [-0.04000]
o1 call [-8.34537] [-3.26047] [-0.04000]
o1 call [-8.34318] [-3.25736] [-0.04000]
o1 call [-8.34157] [-3.25407] [-0.04000]
o1 call [-8.34061] [-3.25096] [-0.04000]
o1 call [-8.33997] [-3.24631] [-0.04000]
o1 call [-8.33995] [-3.07702] [-0.04000]
o1 call [-8.33994] [-3.04130] [-0.04000]
G04 P0 ( dwell for no time -- G64 should not smooth over this point )
G00 Z0.08000 ( retract )

G00 X-8.05670 Y-3.30003 ( rapid move to begin. )
G01 F180.00000
( Mill infeed pass 1/1 )
o1 call [-8.05670] [-3.30003] [-0.04000]
G04 P0 ( dwell for no time -- G64 should not smooth over this point )
G01 F360.00000
o1 call [-8.05694] [-3.29557] [-0.04000]
o1 call [-8.05764] [-3.29121] [-0.04000]
o1 call [-8.05868] [-3.28734] [-0.04000]
o1 call [-8.06025] [-3.28323] [-0.04000]
