( pcb2gcode 3.0.3 )
( Gcode for custom )

G94 ( Inches per minute feed rate. )
G20 ( Units == INCHES. )

G90 ( Absolute coordinates. )
G00 S12000 ( RPM spindle speed. )
G64 P0.00040 ( set maximum deviation from commanded toolpath )
G01 F360.00000 ( Feedrate. )

#107 = 0
#108 = 0

(MSG, Attach the probe tool)
M0 ( Temporary machine stop. )
G0 Z0.080 ( Move Z to safe height )
G0 X-6.60492 Y-3.35492 ( Move XY to start point )
G0 Z0.080 ( Move Z to probe height )
G38.2 Z-0.1 F2.362205 ( Z-probe )
#500 = 0 ( Probe point [0, 0] is our reference )
G92 Z0 ( Set the current Z as zero-value )

( We now start the real probing: move the Z axis to the probing height, move to )
( the probing XY position, probe it and save the result, parameter #2002, )
( in a numbered parameter; we will make 6 probes on the X-axis and )
( 3 probes on the Y-axis, for a grand total of 18 probes )

G0 Z0.080
X-6.60492 Y-3.04587
G38.2 Z-0.1 F2.362205
#501=#2002
G0 Z0.080
X-6.60492 Y-2.73682
G38.2 Z-0.1 F2.362205
#502=#2002
G0 Z0.080
X-6.24654 Y-2.73682
G38.2 Z-0.1 F2.362205
#505=#2002
G0 Z0.080
X-6.24654 Y-3.04587
G38.2 Z-0.1 F2.362205
#504=#2002
G0 Z0.080
X-6.24654 Y-3.35492
G38.2 Z-0.1 F2.362205
#503=#2002
G0 Z0.080
X-5.88815 Y-3.35492
G38.2 Z-0.1 F2.362205
#506=#2002
G0 Z0.080
X-5.88815 Y-3.04587
G38.2 Z-0.1 F2.362205
#507=#2002
G0 Z0.080
X-5.88815 Y-2.73682
G38.2 Z-0.1 F2.362205
#508=#2002
G0 Z0.080
X-5.52977 Y-2.73682
G38.2 Z-0.1 F2.362205
#511=#2002
G0 Z0.080
X-5.52977 Y-3.04587
G38.2 Z-0.1 F2.362205
#510=#2002
G0 Z0.080
X-5.52977 Y-3.35492
G38.2 Z-0.1 F2.362205
#509=#2002
G0 Z0.080
X-5.17139 Y-3.35492
G38.2 Z-0.1 F2.362205
#512=#2002
G0 Z0.080
X-5.17139 Y-3.04587
G38.2 Z-0.1 F2.362205
#513=#2002
G0 Z0.080
X-5.17139 Y-2.73682
G38.2 Z-0.1 F2.362205
#514=#2002
G0 Z0.080
X-4.81301 Y-2.73682
G38.2 Z-0.1 F2.362205
#517=#2002
G0 Z0.080
X-4.81301 Y-3.04587
G38.2 Z-0.1 F2.362205
#516=#2002
G0 Z0.080
X-4.81301 Y-3.35492
G38.2 Z-0.1 F2.362205
#515=#2002

G0 Z0.080 ( Move Z to safe height )
( Probing has ended, each Z-coordinate will be corrected with a bilinear interpolation )
(MSG, Detach the probe tool)
M0 ( Temporary machine stop. )


G00 Z1.00000 (Retract to tool change height)
T1
M5      (Spindle stop.)
G04 P1.00000 (Wait for spindle to stop)
(MSG, Change tool bit to mill diameter 0.00000in)
M6      (Tool change.)
M0      (Temporary machine stop.)
M3 ( Spindle on clockwise. )
G04 P1.00000 (Wait for spindle to get up to speed)
G04 P0 ( dwell for no time -- G64 should not smooth over this point )
G00 Z0.08000 ( retract )

G00 X-4.81301 Y-2.94286 ( rapid move to begin. )
G01 F180.00000
( Mill infeed pass 1/1 )
#105=[#513+[#514-#513]*0.33332]
#106=[#516+[#517-#516]*0.33332]
#100=[#105+[#106-#105]*1.00000]
G01 Z[-0.04000+#100]
G04 P0 ( dwell for no time -- G64 should not smooth over this point )
G01 F360.00000
#105=[#513+[#514-#513]*0.31647]
#106=[#516+[#517-#516]*0.31647]
#100=[#105+[#106-#105]*0.99903]
X-4.81335 Y-2.94806 Z[#100+-0.04000]
#105=[#513+[#514-#513]*0.29993]
#106=[#516+[#517-#516]*0.29993]
#100=[#105+[#106-#105]*0.99616]
X-4.81439 Y-2.95317 Z[#100+-0.04000]
#105=[#513+[#514-#513]*0.28397]
#106=[#516+[#517-#516]*0.28397]
#100=[#105+[#106-#105]*0.99142]
X-4.81608 Y-2.95811 Z[#100+-0.04000]
#105=[#513+[#514-#513]*0.26887]
#106=[#516+[#517-#516]*0.26887]
#100=[#105+[#106-#105]*0.98490]
X-4.81842 Y-2.96277 Z[#100+-0.04000]
#105=[#513+[#514-#513]*0.25491]
#106=[#516+[#517-#516]*0.25491]
#100=[#105+[#106-#105]*0.97673]
X-4.82135 Y-2.96709 Z[#100+-0.04000]
#105=[#513+[#514-#513]*0.24324]
#106=[#516+[#517-#516]*0.24324]
#100=[#105+[#106-#105]*0.96782]
X-4.82454 Y-2.97070 Z[#100+-0.04000]
#100=[#513+[#516-#513]*0.75807]
X-4.89971 Y-3.04587 Z[#100+-0.04000]
#105=[#512+[#513-#512]*0.85911]
#106=[#515+[#516-#515]*0.85911]
#100=[#105+[#106-#105]*0.63658]
X-4.94325 Y-3.08941 Z[#100+-0.04000]
#105=[#512+[#513-#512]*0.32695]
#106=[#515+[#516-#515]*0.32695]
#100=[#105+[#106-#105]*0.98064]
X-4.81995 Y-3.25387 Z[#100+-0.04000]
#105=[#512+[#513-#512]*0.31816]
#106=[#515+[#516-#515]*0.31816]
#100=[#105+[#106-#105]*0.98542]
X-4.81823 Y-3.25659 Z[#100+-0.04000]
#105=[#512+[#513-#512]*0.31012]
#106=[#515+[#516-#515]*0.31012]
#100=[#105+[#106-#105]*0.98908]
X-4.81692 Y-3.25908 Z[#100+-0.04000]
#105=[#512+[#513-#512]*0.30058]
#106=[#515+[#516-#515]*0.30058]
#100=[#105+[#106-#105]*0.99264]
X-4.81565 Y-3.26202 Z[#100+-0.04000]
#105=[#512+[#513-#512]*0.29074]
#106=[#515+[#516-#515]*0.29074]
#100=[#105+[#106-#105]*0.99552]
X-4.81461 Y-3.26506 Z[#100+-0.04000]
#105=[#512+[#513-#512]*0.28066]
#106=[#515+[#516-#515]*0.28066]
#100=[#105+[#106-#105]*0.99770]
X-4.81383 Y-3.26818 Z[#100+-0.04000]
#105=[#512+[#513-#512]*0.27041]
#106=[#515+[#516-#515]*0.27041]
#100=[#105+[#106-#105]*0.99917]
X-4.81331 Y-3.27135 Z[#100+-0.04000]
#105=[#512+[#513-#512]*0.26005]
#106=[#515+[#516-#515]*0.26005]
#100=[#105+[#106-#105]*0.99990]
X-4.81304 Y-3.27455 Z[#100+-0.04000]
#105=[#512+[#513-#512]*0.24966]
#106=[#515+[#516-#515]*0.24966]
#100=[#105+[#106-#105]*0.99991]
X-4.81304 Y-3.27776 Z[#100+-0.04000]
#105=[#512+[#513-#512]*0.24059]
#106=[#515+[#516-#515]*0.24059]
#100=[#105+[#106-#105]*0.99932]
X-4.81325 Y-3.28056 Z[#100+-0.04000]
#105=[#512+[#513-#512]*0.23160]
#106=[#515+[#516-#515]*0.23160]
#100=[#105+[#106-#105]*0.99817]
X-4.81367 Y-3.28334 Z[#100+-0.04000]
#105=[#512+[#513-#512]*0.21524]
#106=[#515+[#516-#515]*0.21524]
#100=[#105+[#106-#105]*0.99458]
X-4.81495 Y-3.28840 Z[#100+-0.04000]
#105=[#512+[#513-#512]*0.19957]
#106=[#515+[#516-#515]*0.19957]
#100=[#105+[#106-#105]*0.98916]
X-4.81689 Y-3.29324 Z[#100+-0.04000]
#105=[#512+[#513-#512]*0.18488]
#106=[#515+[#516-#515]*0.18488]
#100=[#105+[#106-#105]*0.98200]
X-4.81946 Y-3.29778 Z[#100+-0.04000]
#105=[#512+[#513-#512]*0.17141]
#106=[#515+[#516-#515]*0.17141]
#100=[#105+[#106-#105]*0.97323]
X-4.82260 Y-3.30194 Z[#100+-0.04000]
#105=[#512+[#513-#512]*0.15940]
#106=[#515+[#516-#515]*0.15940]
#100=[#105+[#106-#105]*0.96300]
X-4.82627 Y-3.30565 Z[#100+-0.04000]
#105=[#512+[#513-#512]*0.14906]
#106=[#515+[#516-#515]*0.14906]
#100=[#105+[#106-#105]*0.95149]
X-4.83039 Y-3.30885 Z[#100+-0.04000]
#105=[#512+[#513-#512]*0.14426]
#106=[#515+[#516-#515]*0.14426]
#100=[#105+[#106-#105]*0.94483]
X-4.83278 Y-3.31033 Z[#100+-0.04000]
#105=[#512+[#513-#512]*0.14002]
#106=[#515+[#516-#515]*0.14002]
#100=[#105+[#106-#105]*0.93790]
X-4.83526 Y-3.31164 Z[#100+-0.04000]
#105=[#512+[#513-#512]*0.13370]
#106=[#515+[#516-#515]*0.13370]
#100=[#105+[#106-#105]*0.92440]
X-4.84010 Y-3.31360 Z[#100+-0.04000]
#105=[#512+[#513-#512]*0.12951]
#106=[#515+[#516-#515]*0.12951]
#100=[#105+[#106-#105]*0.91030]
X-4.84516 Y-3.31489 Z[#100+-0.04000]
#105=[#512+[#513-#512]*0.12752]
#106=[#515+[#516-#515]*0.12752]
#100=[#105+[#106-#105]*0.89584]
X-4.85034 Y-3.31551 Z[#100+-0.04000]
#105=[#512+[#513-#512]*0.12777]
#106=[#515+[#516-#515]*0.12777]
#100=[#105+[#106-#105]*0.88129]
X-4.85555 Y-3.31543 Z[#100+-0.04000]
#105=[#512+[#513-#512]*0.12882]
#106=[#515+[#516-#515]*0.12882]
#100=[#105+[#106-#105]*0.87350]
X-4.85834 Y-3.31510 Z[#100+-0.04000]
#105=[#512+[#513-#512]*0.13052]
#106=[#515+[#516-#515]*0.13052]
#100=[#105+[#106-#105]*0.86580]
X-4.86111 Y-3.31458 Z[#100+-0.04000]
#105=[#512+[#513-#512]*0.13534]
#106=[#515+[#516-#515]*0.13534]
#100=[#105+[#106-#105]*0.85185]
X-4.86611 Y-3.31309 Z[#100+-0.04000]
#105=[#512+[#513-#512]*0.14226]
#106=[#515+[#516-#515]*0.14226]
#100=[#105+[#106-#105]*0.83857]
X-4.87086 Y-3.31095 Z[#100+-0.04000]
#105=[#512+[#513-#512]*0.15116]
#106=[#515+[#516-#515]*0.15116]
#100=[#105+[#106-#105]*0.82620]
X-4.87530 Y-3.30820 Z[#100+-0.04000]
#105=[#512+[#513-#512]*0.15671]
#106=[#515+[#516-#515]*0.15671]
#100=[#105+[#106-#105]*0.81999]
X-4.87752 Y-3.30649 Z[#100+-0.04000]
#105=[#512+[#513-#512]*0.16276]
#106=[#515+[#516-#515]*0.16276]
#100=[#105+[#106-#105]*0.81414]
X-4.87962 Y-3.30462 Z[#100+-0.04000]
#105=[#512+[#513-#512]*0.16929]
#106=[#515+[#516-#515]*0.16929]
#100=[#105+[#106-#105]*0.80867]
X-4.88158 Y-3.30260 Z[#100+-0.04000]
#105=[#512+[#513-#512]*0.17727]
#106=[#515+[#516-#515]*0.17727]
#100=[#105+[#106-#105]*0.80294]
X-4.88363 Y-3.30013 Z[#100+-0.04000]
#105=[#512+[#513-#512]*0.67713]
#106=[#515+[#516-#515]*0.67713]
#100=[#105+[#106-#105]*0.47964]
X-4.99950 Y-3.14565 Z[#100+-0.04000]
#105=[#512+[#513-#512]*0.66422]
#106=[#515+[#516-#515]*0.66422]
#100=[#105+[#106-#105]*0.46851]
X-5.00349 Y-3.14964 Z[#100+-0.04000]
#105=[#512+[#513-#512]*0.25214]
#106=[#515+[#516-#515]*0.25214]
#100=[#105+[#106-#105]*0.46848]
X-5.00350 Y-3.27699 Z[#100+-0.04000]
#105=[#512+[#513-#512]*0.24048]
#106=[#515+[#516-#515]*0.24048]
#100=[#105+[#106-#105]*0.46782]
X-5.00373 Y-3.28060 Z[#100+-0.04000]
#105=[#512+[#513-#512]*0.22893]
#106=[#515+[#516-#515]*0.22893]
#100=[#105+[#106-#105]*0.46623]
X-5.00430 Y-3.28416 Z[#100+-0.04000]
#105=[#512+[#513-#512]*0.21761]
#106=[#515+[#516-#515]*0.21761]
#100=[#105+[#106-#105]*0.46374]
X-5.00520 Y-3.28767 Z[#100+-0.04000]
#105=[#512+[#513-#512]*0.20659]
#106=[#515+[#516-#515]*0.20659]
#100=[#105+[#106-#105]*0.46036]
X-5.00641 Y-3.29107 Z[#100+-0.04000]
#105=[#512+[#513-#512]*0.19369]
#106=[#515+[#516-#515]*0.19369]
#100=[#105+[#106-#105]*0.45507]
X-5.00830 Y-3.29506 Z[#100+-0.04000]
#105=[#512+[#513-#512]*0.18155]
#106=[#515+[#516-#515]*0.18155]
#100=[#105+[#106-#105]*0.44857]
X-5.01063 Y-3.29881 Z[#100+-0.04000]
#105=[#512+[#513-#512]*0.17034]
#106=[#515+[#516-#515]*0.17034]
#100=[#105+[#106-#105]*0.44094]
X-5.01337 Y-3.30227 Z[#100+-0.04000]
#105=[#512+[#513-#512]*0.16019]
#106=[#515+[#516-#515]*0.16019]
#100=[#105+[#106-#105]*0.43227]
X-5.01647 Y-3.30541 Z[#100+-0.04000]
#105=[#512+[#513-#512]*0.15122]
#106=[#515+[#516-#515]*0.15122]
#100=[#105+[#106-#105]*0.42268]
X-5.01991 Y-3.30818 Z[#100+-0.04000]
#105=[#512+[#513-#512]*0.14356]
#106=[#515+[#516-#515]*0.14356]
#100=[#105+[#106-#105]*0.41228]
X-5.02364 Y-3.31055 Z[#100+-0.04000]
#105=[#512+[#513-#512]*0.13730]
#106=[#515+[#516-#515]*0.13730]
#100=[#105+[#106-#105]*0.40121]
X-5.02761 Y-3.31249 Z[#100+-0.04000]
#105=[#512+[#513-#512]*0.13251]
#106=[#515+[#516-#515]*0.13251]
#100=[#105+[#106-#105]*0.38960]
X-5.03177 Y-3.31397 Z[#100+-0.04000]
#105=[#512+[#513-#512]*0.12926]
#106=[#515+[#516-#515]*0.12926]
#100=[#105+[#106-#105]*0.37760]
X-5.03606 Y-3.31497 Z[#100+-0.04000]
#105=[#512+[#513-#512]*0.12759]
#106=[#515+[#516-#515]*0.12759]
#100=[#105+[#106-#105]*0.36537]
X-5.04045 Y-3.31549 Z[#100+-0.04000]
#105=[#512+[#513-#512]*0.12752]
#106=[#515+[#516-#515]*0.12752]
#100=[#105+[#106-#105]*0.35305]
X-5.04486 Y-3.31551 Z[#100+-0.04000]
#105=[#512+[#513-#512]*0.12904]
#106=[#515+[#516-#515]*0.12904]
#100=[#105+[#106-#105]*0.34080]
X-5.04925 Y-3.31504 Z[#100+-0.04000]
#105=[#512+[#513-#512]*0.13251]
#106=[#515+[#516-#515]*0.13251]
#100=[#105+[#106-#105]*0.32770]
X-5.05395 Y-3.31397 Z[#100+-0.04000]
#105=[#512+[#513-#512]*0.13730]
#106=[#515+[#516-#515]*0.13730]
#100=[#105+[#106-#105]*0.31609]
X-5.05811 Y-3.31249 Z[#100+-0.04000]
#105=[#512+[#513-#512]*0.14356]
#106=[#515+[#516-#515]*0.14356]
#100=[#105+[#106-#105]*0.30502]
X-5.06208 Y-3.31055 Z[#100+-0.04000]
#105=[#512+[#513-#512]*0.15122]
#106=[#515+[#516-#515]*0.15122]
#100=[#105+[#106-#105]*0.29463]
X-5.06580 Y-3.30818 Z[#100+-0.04000]
#105=[#512+[#513-#512]*0.16019]
#106=[#515+[#516-#515]*0.16019]
#100=[#105+[#106-#105]*0.28503]
X-5.06924 Y-3.30541 Z[#100+-0.04000]
#105=[#512+[#513-#512]*0.17132]
#106=[#515+[#516-#515]*0.17132]
#100=[#105+[#106-#105]*0.27563]
X-5.07261 Y-3.30197 Z[#100+-0.04000]
#105=[#512+[#513-#512]*0.18262]
#106=[#515+[#516-#515]*0.18262]
#100=[#105+[#106-#105]*0.26810]
X-5.07531 Y-3.29848 Z[#100+-0.04000]
#105=[#512+[#513-#512]*0.19483]
#106=[#515+[#516-#515]*0.19483]
#100=[#105+[#106-#105]*0.26170]
X-5.07760 Y-3.29470 Z[#100+-0.04000]
#105=[#512+[#513-#512]*0.20901]
#106=[#515+[#516-#515]*0.20901]
#100=[#105+[#106-#105]*0.25612]
X-5.07960 Y-3.29032 Z[#100+-0.04000]
#105=[#512+[#513-#512]*0.22261]
#106=[#515+[#516-#515]*0.22261]
#100=[#105+[#106-#105]*0.25235]
X-5.08095 Y-3.28612 Z[#100+-0.04000]
#105=[#512+[#513-#512]*0.23661]
#106=[#515+[#516-#515]*0.23661]
#100=[#105+[#106-#105]*0.24991]
X-5.08183 Y-3.28179 Z[#100+-0.04000]
#105=[#512+[#513-#512]*0.25084]
#106=[#515+[#516-#515]*0.25084]
#100=[#105+[#106-#105]*0.24885]
X-5.08221 Y-3.27739 Z[#100+-0.04000]
#100=[#513+[#516-#513]*0.24887]
X-5.08220 Y-3.04587 Z[#100+-0.04000]
#105=[#513+[#514-#513]*0.87780]
#106=[#516+[#517-#516]*0.87780]
#100=[#105+[#106-#105]*0.24889]
X-5.08219 Y-2.77458 Z[#100+-0.04000]
#105=[#513+[#514-#513]*0.88945]
#106=[#516+[#517-#516]*0.88945]
#100=[#105+[#106-#105]*0.24976]
X-5.08188 Y-2.77098 Z[#100+-0.04000]
#105=[#513+[#514-#513]*0.90222]
#106=[#516+[#517-#516]*0.90222]
#100=[#105+[#106-#105]*0.25181]
X-5.08115 Y-2.76704 Z[#100+-0.04000]
#105=[#513+[#514-#513]*0.91345]
#106=[#516+[#517-#516]*0.91345]
#100=[#105+[#106-#105]*0.25460]
X-5.08015 Y-2.76357 Z[#100+-0.04000]
#105=[#513+[#514-#513]*0.92553]
#106=[#516+[#517-#516]*0.92553]
#100=[#105+[#106-#105]*0.25872]
X-5.07867 Y-2.75983 Z[#100+-0.04000]
#105=[#513+[#514-#513]*0.93705]
#106=[#516+[#517-#516]*0.93705]
#100=[#105+[#106-#105]*0.26389]
X-5.07682 Y-2.75627 Z[#100+-0.04000]
#105=[#513+[#514-#513]*0.94790]
#106=[#516+[#517-#516]*0.94790]
#100=[#105+[#106-#105]*0.27004]
X-5.07461 Y-2.75292 Z[#100+-0.04000]
#105=[#513+[#514-#513]*0.95798]
#106=[#516+[#517-#516]*0.95798]
#100=[#105+[#106-#105]*0.27711]
X-5.07208 Y-2.74981 Z[#100+-0.04000]
#105=[#513+[#514-#513]*0.96629]
#106=[#516+[#517-#516]*0.96629]
#100=[#105+[#106-#105]*0.28420]
X-5.06954 Y-2.74724 Z[#100+-0.04000]
#105=[#513+[#514-#513]*0.97381]
#106=[#516+[#517-#516]*0.97381]
#100=[#105+[#106-#105]*0.29193]
X-5.06677 Y-2.74491 Z[#100+-0.04000]
#105=[#513+[#514-#513]*0.98116]
#106=[#516+[#517-#516]*0.98116]
#100=[#105+[#106-#105]*0.30116]
X-5.06346 Y-2.74264 Z[#100+-0.04000]
#105=[#513+[#514-#513]*0.98738]
#106=[#516+[#517-#516]*0.98738]
#100=[#105+[#106-#105]*0.31099]
X-5.05994 Y-2.74072 Z[#100+-0.04000]
#105=[#513+[#514-#513]*0.99242]
#106=[#516+[#517-#516]*0.99242]
#100=[#105+[#106-#105]*0.32131]
X-5.05624 Y-2.73916 Z[#100+-0.04000]
#105=[#513+[#514-#513]*0.99620]
#106=[#516+[#517-#516]*0.99620]
#100=[#105+[#106-#105]*0.33203]
X-5.05240 Y-2.73799 Z[#100+-0.04000]
#105=[#513+[#514-#513]*0.99851]
#106=[#516+[#517-#516]*0.99851]
#100=[#105+[#106-#105]*0.34191]
X-5.04886 Y-2.73728 Z[#100+-0.04000]
#105=[#513+[#514-#513]*0.99976]
#106=[#516+[#517-#516]*0.99976]
#100=[#105+[#106-#105]*0.35193]
X-5.04526 Y-2.73689 Z[#100+-0.04000]
#105=[#513+[#514-#513]*0.99989]
#106=[#516+[#517-#516]*0.99989]
#100=[#105+[#106-#105]*0.36313]
X-5.04125 Y-2.73685 Z[#100+-0.04000]
#105=[#513+[#514-#513]*0.99888]
#106=[#516+[#517-#516]*0.99888]
#100=[#105+[#106-#105]*0.37318]
X-5.03765 Y-2.73717 Z[#100+-0.04000]
#105=[#513+[#514-#513]*0.99709]
#106=[#516+[#517-#516]*0.99709]
#100=[#105+[#106-#105]*0.38200]
X-5.03449 Y-2.73772 Z[#100+-0.04000]
#105=[#513+[#514-#513]*0.99408]
#106=[#516+[#517-#516]*0.99408]
#100=[#105+[#106-#105]*0.39175]
X-5.03100 Y-2.73865 Z[#100+-0.04000]
#105=[#513+[#514-#513]*0.99005]
#106=[#516+[#517-#516]*0.99005]
#100=[#105+[#106-#105]*0.40121]
X-5.02761 Y-2.73989 Z[#100+-0.04000]
#105=[#513+[#514-#513]*0.98503]
#106=[#516+[#517-#516]*0.98503]
#100=[#105+[#106-#105]*0.41031]
X-5.02434 Y-2.74145 Z[#100+-0.04000]
#105=[#513+[#514-#513]*0.97978]
#106=[#516+[#517-#516]*0.97978]
#100=[#105+[#106-#105]*0.41804]
X-5.02157 Y-2.74307 Z[#100+-0.04000]
#105=[#513+[#514-#513]*0.97381]
#106=[#516+[#517-#516]*0.97381]
#100=[#105+[#106-#105]*0.42538]
X-5.01894 Y-2.74491 Z[#100+-0.04000]
#105=[#513+[#514-#513]*0.96629]
#106=[#516+[#517-#516]*0.96629]
#100=[#105+[#106-#105]*0.43310]
X-5.01618 Y-2.74724 Z[#100+-0.04000]
#105=[#513+[#514-#513]*0.95894]
#106=[#516+[#517-#516]*0.95894]
#100=[#105+[#106-#105]*0.43944]
X-5.01391 Y-2.74951 Z[#100+-0.04000]
#105=[#513+[#514-#513]*0.94999]
#106=[#516+[#517-#516]*0.94999]
#100=[#105+[#106-#105]*0.44592]
X-5.01158 Y-2.75228 Z[#100+-0.04000]
#105=[#513+[#514-#513]*0.94148]
#106=[#516+[#517-#516]*0.94148]
#100=[#105+[#106-#105]*0.45107]
X-5.00974 Y-2.75490 Z[#100+-0.04000]
#105=[#513+[#514-#513]*0.93137]
#106=[#516+[#517-#516]*0.93137]
#100=[#105+[#106-#105]*0.45612]
X-5.00793 Y-2.75803 Z[#100+-0.04000]
#105=[#513+[#514-#513]*0.92196]
#106=[#516+[#517-#516]*0.92196]
#100=[#105+[#106-#105]*0.45993]
X-5.00656 Y-2.76094 Z[#100+-0.04000]
#105=[#513+[#514-#513]*0.91098]
#106=[#516+[#517-#516]*0.91098]
#100=[#105+[#106-#105]*0.46340]
X-5.00532 Y-2.76433 Z[#100+-0.04000]
#105=[#513+[#514-#513]*0.89969]
#106=[#516+[#517-#516]*0.89969]
#100=[#105+[#106-#105]*0.46600]
X-5.00439 Y-2.76782 Z[#100+-0.04000]
#105=[#513+[#514-#513]*0.88816]
#106=[#516+[#517-#516]*0.88816]
#100=[#105+[#106-#105]*0.46768]
X-5.00378 Y-2.77138 Z[#100+-0.04000]
#105=[#513+[#514-#513]*0.87261]
#106=[#516+[#517-#516]*0.87261]
#100=[#105+[#106-#105]*0.46851]
X-5.00349 Y-2.77619 Z[#100+-0.04000]
#105=[#513+[#514-#513]*0.02453]
#106=[#516+[#517-#516]*0.02453]
#100=[#105+[#106-#105]*0.46851]
X-5.00349 Y-3.03829 Z[#100+-0.04000]
#105=[#513+[#514-#513]*0.42431]
#106=[#516+[#517-#516]*0.42431]
#100=[#105+[#106-#105]*0.81326]
X-4.87993 Y-2.91473 Z[#100+-0.04000]
#105=[#513+[#514-#513]*0.43451]
#106=[#516+[#517-#516]*0.43451]
#100=[#105+[#106-#105]*0.82342]
X-4.87629 Y-2.91158 Z[#100+-0.04000]
#105=[#513+[#514-#513]*0.44320]
#106=[#516+[#517-#516]*0.44320]
#100=[#105+[#106-#105]*0.83457]
X-4.87230 Y-2.90890 Z[#100+-0.04000]
#105=[#513+[#514-#513]*0.44973]
#106=[#516+[#517-#516]*0.44973]
#100=[#105+[#106-#105]*0.84553]
X-4.86837 Y-2.90688 Z[#100+-0.04000]
#105=[#513+[#514-#513]*0.45439]
#106=[#516+[#517-#516]*0.45439]
#100=[#105+[#106-#105]*0.85598]
X-4.86462 Y-2.90544 Z[#100+-0.04000]
#105=[#513+[#514-#513]*0.45780]
#106=[#516+[#517-#516]*0.45780]
#100=[#105+[#106-#105]*0.86679]
X-4.86075 Y-2.90439 Z[#100+-0.04000]
#105=[#513+[#514-#513]*0.45991]
#106=[#516+[#517-#516]*0.45991]
#100=[#105+[#106-#105]*0.87784]
X-4.85679 Y-2.90373 Z[#100+-0.04000]
#105=[#513+[#514-#513]*0.46070]
#106=[#516+[#517-#516]*0.46070]
#100=[#105+[#106-#105]*0.88902]
X-4.85278 Y-2.90349 Z[#100+-0.04000]
#105=[#513+[#514-#513]*0.46005]
#106=[#516+[#517-#516]*0.46005]
#100=[#105+[#106-#105]*0.90133]
X-4.84837 Y-2.90369 Z[#100+-0.04000]
#105=[#513+[#514-#513]*0.45807]
#106=[#516+[#517-#516]*0.45807]
#100=[#105+[#106-#105]*0.91240]
X-4.84440 Y-2.90430 Z[#100+-0.04000]
#105=[#513+[#514-#513]*0.45439]
#106=[#516+[#517-#516]*0.45439]
#100=[#105+[#106-#105]*0.92430]
X-4.84014 Y-2.90544 Z[#100+-0.04000]
#105=[#513+[#514-#513]*0.44973]
#106=[#516+[#517-#516]*0.44973]
#100=[#105+[#106-#105]*0.93476]
X-4.83639 Y-2.90688 Z[#100+-0.04000]
#105=[#513+[#514-#513]*0.44320]
#106=[#516+[#517-#516]*0.44320]
#100=[#105+[#106-#105]*0.94572]
X-4.83246 Y-2.90890 Z[#100+-0.04000]
#105=[#513+[#514-#513]*0.43530]
#106=[#516+[#517-#516]*0.43530]
#100=[#105+[#106-#105]*0.95598]
X-4.82879 Y-2.91134 Z[#100+-0.04000]
#105=[#513+[#514-#513]*0.42700]
#106=[#516+[#517-#516]*0.42700]
#100=[#105+[#106-#105]*0.96459]
X-4.82570 Y-2.91391 Z[#100+-0.04000]
#105=[#513+[#514-#513]*0.41772]
#106=[#516+[#517-#516]*0.41772]
#100=[#105+[#106-#105]*0.97243]
X-4.82289 Y-2.91677 Z[#100+-0.04000]
#105=[#513+[#514-#513]*0.40651]
#106=[#516+[#517-#516]*0.40651]
#100=[#105+[#106-#105]*0.98006]
X-4.82015 Y-2.92024 Z[#100+-0.04000]
#105=[#513+[#514-#513]*0.39437]
#106=[#516+[#517-#516]*0.39437]
#100=[#105+[#106-#105]*0.98656]
X-4.81783 Y-2.92399 Z[#100+-0.04000]
#105=[#513+[#514-#513]*0.38267]
#106=[#516+[#517-#516]*0.38267]
#100=[#105+[#106-#105]*0.99142]
X-4.81608 Y-2.92760 Z[#100+-0.04000]
#105=[#513+[#514-#513]*0.36671]
#106=[#516+[#517-#516]*0.36671]
#100=[#105+[#106-#105]*0.99616]
X-4.81439 Y-2.93254 Z[#100+-0.04000]
#105=[#513+[#514-#513]*0.35016]
#106=[#516+[#517-#516]*0.35016]
#100=[#105+[#106-#105]*0.99903]
X-4.81335 Y-2.93765 Z[#100+-0.04000]
#105=[#513+[#514-#513]*0.33332]
#106=[#516+[#517-#516]*0.33332]
#100=[#105+[#106-#105]*1.00000]
X-4.81301 Y-2.94286 Z[#100+-0.04000]
G04 P0 ( dwell for no time -- G64 should not smooth over this point )
G00 Z0.08000 ( retract )

G00 X-5.21779 Y-2.96564 ( rapid move to begin. )
G01 F180.00000
( Mill infeed pass 1/1 )
#105=[#510+[#511-#510]*0.25958]
#106=[#513+[#514-#513]*0.25958]
#100=[#105+[#106-#105]*0.87054]
G01 Z[-0.04000+#100]
G04 P0 ( dwell for no time -- G64 should not smooth over this point )
G01 F360.00000
#105=[#510+[#511-#510]*0.26866]
#106=[#513+[#514-#513]*0.26866]
#100=[#105+[#106-#105]*0.87006]
X-5.21796 Y-2.96284 Z[#100+-0.04000]
#105=[#510+[#511-#510]*0.27767]
#106=[#513+[#514-#513]*0.27767]
#100=[#105+[#106-#105]*0.86902]
X-5.21833 Y-2.96005 Z[#100+-0.04000]
#105=[#510+[#511-#510]*0.29409]
#106=[#513+[#514-#513]*0.29409]
#100=[#105+[#106-#105]*0.86563]
X-5.21955 Y-2.95498 Z[#100+-0.04000]
#105=[#510+[#511-#510]*0.30267]
#106=[#513+[#514-#513]*0.30267]
#100=[#105+[#106-#105]*0.86304]
X-5.22048 Y-2.95233 Z[#100+-0.04000]
#105=[#510+[#511-#510]*0.31102]
#106=[#513+[#514-#513]*0.31102]
#100=[#105+[#106-#105]*0.85992]
X-5.22159 Y-2.94975 Z[#100+-0.04000]
#105=[#510+[#511-#510]*0.32574]
#106=[#513+[#514-#513]*0.32574]
#100=[#105+[#106-#105]*0.85281]
X-5.22414 Y-2.94520 Z[#100+-0.04000]
#105=[#510+[#511-#510]*0.33925]
#106=[#513+[#514-#513]*0.33925]
#100=[#105+[#106-#105]*0.84408]
X-5.22727 Y-2.94102 Z[#100+-0.04000]
#105=[#510+[#511-#510]*0.34594]
#106=[#513+[#514-#513]*0.34594]
#100=[#105+[#106-#105]*0.83877]
X-5.22917 Y-2.93896 Z[#100+-0.04000]
#105=[#510+[#511-#510]*0.35216]
#106=[#513+[#514-#513]*0.35216]
#100=[#105+[#106-#105]*0.83305]
X-5.23122 Y-2.93703 Z[#100+-0.04000]
#105=[#510+[#511-#510]*0.36241]
#106=[#513+[#514-#513]*0.36241]
#100=[#105+[#106-#105]*0.82149]
X-5.23537 Y-2.93386 Z[#100+-0.04000]
#105=[#510+[#511-#510]*0.37022]
#106=[#513+[#514-#513]*0.37022]
#100=[#105+[#106-#105]*0.80986]
X-5.23954 Y-2.93145 Z[#100+-0.04000]
#105=[#510+[#511-#510]*0.44841]
#106=[#513+[#514-#513]*0.44841]
#100=[#105+[#106-#105]*0.67495]
X-5.28788 Y-2.90729 Z[#100+-0.04000]
#105=[#510+[#511-#510]*0.45467]
#106=[#513+[#514-#513]*0.45467]
#100=[#105+[#106-#105]*0.66127]
X-5.29278 Y-2.90535 Z[#100+-0.04000]
#105=[#510+[#511-#510]*0.45876]
#106=[#513+[#514-#513]*0.45876]
#100=[#105+[#106-#105]*0.64700]
X-5.29790 Y-2.90409 Z[#100+-0.04000]
#105=[#510+[#511-#510]*0.46016]
#106=[#513+[#514-#513]*0.46016]
#100=[#105+[#106-#105]*0.63803]
X-5.30112 Y-2.90366 Z[#100+-0.04000]
#105=[#510+[#511-#510]*0.46071]
#106=[#513+[#514-#513]*0.46071]
#100=[#105+[#106-#105]*0.62785]
X-5.30476 Y-2.90349 Z[#100+-0.04000]
#105=[#510+[#511-#510]*0.46071]
#106=[#513+[#514-#513]*0.46071]
#100=[#105+[#106-#105]*0.36211]
X-5.40000 Y-2.90349 Z[#100+-0.04000]
#105=[#510+[#511-#510]*0.45957]
#106=[#513+[#514-#513]*0.45957]
#100=[#105+[#106-#105]*0.34744]
X-5.40526 Y-2.90384 Z[#100+-0.04000]
#105=[#510+[#511-#510]*0.45801]
#106=[#513+[#514-#513]*0.45801]
#100=[#105+[#106-#105]*0.33963]
X-5.40806 Y-2.90432 Z[#100+-0.04000]
#105=[#510+[#511-#510]*0.45581]
#106=[#513+[#514-#513]*0.45581]
#100=[#105+[#106-#105]*0.33194]
X-5.41081 Y-2.90500 Z[#100+-0.04000]
#105=[#510+[#511-#510]*0.45251]
#106=[#513+[#514-#513]*0.45251]
#100=[#105+[#106-#105]*0.32335]
X-5.41389 Y-2.90602 Z[#100+-0.04000]
#105=[#510+[#511-#510]*0.44897]
#106=[#513+[#514-#513]*0.44897]
#100=[#105+[#106-#105]*0.31604]
X-5.41651 Y-2.90712 Z[#100+-0.04000]
#105=[#510+[#511-#510]*0.37022]
#106=[#513+[#514-#513]*0.37022]
#100=[#105+[#106-#105]*0.18011]
X-5.46523 Y-2.93145 Z[#100+-0.04000]
#105=[#510+[#511-#510]*0.36253]
#106=[#513+[#514-#513]*0.36253]
#100=[#105+[#106-#105]*0.16864]
X-5.46934 Y-2.93383 Z[#100+-0.04000]
#105=[#510+[#511-#510]*0.35494]
#106=[#513+[#514-#513]*0.35494]
#100=[#105+[#106-#105]*0.15974]
X-5.47252 Y-2.93617 Z[#100+-0.04000]
#105=[#510+[#511-#510]*0.34636]
#106=[#513+[#514-#513]*0.34636]
#100=[#105+[#106-#105]*0.15155]
X-5.47546 Y-2.93883 Z[#100+-0.04000]
#105=[#510+[#511-#510]*0.26748]
#106=[#513+[#514-#513]*0.26748]
#100=[#105+[#106-#105]*0.08357]
X-5.49982 Y-2.96320 Z[#100+-0.04000]
#105=[#510+[#511-#510]*0.25882]
#106=[#513+[#514-#513]*0.25882]
#100=[#105+[#106-#105]*0.07702]
X-5.50217 Y-2.96588 Z[#100+-0.04000]
#105=[#510+[#511-#510]*0.24951]
#106=[#513+[#514-#513]*0.24951]
#100=[#105+[#106-#105]*0.07117]
X-5.50427 Y-2.96876 Z[#100+-0.04000]
#105=[#510+[#511-#510]*0.23621]
#106=[#513+[#514-#513]*0.23621]
#100=[#105+[#106-#105]*0.06454]
X-5.50664 Y-2.97287 Z[#100+-0.04000]
#100=[#510+[#511-#510]*0.08639]
X-5.52977 Y-3.01917 Z[#100+-0.04000]
#105=[#507+[#508-#507]*0.07858]
#106=[#510+[#511-#510]*0.07858]
#100=[#105+[#106-#105]*0.99664]
X-5.53098 Y-3.02158 Z[#100+-0.04000]
#105=[#507+[#508-#507]*0.06887]
#106=[#510+[#511-#510]*0.06887]
#100=[#105+[#106-#105]*0.99318]
X-5.53222 Y-3.02458 Z[#100+-0.04000]
#105=[#507+[#508-#507]*0.06014]
#106=[#510+[#511-#510]*0.06014]
#100=[#105+[#106-#105]*0.99073]
X-5.53309 Y-3.02728 Z[#100+-0.04000]
#105=[#507+[#508-#507]*0.05122]
#106=[#510+[#511-#510]*0.05122]
#100=[#105+[#106-#105]*0.98883]
X-5.53378 Y-3.03004 Z[#100+-0.04000]
#105=[#507+[#508-#507]*0.04216]
#106=[#510+[#511-#510]*0.04216]
#100=[#105+[#106-#105]*0.98749]
X-5.53425 Y-3.03284 Z[#100+-0.04000]
#105=[#507+[#508-#507]*0.02515]
#106=[#510+[#511-#510]*0.02515]
#100=[#105+[#106-#105]*0.98651]
X-5.53461 Y-3.03810 Z[#100+-0.04000]
#100=[#507+[#510-#507]*0.98651]
X-5.53461 Y-3.04587 Z[#100+-0.04000]
#105=[#506+[#507-#506]*0.56290]
#106=[#509+[#510-#509]*0.56290]
#100=[#105+[#106-#105]*0.98651]
X-5.53461 Y-3.18095 Z[#100+-0.04000]
#105=[#506+[#507-#506]*0.54850]
#106=[#509+[#510-#509]*0.54850]
#100=[#105+[#106-#105]*0.98721]
X-5.53435 Y-3.18540 Z[#100+-0.04000]
#105=[#506+[#507-#506]*0.53813]
#106=[#509+[#510-#509]*0.53813]
#100=[#105+[#106-#105]*0.98860]
X-5.53386 Y-3.18861 Z[#100+-0.04000]
#105=[#506+[#507-#506]*0.52792]
#106=[#509+[#510-#509]*0.52792]
#100=[#105+[#106-#105]*0.99073]
X-5.53309 Y-3.19176 Z[#100+-0.04000]
#105=[#506+[#507-#506]*0.51919]
#106=[#509+[#510-#509]*0.51919]
#100=[#105+[#106-#105]*0.99318]
X-5.53222 Y-3.19446 Z[#100+-0.04000]
#105=[#506+[#507-#506]*0.50948]
#106=[#509+[#510-#509]*0.50948]
#100=[#105+[#106-#105]*0.99664]
X-5.53098 Y-3.19746 Z[#100+-0.04000]
#100=[#509+[#510-#509]*0.50167]
X-5.52977 Y-3.19988 Z[#100+-0.04000]
#105=[#509+[#510-#509]*0.35185]
#106=[#512+[#513-#512]*0.35185]
#100=[#105+[#106-#105]*0.06454]
X-5.50664 Y-3.24618 Z[#100+-0.04000]
#105=[#509+[#510-#509]*0.33962]
#106=[#512+[#513-#512]*0.33962]
#100=[#105+[#106-#105]*0.07057]
X-5.50448 Y-3.24996 Z[#100+-0.04000]
#105=[#509+[#510-#509]*0.32924]
#106=[#512+[#513-#512]*0.32924]
#100=[#105+[#106-#105]*0.07702]
X-5.50217 Y-3.25317 Z[#100+-0.04000]
#105=[#509+[#510-#509]*0.31875]
#106=[#512+[#513-#512]*0.31875]
#100=[#105+[#106-#105]*0.08512]
X-5.49927 Y-3.25641 Z[#100+-0.04000]
#105=[#509+[#510-#509]*0.23991]
#106=[#512+[#513-#512]*0.23991]
#100=[#105+[#106-#105]*0.15313]
X-5.47489 Y-3.28077 Z[#100+-0.04000]
#105=[#509+[#510-#509]*0.23231]
#106=[#512+[#513-#512]*0.23231]
#100=[#105+[#106-#105]*0.16060]
X-5.47222 Y-3.28312 Z[#100+-0.04000]
#105=[#509+[#510-#509]*0.22553]
#106=[#512+[#513-#512]*0.22553]
#100=[#105+[#106-#105]*0.16864]
X-5.46934 Y-3.28522 Z[#100+-0.04000]
#105=[#509+[#510-#509]*0.21784]
#106=[#512+[#513-#512]*0.21784]
#100=[#105+[#106-#105]*0.18010]
X-5.46523 Y-3.28759 Z[#100+-0.04000]
#105=[#509+[#510-#509]*0.13965]
#106=[#512+[#513-#512]*0.13965]
#100=[#105+[#106-#105]*0.31501]
X-5.41688 Y-3.31176 Z[#100+-0.04000]
#105=[#509+[#510-#509]*0.13379]
#106=[#512+[#513-#512]*0.13379]
#100=[#105+[#106-#105]*0.32761]
X-5.41236 Y-3.31357 Z[#100+-0.04000]
#105=[#509+[#510-#509]*0.12954]
#106=[#512+[#513-#512]*0.12954]
#100=[#105+[#106-#105]*0.34185]
X-5.40726 Y-3.31488 Z[#100+-0.04000]
#105=[#509+[#510-#509]*0.12803]
#106=[#512+[#513-#512]*0.12803]
#100=[#105+[#106-#105]*0.35081]
X-5.40405 Y-3.31535 Z[#100+-0.04000]
#105=[#509+[#510-#509]*0.12736]
#106=[#512+[#513-#512]*0.12736]
#100=[#105+[#106-#105]*0.36098]
X-5.40041 Y-3.31556 Z[#100+-0.04000]
#105=[#509+[#510-#509]*0.12746]
#106=[#512+[#513-#512]*0.12746]
#100=[#105+[#106-#105]*0.63238]
X-5.30314 Y-3.31553 Z[#100+-0.04000]
#105=[#509+[#510-#509]*0.12849]
#106=[#512+[#513-#512]*0.12849]
#100=[#105+[#106-#105]*0.64253]
X-5.29950 Y-3.31521 Z[#100+-0.04000]
#105=[#509+[#510-#509]*0.13061]
#106=[#512+[#513-#512]*0.13061]
#100=[#105+[#106-#105]*0.65255]
X-5.29591 Y-3.31455 Z[#100+-0.04000]
#105=[#509+[#510-#509]*0.13379]
#106=[#512+[#513-#512]*0.13379]
#100=[#105+[#106-#105]*0.66235]
X-5.29240 Y-3.31357 Z[#100+-0.04000]
#105=[#509+[#510-#509]*0.13802]
#106=[#512+[#513-#512]*0.13802]
#100=[#105+[#106-#105]*0.67186]
X-5.28899 Y-3.31226 Z[#100+-0.04000]
#105=[#509+[#510-#509]*0.21903]
#106=[#512+[#513-#512]*0.21903]
#100=[#105+[#106-#105]*0.81185]
X-5.23882 Y-3.28723 Z[#100+-0.04000]
#105=[#509+[#510-#509]*0.22711]
#106=[#512+[#513-#512]*0.22711]
#100=[#105+[#106-#105]*0.82334]
X-5.23470 Y-3.28473 Z[#100+-0.04000]
#105=[#509+[#510-#509]*0.23676]
#106=[#512+[#513-#512]*0.23676]
#100=[#105+[#106-#105]*0.83389]
X-5.23092 Y-3.28175 Z[#100+-0.04000]
#105=[#509+[#510-#509]*0.24783]
#106=[#512+[#513-#512]*0.24783]
#100=[#105+[#106-#105]*0.84335]
X-5.22753 Y-3.27833 Z[#100+-0.04000]
#105=[#509+[#510-#509]*0.26123]
#106=[#512+[#513-#512]*0.26123]
#100=[#105+[#106-#105]*0.85220]
X-5.22436 Y-3.27418 Z[#100+-0.04000]
#105=[#509+[#510-#509]*0.27240]
#106=[#512+[#513-#512]*0.27240]
#100=[#105+[#106-#105]*0.85792]
X-5.22231 Y-3.27073 Z[#100+-0.04000]
#105=[#509+[#510-#509]*0.28539]
#106=[#512+[#513-#512]*0.28539]
#100=[#105+[#106-#105]*0.86304]
X-5.22048 Y-3.26672 Z[#100+-0.04000]
#105=[#509+[#510-#509]*0.29897]
#106=[#512+[#513-#512]*0.29897]
#100=[#105+[#106-#105]*0.86688]
X-5.21910 Y-3.26252 Z[#100+-0.04000]
#105=[#509+[#510-#509]*0.31167]
#106=[#512+[#513-#512]*0.31167]
#100=[#105+[#106-#105]*0.86921]
X-5.21826 Y-3.25860 Z[#100+-0.04000]
#105=[#509+[#510-#509]*0.32459]
#106=[#512+[#513-#512]*0.32459]
#100=[#105+[#106-#105]*0.87041]
X-5.21783 Y-3.25460 Z[#100+-0.04000]
#105=[#509+[#510-#509]*0.33887]
#106=[#512+[#513-#512]*0.33887]
#100=[#105+[#106-#105]*0.87041]
X-5.21783 Y-3.25019 Z[#100+-0.04000]
#105=[#509+[#510-#509]*0.35307]
#106=[#512+[#513-#512]*0.35307]
#100=[#105+[#106-#105]*0.86904]
X-5.21833 Y-3.24580 Z[#100+-0.04000]
#105=[#509+[#510-#509]*0.36700]
#106=[#512+[#513-#512]*0.36700]
#100=[#105+[#106-#105]*0.86630]
X-5.21931 Y-3.24150 Z[#100+-0.04000]
#105=[#509+[#510-#509]*0.38048]
#106=[#512+[#513-#512]*0.38048]
#100=[#105+[#106-#105]*0.86224]
X-5.22076 Y-3.23733 Z[#100+-0.04000]
#105=[#509+[#510-#509]*0.39336]
#106=[#512+[#513-#512]*0.39336]
#100=[#105+[#106-#105]*0.85690]
X-5.22267 Y-3.23335 Z[#100+-0.04000]
#105=[#509+[#510-#509]*0.40439]
#106=[#512+[#513-#512]*0.40439]
#100=[#105+[#106-#105]*0.85099]
X-5.22479 Y-3.22994 Z[#100+-0.04000]
#105=[#509+[#510-#509]*0.41566]
#106=[#512+[#513-#512]*0.41566]
#100=[#105+[#106-#105]*0.84341]
X-5.22751 Y-3.22646 Z[#100+-0.04000]
#105=[#509+[#510-#509]*0.42498]
#106=[#512+[#513-#512]*0.42498]
#100=[#105+[#106-#105]*0.83562]
X-5.23030 Y-3.22358 Z[#100+-0.04000]
#105=[#509+[#510-#509]*0.43412]
#106=[#512+[#513-#512]*0.43412]
#100=[#105+[#106-#105]*0.82615]
X-5.23369 Y-3.22075 Z[#100+-0.04000]
#105=[#509+[#510-#509]*0.44197]
#106=[#512+[#513-#512]*0.44197]
#100=[#105+[#106-#105]*0.81586]
X-5.23738 Y-3.21833 Z[#100+-0.04000]
#105=[#509+[#510-#509]*0.44844]
#106=[#512+[#513-#512]*0.44844]
#100=[#105+[#106-#105]*0.80487]
X-5.24132 Y-3.21633 Z[#100+-0.04000]
#105=[#509+[#510-#509]*0.45222]
#106=[#512+[#513-#512]*0.45222]
#100=[#105+[#106-#105]*0.79653]
X-5.24431 Y-3.21516 Z[#100+-0.04000]
#105=[#509+[#510-#509]*0.45520]
#106=[#512+[#513-#512]*0.45520]
#100=[#105+[#106-#105]*0.78794]
X-5.24739 Y-3.21424 Z[#100+-0.04000]
#105=[#509+[#510-#509]*0.45758]
#106=[#512+[#513-#512]*0.45758]
#100=[#105+[#106-#105]*0.77807]
X-5.25093 Y-3.21350 Z[#100+-0.04000]
#105=[#509+[#510-#509]*0.45880]
#106=[#512+[#513-#512]*0.45880]
#100=[#105+[#106-#105]*0.76917]
X-5.25411 Y-3.21313 Z[#100+-0.04000]
#105=[#509+[#510-#509]*0.45916]
#106=[#512+[#513-#512]*0.45916]
#100=[#105+[#106-#105]*0.75910]
X-5.25773 Y-3.21301 Z[#100+-0.04000]
#105=[#509+[#510-#509]*0.45858]
#106=[#512+[#513-#512]*0.45858]
#100=[#105+[#106-#105]*0.75015]
X-5.26093 Y-3.21319 Z[#100+-0.04000]
#105=[#509+[#510-#509]*0.45692]
#106=[#512+[#513-#512]*0.45692]
#100=[#105+[#106-#105]*0.74017]
X-5.26451 Y-3.21371 Z[#100+-0.04000]
#105=[#509+[#510-#509]*0.45457]
#106=[#512+[#513-#512]*0.45457]
#100=[#105+[#106-#105]*0.73144]
X-5.26764 Y-3.21443 Z[#100+-0.04000]
#105=[#509+[#510-#509]*0.45093]
#106=[#512+[#513-#512]*0.45093]
#100=[#105+[#106-#105]*0.72186]
X-5.27107 Y-3.21556 Z[#100+-0.04000]
#105=[#509+[#510-#509]*0.44630]
#106=[#512+[#513-#512]*0.44630]
#100=[#105+[#106-#105]*0.71260]
X-5.27439 Y-3.21699 Z[#100+-0.04000]
#105=[#509+[#510-#509]*0.38213]
#106=[#512+[#513-#512]*0.38213]
#100=[#105+[#106-#105]*0.60192]
X-5.31405 Y-3.23682 Z[#100+-0.04000]
#105=[#509+[#510-#509]*0.38213]
#106=[#512+[#513-#512]*0.38213]
#100=[#105+[#106-#105]*0.38804]
X-5.39070 Y-3.23682 Z[#100+-0.04000]
#105=[#509+[#510-#509]*0.43648]
#106=[#512+[#513-#512]*0.43648]
#100=[#105+[#106-#105]*0.29431]
X-5.42430 Y-3.22002 Z[#100+-0.04000]
#105=[#509+[#510-#509]*0.48429]
#106=[#512+[#513-#512]*0.48429]
#100=[#105+[#106-#105]*0.25309]
X-5.43907 Y-3.20525 Z[#100+-0.04000]
#105=[#509+[#510-#509]*0.59298]
#106=[#512+[#513-#512]*0.59298]
#100=[#105+[#106-#105]*0.20622]
X-5.45587 Y-3.17166 Z[#100+-0.04000]
#105=[#509+[#510-#509]*0.99508]
#106=[#512+[#513-#512]*0.99508]
#100=[#105+[#106-#105]*0.20622]
X-5.45587 Y-3.04739 Z[#100+-0.04000]
#100=[#510+[#513-#510]*0.20834]
X-5.45511 Y-3.04587 Z[#100+-0.04000]
#105=[#510+[#511-#510]*0.10378]
#106=[#513+[#514-#513]*0.10378]
#100=[#105+[#106-#105]*0.25309]
X-5.43907 Y-3.01380 Z[#100+-0.04000]
#105=[#510+[#511-#510]*0.15158]
#106=[#513+[#514-#513]*0.15158]
#100=[#105+[#106-#105]*0.29431]
X-5.42430 Y-2.99902 Z[#100+-0.04000]
#105=[#510+[#511-#510]*0.20593]
#106=[#513+[#514-#513]*0.20593]
#100=[#105+[#106-#105]*0.38804]
X-5.39071 Y-2.98223 Z[#100+-0.04000]
#105=[#510+[#511-#510]*0.20593]
#106=[#513+[#514-#513]*0.20593]
#100=[#105+[#106-#105]*0.60192]
X-5.31405 Y-2.98223 Z[#100+-0.04000]
#105=[#510+[#511-#510]*0.14176]
#106=[#513+[#514-#513]*0.14176]
#100=[#105+[#106-#105]*0.71260]
X-5.27439 Y-3.00206 Z[#100+-0.04000]
#105=[#510+[#511-#510]*0.13759]
#106=[#513+[#514-#513]*0.13759]
#100=[#105+[#106-#105]*0.72081]
X-5.27145 Y-3.00334 Z[#100+-0.04000]
#105=[#510+[#511-#510]*0.13421]
#106=[#513+[#514-#513]*0.13421]
#100=[#105+[#106-#105]*0.72929]
X-5.26841 Y-3.00439 Z[#100+-0.04000]
#105=[#510+[#511-#510]*0.13165]
#106=[#513+[#514-#513]*0.13165]
#100=[#105+[#106-#105]*0.73797]
X-5.26530 Y-3.00518 Z[#100+-0.04000]
#105=[#510+[#511-#510]*0.12991]
#106=[#513+[#514-#513]*0.12991]
#100=[#105+[#106-#105]*0.74681]
X-5.26213 Y-3.00572 Z[#100+-0.04000]
#105=[#510+[#511-#510]*0.12902]
#106=[#513+[#514-#513]*0.12902]
#100=[#105+[#106-#105]*0.75574]
X-5.25893 Y-3.00599 Z[#100+-0.04000]
#105=[#510+[#511-#510]*0.12902]
#106=[#513+[#514-#513]*0.12902]
#100=[#105+[#106-#105]*0.76582]
X-5.25532 Y-3.00599 Z[#100+-0.04000]
#105=[#510+[#511-#510]*0.12993]
#106=[#513+[#514-#513]*0.12993]
#100=[#105+[#106-#105]*0.77475]
X-5.25212 Y-3.00571 Z[#100+-0.04000]
#105=[#510+[#511-#510]*0.13167]
#106=[#513+[#514-#513]*0.13167]
#100=[#105+[#106-#105]*0.78358]
X-5.24895 Y-3.00517 Z[#100+-0.04000]
#105=[#510+[#511-#510]*0.13425]
#106=[#513+[#514-#513]*0.13425]
#100=[#105+[#106-#105]*0.79226]
X-5.24584 Y-3.00438 Z[#100+-0.04000]
#105=[#510+[#511-#510]*0.13764]
#106=[#513+[#514-#513]*0.13764]
#100=[#105+[#106-#105]*0.80074]
X-5.24280 Y-3.00333 Z[#100+-0.04000]
#105=[#510+[#511-#510]*0.14125]
#106=[#513+[#514-#513]*0.14125]
#100=[#105+[#106-#105]*0.80793]
X-5.24022 Y-3.00222 Z[#100+-0.04000]
#105=[#510+[#511-#510]*0.14545]
#106=[#513+[#514-#513]*0.14545]
#100=[#105+[#106-#105]*0.81489]
X-5.23773 Y-3.00092 Z[#100+-0.04000]
#105=[#510+[#511-#510]*0.15472]
#106=[#513+[#514-#513]*0.15472]
#100=[#105+[#106-#105]*0.82705]
X-5.23337 Y-2.99805 Z[#100+-0.04000]
#105=[#510+[#511-#510]*0.16578]
#106=[#513+[#514-#513]*0.16578]
#100=[#105+[#106-#105]*0.83805]
X-5.22943 Y-2.99463 Z[#100+-0.04000]
#105=[#510+[#511-#510]*0.17241]
#106=[#513+[#514-#513]*0.17241]
#100=[#105+[#106-#105]*0.84341]
X-5.22751 Y-2.99259 Z[#100+-0.04000]
#105=[#510+[#511-#510]*0.17946]
#106=[#513+[#514-#513]*0.17946]
#100=[#105+[#106-#105]*0.84836]
X-5.22573 Y-2.99040 Z[#100+-0.04000]
#105=[#510+[#511-#510]*0.18691]
#106=[#513+[#514-#513]*0.18691]
#100=[#105+[#106-#105]*0.85287]
X-5.22412 Y-2.98810 Z[#100+-0.04000]
#105=[#510+[#511-#510]*0.19471]
#106=[#513+[#514-#513]*0.19471]
#100=[#105+[#106-#105]*0.85690]
X-5.22267 Y-2.98569 Z[#100+-0.04000]
#105=[#510+[#511-#510]*0.20999]
#106=[#513+[#514-#513]*0.20999]
#100=[#105+[#106-#105]*0.86308]
X-5.22046 Y-2.98097 Z[#100+-0.04000]
#105=[#510+[#511-#510]*0.22609]
#106=[#513+[#514-#513]*0.22609]
#100=[#105+[#106-#105]*0.86745]
X-5.21889 Y-2.97600 Z[#100+-0.04000]
#105=[#510+[#511-#510]*0.24272]
#106=[#513+[#514-#513]*0.24272]
#100=[#105+[#106-#105]*0.86996]
X-5.21800 Y-2.97086 Z[#100+-0.04000]
#105=[#510+[#511-#510]*0.25958]
#106=[#513+[#514-#513]*0.25958]
#100=[#105+[#106-#105]*0.87054]
X-5.21779 Y-2.96564 Z[#100+-0.04000]
G04 P0 ( dwell for no time -- G64 should not smooth over this point )
G00 Z0.08000 ( retract )

G00 X-5.67015 Y-3.01429 ( rapid move to begin. )
G01 F180.00000
( Mill infeed pass 1/1 )
#105=[#507+[#508-#507]*0.10219]
#106=[#510+[#511-#510]*0.10219]
#100=[#105+[#106-#105]*0.60830]
G01 Z[-0.04000+#100]
G04 P0 ( dwell for no time -- G64 should not smooth over this point )
G01 F360.00000
#100=[#507+[#510-#507]*0.60829]
X-5.67015 Y-3.04587 Z[#100+-0.04000]
#105=[#506+[#507-#506]*0.25214]
#106=[#509+[#510-#509]*0.25214]
#100=[#105+[#106-#105]*0.60827]
X-5.67016 Y-3.27699 Z[#100+-0.04000]
#105=[#506+[#507-#506]*0.24306]
#106=[#509+[#510-#509]*0.24306]
#100=[#105+[#106-#105]*0.60783]
X-5.67032 Y-3.27980 Z[#100+-0.04000]
#105=[#506+[#507-#506]*0.23404]
#106=[#509+[#510-#509]*0.23404]
#100=[#105+[#106-#105]*0.60683]
X-5.67068 Y-3.28259 Z[#100+-0.04000]
#105=[#506+[#507-#506]*0.22387]
#106=[#509+[#510-#509]*0.22387]
#100=[#105+[#106-#105]*0.60502]
X-5.67133 Y-3.28573 Z[#100+-0.04000]
#105=[#506+[#507-#506]*0.21513]
#106=[#509+[#510-#509]*0.21513]
#100=[#105+[#106-#105]*0.60285]
X-5.67210 Y-3.28843 Z[#100+-0.04000]
#105=[#506+[#507-#506]*0.20659]
#106=[#509+[#510-#509]*0.20659]
#100=[#105+[#106-#105]*0.60014]
X-5.67307 Y-3.29107 Z[#100+-0.04000]
#105=[#506+[#507-#506]*0.19830]
#106=[#509+[#510-#509]*0.19830]
#100=[#105+[#106-#105]*0.59692]
X-5.67423 Y-3.29363 Z[#100+-0.04000]
#105=[#506+[#507-#506]*0.18918]
#106=[#509+[#510-#509]*0.18918]
#100=[#105+[#106-#105]*0.59263]
X-5.67577 Y-3.29645 Z[#100+-0.04000]
#105=[#506+[#507-#506]*0.18155]
#106=[#509+[#510-#509]*0.18155]
#100=[#105+[#106-#105]*0.58836]
X-5.67730 Y-3.29881 Z[#100+-0.04000]
#105=[#506+[#507-#506]*0.17132]
#106=[#509+[#510-#509]*0.17132]
#100=[#105+[#106-#105]*0.58146]
X-5.67977 Y-3.30197 Z[#100+-0.04000]
#105=[#506+[#507-#506]*0.16106]
#106=[#509+[#510-#509]*0.16106]
#100=[#105+[#106-#105]*0.57289]
X-5.68284 Y-3.30514 Z[#100+-0.04000]
#105=[#506+[#507-#506]*0.15199]
#106=[#509+[#510-#509]*0.15199]
#100=[#105+[#106-#105]*0.56337]
X-5.68625 Y-3.30795 Z[#100+-0.04000]
#105=[#506+[#507-#506]*0.14420]
#106=[#509+[#510-#509]*0.14420]
#100=[#105+[#106-#105]*0.55304]
X-5.68995 Y-3.31035 Z[#100+-0.04000]
#105=[#506+[#507-#506]*0.13833]
#106=[#509+[#510-#509]*0.13833]
#100=[#105+[#106-#105]*0.54305]
X-5.69353 Y-3.31217 Z[#100+-0.04000]
#105=[#506+[#507-#506]*0.13327]
#106=[#509+[#510-#509]*0.13327]
#100=[#105+[#106-#105]*0.53153]
X-5.69766 Y-3.31373 Z[#100+-0.04000]
#105=[#506+[#507-#506]*0.12973]
#106=[#509+[#510-#509]*0.12973]
#100=[#105+[#106-#105]*0.51960]
X-5.70194 Y-3.31482 Z[#100+-0.04000]
#105=[#506+[#507-#506]*0.12777]
#106=[#509+[#510-#509]*0.12777]
#100=[#105+[#106-#105]*0.50739]
X-5.70631 Y-3.31543 Z[#100+-0.04000]
#105=[#506+[#507-#506]*0.12736]
#106=[#509+[#510-#509]*0.12736]
#100=[#105+[#106-#105]*0.49732]
X-5.70992 Y-3.31556 Z[#100+-0.04000]
#105=[#506+[#507-#506]*0.12789]
#106=[#509+[#510-#509]*0.12789]
#100=[#105+[#106-#105]*0.48837]
X-5.71313 Y-3.31539 Z[#100+-0.04000]
#105=[#506+[#507-#506]*0.12949]
#106=[#509+[#510-#509]*0.12949]
#100=[#105+[#106-#105]*0.47838]
X-5.71671 Y-3.31490 Z[#100+-0.04000]
#105=[#506+[#507-#506]*0.13215]
#106=[#509+[#510-#509]*0.13215]
#100=[#105+[#106-#105]*0.46857]
X-5.72023 Y-3.31408 Z[#100+-0.04000]
#105=[#506+[#507-#506]*0.13584]
#106=[#509+[#510-#509]*0.13584]
#100=[#105+[#106-#105]*0.45900]
X-5.72366 Y-3.31293 Z[#100+-0.04000]
#105=[#506+[#507-#506]*0.13996]
#106=[#509+[#510-#509]*0.13996]
#100=[#105+[#106-#105]*0.45077]
X-5.72661 Y-3.31166 Z[#100+-0.04000]
#105=[#506+[#507-#506]*0.14552]
#106=[#509+[#510-#509]*0.14552]
#100=[#105+[#106-#105]*0.44190]
X-5.72978 Y-3.30994 Z[#100+-0.04000]
#105=[#506+[#507-#506]*0.15182]
#106=[#509+[#510-#509]*0.15182]
#100=[#105+[#106-#105]*0.43370]
X-5.73272 Y-3.30800 Z[#100+-0.04000]
#105=[#506+[#507-#506]*0.13909]
#106=[#509+[#510-#509]*0.13909]
#100=[#105+[#106-#105]*0.41164]
X-5.74063 Y-3.31193 Z[#100+-0.04000]
#105=[#506+[#507-#506]*0.13379]
#106=[#509+[#510-#509]*0.13379]
#100=[#105+[#106-#105]*0.40006]
X-5.74478 Y-3.31357 Z[#100+-0.04000]
#105=[#506+[#507-#506]*0.12954]
#106=[#509+[#510-#509]*0.12954]
#100=[#105+[#106-#105]*0.38582]
X-5.74988 Y-3.31488 Z[#100+-0.04000]
#105=[#506+[#507-#506]*0.12752]
#106=[#509+[#510-#509]*0.12752]
#100=[#105+[#106-#105]*0.37122]
X-5.75511 Y-3.31551 Z[#100+-0.04000]
#105=[#506+[#507-#506]*0.12735]
#106=[#509+[#510-#509]*0.12735]
#100=[#105+[#106-#105]*0.03338]
X-5.87619 Y-3.31556 Z[#100+-0.04000]
#105=[#506+[#507-#506]*0.12768]
#106=[#509+[#510-#509]*0.12768]
#100=[#105+[#106-#105]*0.02547]
X-5.87903 Y-3.31546 Z[#100+-0.04000]
#105=[#506+[#507-#506]*0.12930]
#106=[#509+[#510-#509]*0.12930]
#100=[#105+[#106-#105]*0.01424]
X-5.88305 Y-3.31496 Z[#100+-0.04000]
#105=[#506+[#507-#506]*0.13189]
#106=[#509+[#510-#509]*0.13189]
#100=[#105+[#106-#105]*0.00430]
X-5.88661 Y-3.31415 Z[#100+-0.04000]
#105=[#503+[#504-#503]*0.13352]
#106=[#506+[#507-#506]*0.13352]
#100=[#105+[#106-#105]*1.00000]
X-5.88815 Y-3.31365 Z[#100+-0.04000]
#105=[#503+[#504-#503]*0.13554]
#106=[#506+[#507-#506]*0.13554]
#100=[#105+[#106-#105]*0.99462]
X-5.89008 Y-3.31303 Z[#100+-0.04000]
#105=[#503+[#504-#503]*0.14022]
#106=[#506+[#507-#506]*0.14022]
#100=[#105+[#106-#105]*0.98527]
X-5.89343 Y-3.31158 Z[#100+-0.04000]
#105=[#503+[#504-#503]*0.21964]
#106=[#506+[#507-#506]*0.21964]
#100=[#105+[#106-#105]*0.84840]
X-5.94249 Y-3.28704 Z[#100+-0.04000]
#105=[#503+[#504-#503]*0.22495]
#106=[#506+[#507-#506]*0.22495]
#100=[#105+[#106-#105]*0.84067]
X-5.94525 Y-3.28540 Z[#100+-0.04000]
#105=[#503+[#504-#503]*0.23018]
#106=[#506+[#507-#506]*0.23018]
#100=[#105+[#106-#105]*0.83425]
X-5.94756 Y-3.28378 Z[#100+-0.04000]
#105=[#503+[#504-#503]*0.23679]
#106=[#506+[#507-#506]*0.23679]
#100=[#105+[#106-#105]*0.82732]
X-5.95004 Y-3.28174 Z[#100+-0.04000]
#105=[#503+[#504-#503]*0.24404]
#106=[#506+[#507-#506]*0.24404]
#100=[#105+[#106-#105]*0.82087]
X-5.95235 Y-3.27950 Z[#100+-0.04000]
#105=[#503+[#504-#503]*0.25703]
#106=[#506+[#507-#506]*0.25703]
#100=[#105+[#106-#105]*0.81156]
X-5.95569 Y-3.27548 Z[#100+-0.04000]
#105=[#503+[#504-#503]*0.27135]
#106=[#506+[#507-#506]*0.27135]
#100=[#105+[#106-#105]*0.80381]
X-5.95847 Y-3.27106 Z[#100+-0.04000]
#105=[#503+[#504-#503]*0.43244]
#106=[#506+[#507-#506]*0.43244]
#100=[#105+[#106-#105]*0.73435]
X-5.98336 Y-3.22127 Z[#100+-0.04000]
#105=[#503+[#504-#503]*0.44586]
#106=[#506+[#507-#506]*0.44586]
#100=[#105+[#106-#105]*0.72978]
X-5.98500 Y-3.21712 Z[#100+-0.04000]
#105=[#503+[#504-#503]*0.45852]
#106=[#506+[#507-#506]*0.45852]
#100=[#105+[#106-#105]*0.72678]
X-5.98607 Y-3.21321 Z[#100+-0.04000]
#105=[#503+[#504-#503]*0.47146]
#106=[#506+[#507-#506]*0.47146]
#100=[#105+[#106-#105]*0.72492]
X-5.98674 Y-3.20921 Z[#100+-0.04000]
#105=[#503+[#504-#503]*0.48455]
#106=[#506+[#507-#506]*0.48455]
#100=[#105+[#106-#105]*0.72423]
X-5.98699 Y-3.20517 Z[#100+-0.04000]
#105=[#503+[#504-#503]*0.64257]
#106=[#506+[#507-#506]*0.64257]
#100=[#105+[#106-#105]*0.72424]
X-5.98698 Y-3.15633 Z[#100+-0.04000]
#105=[#503+[#504-#503]*0.65826]
#106=[#506+[#507-#506]*0.65826]
#100=[#105+[#106-#105]*0.72536]
X-5.98658 Y-3.15148 Z[#100+-0.04000]
#105=[#503+[#504-#503]*0.67240]
#106=[#506+[#507-#506]*0.67240]
#100=[#105+[#106-#105]*0.72784]
X-5.98569 Y-3.14711 Z[#100+-0.04000]
#105=[#503+[#504-#503]*0.68490]
#106=[#506+[#507-#506]*0.68490]
#100=[#105+[#106-#105]*0.73129]
X-5.98446 Y-3.14325 Z[#100+-0.04000]
#105=[#503+[#504-#503]*0.69692]
#106=[#506+[#507-#506]*0.69692]
#100=[#105+[#106-#105]*0.73582]
X-5.98283 Y-3.13953 Z[#100+-0.04000]
#105=[#503+[#504-#503]*0.85216]
#106=[#506+[#507-#506]*0.85216]
#100=[#105+[#106-#105]*0.80276]
X-5.95884 Y-3.09156 Z[#100+-0.04000]
#105=[#503+[#504-#503]*0.86232]
#106=[#506+[#507-#506]*0.86232]
#100=[#105+[#106-#105]*0.80778]
X-5.95704 Y-3.08842 Z[#100+-0.04000]
#105=[#503+[#504-#503]*0.87293]
#106=[#506+[#507-#506]*0.87293]
#100=[#105+[#106-#105]*0.81426]
X-5.95472 Y-3.08514 Z[#100+-0.04000]
#105=[#503+[#504-#503]*0.88272]
#106=[#506+[#507-#506]*0.88272]
#100=[#105+[#106-#105]*0.82165]
X-5.95207 Y-3.08211 Z[#100+-0.04000]
#105=[#503+[#504-#503]*0.89158]
#106=[#506+[#507-#506]*0.89158]
#100=[#105+[#106-#105]*0.82986]
X-5.94913 Y-3.07937 Z[#100+-0.04000]
#105=[#503+[#504-#503]*0.89943]
#106=[#506+[#507-#506]*0.89943]
#100=[#105+[#106-#105]*0.83881]
X-5.94592 Y-3.07695 Z[#100+-0.04000]
#105=[#503+[#504-#503]*0.90617]
#106=[#506+[#507-#506]*0.90617]
#100=[#105+[#106-#105]*0.84840]
X-5.94249 Y-3.07486 Z[#100+-0.04000]
#105=[#503+[#504-#503]*0.98616]
#106=[#506+[#507-#506]*0.98616]
#100=[#105+[#106-#105]*0.98629]
X-5.89307 Y-3.05014 Z[#100+-0.04000]
#105=[#503+[#504-#503]*0.99160]
#106=[#506+[#507-#506]*0.99160]
#100=[#105+[#106-#105]*0.99782]
X-5.88894 Y-3.04846 Z[#100+-0.04000]
#105=[#503+[#504-#503]*0.99229]
#106=[#506+[#507-#506]*0.99229]
#100=[#105+[#106-#105]*1.00000]
X-5.88815 Y-3.04825 Z[#100+-0.04000]
#105=[#506+[#507-#506]*0.99577]
#106=[#509+[#510-#509]*0.99577]
#100=[#105+[#106-#105]*0.01091]
X-5.88424 Y-3.04718 Z[#100+-0.04000]
#105=[#506+[#507-#506]*0.99764]
#106=[#509+[#510-#509]*0.99764]
#100=[#105+[#106-#105]*0.02096]
X-5.88064 Y-3.04660 Z[#100+-0.04000]
#105=[#506+[#507-#506]*0.99845]
#106=[#509+[#510-#509]*0.99845]
#100=[#105+[#106-#105]*0.03225]
X-5.87660 Y-3.04635 Z[#100+-0.04000]
#105=[#506+[#507-#506]*0.99846]
#106=[#509+[#510-#509]*0.99846]
#100=[#105+[#106-#105]*0.33963]
X-5.76644 Y-3.04634 Z[#100+-0.04000]
#100=[#507+[#510-#507]*0.34228]
X-5.76549 Y-3.04587 Z[#100+-0.04000]
#105=[#507+[#508-#507]*0.02684]
#106=[#510+[#511-#510]*0.02684]
#100=[#105+[#106-#105]*0.38858]
X-5.74889 Y-3.03757 Z[#100+-0.04000]
#105=[#507+[#508-#507]*0.07212]
#106=[#510+[#511-#510]*0.07212]
#100=[#105+[#106-#105]*0.38858]
X-5.74889 Y-3.02358 Z[#100+-0.04000]
#105=[#507+[#508-#507]*0.16133]
#106=[#510+[#511-#510]*0.16133]
#100=[#105+[#106-#105]*0.35012]
X-5.76268 Y-2.99601 Z[#100+-0.04000]
#105=[#507+[#508-#507]*0.20593]
#106=[#510+[#511-#510]*0.20593]
#100=[#105+[#106-#105]*0.27320]
X-5.79024 Y-2.98223 Z[#100+-0.04000]
#105=[#507+[#508-#507]*0.20593]
#106=[#510+[#511-#510]*0.20593]
#100=[#105+[#106-#105]*0.05932]
X-5.86690 Y-2.98223 Z[#100+-0.04000]
#105=[#504+[#505-#504]*0.17154]
#106=[#507+[#508-#507]*0.17154]
#100=[#105+[#106-#105]*1.00000]
X-5.88815 Y-2.99285 Z[#100+-0.04000]
#105=[#504+[#505-#504]*0.14176]
#106=[#507+[#508-#507]*0.14176]
#100=[#105+[#106-#105]*0.94864]
X-5.90656 Y-3.00206 Z[#100+-0.04000]
#105=[#504+[#505-#504]*0.13759]
#106=[#507+[#508-#507]*0.13759]
#100=[#105+[#106-#105]*0.94043]
X-5.90950 Y-3.00334 Z[#100+-0.04000]
#105=[#504+[#505-#504]*0.13421]
#106=[#507+[#508-#507]*0.13421]
#100=[#105+[#106-#105]*0.93195]
X-5.91254 Y-3.00439 Z[#100+-0.04000]
#105=[#504+[#505-#504]*0.13165]
#106=[#507+[#508-#507]*0.13165]
#100=[#105+[#106-#105]*0.92327]
X-5.91565 Y-3.00518 Z[#100+-0.04000]
#105=[#504+[#505-#504]*0.12991]
#106=[#507+[#508-#507]*0.12991]
#100=[#105+[#106-#105]*0.91443]
X-5.91882 Y-3.00572 Z[#100+-0.04000]
#105=[#504+[#505-#504]*0.12902]
#106=[#507+[#508-#507]*0.12902]
#100=[#105+[#106-#105]*0.90550]
X-5.92202 Y-3.00599 Z[#100+-0.04000]
#105=[#504+[#505-#504]*0.12897]
#106=[#507+[#508-#507]*0.12897]
#100=[#105+[#106-#105]*0.89654]
X-5.92523 Y-3.00601 Z[#100+-0.04000]
#105=[#504+[#505-#504]*0.12977]
#106=[#507+[#508-#507]*0.12977]
#100=[#105+[#106-#105]*0.88761]
X-5.92843 Y-3.00576 Z[#100+-0.04000]
#105=[#504+[#505-#504]*0.13141]
#106=[#507+[#508-#507]*0.13141]
#100=[#105+[#106-#105]*0.87876]
X-5.93161 Y-3.00526 Z[#100+-0.04000]
#105=[#504+[#505-#504]*0.13388]
#106=[#507+[#508-#507]*0.13388]
#100=[#105+[#106-#105]*0.87005]
X-5.93473 Y-3.00449 Z[#100+-0.04000]
#105=[#504+[#505-#504]*0.13717]
#106=[#507+[#508-#507]*0.13717]
#100=[#105+[#106-#105]*0.86155]
X-5.93777 Y-3.00348 Z[#100+-0.04000]
#105=[#504+[#505-#504]*0.14358]
#106=[#507+[#508-#507]*0.14358]
#100=[#105+[#106-#105]*0.84930]
X-5.94216 Y-3.00150 Z[#100+-0.04000]
#105=[#504+[#505-#504]*0.15093]
#106=[#507+[#508-#507]*0.15093]
#100=[#105+[#106-#105]*0.83874]
X-5.94595 Y-2.99922 Z[#100+-0.04000]
#105=[#504+[#505-#504]*0.15962]
#106=[#507+[#508-#507]*0.15962]
#100=[#105+[#106-#105]*0.82896]
X-5.94945 Y-2.99654 Z[#100+-0.04000]
#105=[#504+[#505-#504]*0.16951]
#106=[#507+[#508-#507]*0.16951]
#100=[#105+[#106-#105]*0.82007]
X-5.95264 Y-2.99348 Z[#100+-0.04000]
#105=[#504+[#505-#504]*0.18050]
#106=[#507+[#508-#507]*0.18050]
#100=[#105+[#106-#105]*0.81220]
X-5.95546 Y-2.99008 Z[#100+-0.04000]
#105=[#504+[#505-#504]*0.19245]
#106=[#507+[#508-#507]*0.19245]
#100=[#105+[#106-#105]*0.80544]
X-5.95788 Y-2.98639 Z[#100+-0.04000]
#105=[#504+[#505-#504]*0.20519]
#106=[#507+[#508-#507]*0.20519]
#100=[#105+[#106-#105]*0.79988]
X-5.95987 Y-2.98245 Z[#100+-0.04000]
#105=[#504+[#505-#504]*0.21858]
#106=[#507+[#508-#507]*0.21858]
#100=[#105+[#106-#105]*0.79558]
X-5.96141 Y-2.97832 Z[#100+-0.04000]
#105=[#504+[#505-#504]*0.23372]
#106=[#507+[#508-#507]*0.23372]
#100=[#105+[#106-#105]*0.79239]
X-5.96256 Y-2.97364 Z[#100+-0.04000]
#105=[#504+[#505-#504]*0.24790]
#106=[#507+[#508-#507]*0.24790]
#100=[#105+[#106-#105]*0.79090]
X-5.96309 Y-2.96926 Z[#100+-0.04000]
#105=[#504+[#505-#504]*0.26218]
#106=[#507+[#508-#507]*0.26218]
#100=[#105+[#106-#105]*0.79078]
X-5.96314 Y-2.96484 Z[#100+-0.04000]
#105=[#504+[#505-#504]*0.27639]
#106=[#507+[#508-#507]*0.27639]
#100=[#105+[#106-#105]*0.79203]
X-5.96268 Y-2.96045 Z[#100+-0.04000]
#105=[#504+[#505-#504]*0.29035]
#106=[#507+[#508-#507]*0.29035]
#100=[#105+[#106-#105]*0.79466]
X-5.96174 Y-2.95614 Z[#100+-0.04000]
#105=[#504+[#505-#504]*0.30388]
#106=[#507+[#508-#507]*0.30388]
#100=[#105+[#106-#105]*0.79861]
X-5.96033 Y-2.95195 Z[#100+-0.04000]
#105=[#504+[#505-#504]*0.31681]
#106=[#507+[#508-#507]*0.31681]
#100=[#105+[#106-#105]*0.80385]
X-5.95845 Y-2.94796 Z[#100+-0.04000]
#105=[#504+[#505-#504]*0.32898]
#106=[#507+[#508-#507]*0.32898]
#100=[#105+[#106-#105]*0.81030]
X-5.95614 Y-2.94420 Z[#100+-0.04000]
#105=[#504+[#505-#504]*0.34121]
#106=[#507+[#508-#507]*0.34121]
#100=[#105+[#106-#105]*0.81863]
X-5.95315 Y-2.94042 Z[#100+-0.04000]
#105=[#504+[#505-#504]*0.35216]
#106=[#507+[#508-#507]*0.35216]
#100=[#105+[#106-#105]*0.82819]
X-5.94973 Y-2.93703 Z[#100+-0.04000]
#105=[#504+[#505-#504]*0.36169]
#106=[#507+[#508-#507]*0.36169]
#100=[#105+[#106-#105]*0.83882]
X-5.94592 Y-2.93409 Z[#100+-0.04000]
#105=[#504+[#505-#504]*0.36904]
#106=[#507+[#508-#507]*0.36904]
#100=[#105+[#106-#105]*0.84939]
X-5.94213 Y-2.93182 Z[#100+-0.04000]
#105=[#504+[#505-#504]*0.45004]
#106=[#507+[#508-#507]*0.45004]
#100=[#105+[#106-#105]*0.98938]
X-5.89196 Y-2.90678 Z[#100+-0.04000]
#105=[#504+[#505-#504]*0.45426]
#106=[#507+[#508-#507]*0.45426]
#100=[#105+[#106-#105]*0.99889]
X-5.88855 Y-2.90548 Z[#100+-0.04000]
#105=[#504+[#505-#504]*0.45462]
#106=[#507+[#508-#507]*0.45462]
#100=[#105+[#106-#105]*1.00000]
X-5.88815 Y-2.90537 Z[#100+-0.04000]
#105=[#507+[#508-#507]*0.45745]
#106=[#510+[#511-#510]*0.45745]
#100=[#105+[#106-#105]*0.00870]
X-5.88504 Y-2.90449 Z[#100+-0.04000]
#105=[#507+[#508-#507]*0.45957]
#106=[#510+[#511-#510]*0.45957]
#100=[#105+[#106-#105]*0.01871]
X-5.88145 Y-2.90384 Z[#100+-0.04000]
#105=[#507+[#508-#507]*0.46060]
#106=[#510+[#511-#510]*0.46060]
#100=[#105+[#106-#105]*0.02886]
X-5.87781 Y-2.90352 Z[#100+-0.04000]
#105=[#507+[#508-#507]*0.46070]
#106=[#510+[#511-#510]*0.46070]
#100=[#105+[#106-#105]*0.30026]
X-5.78055 Y-2.90349 Z[#100+-0.04000]
#105=[#507+[#508-#507]*0.46003]
#106=[#510+[#511-#510]*0.46003]
#100=[#105+[#106-#105]*0.31043]
X-5.77690 Y-2.90369 Z[#100+-0.04000]
#105=[#507+[#508-#507]*0.45852]
#106=[#510+[#511-#510]*0.45852]
#100=[#105+[#106-#105]*0.31939]
X-5.77369 Y-2.90416 Z[#100+-0.04000]
#105=[#507+[#508-#507]*0.45467]
#106=[#510+[#511-#510]*0.45467]
#100=[#105+[#106-#105]*0.33255]
X-5.76898 Y-2.90535 Z[#100+-0.04000]
#105=[#507+[#508-#507]*0.44841]
#106=[#510+[#511-#510]*0.44841]
#100=[#105+[#106-#105]*0.34622]
X-5.76407 Y-2.90729 Z[#100+-0.04000]
#105=[#507+[#508-#507]*0.36963]
#106=[#510+[#511-#510]*0.36963]
#100=[#105+[#106-#105]*0.48213]
X-5.71537 Y-2.93163 Z[#100+-0.04000]
#105=[#507+[#508-#507]*0.36094]
#106=[#510+[#511-#510]*0.36094]
#100=[#105+[#106-#105]*0.49463]
X-5.71089 Y-2.93432 Z[#100+-0.04000]
#105=[#507+[#508-#507]*0.35127]
#106=[#510+[#511-#510]*0.35127]
#100=[#105+[#106-#105]*0.50520]
X-5.70710 Y-2.93731 Z[#100+-0.04000]
#105=[#507+[#508-#507]*0.34018]
#106=[#510+[#511-#510]*0.34018]
#100=[#105+[#106-#105]*0.51466]
X-5.70371 Y-2.94074 Z[#100+-0.04000]
#105=[#507+[#508-#507]*0.32783]
#106=[#510+[#511-#510]*0.32783]
#100=[#105+[#106-#105]*0.52289]
X-5.70076 Y-2.94455 Z[#100+-0.04000]
#105=[#507+[#508-#507]*0.31556]
#106=[#510+[#511-#510]*0.31556]
#100=[#105+[#106-#105]*0.52923]
X-5.69849 Y-2.94834 Z[#100+-0.04000]
#105=[#507+[#508-#507]*0.15443]
#106=[#510+[#511-#510]*0.15443]
#100=[#105+[#106-#105]*0.59864]
X-5.67361 Y-2.99814 Z[#100+-0.04000]
#105=[#507+[#508-#507]*0.14468]
#106=[#510+[#511-#510]*0.14468]
#100=[#105+[#106-#105]*0.60201]
X-5.67241 Y-3.00115 Z[#100+-0.04000]
#105=[#507+[#508-#507]*0.13465]
#106=[#510+[#511-#510]*0.13465]
#100=[#105+[#106-#105]*0.60467]
X-5.67145 Y-3.00426 Z[#100+-0.04000]
#105=[#507+[#508-#507]*0.12439]
#106=[#510+[#511-#510]*0.12439]
#100=[#105+[#106-#105]*0.60661]
X-5.67075 Y-3.00742 Z[#100+-0.04000]
#105=[#507+[#508-#507]*0.11399]
#106=[#510+[#511-#510]*0.11399]
#100=[#105+[#106-#105]*0.60782]
X-5.67032 Y-3.01064 Z[#100+-0.04000]
#105=[#507+[#508-#507]*0.10219]
#106=[#510+[#511-#510]*0.10219]
#100=[#105+[#106-#105]*0.60830]
X-5.67015 Y-3.01429 Z[#100+-0.04000]
G04 P0 ( dwell for no time -- G64 should not smooth over this point )
G00 Z0.08000 ( retract )

G00 X-5.74889 Y-3.22805 ( rapid move to begin. )
G01 F180.00000
( Mill infeed pass 1/1 )
#105=[#506+[#507-#506]*0.41051]
#106=[#509+[#510-#509]*0.41051]
#100=[#105+[#106-#105]*0.38858]
G01 Z[-0.04000+#100]
G04 P0 ( dwell for no time -- G64 should not smooth over this point )
G01 F360.00000
#105=[#506+[#507-#506]*0.74651]
#106=[#509+[#510-#509]*0.74651]
#100=[#105+[#106-#105]*0.38858]
X-5.74889 Y-3.12421 Z[#100+-0.04000]
#105=[#506+[#507-#506]*0.74450]
#106=[#509+[#510-#509]*0.74450]
#100=[#105+[#106-#105]*0.37799]
X-5.75269 Y-3.12483 Z[#100+-0.04000]
#105=[#506+[#507-#506]*0.74369]
#106=[#509+[#510-#509]*0.74369]
#100=[#105+[#106-#105]*0.36670]
X-5.75674 Y-3.12508 Z[#100+-0.04000]
#105=[#506+[#507-#506]*0.74368]
#106=[#509+[#510-#509]*0.74368]
#100=[#105+[#106-#105]*0.05932]
X-5.86690 Y-3.12508 Z[#100+-0.04000]
#105=[#503+[#504-#503]*0.70929]
#106=[#506+[#507-#506]*0.70929]
#100=[#105+[#106-#105]*1.00000]
X-5.88815 Y-3.13571 Z[#100+-0.04000]
#105=[#503+[#504-#503]*0.69908]
#106=[#506+[#507-#506]*0.69908]
#100=[#105+[#106-#105]*0.98239]
X-5.89446 Y-3.13887 Z[#100+-0.04000]
#105=[#503+[#504-#503]*0.60987]
#106=[#506+[#507-#506]*0.60987]
#100=[#105+[#106-#105]*0.94393]
X-5.90825 Y-3.16644 Z[#100+-0.04000]
#105=[#503+[#504-#503]*0.51594]
#106=[#506+[#507-#506]*0.51594]
#100=[#105+[#106-#105]*0.94393]
X-5.90825 Y-3.19547 Z[#100+-0.04000]
#105=[#503+[#504-#503]*0.42673]
#106=[#506+[#507-#506]*0.42673]
#100=[#105+[#106-#105]*0.98239]
X-5.89446 Y-3.22303 Z[#100+-0.04000]
#105=[#503+[#504-#503]*0.41653]
#106=[#506+[#507-#506]*0.41653]
#100=[#105+[#106-#105]*1.00000]
X-5.88815 Y-3.22619 Z[#100+-0.04000]
#105=[#506+[#507-#506]*0.38213]
#106=[#509+[#510-#509]*0.38213]
#100=[#105+[#106-#105]*0.05932]
X-5.86690 Y-3.23682 Z[#100+-0.04000]
#105=[#506+[#507-#506]*0.38213]
#106=[#509+[#510-#509]*0.38213]
#100=[#105+[#106-#105]*0.33963]
X-5.76644 Y-3.23682 Z[#100+-0.04000]
#105=[#506+[#507-#506]*0.41051]
#106=[#509+[#510-#509]*0.41051]
#100=[#105+[#106-#105]*0.38858]
X-5.74889 Y-3.22805 Z[#100+-0.04000]
G04 P0 ( dwell for no time -- G64 should not smooth over this point )
G00 Z0.08000 ( retract )

G00 X-6.09872 Y-3.18095 ( rapid move to begin. )
G01 F180.00000
( Mill infeed pass 1/1 )
#105=[#503+[#504-#503]*0.56290]
#106=[#506+[#507-#506]*0.56290]
#100=[#105+[#106-#105]*0.41244]
G01 Z[-0.04000+#100]
G04 P0 ( dwell for no time -- G64 should not smooth over this point )
G01 F360.00000
#105=[#503+[#504-#503]*0.79666]
#106=[#506+[#507-#506]*0.79666]
#100=[#105+[#106-#105]*0.41242]
X-6.09873 Y-3.10871 Z[#100+-0.04000]
#105=[#503+[#504-#503]*0.80713]
#106=[#506+[#507-#506]*0.80713]
#100=[#105+[#106-#105]*0.41186]
X-6.09893 Y-3.10547 Z[#100+-0.04000]
#105=[#503+[#504-#503]*0.81623]
#106=[#506+[#507-#506]*0.81623]
#100=[#105+[#106-#105]*0.41076]
X-6.09933 Y-3.10266 Z[#100+-0.04000]
#105=[#503+[#504-#503]*0.82648]
#106=[#506+[#507-#506]*0.82648]
#100=[#105+[#106-#105]*0.40882]
X-6.10002 Y-3.09949 Z[#100+-0.04000]
#105=[#503+[#504-#503]*0.83528]
#106=[#506+[#507-#506]*0.83528]
#100=[#105+[#106-#105]*0.40652]
X-6.10084 Y-3.09678 Z[#100+-0.04000]
#105=[#503+[#504-#503]*0.84982]
#106=[#506+[#507-#506]*0.84982]
#100=[#105+[#106-#105]*0.40134]
X-6.10270 Y-3.09228 Z[#100+-0.04000]
#100=[#504+[#507-#504]*0.33660]
X-6.12590 Y-3.04587 Z[#100+-0.04000]
#105=[#504+[#505-#504]*0.00508]
#106=[#507+[#508-#507]*0.00508]
#100=[#105+[#106-#105]*0.33441]
X-6.12669 Y-3.04430 Z[#100+-0.04000]
#105=[#504+[#505-#504]*0.01406]
#106=[#507+[#508-#507]*0.01406]
#100=[#105+[#106-#105]*0.33014]
X-6.12822 Y-3.04152 Z[#100+-0.04000]
#105=[#504+[#505-#504]*0.02156]
#106=[#507+[#508-#507]*0.02156]
#100=[#105+[#106-#105]*0.32591]
X-6.12974 Y-3.03921 Z[#100+-0.04000]
#105=[#504+[#505-#504]*0.02968]
#106=[#507+[#508-#507]*0.02968]
#100=[#105+[#106-#105]*0.32053]
X-6.13166 Y-3.03669 Z[#100+-0.04000]
#105=[#504+[#505-#504]*0.03729]
#106=[#507+[#508-#507]*0.03729]
#100=[#105+[#106-#105]*0.31460]
X-6.13379 Y-3.03435 Z[#100+-0.04000]
#105=[#504+[#505-#504]*0.11707]
#106=[#507+[#508-#507]*0.11707]
#100=[#105+[#106-#105]*0.24577]
X-6.15846 Y-3.00969 Z[#100+-0.04000]
#105=[#504+[#505-#504]*0.12803]
#106=[#507+[#508-#507]*0.12803]
#100=[#105+[#106-#105]*0.23451]
X-6.16249 Y-3.00630 Z[#100+-0.04000]
#105=[#504+[#505-#504]*0.13703]
#106=[#507+[#508-#507]*0.13703]
#100=[#105+[#106-#105]*0.22224]
X-6.16689 Y-3.00352 Z[#100+-0.04000]
#105=[#504+[#505-#504]*0.17179]
#106=[#507+[#508-#507]*0.17179]
#100=[#105+[#106-#105]*0.25194]
X-6.15625 Y-2.99277 Z[#100+-0.04000]
#105=[#504+[#505-#504]*0.18179]
#106=[#507+[#508-#507]*0.18179]
#100=[#105+[#106-#105]*0.25883]
X-6.15378 Y-2.98969 Z[#100+-0.04000]
#105=[#504+[#505-#504]*0.19254]
#106=[#507+[#508-#507]*0.19254]
#100=[#105+[#106-#105]*0.26483]
X-6.15163 Y-2.98636 Z[#100+-0.04000]
#105=[#504+[#505-#504]*0.35457]
#106=[#507+[#508-#507]*0.35457]
#100=[#105+[#106-#105]*0.33491]
X-6.12651 Y-2.93629 Z[#100+-0.04000]
#105=[#504+[#505-#504]*0.36418]
#106=[#507+[#508-#507]*0.36418]
#100=[#105+[#106-#105]*0.33853]
X-6.12521 Y-2.93332 Z[#100+-0.04000]
#105=[#504+[#505-#504]*0.37412]
#106=[#507+[#508-#507]*0.37412]
#100=[#105+[#106-#105]*0.34147]
X-6.12416 Y-2.93025 Z[#100+-0.04000]
#105=[#504+[#505-#504]*0.39075]
#106=[#507+[#508-#507]*0.39075]
#100=[#105+[#106-#105]*0.34470]
X-6.12300 Y-2.92511 Z[#100+-0.04000]
#105=[#504+[#505-#504]*0.40642]
#106=[#507+[#508-#507]*0.40642]
#100=[#105+[#106-#105]*0.34595]
X-6.12255 Y-2.92026 Z[#100+-0.04000]
#105=[#504+[#505-#504]*0.56444]
#106=[#507+[#508-#507]*0.56444]
#100=[#105+[#106-#105]*0.34601]
X-6.12253 Y-2.87143 Z[#100+-0.04000]
#105=[#504+[#505-#504]*0.57362]
#106=[#507+[#508-#507]*0.57362]
#100=[#105+[#106-#105]*0.34572]
X-6.12264 Y-2.86859 Z[#100+-0.04000]
#105=[#504+[#505-#504]*0.58276]
#106=[#507+[#508-#507]*0.58276]
#100=[#105+[#106-#105]*0.34487]
X-6.12294 Y-2.86577 Z[#100+-0.04000]
#105=[#504+[#505-#504]*0.59179]
#106=[#507+[#508-#507]*0.59179]
#100=[#105+[#106-#105]*0.34345]
X-6.12345 Y-2.86298 Z[#100+-0.04000]
#105=[#504+[#505-#504]*0.60194]
#106=[#507+[#508-#507]*0.60194]
#100=[#105+[#106-#105]*0.34114]
X-6.12428 Y-2.85984 Z[#100+-0.04000]
#105=[#504+[#505-#504]*0.61184]
#106=[#507+[#508-#507]*0.61184]
#100=[#105+[#106-#105]*0.33812]
X-6.12536 Y-2.85678 Z[#100+-0.04000]
#105=[#504+[#505-#504]*0.62024]
#106=[#507+[#508-#507]*0.62024]
#100=[#105+[#106-#105]*0.33491]
X-6.12651 Y-2.85418 Z[#100+-0.04000]
#105=[#504+[#505-#504]*0.77778]
#106=[#507+[#508-#507]*0.77778]
#100=[#105+[#106-#105]*0.26696]
X-6.15086 Y-2.80550 Z[#100+-0.04000]
#105=[#504+[#505-#504]*0.78665]
#106=[#507+[#508-#507]*0.78665]
#100=[#105+[#106-#105]*0.26254]
X-6.15245 Y-2.80276 Z[#100+-0.04000]
#105=[#504+[#505-#504]*0.79405]
#106=[#507+[#508-#507]*0.79405]
#100=[#105+[#106-#105]*0.25818]
X-6.15401 Y-2.80047 Z[#100+-0.04000]
#105=[#504+[#505-#504]*0.80769]
#106=[#507+[#508-#507]*0.80769]
#100=[#105+[#106-#105]*0.24817]
X-6.15760 Y-2.79625 Z[#100+-0.04000]
#105=[#504+[#505-#504]*0.88744]
#106=[#507+[#508-#507]*0.88744]
#100=[#105+[#106-#105]*0.17938]
X-6.18225 Y-2.77161 Z[#100+-0.04000]
#105=[#504+[#505-#504]*0.89504]
#106=[#507+[#508-#507]*0.89504]
#100=[#105+[#106-#105]*0.17191]
X-6.18493 Y-2.76926 Z[#100+-0.04000]
#105=[#504+[#505-#504]*0.90182]
#106=[#507+[#508-#507]*0.90182]
#100=[#105+[#106-#105]*0.16388]
X-6.18780 Y-2.76716 Z[#100+-0.04000]
#105=[#504+[#505-#504]*0.90951]
#106=[#507+[#508-#507]*0.90951]
#100=[#105+[#106-#105]*0.15241]
X-6.19191 Y-2.76479 Z[#100+-0.04000]
#105=[#504+[#505-#504]*0.98655]
#106=[#507+[#508-#507]*0.98655]
#100=[#105+[#106-#105]*0.01954]
X-6.23953 Y-2.74098 Z[#100+-0.04000]
#105=[#504+[#505-#504]*0.99226]
#106=[#507+[#508-#507]*0.99226]
#100=[#105+[#106-#105]*0.00811]
X-6.24363 Y-2.73921 Z[#100+-0.04000]
#105=[#504+[#505-#504]*0.99526]
#106=[#507+[#508-#507]*0.99526]
#100=[#105+[#106-#105]*0.00000]
X-6.24654 Y-2.73828 Z[#100+-0.04000]
#105=[#501+[#502-#501]*0.99545]
#106=[#504+[#505-#504]*0.99545]
#100=[#105+[#106-#105]*0.99948]
X-6.24672 Y-2.73822 Z[#100+-0.04000]
#105=[#501+[#502-#501]*0.99781]
#106=[#504+[#505-#504]*0.99781]
#100=[#105+[#106-#105]*0.99066]
X-6.24988 Y-2.73750 Z[#100+-0.04000]
#105=[#501+[#502-#501]*0.99932]
#106=[#504+[#505-#504]*0.99932]
#100=[#105+[#106-#105]*0.98170]
X-6.25309 Y-2.73703 Z[#100+-0.04000]
#105=[#501+[#502-#501]*0.99999]
#106=[#504+[#505-#504]*0.99999]
#100=[#105+[#106-#105]*0.97154]
X-6.25674 Y-2.73682 Z[#100+-0.04000]
#100=[#502+[#505-#502]*0.50535]
X-6.42381 Y-2.73682 Z[#100+-0.04000]
#105=[#501+[#502-#501]*0.99920]
#106=[#504+[#505-#504]*0.99920]
#100=[#105+[#106-#105]*0.49305]
X-6.42822 Y-2.73707 Z[#100+-0.04000]
#105=[#501+[#502-#501]*0.99786]
#106=[#504+[#505-#504]*0.99786]
#100=[#105+[#106-#105]*0.48530]
X-6.43100 Y-2.73748 Z[#100+-0.04000]
#105=[#501+[#502-#501]*0.99327]
#106=[#504+[#505-#504]*0.99327]
#100=[#105+[#106-#105]*0.47013]
X-6.43643 Y-2.73890 Z[#100+-0.04000]
#105=[#501+[#502-#501]*0.98623]
#106=[#504+[#505-#504]*0.98623]
#100=[#105+[#106-#105]*0.45568]
X-6.44161 Y-2.74107 Z[#100+-0.04000]
#105=[#501+[#502-#501]*0.98183]
#106=[#504+[#505-#504]*0.98183]
#100=[#105+[#106-#105]*0.44881]
X-6.44407 Y-2.74243 Z[#100+-0.04000]
#105=[#501+[#502-#501]*0.97221]
#106=[#504+[#505-#504]*0.97221]
#100=[#105+[#106-#105]*0.43686]
X-6.44836 Y-2.74541 Z[#100+-0.04000]
#105=[#501+[#502-#501]*0.96083]
#106=[#504+[#505-#504]*0.96083]
#100=[#105+[#106-#105]*0.42610]
X-6.45221 Y-2.74892 Z[#100+-0.04000]
#105=[#501+[#502-#501]*0.95405]
#106=[#504+[#505-#504]*0.95405]
#100=[#105+[#106-#105]*0.42088]
X-6.45408 Y-2.75102 Z[#100+-0.04000]
#105=[#501+[#502-#501]*0.94685]
#106=[#504+[#505-#504]*0.94685]
#100=[#105+[#106-#105]*0.41608]
X-6.45580 Y-2.75324 Z[#100+-0.04000]
#105=[#501+[#502-#501]*0.93252]
#106=[#504+[#505-#504]*0.93252]
#100=[#105+[#106-#105]*0.40840]
X-6.45855 Y-2.75767 Z[#100+-0.04000]
#105=[#501+[#502-#501]*0.92434]
#106=[#504+[#505-#504]*0.92434]
#100=[#105+[#106-#105]*0.40496]
X-6.45979 Y-2.76020 Z[#100+-0.04000]
#105=[#501+[#502-#501]*0.91591]
#106=[#504+[#505-#504]*0.91591]
#100=[#105+[#106-#105]*0.40204]
X-6.46084 Y-2.76281 Z[#100+-0.04000]
#105=[#501+[#502-#501]*0.90474]
#106=[#504+[#505-#504]*0.90474]
#100=[#105+[#106-#105]*0.39905]
X-6.46190 Y-2.76626 Z[#100+-0.04000]
#105=[#501+[#502-#501]*0.89459]
#106=[#504+[#505-#504]*0.89459]
#100=[#105+[#106-#105]*0.39714]
X-6.46259 Y-2.76940 Z[#100+-0.04000]
#105=[#501+[#502-#501]*0.88299]
#106=[#504+[#505-#504]*0.88299]
#100=[#105+[#106-#105]*0.39586]
X-6.46305 Y-2.77298 Z[#100+-0.04000]
#105=[#501+[#502-#501]*0.87261]
#106=[#504+[#505-#504]*0.87261]
#100=[#105+[#106-#105]*0.39549]
X-6.46318 Y-2.77619 Z[#100+-0.04000]
#100=[#501+[#504-#501]*0.39551]
X-6.46317 Y-3.04587 Z[#100+-0.04000]
#105=[#500+[#501-#500]*0.25214]
#106=[#503+[#504-#503]*0.25214]
#100=[#105+[#106-#105]*0.39552]
X-6.46317 Y-3.27699 Z[#100+-0.04000]
#105=[#500+[#501-#500]*0.23919]
#106=[#503+[#504-#503]*0.23919]
#100=[#105+[#106-#105]*0.39632]
X-6.46288 Y-3.28100 Z[#100+-0.04000]
#105=[#500+[#501-#500]*0.22766]
#106=[#503+[#504-#503]*0.22766]
#100=[#105+[#106-#105]*0.39801]
X-6.46228 Y-3.28456 Z[#100+-0.04000]
#105=[#500+[#501-#500]*0.21513]
#106=[#503+[#504-#503]*0.21513]
#100=[#105+[#106-#105]*0.40094]
X-6.46123 Y-3.28843 Z[#100+-0.04000]
#105=[#500+[#501-#500]*0.20301]
#106=[#503+[#504-#503]*0.20301]
#100=[#105+[#106-#105]*0.40496]
X-6.45979 Y-3.29218 Z[#100+-0.04000]
#105=[#500+[#501-#500]*0.19255]
#106=[#503+[#504-#503]*0.19255]
#100=[#105+[#106-#105]*0.40947]
X-6.45817 Y-3.29541 Z[#100+-0.04000]
#105=[#500+[#501-#500]*0.18155]
#106=[#503+[#504-#503]*0.18155]
#100=[#105+[#106-#105]*0.41543]
X-6.45603 Y-3.29881 Z[#100+-0.04000]
#105=[#500+[#501-#500]*0.17132]
#106=[#503+[#504-#503]*0.17132]
#100=[#105+[#106-#105]*0.42233]
X-6.45356 Y-3.30197 Z[#100+-0.04000]
#105=[#500+[#501-#500]*0.16195]
#106=[#503+[#504-#503]*0.16195]
#100=[#105+[#106-#105]*0.43008]
X-6.45078 Y-3.30487 Z[#100+-0.04000]
#105=[#500+[#501-#500]*0.15514]
#106=[#503+[#504-#503]*0.15514]
#100=[#105+[#106-#105]*0.43686]
X-6.44836 Y-3.30697 Z[#100+-0.04000]
#105=[#500+[#501-#500]*0.14828]
#106=[#503+[#504-#503]*0.14828]
#100=[#105+[#106-#105]*0.44502]
X-6.44543 Y-3.30909 Z[#100+-0.04000]
#105=[#500+[#501-#500]*0.14232]
#106=[#503+[#504-#503]*0.14232]
#100=[#105+[#106-#105]*0.45369]
X-6.44232 Y-3.31093 Z[#100+-0.04000]
#105=[#500+[#501-#500]*0.13730]
#106=[#503+[#504-#503]*0.13730]
#100=[#105+[#106-#105]*0.46279]
X-6.43906 Y-3.31249 Z[#100+-0.04000]
#105=[#500+[#501-#500]*0.13327]
#106=[#503+[#504-#503]*0.13327]
#100=[#105+[#106-#105]*0.47226]
X-6.43567 Y-3.31373 Z[#100+-0.04000]
#105=[#500+[#501-#500]*0.13026]
#106=[#503+[#504-#503]*0.13026]
#100=[#105+[#106-#105]*0.48200]
X-6.43218 Y-3.31466 Z[#100+-0.04000]
#105=[#500+[#501-#500]*0.12847]
#106=[#503+[#504-#503]*0.12847]
#100=[#105+[#106-#105]*0.49083]
X-6.42901 Y-3.31521 Z[#100+-0.04000]
#105=[#500+[#501-#500]*0.12746]
#106=[#503+[#504-#503]*0.12746]
#100=[#105+[#106-#105]*0.50087]
X-6.42541 Y-3.31553 Z[#100+-0.04000]
#105=[#503+[#504-#503]*0.12737]
#106=[#506+[#507-#506]*0.12737]
#100=[#105+[#106-#105]*0.00000]
X-6.24654 Y-3.31555 Z[#100+-0.04000]
#105=[#503+[#504-#503]*0.12736]
#106=[#506+[#507-#506]*0.12736]
#100=[#105+[#106-#105]*0.03797]
X-6.23293 Y-3.31556 Z[#100+-0.04000]
#105=[#503+[#504-#503]*0.12778]
#106=[#506+[#507-#506]*0.12778]
#100=[#105+[#106-#105]*0.04589]
X-6.23009 Y-3.31543 Z[#100+-0.04000]
#105=[#503+[#504-#503]*0.12887]
#106=[#506+[#507-#506]*0.12887]
#100=[#105+[#106-#105]*0.05375]
X-6.22727 Y-3.31509 Z[#100+-0.04000]
#105=[#503+[#504-#503]*0.13061]
#106=[#506+[#507-#506]*0.13061]
#100=[#105+[#106-#105]*0.06153]
X-6.22448 Y-3.31455 Z[#100+-0.04000]
#105=[#503+[#504-#503]*0.13339]
#106=[#506+[#507-#506]*0.13339]
#100=[#105+[#106-#105]*0.07026]
X-6.22136 Y-3.31369 Z[#100+-0.04000]
#105=[#503+[#504-#503]*0.13650]
#106=[#506+[#507-#506]*0.13650]
#100=[#105+[#106-#105]*0.07771]
X-6.21868 Y-3.31273 Z[#100+-0.04000]
#105=[#503+[#504-#503]*0.14022]
#106=[#506+[#507-#506]*0.14022]
#100=[#105+[#106-#105]*0.08496]
X-6.21609 Y-3.31158 Z[#100+-0.04000]
#105=[#503+[#504-#503]*0.21901]
#106=[#506+[#507-#506]*0.21901]
#100=[#105+[#106-#105]*0.22081]
X-6.16740 Y-3.28723 Z[#100+-0.04000]
#105=[#503+[#504-#503]*0.22414]
#106=[#506+[#507-#506]*0.22414]
#100=[#105+[#106-#105]*0.22846]
X-6.16466 Y-3.28565 Z[#100+-0.04000]
#105=[#503+[#504-#503]*0.22919]
#106=[#506+[#507-#506]*0.22919]
#100=[#105+[#106-#105]*0.23484]
X-6.16237 Y-3.28409 Z[#100+-0.04000]
#105=[#503+[#504-#503]*0.23559]
#106=[#506+[#507-#506]*0.23559]
#100=[#105+[#106-#105]*0.24174]
X-6.15990 Y-3.28211 Z[#100+-0.04000]
#105=[#503+[#504-#503]*0.24170]
#106=[#506+[#507-#506]*0.24170]
#100=[#105+[#106-#105]*0.24739]
X-6.15787 Y-3.28022 Z[#100+-0.04000]
#105=[#503+[#504-#503]*0.32057]
#106=[#506+[#507-#506]*0.32057]
#100=[#105+[#106-#105]*0.31537]
X-6.13351 Y-3.25584 Z[#100+-0.04000]
#105=[#503+[#504-#503]*0.32924]
#106=[#506+[#507-#506]*0.32924]
#100=[#105+[#106-#105]*0.32193]
X-6.13116 Y-3.25317 Z[#100+-0.04000]
#105=[#503+[#504-#503]*0.33855]
#106=[#506+[#507-#506]*0.33855]
#100=[#105+[#106-#105]*0.32778]
X-6.12906 Y-3.25029 Z[#100+-0.04000]
#105=[#503+[#504-#503]*0.35185]
#106=[#506+[#507-#506]*0.35185]
#100=[#105+[#106-#105]*0.33441]
X-6.12669 Y-3.24618 Z[#100+-0.04000]
#105=[#503+[#504-#503]*0.50594]
#106=[#506+[#507-#506]*0.50594]
#100=[#105+[#106-#105]*0.40084]
X-6.10288 Y-3.19856 Z[#100+-0.04000]
#105=[#503+[#504-#503]*0.51919]
#106=[#506+[#507-#506]*0.51919]
#100=[#105+[#106-#105]*0.40577]
X-6.10112 Y-3.19446 Z[#100+-0.04000]
#105=[#503+[#504-#503]*0.53045]
#106=[#506+[#507-#506]*0.53045]
#100=[#105+[#106-#105]*0.40882]
X-6.10002 Y-3.19098 Z[#100+-0.04000]
#105=[#503+[#504-#503]*0.54071]
#106=[#506+[#507-#506]*0.54071]
#100=[#105+[#106-#105]*0.41076]
X-6.09933 Y-3.18781 Z[#100+-0.04000]
#105=[#503+[#504-#503]*0.55111]
#106=[#506+[#507-#506]*0.55111]
#100=[#105+[#106-#105]*0.41197]
X-6.09889 Y-3.18460 Z[#100+-0.04000]
#105=[#503+[#504-#503]*0.56290]
#106=[#506+[#507-#506]*0.56290]
#100=[#105+[#106-#105]*0.41244]
X-6.09872 Y-3.18095 Z[#100+-0.04000]
G04 P0 ( dwell for no time -- G64 should not smooth over this point )
G00 Z0.08000 ( retract )

G00 X-6.17746 Y-3.17166 ( rapid move to begin. )
G01 F180.00000
( Mill infeed pass 1/1 )
#105=[#503+[#504-#503]*0.59298]
#106=[#506+[#507-#506]*0.59298]
#100=[#105+[#106-#105]*0.19273]
G01 Z[-0.04000+#100]
G04 P0 ( dwell for no time -- G64 should not smooth over this point )
G01 F360.00000
#105=[#503+[#504-#503]*0.76396]
#106=[#506+[#507-#506]*0.76396]
#100=[#105+[#106-#105]*0.19273]
X-6.17746 Y-3.11882 Z[#100+-0.04000]
#105=[#503+[#504-#503]*0.87265]
#106=[#506+[#507-#506]*0.87265]
#100=[#105+[#106-#105]*0.14587]
X-6.19426 Y-3.08522 Z[#100+-0.04000]
#105=[#503+[#504-#503]*0.91381]
#106=[#506+[#507-#506]*0.91381]
#100=[#105+[#106-#105]*0.11037]
X-6.20698 Y-3.07251 Z[#100+-0.04000]
#105=[#503+[#504-#503]*0.95647]
#106=[#506+[#507-#506]*0.95647]
#100=[#105+[#106-#105]*0.00000]
X-6.24654 Y-3.05932 Z[#100+-0.04000]
#105=[#500+[#501-#500]*0.97480]
#106=[#503+[#504-#503]*0.97480]
#100=[#105+[#106-#105]*0.95258]
X-6.26353 Y-3.05366 Z[#100+-0.04000]
#105=[#500+[#501-#500]*0.97480]
#106=[#503+[#504-#503]*0.97480]
#100=[#105+[#106-#105]*0.61521]
X-6.38444 Y-3.05366 Z[#100+-0.04000]
#105=[#500+[#501-#500]*0.38213]
#106=[#503+[#504-#503]*0.38213]
#100=[#105+[#106-#105]*0.61521]
X-6.38444 Y-3.23682 Z[#100+-0.04000]
#105=[#503+[#504-#503]*0.38213]
#106=[#506+[#507-#506]*0.38213]
#100=[#105+[#106-#105]*0.00000]
X-6.24654 Y-3.23682 Z[#100+-0.04000]
#105=[#503+[#504-#503]*0.38213]
#106=[#506+[#507-#506]*0.38213]
#100=[#105+[#106-#105]*0.01091]
X-6.24263 Y-3.23682 Z[#100+-0.04000]
#105=[#503+[#504-#503]*0.43648]
#106=[#506+[#507-#506]*0.43648]
#100=[#105+[#106-#105]*0.10464]
X-6.20903 Y-3.22002 Z[#100+-0.04000]
#105=[#503+[#504-#503]*0.48429]
#106=[#506+[#507-#506]*0.48429]
#100=[#105+[#106-#105]*0.14587]
X-6.19426 Y-3.20525 Z[#100+-0.04000]
#105=[#503+[#504-#503]*0.59298]
#106=[#506+[#507-#506]*0.59298]
#100=[#105+[#106-#105]*0.19273]
X-6.17746 Y-3.17166 Z[#100+-0.04000]
G04 P0 ( dwell for no time -- G64 should not smooth over this point )
G00 Z0.08000 ( retract )

G00 X-6.20127 Y-2.90975 ( rapid move to begin. )
G01 F180.00000
( Mill infeed pass 1/1 )
#105=[#504+[#505-#504]*0.44044]
#106=[#507+[#508-#507]*0.44044]
#100=[#105+[#106-#105]*0.12629]
G01 Z[-0.04000+#100]
G04 P0 ( dwell for no time -- G64 should not smooth over this point )
G01 F360.00000
#105=[#504+[#505-#504]*0.53437]
#106=[#507+[#508-#507]*0.53437]
#100=[#105+[#106-#105]*0.12629]
X-6.20127 Y-2.88072 Z[#100+-0.04000]
#105=[#504+[#505-#504]*0.64306]
#106=[#507+[#508-#507]*0.64306]
#100=[#105+[#106-#105]*0.07943]
X-6.21807 Y-2.84713 Z[#100+-0.04000]
#105=[#504+[#505-#504]*0.69087]
#106=[#507+[#508-#507]*0.69087]
#100=[#105+[#106-#105]*0.03820]
X-6.23284 Y-2.83236 Z[#100+-0.04000]
#105=[#504+[#505-#504]*0.71302]
#106=[#507+[#508-#507]*0.71302]
#100=[#105+[#106-#105]*0.00000]
X-6.24654 Y-2.82551 Z[#100+-0.04000]
#105=[#501+[#502-#501]*0.74522]
#106=[#504+[#505-#504]*0.74522]
#100=[#105+[#106-#105]*0.94447]
X-6.26644 Y-2.81556 Z[#100+-0.04000]
#105=[#501+[#502-#501]*0.74522]
#106=[#504+[#505-#504]*0.74522]
#100=[#105+[#106-#105]*0.61521]
X-6.38444 Y-2.81556 Z[#100+-0.04000]
#105=[#501+[#502-#501]*0.22959]
#106=[#504+[#505-#504]*0.22959]
#100=[#105+[#106-#105]*0.61521]
X-6.38444 Y-2.97491 Z[#100+-0.04000]
#105=[#501+[#502-#501]*0.22959]
#106=[#504+[#505-#504]*0.22959]
#100=[#105+[#106-#105]*0.94447]
X-6.26644 Y-2.97491 Z[#100+-0.04000]
#105=[#504+[#505-#504]*0.26178]
#106=[#507+[#508-#507]*0.26178]
#100=[#105+[#106-#105]*0.00000]
X-6.24654 Y-2.96496 Z[#100+-0.04000]
#105=[#504+[#505-#504]*0.28393]
#106=[#507+[#508-#507]*0.28393]
#100=[#105+[#106-#105]*0.03820]
X-6.23284 Y-2.95812 Z[#100+-0.04000]
#105=[#504+[#505-#504]*0.33174]
#106=[#507+[#508-#507]*0.33174]
#100=[#105+[#106-#105]*0.07943]
X-6.21807 Y-2.94334 Z[#100+-0.04000]
#105=[#504+[#505-#504]*0.44044]
#106=[#507+[#508-#507]*0.44044]
#100=[#105+[#106-#105]*0.12629]
X-6.20127 Y-2.90975 Z[#100+-0.04000]
G04 P0 ( dwell for no time -- G64 should not smooth over this point )
G00 Z0.08000 ( retract )

G00 X-6.49508 Y-3.35020 ( rapid move to begin. )
G01 F180.00000
( Mill infeed pass 1/1 )
#105=[#500+[#501-#500]*0.01525]
#106=[#503+[#504-#503]*0.01525]
#100=[#105+[#106-#105]*0.30647]
G01 Z[-0.04000+#100]
G04 P0 ( dwell for no time -- G64 should not smooth over this point )
G01 F360.00000
#105=[#500+[#501-#500]*0.01137]
#106=[#503+[#504-#503]*0.01137]
#100=[#105+[#106-#105]*0.30591]
X-6.49528 Y-3.35140 Z[#100+-0.04000]
#105=[#500+[#501-#500]*0.00892]
#106=[#503+[#504-#503]*0.00892]
#100=[#105+[#106-#105]*0.30509]
X-6.49558 Y-3.35216 Z[#100+-0.04000]
#105=[#500+[#501-#500]*0.00465]
#106=[#503+[#504-#503]*0.00465]
#100=[#105+[#106-#105]*0.30246]
X-6.49652 Y-3.35348 Z[#100+-0.04000]
#105=[#500+[#501-#500]*0.00160]
#106=[#503+[#504-#503]*0.00160]
#100=[#105+[#106-#105]*0.29878]
X-6.49784 Y-3.35442 Z[#100+-0.04000]
#105=[#500+[#501-#500]*0.00065]
#106=[#503+[#504-#503]*0.00065]
#100=[#105+[#106-#105]*0.29667]
X-6.49859 Y-3.35472 Z[#100+-0.04000]
#100=[#500+[#503-#500]*0.29332]
X-6.49980 Y-3.35492 Z[#100+-0.04000]
#105=[#500+[#501-#500]*0.00065]
#106=[#503+[#504-#503]*0.00065]
#100=[#105+[#106-#105]*0.28883]
X-6.50140 Y-3.35472 Z[#100+-0.04000]
#105=[#500+[#501-#500]*0.00160]
#106=[#503+[#504-#503]*0.00160]
#100=[#105+[#106-#105]*0.28672]
X-6.50216 Y-3.35442 Z[#100+-0.04000]
#105=[#500+[#501-#500]*0.00376]
#106=[#503+[#504-#503]*0.00376]
#100=[#105+[#106-#105]*0.28388]
X-6.50318 Y-3.35376 Z[#100+-0.04000]
#105=[#500+[#501-#500]*0.15518]
#106=[#503+[#504-#503]*0.15518]
#100=[#105+[#106-#105]*0.15324]
X-6.55000 Y-3.30696 Z[#100+-0.04000]
#105=[#500+[#501-#500]*0.00376]
#106=[#503+[#504-#503]*0.00376]
#100=[#105+[#106-#105]*0.02260]
X-6.59682 Y-3.35376 Z[#100+-0.04000]
#105=[#500+[#501-#500]*0.00160]
#106=[#503+[#504-#503]*0.00160]
#100=[#105+[#106-#105]*0.01975]
X-6.59784 Y-3.35442 Z[#100+-0.04000]
#105=[#500+[#501-#500]*0.00065]
#106=[#503+[#504-#503]*0.00065]
#100=[#105+[#106-#105]*0.01764]
X-6.59860 Y-3.35472 Z[#100+-0.04000]
#100=[#500+[#503-#500]*0.01315]
X-6.60020 Y-3.35492 Z[#100+-0.04000]
#105=[#500+[#501-#500]*0.00065]
#106=[#503+[#504-#503]*0.00065]
#100=[#105+[#106-#105]*0.00980]
X-6.60140 Y-3.35472 Z[#100+-0.04000]
#105=[#500+[#501-#500]*0.00160]
#106=[#503+[#504-#503]*0.00160]
#100=[#105+[#106-#105]*0.00769]
X-6.60216 Y-3.35442 Z[#100+-0.04000]
#105=[#500+[#501-#500]*0.00465]
#106=[#503+[#504-#503]*0.00465]
#100=[#105+[#106-#105]*0.00401]
X-6.60348 Y-3.35348 Z[#100+-0.04000]
#105=[#500+[#501-#500]*0.00892]
#106=[#503+[#504-#503]*0.00892]
#100=[#105+[#106-#105]*0.00138]
X-6.60442 Y-3.35216 Z[#100+-0.04000]
#105=[#500+[#501-#500]*0.01137]
#106=[#503+[#504-#503]*0.01137]
#100=[#105+[#106-#105]*0.00056]
X-6.60472 Y-3.35140 Z[#100+-0.04000]
#100=[#500+[#501-#500]*0.01525]
X-6.60492 Y-3.35020 Z[#100+-0.04000]
#105=[#500+[#501-#500]*0.02046]
#106=[#503+[#504-#503]*0.02046]
#100=[#105+[#106-#105]*0.00056]
X-6.60472 Y-3.34859 Z[#100+-0.04000]
#105=[#500+[#501-#500]*0.02291]
#106=[#503+[#504-#503]*0.02291]
#100=[#105+[#106-#105]*0.00138]
X-6.60442 Y-3.34784 Z[#100+-0.04000]
#105=[#500+[#501-#500]*0.02620]
#106=[#503+[#504-#503]*0.02620]
#100=[#105+[#106-#105]*0.00324]
X-6.60375 Y-3.34682 Z[#100+-0.04000]
#105=[#500+[#501-#500]*0.17770]
#106=[#503+[#504-#503]*0.17770]
#100=[#105+[#106-#105]*0.13382]
X-6.55696 Y-3.30000 Z[#100+-0.04000]
#105=[#500+[#501-#500]*0.32919]
#106=[#503+[#504-#503]*0.32919]
#100=[#105+[#106-#105]*0.00324]
X-6.60375 Y-3.25318 Z[#100+-0.04000]
#105=[#500+[#501-#500]*0.33249]
#106=[#503+[#504-#503]*0.33249]
#100=[#105+[#106-#105]*0.00138]
X-6.60442 Y-3.25216 Z[#100+-0.04000]
#105=[#500+[#501-#500]*0.33494]
#106=[#503+[#504-#503]*0.33494]
#100=[#105+[#106-#105]*0.00056]
X-6.60472 Y-3.25140 Z[#100+-0.04000]
#100=[#500+[#501-#500]*0.34014]
X-6.60492 Y-3.24980 Z[#100+-0.04000]
#105=[#500+[#501-#500]*0.34403]
#106=[#503+[#504-#503]*0.34403]
#100=[#105+[#106-#105]*0.00056]
X-6.60472 Y-3.24859 Z[#100+-0.04000]
#105=[#500+[#501-#500]*0.34648]
#106=[#503+[#504-#503]*0.34648]
#100=[#105+[#106-#105]*0.00138]
X-6.60442 Y-3.24784 Z[#100+-0.04000]
#105=[#500+[#501-#500]*0.35074]
#106=[#503+[#504-#503]*0.35074]
#100=[#105+[#106-#105]*0.00401]
X-6.60348 Y-3.24652 Z[#100+-0.04000]
#105=[#500+[#501-#500]*0.35379]
#106=[#503+[#504-#503]*0.35379]
#100=[#105+[#106-#105]*0.00769]
X-6.60216 Y-3.24558 Z[#100+-0.04000]
#105=[#500+[#501-#500]*0.35475]
#106=[#503+[#504-#503]*0.35475]
#100=[#105+[#106-#105]*0.00980]
X-6.60140 Y-3.24528 Z[#100+-0.04000]
#105=[#500+[#501-#500]*0.35540]
#106=[#503+[#504-#503]*0.35540]
#100=[#105+[#106-#105]*0.01315]
X-6.60020 Y-3.24508 Z[#100+-0.04000]
#105=[#500+[#501-#500]*0.35475]
#106=[#503+[#504-#503]*0.35475]
#100=[#105+[#106-#105]*0.01764]
X-6.59860 Y-3.24528 Z[#100+-0.04000]
#105=[#500+[#501-#500]*0.35379]
#106=[#503+[#504-#503]*0.35379]
#100=[#105+[#106-#105]*0.01975]
X-6.59784 Y-3.24558 Z[#100+-0.04000]
#105=[#500+[#501-#500]*0.35164]
#106=[#503+[#504-#503]*0.35164]
#100=[#105+[#106-#105]*0.02260]
X-6.59682 Y-3.24624 Z[#100+-0.04000]
#105=[#500+[#501-#500]*0.20022]
#106=[#503+[#504-#503]*0.20022]
#100=[#105+[#106-#105]*0.15324]
X-6.55000 Y-3.29304 Z[#100+-0.04000]
#105=[#500+[#501-#500]*0.35164]
#106=[#503+[#504-#503]*0.35164]
#100=[#105+[#106-#105]*0.28388]
X-6.50318 Y-3.24624 Z[#100+-0.04000]
#105=[#500+[#501-#500]*0.35379]
#106=[#503+[#504-#503]*0.35379]
#100=[#105+[#106-#105]*0.28672]
X-6.50216 Y-3.24558 Z[#100+-0.04000]
#105=[#500+[#501-#500]*0.35475]
#106=[#503+[#504-#503]*0.35475]
#100=[#105+[#106-#105]*0.28883]
X-6.50140 Y-3.24528 Z[#100+-0.04000]
#105=[#500+[#501-#500]*0.35540]
#106=[#503+[#504-#503]*0.35540]
#100=[#105+[#106-#105]*0.29332]
X-6.49980 Y-3.24508 Z[#100+-0.04000]
#105=[#500+[#501-#500]*0.35475]
#106=[#503+[#504-#503]*0.35475]
#100=[#105+[#106-#105]*0.29667]
X-6.49859 Y-3.24528 Z[#100+-0.04000]
#105=[#500+[#501-#500]*0.35379]
#106=[#503+[#504-#503]*0.35379]
#100=[#105+[#106-#105]*0.29878]
X-6.49784 Y-3.24558 Z[#100+-0.04000]
#105=[#500+[#501-#500]*0.35074]
#106=[#503+[#504-#503]*0.35074]
#100=[#105+[#106-#105]*0.30246]
X-6.49652 Y-3.24652 Z[#100+-0.04000]
#105=[#500+[#501-#500]*0.34648]
#106=[#503+[#504-#503]*0.34648]
#100=[#105+[#106-#105]*0.30509]
X-6.49558 Y-3.24784 Z[#100+-0.04000]
#105=[#500+[#501-#500]*0.34403]
#106=[#503+[#504-#503]*0.34403]
#100=[#105+[#106-#105]*0.30591]
X-6.49528 Y-3.24859 Z[#100+-0.04000]
#105=[#500+[#501-#500]*0.34014]
#106=[#503+[#504-#503]*0.34014]
#100=[#105+[#106-#105]*0.30647]
X-6.49508 Y-3.24980 Z[#100+-0.04000]
#105=[#500+[#501-#500]*0.33494]
#106=[#503+[#504-#503]*0.33494]
#100=[#105+[#106-#105]*0.30591]
X-6.49528 Y-3.25140 Z[#100+-0.04000]
#105=[#500+[#501-#500]*0.33249]
#106=[#503+[#504-#503]*0.33249]
#100=[#105+[#106-#105]*0.30509]
X-6.49558 Y-3.25216 Z[#100+-0.04000]
#105=[#500+[#501-#500]*0.32919]
#106=[#503+[#504-#503]*0.32919]
#100=[#105+[#106-#105]*0.30323]
X-6.49624 Y-3.25318 Z[#100+-0.04000]
#105=[#500+[#501-#500]*0.17770]
#106=[#503+[#504-#503]*0.17770]
#100=[#105+[#106-#105]*0.17266]
X-6.54304 Y-3.30000 Z[#100+-0.04000]
#105=[#500+[#501-#500]*0.02620]
#106=[#503+[#504-#503]*0.02620]
#100=[#105+[#106-#105]*0.30323]
X-6.49624 Y-3.34682 Z[#100+-0.04000]
#105=[#500+[#501-#500]*0.02291]
#106=[#503+[#504-#503]*0.02291]
#100=[#105+[#106-#105]*0.30509]
X-6.49558 Y-3.34784 Z[#100+-0.04000]
#105=[#500+[#501-#500]*0.02046]
#106=[#503+[#504-#503]*0.02046]
#100=[#105+[#106-#105]*0.30591]
X-6.49528 Y-3.34859 Z[#100+-0.04000]
#105=[#500+[#501-#500]*0.01525]
#106=[#503+[#504-#503]*0.01525]
#100=[#105+[#106-#105]*0.30647]
X-6.49508 Y-3.35020 Z[#100+-0.04000]

G04 P0 ( dwell for no time -- G64 should not smooth over this point )
G00 Z1.000000 ( retract )

M5 ( Spindle off. )
G04 P1.000000
M9 ( Coolant off. )
M2 ( Program end. )

