( pcb2gcode 3.0.3 )
( Software-independent Gcode )

G94 ( Inches per minute feed rate. )
G20 ( Units == INCHES. )

G90 ( Absolute coordinates. )
G00 S12000 ( RPM spindle speed. )
G64 P0.00040 ( set maximum deviation from commanded toolpath )
G01 F360.00000 ( Feedrate. )


G00 Z1.00000 (Retract to tool change height)
T1
M5      (Spindle stop.)
G04 P1.00000 (Wait for spindle to stop)
(MSG, Change tool bit to mill diameter 0.00000in)
M6      (Tool change.)
M0      (Temporary machine stop.)
M3 ( Spindle on clockwise. )
G04 P1.00000 (Wait for spindle to get up to speed)
G04 P0 ( dwell for no time -- G64 should not smooth over this point )
G00 Z0.08000 ( retract )

G00 X3.23536 Y-3.22893 ( rapid move to begin. )
G01 F180.00000
( Mill infeed pass 1/1 )
G01 Z-0.04000
G04 P0 ( dwell for no time -- G64 should not smooth over this point )
G01 F360.00000
G01 X3.23536 Y-3.22893
G01 X3.23544 Y-3.23017
G01 X3.23577 Y-3.23094
G01 X3.23631 Y-3.23158
G01 X3.24202 Y-3.23542
G01 X3.24523 Y-3.23862
G01 X3.24737 Y-3.24264
G01 X3.24802 Y-3.24316
G01 X3.24921 Y-3.24356
G01 X3.25046 Y-3.24343
G01 X3.25154 Y-3.24279
G01 X3.25207 Y-3.24213
G01 X3.25239 Y-3.24136
G01 X3.25244 Y-3.24010
G01 X3.25217 Y-3.23930
G01 X3.25005 Y-3.23515
G01 X3.24729 Y-3.23233
G01 X3.27470 Y-3.23233
G01 X3.27470 Y-3.24063
G01 X3.27482 Y-3.24146
G01 X3.27517 Y-3.24222
G01 X3.27605 Y-3.24311
G01 X3.27723 Y-3.24355
G01 X3.27848 Y-3.24346
G01 X3.27925 Y-3.24311
G01 X3.28014 Y-3.24222
G01 X3.28049 Y-3.24146
G01 X3.28060 Y-3.24063
G01 X3.28060 Y-3.21813
G01 X3.28049 Y-3.21730
G01 X3.27988 Y-3.21619
G01 X3.27925 Y-3.21564
G01 X3.27848 Y-3.21529
G01 X3.27723 Y-3.21521
G01 X3.27643 Y-3.21544
G01 X3.27572 Y-3.21590
G01 X3.27497 Y-3.21690
G01 X3.27470 Y-3.21813
G01 X3.27470 Y-3.22642
G01 X3.23786 Y-3.22645
G01 X3.23669 Y-3.22689
G01 X3.23581 Y-3.22776
G01 X3.23536 Y-3.22893
G04 P0 ( dwell for no time -- G64 should not smooth over this point )
G00 Z0.08000 ( retract )

G00 X3.26795 Y-3.26496 ( rapid move to begin. )
G01 F180.00000
( Mill infeed pass 1/1 )
G01 Z-0.04000
G04 P0 ( dwell for no time -- G64 should not smooth over this point )
G01 F360.00000
G01 X3.26795 Y-3.26496
G01 X3.26878 Y-3.26679
G01 X3.26977 Y-3.26802
G01 X3.26977 Y-3.27064
G01 X3.26932 Y-3.27155
G01 X3.26800 Y-3.27285
G01 X3.26540 Y-3.27352
G01 X3.26532 Y-3.27062
G01 X3.26546 Y-3.26972
G01 X3.26770 Y-3.26525
G01 X3.26803 Y-3.26528
G01 X3.26770 Y-3.26525
G01 X3.26776 Y-3.26514
G01 X3.27160 Y-3.26125
G01 X3.27052 Y-3.26017
G01 X3.26417 Y-3.25858
G01 X3.25177 Y-3.25858
G01 X3.24542 Y-3.26017
G01 X3.24258 Y-3.26300
G01 X3.24123 Y-3.26570
G01 X3.24123 Y-3.27180
G01 X3.24258 Y-3.27450
G01 X3.24542 Y-3.27733
G01 X3.25177 Y-3.27892
G01 X3.26417 Y-3.27892
G01 X3.27052 Y-3.27733
G01 X3.27335 Y-3.27450
G01 X3.27470 Y-3.27180
G01 X3.27470 Y-3.26650
G01 X3.27258 Y-3.26862
G01 X3.27123 Y-3.27132
G01 X3.27120 Y-3.27479
G01 X3.27076 Y-3.27597
G01 X3.26987 Y-3.27685
G01 X3.26911 Y-3.27720
G01 X3.26828 Y-3.27732
G01 X3.26745 Y-3.27720
G01 X3.26634 Y-3.27660
G01 X3.26579 Y-3.27597
G01 X3.26544 Y-3.27520
G01 X3.26540 Y-3.27352
G01 X3.28267 Y-3.25779
G01 X3.28215 Y-3.25675
G01 X3.28229 Y-3.25665
G01 X3.28215 Y-3.25675
G01 X3.28109 Y-3.25543
G01 X3.27855 Y-3.25290
G01 X3.27710 Y-3.25575
G01 X3.27578 Y-3.25707
G01 X3.27381 Y-3.25515
G01 X3.27312 Y-3.25476
G01 X3.26489 Y-3.25269
G01 X3.25069 Y-3.25276
G01 X3.24319 Y-3.25463
G01 X3.24212 Y-3.25515
G01 X3.23776 Y-3.25952
G01 X3.23564 Y-3.26368
G01 X3.23536 Y-3.26454
G01 X3.23533 Y-3.27250
G01 X3.23547 Y-3.27339
G01 X3.23776 Y-3.27797
G01 X3.24212 Y-3.28235
G01 X3.24319 Y-3.28286
G01 X3.25104 Y-3.28480
G01 X3.26524 Y-3.28473
G01 X3.27348 Y-3.28256
G01 X3.27786 Y-3.27833
G01 X3.27842 Y-3.27757
G01 X3.28029 Y-3.27382
G01 X3.28060 Y-3.27250
G01 X3.28057 Y-3.26454
G01 X3.27937 Y-3.26183
G01 X3.28161 Y-3.25959
G01 X3.28217 Y-3.25882
G01 X3.28420 Y-3.25468
G01 X3.28435 Y-3.25385
G01 X3.28426 Y-3.25302
G01 X3.28370 Y-3.25190
G01 X3.28272 Y-3.25111
G01 X3.28151 Y-3.25080
G01 X3.28027 Y-3.25102
G01 X3.27955 Y-3.25145
G01 X3.27897 Y-3.25207
G01 X3.27855 Y-3.25290
G04 P0 ( dwell for no time -- G64 should not smooth over this point )
G00 Z0.08000 ( retract )

G00 X3.29528 Y-3.25019 ( rapid move to begin. )
G01 F180.00000
( Mill infeed pass 1/1 )
G01 Z-0.04000
G04 P0 ( dwell for no time -- G64 should not smooth over this point )
G01 F360.00000
G01 X3.29528 Y-3.25019
G01 X3.29669 Y-3.26708
G01 X3.30080 Y-3.28353
G01 X3.30733 Y-3.29876
G01 X3.31641 Y-3.31307
G01 X3.32768 Y-3.32574
G01 X3.34085 Y-3.33641
G01 X3.35557 Y-3.34482
G01 X3.35675 Y-3.34513
G01 X3.35793 Y-3.34481
G01 X3.35856 Y-3.34428
G01 X3.35907 Y-3.34317
G01 X3.35895 Y-3.34195
G01 X3.35825 Y-3.34095
G01 X3.34367 Y-3.33262
G01 X3.33108 Y-3.32245
G01 X3.32029 Y-3.31038
G01 X3.31160 Y-3.29672
G01 X3.30521 Y-3.28185
G01 X3.30132 Y-3.26613
G01 X3.30001 Y-3.25000
G01 X3.30132 Y-3.23387
G01 X3.30521 Y-3.21815
G01 X3.31160 Y-3.20328
G01 X3.32029 Y-3.18962
G01 X3.33108 Y-3.17755
G01 X3.34367 Y-3.16738
G01 X3.35791 Y-3.15928
G01 X3.35854 Y-3.15876
G01 X3.35906 Y-3.15765
G01 X3.35896 Y-3.15643
G01 X3.35827 Y-3.15543
G01 X3.35756 Y-3.15501
G01 X3.35675 Y-3.15487
G01 X3.35557 Y-3.15517
G01 X3.34085 Y-3.16359
G01 X3.32768 Y-3.17426
G01 X3.31641 Y-3.18692
G01 X3.30733 Y-3.20124
G01 X3.30068 Y-3.21683
G01 X3.29662 Y-3.23329
G01 X3.29528 Y-3.25019
G04 P0 ( dwell for no time -- G64 should not smooth over this point )
G00 Z0.08000 ( retract )

G00 X3.09705 Y-3.50000 ( rapid move to begin. )
G01 F180.00000
( Mill infeed pass 1/1 )
G01 Z-0.04000
G04 P0 ( dwell for no time -- G64 should not smooth over this point )
G01 F360.00000
G01 X3.09705 Y-3.50000
G01 X3.09717 Y-3.50083
G01 X3.09752 Y-3.50160
G01 X3.09840 Y-3.50248
G01 X3.09917 Y-3.50283
G01 X3.10000 Y-3.50295
G01 X4.70000 Y-3.50295
G01 X4.70083 Y-3.50283
G01 X4.70160 Y-3.50248
G01 X4.70248 Y-3.50160
G01 X4.70283 Y-3.50083
G01 X4.70295 Y-3.50000
G01 X4.70295 Y-2.50000
G01 X4.70285 Y-2.49924
G01 X4.70256 Y-2.49852
G01 X4.65209 Y-2.44791
G01 X4.65113 Y-2.44727
G01 X4.65000 Y-2.44705
G01 X3.10000 Y-2.44705
G01 X3.09917 Y-2.44717
G01 X3.09840 Y-2.44752
G01 X3.09752 Y-2.44840
G01 X3.09717 Y-2.44917
G01 X3.09705 Y-2.45000
G01 X3.09705 Y-3.50000
G01 X3.10295 Y-3.49705
G01 X3.10295 Y-2.45295
G01 X4.64878 Y-2.45295
G01 X4.69705 Y-2.50122
G01 X4.69705 Y-3.49705
G01 X3.10295 Y-3.49705
G04 P0 ( dwell for no time -- G64 should not smooth over this point )
G00 Z0.08000 ( retract )

G00 X3.44184 Y-3.34153 ( rapid move to begin. )
G01 F180.00000
( Mill infeed pass 1/1 )
G01 Z-0.04000
G04 P0 ( dwell for no time -- G64 should not smooth over this point )
G01 F360.00000
G01 X3.44184 Y-3.34153
G01 X3.44199 Y-3.34234
G01 X3.44271 Y-3.34333
G01 X3.44343 Y-3.34373
G01 X3.44424 Y-3.34386
G01 X3.44541 Y-3.34353
G01 X3.46096 Y-3.33422
G01 X3.47438 Y-3.32265
G01 X3.47489 Y-3.32203
G01 X3.47516 Y-3.32127
G01 X3.47520 Y-3.17913
G01 X3.47506 Y-3.17834
G01 X3.47438 Y-3.17734
G01 X3.46096 Y-3.16577
G01 X3.44541 Y-3.15647
G01 X3.44424 Y-3.15613
G01 X3.44343 Y-3.15626
G01 X3.44271 Y-3.15666
G01 X3.44199 Y-3.15766
G01 X3.44184 Y-3.15846
G01 X3.44197 Y-3.15927
G01 X3.44266 Y-3.16028
G01 X3.45804 Y-3.16948
G01 X3.47047 Y-3.18021
G01 X3.47047 Y-3.31978
G01 X3.45804 Y-3.33051
G01 X3.44266 Y-3.33971
G01 X3.44197 Y-3.34072
G01 X3.44184 Y-3.34153
G04 P0 ( dwell for no time -- G64 should not smooth over this point )
G00 Z0.08000 ( retract )

G00 X3.63228 Y-3.30083 ( rapid move to begin. )
G01 F180.00000
( Mill infeed pass 1/1 )
G01 Z-0.04000
G04 P0 ( dwell for no time -- G64 should not smooth over this point )
G01 F360.00000
G01 X3.63228 Y-3.30083
G01 X3.63388 Y-3.31936
G01 X3.63853 Y-3.33787
G01 X3.64634 Y-3.35580
G01 X3.65671 Y-3.37181
G01 X3.66919 Y-3.38561
G01 X3.68408 Y-3.39754
G01 X3.70071 Y-3.40691
G01 X3.71863 Y-3.41347
G01 X3.73785 Y-3.41710
G01 X3.75692 Y-3.41752
G01 X3.77582 Y-3.41486
G01 X3.79359 Y-3.40936
G01 X3.81068 Y-3.40088
G01 X3.82618 Y-3.38975
G01 X3.83968 Y-3.37626
G01 X3.85082 Y-3.36077
G01 X3.85124 Y-3.35996
G01 X3.85138 Y-3.35906
G01 X3.85138 Y-3.30798
G01 X3.85207 Y-3.29974
G01 X3.85138 Y-3.29202
G01 X3.85138 Y-3.24094
G01 X3.85126 Y-3.24011
G01 X3.85091 Y-3.23935
G01 X3.83923 Y-3.22320
G01 X3.82565 Y-3.20980
G01 X3.81008 Y-3.19876
G01 X3.79249 Y-3.19021
G01 X3.77420 Y-3.18479
G01 X3.75575 Y-3.18241
G01 X3.73668 Y-3.18303
G01 X3.71795 Y-3.18672
G01 X3.69964 Y-3.19359
G01 X3.68311 Y-3.20312
G01 X3.66869 Y-3.21487
G01 X3.65600 Y-3.22912
G01 X3.64556 Y-3.24566
G01 X3.63816 Y-3.26325
G01 X3.63369 Y-3.28180
G01 X3.63228 Y-3.30083
G01 X3.63818 Y-3.30056
G01 X3.63974 Y-3.31861
G01 X3.64419 Y-3.33618
G01 X3.65143 Y-3.35280
G01 X3.66126 Y-3.36803
G01 X3.67341 Y-3.38147
G01 X3.68758 Y-3.39278
G01 X3.70339 Y-3.40164
G01 X3.72042 Y-3.40784
G01 X3.73823 Y-3.41120
G01 X3.75635 Y-3.41164
G01 X3.77430 Y-3.40915
G01 X3.79161 Y-3.40379
G01 X3.80783 Y-3.39570
G01 X3.82253 Y-3.38510
G01 X3.83533 Y-3.37226
G01 X3.84547 Y-3.35811
G01 X3.84547 Y-3.33611
G01 X3.83749 Y-3.35258
G01 X3.82669 Y-3.36736
G01 X3.81343 Y-3.37997
G01 X3.79813 Y-3.39001
G01 X3.78129 Y-3.39716
G01 X3.76344 Y-3.40118
G01 X3.74516 Y-3.40196
G01 X3.72703 Y-3.39945
G01 X3.71013 Y-3.39396
G01 X3.69355 Y-3.38504
G01 X3.67927 Y-3.37359
G01 X3.66727 Y-3.35978
G01 X3.65815 Y-3.34452
G01 X3.65168 Y-3.32741
G01 X3.64831 Y-3.30889
G01 X3.64831 Y-3.29111
G01 X3.65153 Y-3.27310
G01 X3.65815 Y-3.25547
G01 X3.66758 Y-3.23979
G01 X3.67927 Y-3.22641
G01 X3.69399 Y-3.21467
G01 X3.71013 Y-3.20604
G01 X3.72703 Y-3.20054
G01 X3.74516 Y-3.19804
G01 X3.76396 Y-3.19889
G01 X3.78179 Y-3.20300
G01 X3.79860 Y-3.21024
G01 X3.81385 Y-3.22036
G01 X3.82704 Y-3.23304
G01 X3.83749 Y-3.24742
G01 X3.84547 Y-3.26389
G01 X3.84547 Y-3.24174
G01 X3.83460 Y-3.22688
G01 X3.82168 Y-3.21418
G01 X3.80687 Y-3.20372
G01 X3.79058 Y-3.19580
G01 X3.77321 Y-3.19061
G01 X3.75523 Y-3.18830
G01 X3.73712 Y-3.18892
G01 X3.71934 Y-3.19246
G01 X3.70237 Y-3.19883
G01 X3.68666 Y-3.20785
G01 X3.67260 Y-3.21929
G01 X3.66058 Y-3.23286
G01 X3.65091 Y-3.24818
G01 X3.64384 Y-3.26487
G01 X3.63956 Y-3.28249
G01 X3.63818 Y-3.30056
G04 P0 ( dwell for no time -- G64 should not smooth over this point )
G00 Z0.08000 ( retract )

G00 X3.65422 Y-3.30862 ( rapid move to begin. )
G01 F180.00000
( Mill infeed pass 1/1 )
G01 Z-0.04000
G04 P0 ( dwell for no time -- G64 should not smooth over this point )
G01 F360.00000
G01 X3.65422 Y-3.30862
G01 X3.65730 Y-3.32558
G01 X3.66336 Y-3.34172
G01 X3.67220 Y-3.35652
G01 X3.68354 Y-3.36951
G01 X3.69702 Y-3.38026
G01 X3.71220 Y-3.38843
G01 X3.72860 Y-3.39375
G01 X3.74568 Y-3.39607
G01 X3.76291 Y-3.39530
G01 X3.77972 Y-3.39146
G01 X3.79557 Y-3.38468
G01 X3.80996 Y-3.37519
G01 X3.82242 Y-3.36327
G01 X3.83255 Y-3.34932
G01 X3.84003 Y-3.33379
G01 X3.84462 Y-3.31717
G01 X3.84547 Y-3.30771
G01 X3.84547 Y-3.29229
G01 X3.84462 Y-3.28283
G01 X3.84003 Y-3.26621
G01 X3.83255 Y-3.25068
G01 X3.82242 Y-3.23673
G01 X3.80996 Y-3.22481
G01 X3.79557 Y-3.21531
G01 X3.77972 Y-3.20854
G01 X3.76291 Y-3.20470
G01 X3.74568 Y-3.20393
G01 X3.72860 Y-3.20624
G01 X3.71220 Y-3.21157
G01 X3.69702 Y-3.21974
G01 X3.68354 Y-3.23049
G01 X3.67220 Y-3.24347
G01 X3.66336 Y-3.25827
G01 X3.65730 Y-3.27441
G01 X3.65422 Y-3.29138
G01 X3.65422 Y-3.30862
G04 P0 ( dwell for no time -- G64 should not smooth over this point )
G00 Z0.08000 ( retract )

G00 X3.71799 Y-3.46781 ( rapid move to begin. )
G01 F180.00000
( Mill infeed pass 1/1 )
G01 Z-0.04000
G04 P0 ( dwell for no time -- G64 should not smooth over this point )
G01 F360.00000
G01 X3.71799 Y-3.46781
G01 X3.71811 Y-3.46864
G01 X3.71846 Y-3.46941
G01 X3.71901 Y-3.47004
G01 X3.71971 Y-3.47050
G01 X3.72094 Y-3.47076
G01 X3.73079 Y-3.47072
G01 X3.73729 Y-3.46856
G01 X3.73803 Y-3.46802
G01 X3.74208 Y-3.46391
G01 X3.74433 Y-3.45946
G01 X3.74637 Y-3.45130
G01 X3.74630 Y-3.44460
G01 X3.74433 Y-3.43679
G01 X3.74233 Y-3.43274
G01 X3.74178 Y-3.43198
G01 X3.73803 Y-3.42823
G01 X3.73729 Y-3.42769
G01 X3.73125 Y-3.42564
G01 X3.73031 Y-3.42549
G01 X3.72052 Y-3.42552
G01 X3.71971 Y-3.42575
G01 X3.71901 Y-3.42621
G01 X3.71826 Y-3.42721
G01 X3.71799 Y-3.42844
G01 X3.71799 Y-3.46781
G01 X3.72389 Y-3.46486
G01 X3.72389 Y-3.43139
G01 X3.72984 Y-3.43139
G01 X3.73434 Y-3.43289
G01 X3.73726 Y-3.43581
G01 X3.73878 Y-3.43884
G01 X3.74049 Y-3.44568
G01 X3.74049 Y-3.45057
G01 X3.73878 Y-3.45741
G01 X3.73726 Y-3.46043
G01 X3.73434 Y-3.46335
G01 X3.72983 Y-3.46486
G01 X3.72389 Y-3.46486
G04 P0 ( dwell for no time -- G64 should not smooth over this point )
G00 Z0.08000 ( retract )

G00 X3.75550 Y-3.43937 ( rapid move to begin. )
G01 F180.00000
( Mill infeed pass 1/1 )
G01 Z-0.04000
G04 P0 ( dwell for no time -- G64 should not smooth over this point )
G01 F360.00000
G01 X3.75550 Y-3.43937
G01 X3.75590 Y-3.43818
G01 X3.75643 Y-3.43752
G01 X3.76044 Y-3.43539
G01 X3.76364 Y-3.43218
G01 X3.76748 Y-3.42647
G01 X3.76812 Y-3.42593
G01 X3.76889 Y-3.42560
G01 X3.77013 Y-3.42552
G01 X3.77130 Y-3.42597
G01 X3.77217 Y-3.42685
G01 X3.77261 Y-3.42802
G01 X3.77264 Y-3.46486
G01 X3.78093 Y-3.46486
G01 X3.78216 Y-3.46512
G01 X3.78316 Y-3.46588
G01 X3.78362 Y-3.46658
G01 X3.78385 Y-3.46739
G01 X3.78377 Y-3.46864
G01 X3.78342 Y-3.46941
G01 X3.78287 Y-3.47004
G01 X3.78176 Y-3.47064
G01 X3.78093 Y-3.47076
G01 X3.75844 Y-3.47076
G01 X3.75760 Y-3.47064
G01 X3.75684 Y-3.47029
G01 X3.75595 Y-3.46941
G01 X3.75560 Y-3.46864
G01 X3.75551 Y-3.46739
G01 X3.75595 Y-3.46621
G01 X3.75684 Y-3.46532
G01 X3.75760 Y-3.46498
G01 X3.75844 Y-3.46486
G01 X3.76673 Y-3.46486
G01 X3.76673 Y-3.43744
G01 X3.76391 Y-3.44021
G01 X3.75976 Y-3.44233
G01 X3.75896 Y-3.44259
G01 X3.75770 Y-3.44255
G01 X3.75658 Y-3.44199
G01 X3.75579 Y-3.44101
G01 X3.75553 Y-3.44021
G01 X3.75550 Y-3.43937
G04 P0 ( dwell for no time -- G64 should not smooth over this point )
G00 Z0.08000 ( retract )

G00 X3.86173 Y-3.24281 ( rapid move to begin. )
G01 F180.00000
( Mill infeed pass 1/1 )
G01 Z-0.04000
G04 P0 ( dwell for no time -- G64 should not smooth over this point )
G01 F360.00000
G01 X3.86173 Y-3.24281
G01 X3.86185 Y-3.24364
G01 X3.86220 Y-3.24441
G01 X3.86275 Y-3.24504
G01 X3.86346 Y-3.24550
G01 X3.86427 Y-3.24573
G01 X3.86511 Y-3.24573
G01 X3.86591 Y-3.24550
G01 X3.86662 Y-3.24504
G01 X3.86737 Y-3.24404
G01 X3.86764 Y-3.24281
G01 X3.86764 Y-3.22716
G01 X3.86999 Y-3.22481
G01 X3.88510 Y-3.24490
G01 X3.88577 Y-3.24540
G01 X3.88656 Y-3.24569
G01 X3.88781 Y-3.24569
G01 X3.88860 Y-3.24540
G01 X3.88955 Y-3.24458
G01 X3.89007 Y-3.24343
G01 X3.89007 Y-3.24218
G01 X3.88978 Y-3.24139
G01 X3.87421 Y-3.22059
G01 X3.88955 Y-3.20521
G01 X3.88995 Y-3.20447
G01 X3.89013 Y-3.20365
G01 X3.89007 Y-3.20281
G01 X3.88978 Y-3.20202
G01 X3.88895 Y-3.20108
G01 X3.88781 Y-3.20055
G01 X3.88656 Y-3.20055
G01 X3.88542 Y-3.20108
G01 X3.86764 Y-3.21881
G01 X3.86764 Y-3.20344
G01 X3.86752 Y-3.20261
G01 X3.86717 Y-3.20184
G01 X3.86662 Y-3.20121
G01 X3.86552 Y-3.20061
G01 X3.86427 Y-3.20052
G01 X3.86309 Y-3.20095
G01 X3.86220 Y-3.20184
G01 X3.86185 Y-3.20261
G01 X3.86173 Y-3.20344
G01 X3.86173 Y-3.24281
G04 P0 ( dwell for no time -- G64 should not smooth over this point )
G00 Z0.08000 ( retract )

G00 X3.94831 Y-3.30889 ( rapid move to begin. )
G01 F180.00000
( Mill infeed pass 1/1 )
G01 Z-0.04000
G04 P0 ( dwell for no time -- G64 should not smooth over this point )
G01 F360.00000
G01 X3.94831 Y-3.30889
G01 X3.94831 Y-3.29111
G01 X3.94862 Y-3.28916
G01 X3.94862 Y-3.24094
G01 X3.94894 Y-3.23962
G01 X3.96032 Y-3.22374
G01 X3.97381 Y-3.21025
G01 X3.98931 Y-3.19912
G01 X4.00641 Y-3.19064
G01 X4.02418 Y-3.18514
G01 X4.04355 Y-3.18245
G01 X4.06263 Y-3.18295
G01 X4.08137 Y-3.18653
G01 X4.09929 Y-3.19309
G01 X4.11552 Y-3.20219
G01 X4.13080 Y-3.21439
G01 X4.14358 Y-3.22857
G01 X4.15389 Y-3.24462
G01 X4.16147 Y-3.26213
G01 X4.16604 Y-3.28017
G01 X4.16772 Y-3.29917
G01 X4.16631 Y-3.31820
G01 X4.16184 Y-3.33675
G01 X4.15421 Y-3.35476
G01 X4.14400 Y-3.37088
G01 X4.13166 Y-3.38480
G01 X4.11688 Y-3.39688
G01 X4.09992 Y-3.40661
G01 X4.08204 Y-3.41328
G01 X4.06332 Y-3.41697
G01 X4.04425 Y-3.41758
G01 X4.02580 Y-3.41521
G01 X4.00750 Y-3.40979
G01 X3.99033 Y-3.40148
G01 X3.97472 Y-3.39051
G01 X3.96108 Y-3.37716
G01 X3.94978 Y-3.36178
G01 X3.94874 Y-3.35989
G01 X3.94862 Y-3.35906
G01 X3.94862 Y-3.31084
G01 X3.94831 Y-3.30889
G01 X3.95453 Y-3.31031
G01 X3.95730 Y-3.32558
G01 X3.96336 Y-3.34172
G01 X3.97220 Y-3.35652
G01 X3.98354 Y-3.36951
G01 X3.99702 Y-3.38026
G01 X4.01220 Y-3.38843
G01 X4.02860 Y-3.39375
G01 X4.04568 Y-3.39607
G01 X4.06291 Y-3.39530
G01 X4.07972 Y-3.39146
G01 X4.09557 Y-3.38468
G01 X4.10996 Y-3.37519
G01 X4.12242 Y-3.36327
G01 X4.13255 Y-3.34932
G01 X4.14003 Y-3.33379
G01 X4.14462 Y-3.31717
G01 X4.14616 Y-3.30000
G01 X4.14462 Y-3.28283
G01 X4.14003 Y-3.26621
G01 X4.13255 Y-3.25068
G01 X4.12242 Y-3.23673
G01 X4.10996 Y-3.22481
G01 X4.09557 Y-3.21531
G01 X4.07972 Y-3.20854
G01 X4.06291 Y-3.20470
G01 X4.04568 Y-3.20393
G01 X4.02860 Y-3.20624
G01 X4.01220 Y-3.21157
G01 X3.99702 Y-3.21974
G01 X3.98354 Y-3.23049
G01 X3.97220 Y-3.24347
G01 X3.96336 Y-3.25827
G01 X3.95730 Y-3.27441
G01 X3.95453 Y-3.28969
G01 X3.95453 Y-3.35826
G01 X3.96539 Y-3.37311
G01 X3.97832 Y-3.38582
G01 X3.99312 Y-3.39627
G01 X4.00942 Y-3.40420
G01 X4.02679 Y-3.40938
G01 X4.04477 Y-3.41170
G01 X4.06288 Y-3.41107
G01 X4.08065 Y-3.40754
G01 X4.09762 Y-3.40117
G01 X4.11334 Y-3.39215
G01 X4.12740 Y-3.38070
G01 X4.13942 Y-3.36714
G01 X4.14909 Y-3.35181
G01 X4.15616 Y-3.33512
G01 X4.16044 Y-3.31751
G01 X4.16182 Y-3.29944
G01 X4.16026 Y-3.28138
G01 X4.15580 Y-3.26382
G01 X4.14857 Y-3.24720
G01 X4.13874 Y-3.23197
G01 X4.12659 Y-3.21853
G01 X4.11242 Y-3.20722
G01 X4.09661 Y-3.19836
G01 X4.07958 Y-3.19216
G01 X4.06177 Y-3.18880
G01 X4.04365 Y-3.18836
G01 X4.02570 Y-3.19085
G01 X4.00838 Y-3.19621
G01 X3.99216 Y-3.20430
G01 X3.97746 Y-3.21490
G01 X3.96467 Y-3.22773
G01 X3.95453 Y-3.24189
G01 X3.95453 Y-3.26499
G01 X3.95815 Y-3.25547
G01 X3.96758 Y-3.23979
G01 X3.97965 Y-3.22604
G01 X3.99399 Y-3.21467
G01 X4.01013 Y-3.20604
G01 X4.02703 Y-3.20054
G01 X4.04516 Y-3.19804
G01 X4.06344 Y-3.19882
G01 X4.08179 Y-3.20300
G01 X4.09860 Y-3.21024
G01 X4.11385 Y-3.22036
G01 X4.12704 Y-3.23304
G01 X4.13749 Y-3.24742
G01 X4.14566 Y-3.26438
G01 X4.15048 Y-3.28203
G01 X4.15207 Y-3.29974
G01 X4.15048 Y-3.31796
G01 X4.14566 Y-3.33562
G01 X4.13776 Y-3.35213
G01 X4.12704 Y-3.36696
G01 X4.11385 Y-3.37964
G01 X4.09860 Y-3.38976
G01 X4.08179 Y-3.39699
G01 X4.06396 Y-3.40111
G01 X4.04568 Y-3.40198
G01 X4.02703 Y-3.39945
G01 X4.00964 Y-3.39375
G01 X3.99355 Y-3.38504
G01 X3.97927 Y-3.37359
G01 X3.96727 Y-3.35978
G01 X3.95815 Y-3.34452
G01 X3.95453 Y-3.33500
G04 P0 ( dwell for no time -- G64 should not smooth over this point )
G00 Z0.08000 ( retract )

G00 X3.91174 Y-3.39281 ( rapid move to begin. )
G01 F180.00000
( Mill infeed pass 1/1 )
G01 Z-0.04000
G04 P0 ( dwell for no time -- G64 should not smooth over this point )
G01 F360.00000
G01 X3.91174 Y-3.39281
G01 X3.91185 Y-3.39364
G01 X3.91220 Y-3.39441
G01 X3.91275 Y-3.39504
G01 X3.91346 Y-3.39549
G01 X3.91427 Y-3.39573
G01 X3.91511 Y-3.39573
G01 X3.91591 Y-3.39549
G01 X3.91662 Y-3.39504
G01 X3.91737 Y-3.39404
G01 X3.91764 Y-3.39281
G01 X3.91764 Y-3.37716
G01 X3.91999 Y-3.37481
G01 X3.93510 Y-3.39490
G01 X3.93577 Y-3.39540
G01 X3.93656 Y-3.39569
G01 X3.93782 Y-3.39569
G01 X3.93860 Y-3.39540
G01 X3.93955 Y-3.39458
G01 X3.94007 Y-3.39344
G01 X3.94007 Y-3.39218
G01 X3.93978 Y-3.39139
G01 X3.92421 Y-3.37059
G01 X3.93955 Y-3.35521
G01 X3.93995 Y-3.35447
G01 X3.94013 Y-3.35365
G01 X3.94007 Y-3.35281
G01 X3.93978 Y-3.35202
G01 X3.93895 Y-3.35108
G01 X3.93781 Y-3.35055
G01 X3.93656 Y-3.35055
G01 X3.93541 Y-3.35108
G01 X3.91764 Y-3.36881
G01 X3.91764 Y-3.35344
G01 X3.91752 Y-3.35261
G01 X3.91692 Y-3.35151
G01 X3.91628 Y-3.35095
G01 X3.91552 Y-3.35061
G01 X3.91427 Y-3.35052
G01 X3.91309 Y-3.35095
G01 X3.91220 Y-3.35184
G01 X3.91185 Y-3.35261
G01 X3.91174 Y-3.35344
G01 X3.91174 Y-3.39281
G04 P0 ( dwell for no time -- G64 should not smooth over this point )
G00 Z0.08000 ( retract )

G00 X4.01799 Y-3.46781 ( rapid move to begin. )
G01 F180.00000
( Mill infeed pass 1/1 )
G01 Z-0.04000
G04 P0 ( dwell for no time -- G64 should not smooth over this point )
G01 F360.00000
G01 X4.01799 Y-3.46781
G01 X4.01811 Y-3.46864
G01 X4.01846 Y-3.46941
G01 X4.01901 Y-3.47004
G01 X4.01971 Y-3.47050
G01 X4.02094 Y-3.47076
G01 X4.03078 Y-3.47072
G01 X4.03729 Y-3.46856
G01 X4.03803 Y-3.46802
G01 X4.04208 Y-3.46391
G01 X4.04433 Y-3.45946
G01 X4.04637 Y-3.45130
G01 X4.04630 Y-3.44460
G01 X4.04433 Y-3.43679
G01 X4.04233 Y-3.43274
G01 X4.04178 Y-3.43198
G01 X4.03803 Y-3.42823
G01 X4.03729 Y-3.42769
G01 X4.03125 Y-3.42564
G01 X4.03031 Y-3.42549
G01 X4.02052 Y-3.42552
G01 X4.01971 Y-3.42575
G01 X4.01901 Y-3.42621
G01 X4.01825 Y-3.42721
G01 X4.01799 Y-3.42844
G01 X4.01799 Y-3.46781
G01 X4.02389 Y-3.46486
G01 X4.02389 Y-3.43139
G01 X4.02983 Y-3.43139
G01 X4.03434 Y-3.43289
G01 X4.03726 Y-3.43581
G01 X4.03878 Y-3.43884
G01 X4.04049 Y-3.44568
G01 X4.04049 Y-3.45057
G01 X4.03878 Y-3.45741
G01 X4.03726 Y-3.46043
G01 X4.03434 Y-3.46335
G01 X4.02983 Y-3.46486
G01 X4.02389 Y-3.46486
G04 P0 ( dwell for no time -- G64 should not smooth over this point )
G00 Z0.08000 ( retract )

G00 X4.05366 Y-3.46835 ( rapid move to begin. )
G01 F180.00000
( Mill infeed pass 1/1 )
G01 Z-0.04000
G04 P0 ( dwell for no time -- G64 should not smooth over this point )
G01 F360.00000
G01 X4.05366 Y-3.46835
G01 X4.05412 Y-3.46948
G01 X4.05501 Y-3.47032
G01 X4.05575 Y-3.47065
G01 X4.05656 Y-3.47076
G01 X4.08093 Y-3.47076
G01 X4.08176 Y-3.47064
G01 X4.08253 Y-3.47029
G01 X4.08342 Y-3.46941
G01 X4.08385 Y-3.46823
G01 X4.08377 Y-3.46698
G01 X4.08342 Y-3.46621
G01 X4.08287 Y-3.46558
G01 X4.08176 Y-3.46498
G01 X4.08093 Y-3.46486
G01 X4.06369 Y-3.46486
G01 X4.08115 Y-3.44740
G01 X4.08186 Y-3.44625
G01 X4.08385 Y-3.44016
G01 X4.08385 Y-3.43548
G01 X4.08357 Y-3.43462
G01 X4.08145 Y-3.43046
G01 X4.07927 Y-3.42823
G01 X4.07850 Y-3.42767
G01 X4.07475 Y-3.42580
G01 X4.07389 Y-3.42552
G01 X4.06360 Y-3.42552
G01 X4.06274 Y-3.42580
G01 X4.05858 Y-3.42792
G01 X4.05635 Y-3.43010
G01 X4.05584 Y-3.43077
G01 X4.05549 Y-3.43198
G01 X4.05555 Y-3.43282
G01 X4.05584 Y-3.43360
G01 X4.05635 Y-3.43428
G01 X4.05702 Y-3.43478
G01 X4.05823 Y-3.43513
G01 X4.05906 Y-3.43507
G01 X4.05985 Y-3.43478
G01 X4.06206 Y-3.43274
G01 X4.06475 Y-3.43139
G01 X4.07274 Y-3.43139
G01 X4.07543 Y-3.43274
G01 X4.07663 Y-3.43394
G01 X4.07798 Y-3.43664
G01 X4.07798 Y-3.43921
G01 X4.07648 Y-3.44372
G01 X4.05420 Y-3.46603
G01 X4.05369 Y-3.46713
G01 X4.05366 Y-3.46835
G04 P0 ( dwell for no time -- G64 should not smooth over this point )
G00 Z0.08000 ( retract )

G00 X4.23533 Y-3.23500 ( rapid move to begin. )
G01 F180.00000
( Mill infeed pass 1/1 )
G01 Z-0.04000
G04 P0 ( dwell for no time -- G64 should not smooth over this point )
G01 F360.00000
G01 X4.23533 Y-3.23500
G01 X4.23533 Y-3.22563
G01 X4.23564 Y-3.22431
G01 X4.23752 Y-3.22056
G01 X4.23807 Y-3.21979
G01 X4.24031 Y-3.21761
G01 X4.24446 Y-3.21549
G01 X4.24578 Y-3.21517
G01 X4.25000 Y-3.21521
G01 X4.25609 Y-3.21720
G01 X4.25690 Y-3.21762
G01 X4.27470 Y-3.23537
G01 X4.27470 Y-3.21813
G01 X4.27482 Y-3.21730
G01 X4.27517 Y-3.21653
G01 X4.27606 Y-3.21564
G01 X4.27682 Y-3.21529
G01 X4.27765 Y-3.21517
G01 X4.27848 Y-3.21529
G01 X4.27925 Y-3.21564
G01 X4.27988 Y-3.21619
G01 X4.28034 Y-3.21690
G01 X4.28060 Y-3.21813
G01 X4.28060 Y-3.24250
G01 X4.28049 Y-3.24331
G01 X4.28016 Y-3.24405
G01 X4.27964 Y-3.24468
G01 X4.27897 Y-3.24514
G01 X4.27819 Y-3.24540
G01 X4.27738 Y-3.24544
G01 X4.27658 Y-3.24525
G01 X4.27587 Y-3.24486
G01 X4.25356 Y-3.22258
G01 X4.24905 Y-3.22108
G01 X4.24648 Y-3.22108
G01 X4.24378 Y-3.22243
G01 X4.24258 Y-3.22363
G01 X4.24123 Y-3.22633
G01 X4.24123 Y-3.23430
G01 X4.24258 Y-3.23700
G01 X4.24439 Y-3.23886
G01 X4.24480 Y-3.23959
G01 X4.24498 Y-3.24042
G01 X4.24492 Y-3.24125
G01 X4.24462 Y-3.24204
G01 X4.24412 Y-3.24271
G01 X4.24345 Y-3.24322
G01 X4.24224 Y-3.24357
G01 X4.24140 Y-3.24351
G01 X4.24026 Y-3.24299
G01 X4.23776 Y-3.24048
G01 X4.23564 Y-3.23632
G01 X4.23533 Y-3.23500
G04 P0 ( dwell for no time -- G64 should not smooth over this point )
G00 Z0.08000 ( retract )

G00 X4.26795 Y-3.26496 ( rapid move to begin. )
G01 F180.00000
( Mill infeed pass 1/1 )
G01 Z-0.04000
G04 P0 ( dwell for no time -- G64 should not smooth over this point )
G01 F360.00000
G01 X4.26795 Y-3.26496
G01 X4.26878 Y-3.26679
G01 X4.26977 Y-3.26802
G01 X4.26977 Y-3.27064
G01 X4.26932 Y-3.27155
G01 X4.26800 Y-3.27285
G01 X4.26540 Y-3.27352
G01 X4.26532 Y-3.27062
G01 X4.26546 Y-3.26972
G01 X4.26770 Y-3.26525
G01 X4.26803 Y-3.26528
G01 X4.26770 Y-3.26525
G01 X4.26776 Y-3.26514
G01 X4.27160 Y-3.26125
G01 X4.27052 Y-3.26017
G01 X4.26417 Y-3.25858
G01 X4.25177 Y-3.25858
G01 X4.24542 Y-3.26017
G01 X4.24258 Y-3.26300
G01 X4.24123 Y-3.26570
G01 X4.24123 Y-3.27180
G01 X4.24258 Y-3.27450
G01 X4.24542 Y-3.27733
G01 X4.25177 Y-3.27892
G01 X4.26417 Y-3.27892
G01 X4.27052 Y-3.27733
G01 X4.27335 Y-3.27450
G01 X4.27470 Y-3.27180
G01 X4.27470 Y-3.26650
G01 X4.27258 Y-3.26862
G01 X4.27123 Y-3.27132
G01 X4.27120 Y-3.27479
G01 X4.27076 Y-3.27597
G01 X4.26987 Y-3.27685
G01 X4.26911 Y-3.27720
G01 X4.26828 Y-3.27732
G01 X4.26745 Y-3.27720
G01 X4.26668 Y-3.27685
G01 X4.26605 Y-3.27630
G01 X4.26544 Y-3.27520
G01 X4.26540 Y-3.27352
G01 X4.28267 Y-3.25779
G01 X4.28215 Y-3.25675
G01 X4.28229 Y-3.25665
G01 X4.28215 Y-3.25675
G01 X4.28109 Y-3.25543
G01 X4.27855 Y-3.25290
G01 X4.27710 Y-3.25575
G01 X4.27578 Y-3.25707
G01 X4.27381 Y-3.25515
G01 X4.27312 Y-3.25476
G01 X4.26489 Y-3.25269
G01 X4.25069 Y-3.25276
G01 X4.24319 Y-3.25463
G01 X4.24212 Y-3.25515
G01 X4.23776 Y-3.25952
G01 X4.23564 Y-3.26368
G01 X4.23536 Y-3.26454
G01 X4.23533 Y-3.27250
G01 X4.23547 Y-3.27339
G01 X4.23776 Y-3.27797
G01 X4.24212 Y-3.28235
G01 X4.24319 Y-3.28286
G01 X4.25105 Y-3.28480
G01 X4.26524 Y-3.28473
G01 X4.27348 Y-3.28256
G01 X4.27787 Y-3.27833
G01 X4.27842 Y-3.27757
G01 X4.28029 Y-3.27382
G01 X4.28060 Y-3.27250
G01 X4.28057 Y-3.26454
G01 X4.27937 Y-3.26183
G01 X4.28161 Y-3.25959
G01 X4.28217 Y-3.25882
G01 X4.28420 Y-3.25468
G01 X4.28435 Y-3.25385
G01 X4.28426 Y-3.25302
G01 X4.28370 Y-3.25190
G01 X4.28272 Y-3.25111
G01 X4.28151 Y-3.25080
G01 X4.28027 Y-3.25102
G01 X4.27955 Y-3.25145
G01 X4.27897 Y-3.25207
G01 X4.27855 Y-3.25290
G04 P0 ( dwell for no time -- G64 should not smooth over this point )
G00 Z0.08000 ( retract )

G00 X4.29528 Y-3.25019 ( rapid move to begin. )
G01 F180.00000
( Mill infeed pass 1/1 )
G01 Z-0.04000
G04 P0 ( dwell for no time -- G64 should not smooth over this point )
G01 F360.00000
G01 X4.29528 Y-3.25019
G01 X4.29662 Y-3.23329
G01 X4.30068 Y-3.21683
G01 X4.30733 Y-3.20124
G01 X4.31641 Y-3.18692
G01 X4.32768 Y-3.17426
G01 X4.34085 Y-3.16359
G01 X4.35557 Y-3.15517
G01 X4.35675 Y-3.15487
G01 X4.35756 Y-3.15501
G01 X4.35827 Y-3.15543
G01 X4.35896 Y-3.15643
G01 X4.35906 Y-3.15765
G01 X4.35854 Y-3.15876
G01 X4.35791 Y-3.15928
G01 X4.34367 Y-3.16738
G01 X4.33108 Y-3.17755
G01 X4.32029 Y-3.18962
G01 X4.31159 Y-3.20328
G01 X4.30521 Y-3.21815
G01 X4.30132 Y-3.23387
G01 X4.30001 Y-3.25000
G01 X4.30132 Y-3.26613
G01 X4.30521 Y-3.28185
G01 X4.31159 Y-3.29672
G01 X4.32029 Y-3.31038
G01 X4.33108 Y-3.32245
G01 X4.34367 Y-3.33262
G01 X4.35825 Y-3.34095
G01 X4.35895 Y-3.34195
G01 X4.35907 Y-3.34317
G01 X4.35856 Y-3.34428
G01 X4.35793 Y-3.34481
G01 X4.35675 Y-3.34513
G01 X4.35557 Y-3.34482
G01 X4.34085 Y-3.33641
G01 X4.32768 Y-3.32574
G01 X4.31641 Y-3.31307
G01 X4.30733 Y-3.29876
G01 X4.30080 Y-3.28353
G01 X4.29669 Y-3.26708
G01 X4.29528 Y-3.25019
G04 P0 ( dwell for no time -- G64 should not smooth over this point )
G00 Z0.08000 ( retract )

G00 X4.44184 Y-3.34153 ( rapid move to begin. )
G01 F180.00000
( Mill infeed pass 1/1 )
G01 Z-0.04000
G04 P0 ( dwell for no time -- G64 should not smooth over this point )
G01 F360.00000
G01 X4.44184 Y-3.34153
G01 X4.44197 Y-3.34072
G01 X4.44266 Y-3.33971
G01 X4.45803 Y-3.33051
G01 X4.47047 Y-3.31978
G01 X4.47047 Y-3.18021
G01 X4.45803 Y-3.16948
G01 X4.44266 Y-3.16028
G01 X4.44197 Y-3.15927
G01 X4.44184 Y-3.15846
G01 X4.44200 Y-3.15766
G01 X4.44271 Y-3.15666
G01 X4.44343 Y-3.15626
G01 X4.44424 Y-3.15613
G01 X4.44541 Y-3.15647
G01 X4.46096 Y-3.16577
G01 X4.47438 Y-3.17734
G01 X4.47506 Y-3.17834
G01 X4.47520 Y-3.17913
G01 X4.47516 Y-3.32127
G01 X4.47489 Y-3.32203
G01 X4.47438 Y-3.32265
G01 X4.46096 Y-3.33422
G01 X4.44541 Y-3.34353
G01 X4.44424 Y-3.34386
G01 X4.44343 Y-3.34373
G01 X4.44271 Y-3.34333
G01 X4.44200 Y-3.34234
G01 X4.44184 Y-3.34153
G04 P0 ( dwell for no time -- G64 should not smooth over this point )
G00 Z0.08000 ( retract )

G00 X4.10295 Y-2.84705 ( rapid move to begin. )
G01 F180.00000
( Mill infeed pass 1/1 )
G01 Z-0.04000
G04 P0 ( dwell for no time -- G64 should not smooth over this point )
G01 F360.00000
G01 X4.10295 Y-2.84705
G01 X4.19705 Y-2.84705
G01 X4.19705 Y-2.65295
G01 X4.10295 Y-2.65295
G01 X4.10295 Y-2.84705
G04 P0 ( dwell for no time -- G64 should not smooth over this point )
G00 Z0.08000 ( retract )

G00 X3.85000 Y-2.75000 ( rapid move to begin. )
G01 F180.00000
( Mill infeed pass 1/1 )
G01 Z-0.04000
G04 P0 ( dwell for no time -- G64 should not smooth over this point )
G01 F360.00000
G01 X3.85000 Y-2.75000
G01 X3.95000 Y-2.75000
G01 X3.95000 Y-2.65236
G01 X3.85000 Y-2.65236
G01 X3.85000 Y-2.75000
G01 X3.84527 Y-2.75236
G01 X3.84527 Y-2.65000
G01 X3.84559 Y-2.64882
G01 X3.84612 Y-2.64819
G01 X3.84683 Y-2.64778
G01 X3.84764 Y-2.64764
G01 X3.95236 Y-2.64764
G01 X3.95354 Y-2.64795
G01 X3.95417 Y-2.64848
G01 X3.95458 Y-2.64919
G01 X3.95472 Y-2.65000
G01 X3.95472 Y-2.75236
G01 X3.95441 Y-2.75354
G01 X3.95388 Y-2.75417
G01 X3.95317 Y-2.75458
G01 X3.95236 Y-2.75472
G01 X3.84764 Y-2.75472
G01 X3.84646 Y-2.75441
G01 X3.84583 Y-2.75388
G01 X3.84542 Y-2.75317
G01 X3.84527 Y-2.75236
G04 P0 ( dwell for no time -- G64 should not smooth over this point )
G00 Z0.08000 ( retract )

G00 X3.75796 Y-2.76705 ( rapid move to begin. )
G01 F180.00000
( Mill infeed pass 1/1 )
G01 Z-0.04000
G04 P0 ( dwell for no time -- G64 should not smooth over this point )
G01 F360.00000
G01 X3.75796 Y-2.76705
G01 X3.75754 Y-2.76489
G01 X3.75625 Y-2.76106
G01 X3.76648 Y-2.75393
G01 X3.76769 Y-2.75361
G01 X3.76853 Y-2.75370
G01 X3.76965 Y-2.75425
G01 X3.77045 Y-2.75523
G01 X3.77076 Y-2.75644
G01 X3.77067 Y-2.75728
G01 X3.77035 Y-2.75806
G01 X3.76983 Y-2.75871
G01 X3.75201 Y-2.77122
G01 X3.75201 Y-2.77610
G01 X3.75693 Y-2.77610
G01 X3.75679 Y-2.77980
G01 X3.75638 Y-2.78123
G01 X3.75663 Y-2.78131
G01 X3.75638 Y-2.78123
G01 X3.75598 Y-2.78201
G01 X3.75638 Y-2.78123
G01 X3.75679 Y-2.77980
G01 X3.75693 Y-2.77610
G01 X3.76781 Y-2.77610
G01 X3.76864 Y-2.77622
G01 X3.76941 Y-2.77657
G01 X3.77029 Y-2.77746
G01 X3.77064 Y-2.77823
G01 X3.77076 Y-2.77906
G01 X3.77064 Y-2.77989
G01 X3.77029 Y-2.78065
G01 X3.76941 Y-2.78154
G01 X3.76864 Y-2.78189
G01 X3.76781 Y-2.78201
G01 X3.72844 Y-2.78201
G01 X3.72761 Y-2.78189
G01 X3.72684 Y-2.78154
G01 X3.72595 Y-2.78065
G01 X3.72561 Y-2.77989
G01 X3.72549 Y-2.77906
G01 X3.72552 Y-2.76361
G01 X3.72580 Y-2.76274
G01 X3.72792 Y-2.75858
G01 X3.73010 Y-2.75635
G01 X3.73087 Y-2.75579
G01 X3.73462 Y-2.75392
G01 X3.73548 Y-2.75364
G01 X3.74156 Y-2.75361
G01 X3.74246 Y-2.75375
G01 X3.74704 Y-2.75604
G01 X3.74927 Y-2.75822
G01 X3.74983 Y-2.75899
G01 X3.75170 Y-2.76274
G01 X3.75201 Y-2.76402
G01 X3.75625 Y-2.76106
G04 P0 ( dwell for no time -- G64 should not smooth over this point )
G00 Z0.08000 ( retract )

G00 X3.73139 Y-2.77610 ( rapid move to begin. )
G01 F180.00000
( Mill infeed pass 1/1 )
G01 Z-0.04000
G04 P0 ( dwell for no time -- G64 should not smooth over this point )
G01 F360.00000
G01 X3.73139 Y-2.77610
G01 X3.73139 Y-2.76476
G01 X3.73274 Y-2.76206
G01 X3.73394 Y-2.76086
G01 X3.73664 Y-2.75951
G01 X3.74086 Y-2.75951
G01 X3.74356 Y-2.76086
G01 X3.74476 Y-2.76206
G01 X3.74611 Y-2.76476
G01 X3.74611 Y-2.77610
G01 X3.73139 Y-2.77610
G04 P0 ( dwell for no time -- G64 should not smooth over this point )
G00 Z0.08000 ( retract )

G00 X3.72549 Y-2.73594 ( rapid move to begin. )
G01 F180.00000
( Mill infeed pass 1/1 )
G01 Z-0.04000
G04 P0 ( dwell for no time -- G64 should not smooth over this point )
G01 F360.00000
G01 X3.72549 Y-2.73594
G01 X3.72580 Y-2.73726
G01 X3.72792 Y-2.74141
G01 X3.73042 Y-2.74393
G01 X3.73156 Y-2.74445
G01 X3.73240 Y-2.74451
G01 X3.73360 Y-2.74415
G01 X3.73428 Y-2.74365
G01 X3.73478 Y-2.74298
G01 X3.73507 Y-2.74219
G01 X3.73513 Y-2.74135
G01 X3.73495 Y-2.74053
G01 X3.73455 Y-2.73979
G01 X3.73274 Y-2.73794
G01 X3.73139 Y-2.73524
G01 X3.73139 Y-2.72726
G01 X3.73274 Y-2.72456
G01 X3.73394 Y-2.72337
G01 X3.73664 Y-2.72202
G01 X3.73921 Y-2.72202
G01 X3.74372 Y-2.72352
G01 X3.76603 Y-2.74579
G01 X3.76674 Y-2.74619
G01 X3.76754 Y-2.74638
G01 X3.76835 Y-2.74634
G01 X3.76913 Y-2.74608
G01 X3.76980 Y-2.74562
G01 X3.77032 Y-2.74499
G01 X3.77065 Y-2.74425
G01 X3.77076 Y-2.74344
G01 X3.77076 Y-2.71907
G01 X3.77049 Y-2.71784
G01 X3.77004 Y-2.71713
G01 X3.76941 Y-2.71658
G01 X3.76864 Y-2.71623
G01 X3.76781 Y-2.71611
G01 X3.76698 Y-2.71623
G01 X3.76621 Y-2.71658
G01 X3.76532 Y-2.71747
G01 X3.76498 Y-2.71823
G01 X3.76486 Y-2.71907
G01 X3.76486 Y-2.73631
G01 X3.74705 Y-2.71856
G01 X3.74625 Y-2.71814
G01 X3.74016 Y-2.71615
G01 X3.73594 Y-2.71611
G01 X3.73462 Y-2.71642
G01 X3.73046 Y-2.71855
G01 X3.72823 Y-2.72073
G01 X3.72767 Y-2.72149
G01 X3.72580 Y-2.72525
G01 X3.72549 Y-2.72656
G01 X3.72549 Y-2.73594
G04 P0 ( dwell for no time -- G64 should not smooth over this point )
G00 Z0.08000 ( retract )

G00 X3.60295 Y-2.84705 ( rapid move to begin. )
G01 F180.00000
( Mill infeed pass 1/1 )
G01 Z-0.04000
G04 P0 ( dwell for no time -- G64 should not smooth over this point )
G01 F360.00000
G01 X3.60295 Y-2.84705
G01 X3.69705 Y-2.84705
G01 X3.69705 Y-2.65295
G01 X3.60295 Y-2.65295
G01 X3.60295 Y-2.84705
G04 P0 ( dwell for no time -- G64 should not smooth over this point )
G00 Z0.08000 ( retract )

G00 X3.44921 Y-3.04119 ( rapid move to begin. )
G01 F180.00000
( Mill infeed pass 1/1 )
G01 Z-0.04000
G04 P0 ( dwell for no time -- G64 should not smooth over this point )
G01 F360.00000
G01 X3.44921 Y-3.04119
G01 X3.44921 Y-2.85306
G01 X3.43238 Y-2.85453
G01 X3.41606 Y-2.85891
G01 X3.40074 Y-2.86605
G01 X3.38690 Y-2.87574
G01 X3.37495 Y-2.88769
G01 X3.36526 Y-2.90153
G01 X3.35812 Y-2.91684
G01 X3.35375 Y-2.93317
G01 X3.35228 Y-2.95000
G01 X3.35375 Y-2.96683
G01 X3.35812 Y-2.98315
G01 X3.36526 Y-2.99847
G01 X3.37495 Y-3.01231
G01 X3.38690 Y-3.02426
G01 X3.40074 Y-3.03395
G01 X3.41606 Y-3.04109
G01 X3.43238 Y-3.04546
G01 X3.44921 Y-3.04694
G01 X3.44921 Y-3.04119
G01 X3.45856 Y-3.03097
G01 X3.46909 Y-3.01720
G01 X3.47203 Y-3.01260
G01 X3.46687 Y-3.00502
G01 X3.46496 Y-3.00179
G01 X3.46496 Y-3.02260
G01 X3.46496 Y-3.00179
G01 X3.46244 Y-2.99740
G01 X3.45751 Y-2.98722
G01 X3.45561 Y-2.98223
G01 X3.45243 Y-2.97201
G01 X3.45164 Y-2.96826
G01 X3.45007 Y-2.95801
G01 X3.44990 Y-2.95483
G01 X3.44986 Y-2.94516
G01 X3.45018 Y-2.94141
G01 X3.45171 Y-2.93114
G01 X3.45263 Y-2.92744
G01 X3.45559 Y-2.91776
G01 X3.45776 Y-2.91226
G01 X3.46272 Y-2.90205
G01 X3.47836 Y-2.90649
G01 X3.52512 Y-2.92339
G01 X3.52497 Y-2.92200
G01 X3.52311 Y-2.91925
G01 X3.52057 Y-2.91604
G01 X3.51748 Y-2.91267
G01 X3.51439 Y-2.90985
G01 X3.51013 Y-2.90650
G01 X3.50745 Y-2.90470
G01 X3.50248 Y-2.90194
G01 X3.49600 Y-2.89898
G01 X3.48519 Y-2.89605
G01 X3.48004 Y-2.90361
G01 X3.47836 Y-2.90649
G01 X3.48582 Y-2.90357
G01 X3.48847 Y-2.90286
G01 X3.49967 Y-2.90194
G01 X3.50256 Y-2.90199
G01 X3.49967 Y-2.90194
G01 X3.48847 Y-2.90286
G01 X3.48582 Y-2.90357
G01 X3.47836 Y-2.90649
G01 X3.47649 Y-2.90971
G01 X3.47209 Y-2.91884
G01 X3.47057 Y-2.92270
G01 X3.46776 Y-2.93180
G01 X3.46717 Y-2.93438
G01 X3.46580 Y-2.94346
G01 X3.46565 Y-2.94546
G01 X3.46565 Y-2.95454
G01 X3.46634 Y-2.95484
G01 X3.46634 Y-2.94516
G01 X3.46919 Y-2.93592
G01 X3.47464 Y-2.92793
G01 X3.48220 Y-2.92190
G01 X3.49120 Y-2.91837
G01 X3.50085 Y-2.91764
G01 X3.51028 Y-2.91980
G01 X3.51865 Y-2.92463
G01 X3.52523 Y-2.93172
G01 X3.52943 Y-2.94043
G01 X3.53087 Y-2.95000
G01 X3.52943 Y-2.95956
G01 X3.52523 Y-2.96828
G01 X3.51865 Y-2.97537
G01 X3.51028 Y-2.98020
G01 X3.50085 Y-2.98236
G01 X3.49120 Y-2.98163
G01 X3.48220 Y-2.97810
G01 X3.47464 Y-2.97207
G01 X3.46919 Y-2.96408
G01 X3.46634 Y-2.95484
G01 X3.46565 Y-2.95454
G01 X3.46580 Y-2.95653
G01 X3.46717 Y-2.96562
G01 X3.46776 Y-2.96820
G01 X3.47057 Y-2.97730
G01 X3.47209 Y-2.98115
G01 X3.47649 Y-2.99029
G01 X3.48004 Y-2.99639
G01 X3.48518 Y-3.00393
G01 X3.49574 Y-3.00111
G01 X3.50257 Y-2.99801
G01 X3.49967 Y-2.99806
G01 X3.48847 Y-2.99714
G01 X3.48582 Y-2.99643
G01 X3.47837 Y-2.99351
G01 X3.48582 Y-2.99643
G01 X3.48847 Y-2.99714
G01 X3.49967 Y-2.99806
G01 X3.50257 Y-2.99801
G01 X3.50707 Y-2.99553
G01 X3.51014 Y-2.99347
G01 X3.51440 Y-2.99014
G01 X3.51750 Y-2.98730
G01 X3.52057 Y-2.98396
G01 X3.52311 Y-2.98075
G01 X3.52497 Y-2.97800
G01 X3.52543 Y-2.97406
G01 X3.52666 Y-2.96829
G01 X3.52720 Y-2.96672
G01 X3.52709 Y-2.96669
G01 X3.52720 Y-2.96672
G01 X3.53023 Y-2.96006
G01 X3.53279 Y-2.95647
G01 X3.53354 Y-2.94981
G01 X3.53281 Y-2.94355
G01 X3.53023 Y-2.93993
G01 X3.52720 Y-2.93328
G01 X3.52709 Y-2.93331
G01 X3.52720 Y-2.93328
G01 X3.52666 Y-2.93171
G01 X3.52543 Y-2.92594
G01 X3.52512 Y-2.92339
G01 X3.54331 Y-2.92996
G01 X3.54331 Y-2.97195
G01 X3.54331 Y-2.97004
G01 X3.54368 Y-2.97056
G01 X3.54331 Y-2.97195
G01 X3.54609 Y-2.98422
G01 X3.54483 Y-2.98481
G01 X3.53759 Y-2.98744
G01 X3.53565 Y-2.99029
G01 X3.53240 Y-2.99442
G01 X3.52838 Y-2.99870
G01 X3.52483 Y-3.00200
G01 X3.51961 Y-3.00605
G01 X3.51558 Y-3.00882
G01 X3.50930 Y-3.01226
G01 X3.50166 Y-3.01579
G01 X3.49107 Y-3.01871
G01 X3.48607 Y-3.01986
G01 X3.48182 Y-3.02651
G01 X3.47085 Y-3.04081
G01 X3.46083 Y-3.05182
G01 X3.44947 Y-3.05284
G01 X3.43161 Y-3.05132
G01 X3.41380 Y-3.04655
G01 X3.39757 Y-3.03893
G01 X3.38291 Y-3.02862
G01 X3.37026 Y-3.01591
G01 X3.36028 Y-3.00164
G01 X3.35266 Y-2.98542
G01 X3.34797 Y-2.96811
G01 X3.34637 Y-2.94974
G01 X3.34797 Y-2.93189
G01 X3.35266 Y-2.91458
G01 X3.36028 Y-2.89836
G01 X3.37059 Y-2.88370
G01 X3.38291 Y-2.87138
G01 X3.39757 Y-2.86106
G01 X3.41380 Y-2.85345
G01 X3.43110 Y-2.84876
G01 X3.44895 Y-2.84716
G01 X3.46682 Y-2.84867
G01 X3.48463 Y-2.85345
G01 X3.50086 Y-2.86106
G01 X3.51552 Y-2.87138
G01 X3.52816 Y-2.88409
G01 X3.53815 Y-2.89836
G01 X3.54576 Y-2.91458
G01 X3.54609 Y-2.91578
G01 X3.54483 Y-2.91518
G01 X3.53759 Y-2.91255
G01 X3.53565 Y-2.90971
G01 X3.53274 Y-2.90604
G01 X3.52837 Y-2.90129
G01 X3.52435 Y-2.89764
G01 X3.51963 Y-2.89393
G01 X3.51538 Y-2.89109
G01 X3.50931 Y-2.88775
G01 X3.50168 Y-2.88419
G01 X3.49086 Y-2.88123
G01 X3.48606 Y-2.88013
G01 X3.48181 Y-2.87348
G01 X3.47047 Y-2.85872
G01 X3.46081 Y-2.84816
G01 X3.47003 Y-2.85818
G01 X3.47745 Y-2.86783
G01 X3.47920 Y-2.86830
G01 X3.49295 Y-2.87467
G01 X3.50536 Y-2.88342
G01 X3.50987 Y-2.88803
G01 X3.51598 Y-2.89142
G01 X3.51963 Y-2.89393
G01 X3.52438 Y-2.89761
G01 X3.52837 Y-2.90129
G01 X3.53240 Y-2.90557
G01 X3.53565 Y-2.90971
G01 X3.53759 Y-2.91255
G01 X3.54483 Y-2.91518
G01 X3.54609 Y-2.91578
G01 X3.55045 Y-2.93189
G01 X3.55206 Y-2.94974
G01 X3.55118 Y-2.95977
G01 X3.54987 Y-2.95803
G01 X3.54861 Y-2.95678
G01 X3.54937 Y-2.95035
G01 X3.54863 Y-2.94322
G01 X3.54988 Y-2.94197
G01 X3.55120 Y-2.94021
G01 X3.55206 Y-2.94974
G01 X3.55045 Y-2.96811
G01 X3.54576 Y-2.98542
G01 X3.53815 Y-3.00164
G01 X3.52783 Y-3.01630
G01 X3.51512 Y-3.02895
G01 X3.50041 Y-3.03919
G01 X3.48463 Y-3.04655
G01 X3.46732 Y-3.05124
G01 X3.46083 Y-3.05182
G01 X3.47042 Y-3.04134
G01 X3.47747 Y-3.03218
G01 X3.47920 Y-3.03171
G01 X3.49256 Y-3.02556
G01 X3.50503 Y-3.01686
G01 X3.50984 Y-3.01199
G01 X3.51556 Y-3.00880
G01 X3.51961 Y-3.00605
G01 X3.52480 Y-3.00197
G01 X3.52886 Y-2.99821
G01 X3.53236 Y-2.99440
G01 X3.53565 Y-2.99029
G01 X3.53759 Y-2.98744
G01 X3.54483 Y-2.98481
G01 X3.54609 Y-2.98422
G01 X3.54331 Y-2.97195
G01 X3.54331 Y-2.92996
G01 X3.54368 Y-2.92944
G01 X3.54331 Y-2.92805
G01 X3.54331 Y-2.92996
G01 X3.47836 Y-2.90649
G01 X3.46272 Y-2.90205
G01 X3.46496 Y-2.89821
G01 X3.46496 Y-2.87742
G01 X3.45818 Y-2.86858
G01 X3.44921 Y-2.85882
G01 X3.45818 Y-2.86858
G01 X3.46909 Y-2.88280
G01 X3.47202 Y-2.88741
G01 X3.46687 Y-2.89497
G01 X3.46496 Y-2.89821
G04 P0 ( dwell for no time -- G64 should not smooth over this point )
G00 Z0.08000 ( retract )

G00 X3.33139 Y-2.77610 ( rapid move to begin. )
G01 F180.00000
( Mill infeed pass 1/1 )
G01 Z-0.04000
G04 P0 ( dwell for no time -- G64 should not smooth over this point )
G01 F360.00000
G01 X3.33139 Y-2.77610
G01 X3.33139 Y-2.76476
G01 X3.33274 Y-2.76206
G01 X3.33394 Y-2.76086
G01 X3.33664 Y-2.75951
G01 X3.34086 Y-2.75951
G01 X3.34356 Y-2.76086
G01 X3.34476 Y-2.76206
G01 X3.34611 Y-2.76476
G01 X3.34611 Y-2.77610
G01 X3.33139 Y-2.77610
G04 P0 ( dwell for no time -- G64 should not smooth over this point )
G00 Z0.08000 ( retract )

G00 X3.20295 Y-2.84705 ( rapid move to begin. )
G01 F180.00000
( Mill infeed pass 1/1 )
G01 Z-0.04000
G04 P0 ( dwell for no time -- G64 should not smooth over this point )
G01 F360.00000
G01 X3.20295 Y-2.84705
G01 X3.29705 Y-2.84705
G01 X3.29705 Y-2.65295
G01 X3.20295 Y-2.65295
G01 X3.20295 Y-2.84705
G04 P0 ( dwell for no time -- G64 should not smooth over this point )
G00 Z0.08000 ( retract )

G00 X3.25295 Y-2.64188 ( rapid move to begin. )
G01 F180.00000
( Mill infeed pass 1/1 )
G01 Z-0.04000
G04 P0 ( dwell for no time -- G64 should not smooth over this point )
G01 F360.00000
G01 X3.25295 Y-2.64188
G01 X3.25295 Y-2.60000
G01 X3.25283 Y-2.59917
G01 X3.25223 Y-2.59807
G01 X3.25160 Y-2.59752
G01 X3.25042 Y-2.59708
G01 X3.24917 Y-2.59717
G01 X3.24807 Y-2.59777
G01 X3.24731 Y-2.59877
G01 X3.24705 Y-2.60000
G01 X3.24705 Y-2.64705
G01 X3.20000 Y-2.64705
G01 X3.19877 Y-2.64731
G01 X3.19777 Y-2.64807
G01 X3.19717 Y-2.64917
G01 X3.19705 Y-2.65000
G01 X3.19708 Y-2.85042
G01 X3.19752 Y-2.85160
G01 X3.19807 Y-2.85223
G01 X3.19917 Y-2.85283
G01 X3.20000 Y-2.85295
G01 X3.24705 Y-2.85295
G01 X3.24705 Y-2.85812
G01 X3.24809 Y-2.85838
G01 X3.24807 Y-2.85855
G01 X3.24809 Y-2.85838
G01 X3.25000 Y-2.85861
G01 X3.25295 Y-2.85812
G01 X3.25000 Y-2.85861
G01 X3.24705 Y-2.85812
G01 X3.24705 Y-2.90000
G01 X3.24731 Y-2.90123
G01 X3.24807 Y-2.90223
G01 X3.24917 Y-2.90283
G01 X3.25000 Y-2.90295
G01 X3.25083 Y-2.90283
G01 X3.25193 Y-2.90223
G01 X3.25269 Y-2.90123
G01 X3.25295 Y-2.90000
G01 X3.25295 Y-2.85295
G01 X3.30000 Y-2.85295
G01 X3.30123 Y-2.85269
G01 X3.30223 Y-2.85193
G01 X3.30283 Y-2.85083
G01 X3.30295 Y-2.85000
G01 X3.30292 Y-2.64958
G01 X3.30248 Y-2.64840
G01 X3.30193 Y-2.64777
G01 X3.30083 Y-2.64717
G01 X3.30000 Y-2.64705
G01 X3.25295 Y-2.64705
G01 X3.25295 Y-2.64188
G01 X3.25000 Y-2.64139
G01 X3.25000 Y-2.64117
G01 X3.25000 Y-2.64139
G01 X3.24705 Y-2.64188
G04 P0 ( dwell for no time -- G64 should not smooth over this point )
G00 Z0.08000 ( retract )

G00 X3.32552 Y-2.72987 ( rapid move to begin. )
G01 F180.00000
( Mill infeed pass 1/1 )
G01 Z-0.04000
G04 P0 ( dwell for no time -- G64 should not smooth over this point )
G01 F360.00000
G01 X3.32552 Y-2.72987
G01 X3.32560 Y-2.73111
G01 X3.32593 Y-2.73188
G01 X3.32647 Y-2.73251
G01 X3.33218 Y-2.73636
G01 X3.33539 Y-2.73956
G01 X3.33752 Y-2.74357
G01 X3.33818 Y-2.74410
G01 X3.33937 Y-2.74450
G01 X3.34021 Y-2.74447
G01 X3.34101 Y-2.74420
G01 X3.34199 Y-2.74342
G01 X3.34255 Y-2.74229
G01 X3.34259 Y-2.74104
G01 X3.34233 Y-2.74024
G01 X3.34021 Y-2.73609
G01 X3.33744 Y-2.73327
G01 X3.36486 Y-2.73327
G01 X3.36486 Y-2.74156
G01 X3.36498 Y-2.74239
G01 X3.36532 Y-2.74316
G01 X3.36621 Y-2.74405
G01 X3.36739 Y-2.74449
G01 X3.36864 Y-2.74440
G01 X3.36941 Y-2.74405
G01 X3.37029 Y-2.74316
G01 X3.37064 Y-2.74239
G01 X3.37076 Y-2.74156
G01 X3.37076 Y-2.71907
G01 X3.37064 Y-2.71823
G01 X3.37004 Y-2.71713
G01 X3.36941 Y-2.71658
G01 X3.36864 Y-2.71623
G01 X3.36739 Y-2.71614
G01 X3.36658 Y-2.71638
G01 X3.36588 Y-2.71683
G01 X3.36512 Y-2.71784
G01 X3.36486 Y-2.71907
G01 X3.36486 Y-2.72736
G01 X3.32802 Y-2.72739
G01 X3.32685 Y-2.72782
G01 X3.32597 Y-2.72870
G01 X3.32552 Y-2.72987
G04 P0 ( dwell for no time -- G64 should not smooth over this point )
G00 Z0.08000 ( retract )

G00 X3.35625 Y-2.76106 ( rapid move to begin. )
G01 F180.00000
( Mill infeed pass 1/1 )
G01 Z-0.04000
G04 P0 ( dwell for no time -- G64 should not smooth over this point )
G01 F360.00000
G01 X3.35625 Y-2.76106
G01 X3.35201 Y-2.76402
G01 X3.35170 Y-2.76274
G01 X3.34983 Y-2.75899
G01 X3.34928 Y-2.75822
G01 X3.34704 Y-2.75604
G01 X3.34246 Y-2.75375
G01 X3.34156 Y-2.75361
G01 X3.33548 Y-2.75364
G01 X3.33462 Y-2.75392
G01 X3.33087 Y-2.75579
G01 X3.33010 Y-2.75635
G01 X3.32792 Y-2.75858
G01 X3.32580 Y-2.76274
G01 X3.32552 Y-2.76361
G01 X3.32549 Y-2.77906
G01 X3.32561 Y-2.77989
G01 X3.32595 Y-2.78065
G01 X3.32684 Y-2.78154
G01 X3.32761 Y-2.78189
G01 X3.32844 Y-2.78201
G01 X3.36781 Y-2.78201
G01 X3.36864 Y-2.78189
G01 X3.36941 Y-2.78154
G01 X3.37029 Y-2.78065
G01 X3.37064 Y-2.77989
G01 X3.37076 Y-2.77906
G01 X3.37064 Y-2.77823
G01 X3.37029 Y-2.77746
G01 X3.36941 Y-2.77657
G01 X3.36864 Y-2.77622
G01 X3.36781 Y-2.77610
G01 X3.35694 Y-2.77610
G01 X3.35679 Y-2.77980
G01 X3.35638 Y-2.78123
G01 X3.35598 Y-2.78201
G01 X3.35638 Y-2.78123
G01 X3.35663 Y-2.78131
G01 X3.35638 Y-2.78123
G01 X3.35679 Y-2.77980
G01 X3.35694 Y-2.77610
G01 X3.35201 Y-2.77610
G01 X3.35201 Y-2.77122
G01 X3.36983 Y-2.75871
G01 X3.37035 Y-2.75806
G01 X3.37075 Y-2.75686
G01 X3.37061 Y-2.75562
G01 X3.37023 Y-2.75487
G01 X3.36965 Y-2.75425
G01 X3.36853 Y-2.75370
G01 X3.36769 Y-2.75361
G01 X3.36648 Y-2.75393
G01 X3.35625 Y-2.76106
G01 X3.35754 Y-2.76489
G01 X3.35796 Y-2.76705
G04 P0 ( dwell for no time -- G64 should not smooth over this point )
G00 Z0.08000 ( retract )

G00 X3.41614 Y-2.80130 ( rapid move to begin. )
G01 F180.00000
( Mill infeed pass 1/1 )
G01 Z-0.04000
G04 P0 ( dwell for no time -- G64 should not smooth over this point )
G01 F360.00000
G01 X3.41614 Y-2.80130
G01 X3.41620 Y-2.79460
G01 X3.41817 Y-2.78679
G01 X3.42017 Y-2.78274
G01 X3.42073 Y-2.78198
G01 X3.42482 Y-2.77793
G01 X3.42563 Y-2.77751
G01 X3.43172 Y-2.77553
G01 X3.43641 Y-2.77553
G01 X3.44292 Y-2.77769
G01 X3.44365 Y-2.77823
G01 X3.44580 Y-2.78042
G01 X3.44620 Y-2.78116
G01 X3.44638 Y-2.78198
G01 X3.44620 Y-2.78322
G01 X3.44552 Y-2.78428
G01 X3.44447 Y-2.78496
G01 X3.44323 Y-2.78513
G01 X3.44241 Y-2.78496
G01 X3.44167 Y-2.78455
G01 X3.43997 Y-2.78289
G01 X3.43546 Y-2.78139
G01 X3.43267 Y-2.78139
G01 X3.42816 Y-2.78289
G01 X3.42524 Y-2.78581
G01 X3.42373 Y-2.78884
G01 X3.42202 Y-2.79568
G01 X3.42202 Y-2.80057
G01 X3.42373 Y-2.80741
G01 X3.42524 Y-2.81044
G01 X3.42816 Y-2.81335
G01 X3.43267 Y-2.81486
G01 X3.43546 Y-2.81486
G01 X3.43997 Y-2.81335
G01 X3.44167 Y-2.81170
G01 X3.44241 Y-2.81129
G01 X3.44323 Y-2.81111
G01 X3.44407 Y-2.81117
G01 X3.44521 Y-2.81170
G01 X3.44580 Y-2.81229
G01 X3.44620 Y-2.81303
G01 X3.44638 Y-2.81427
G01 X3.44603 Y-2.81548
G01 X3.44552 Y-2.81615
G01 X3.44330 Y-2.81832
G01 X3.44250 Y-2.81874
G01 X3.43641 Y-2.82072
G01 X3.43172 Y-2.82072
G01 X3.42563 Y-2.81874
G01 X3.42448 Y-2.81802
G01 X3.42042 Y-2.81391
G01 X3.41830 Y-2.80976
G01 X3.41614 Y-2.80130
G04 P0 ( dwell for no time -- G64 should not smooth over this point )
G00 Z0.08000 ( retract )

G00 X3.45550 Y-2.78937 ( rapid move to begin. )
G01 F180.00000
( Mill infeed pass 1/1 )
G01 Z-0.04000
G04 P0 ( dwell for no time -- G64 should not smooth over this point )
G01 F360.00000
G01 X3.45550 Y-2.78937
G01 X3.45553 Y-2.79021
G01 X3.45579 Y-2.79101
G01 X3.45658 Y-2.79199
G01 X3.45770 Y-2.79255
G01 X3.45896 Y-2.79259
G01 X3.45976 Y-2.79233
G01 X3.46391 Y-2.79021
G01 X3.46673 Y-2.78744
G01 X3.46673 Y-2.81486
G01 X3.45844 Y-2.81486
G01 X3.45760 Y-2.81498
G01 X3.45684 Y-2.81533
G01 X3.45595 Y-2.81621
G01 X3.45551 Y-2.81739
G01 X3.45560 Y-2.81864
G01 X3.45595 Y-2.81941
G01 X3.45684 Y-2.82029
G01 X3.45760 Y-2.82064
G01 X3.45844 Y-2.82076
G01 X3.48093 Y-2.82076
G01 X3.48176 Y-2.82064
G01 X3.48287 Y-2.82004
G01 X3.48342 Y-2.81941
G01 X3.48377 Y-2.81864
G01 X3.48386 Y-2.81739
G01 X3.48362 Y-2.81658
G01 X3.48316 Y-2.81588
G01 X3.48216 Y-2.81512
G01 X3.48093 Y-2.81486
G01 X3.47264 Y-2.81486
G01 X3.47261 Y-2.77802
G01 X3.47217 Y-2.77685
G01 X3.47130 Y-2.77597
G01 X3.47013 Y-2.77552
G01 X3.46889 Y-2.77560
G01 X3.46812 Y-2.77593
G01 X3.46748 Y-2.77647
G01 X3.46364 Y-2.78218
G01 X3.46044 Y-2.78539
G01 X3.45642 Y-2.78753
G01 X3.45590 Y-2.78818
G01 X3.45550 Y-2.78937
G04 P0 ( dwell for no time -- G64 should not smooth over this point )
G00 Z0.08000 ( retract )

G00 X3.64705 Y-2.64188 ( rapid move to begin. )
G01 F180.00000
( Mill infeed pass 1/1 )
G01 Z-0.04000
G04 P0 ( dwell for no time -- G64 should not smooth over this point )
G01 F360.00000
G01 X3.64705 Y-2.64188
G01 X3.65000 Y-2.64139
G01 X3.65000 Y-2.64117
G01 X3.65000 Y-2.64139
G01 X3.65295 Y-2.64188
G01 X3.65295 Y-2.64705
G01 X3.70000 Y-2.64705
G01 X3.70083 Y-2.64717
G01 X3.70193 Y-2.64777
G01 X3.70248 Y-2.64840
G01 X3.70292 Y-2.64958
G01 X3.70295 Y-2.85000
G01 X3.70283 Y-2.85083
G01 X3.70223 Y-2.85193
G01 X3.70123 Y-2.85269
G01 X3.70000 Y-2.85295
G01 X3.65295 Y-2.85295
G01 X3.65295 Y-2.90000
G01 X3.65283 Y-2.90083
G01 X3.65223 Y-2.90193
G01 X3.65123 Y-2.90268
G01 X3.65000 Y-2.90295
G01 X3.64917 Y-2.90283
G01 X3.64807 Y-2.90223
G01 X3.64731 Y-2.90123
G01 X3.64705 Y-2.90000
G01 X3.64705 Y-2.85812
G01 X3.65000 Y-2.85861
G01 X3.65295 Y-2.85812
G01 X3.65000 Y-2.85861
G01 X3.64809 Y-2.85838
G01 X3.64807 Y-2.85855
G01 X3.64809 Y-2.85838
G01 X3.64705 Y-2.85812
G01 X3.64705 Y-2.85295
G01 X3.60000 Y-2.85295
G01 X3.59917 Y-2.85283
G01 X3.59807 Y-2.85223
G01 X3.59752 Y-2.85160
G01 X3.59708 Y-2.85042
G01 X3.59705 Y-2.65000
G01 X3.59717 Y-2.64917
G01 X3.59777 Y-2.64807
G01 X3.59877 Y-2.64731
G01 X3.60000 Y-2.64705
G01 X3.64705 Y-2.64705
G01 X3.64705 Y-2.60000
G01 X3.64731 Y-2.59877
G01 X3.64807 Y-2.59777
G01 X3.64917 Y-2.59717
G01 X3.65042 Y-2.59708
G01 X3.65160 Y-2.59752
G01 X3.65223 Y-2.59807
G01 X3.65283 Y-2.59917
G01 X3.65295 Y-2.60000
G01 X3.65295 Y-2.64188
G04 P0 ( dwell for no time -- G64 should not smooth over this point )
G00 Z0.08000 ( retract )

G00 X3.84527 Y-2.60000 ( rapid move to begin. )
G01 F180.00000
( Mill infeed pass 1/1 )
G01 Z-0.04000
G04 P0 ( dwell for no time -- G64 should not smooth over this point )
G01 F360.00000
G01 X3.84527 Y-2.60000
G01 X3.84527 Y-2.54764
G01 X3.84542 Y-2.54683
G01 X3.84583 Y-2.54612
G01 X3.84646 Y-2.54559
G01 X3.84764 Y-2.54527
G01 X3.90000 Y-2.54527
G01 X3.90081 Y-2.54542
G01 X3.90152 Y-2.54583
G01 X3.90205 Y-2.54645
G01 X3.90233 Y-2.54723
G01 X3.90222 Y-2.54844
G01 X3.90181 Y-2.54915
G01 X3.90118 Y-2.54968
G01 X3.90000 Y-2.55000
G01 X3.85000 Y-2.55000
G01 X3.85000 Y-2.60000
G01 X3.84986 Y-2.60081
G01 X3.84945 Y-2.60152
G01 X3.84882 Y-2.60204
G01 X3.84764 Y-2.60236
G01 X3.84683 Y-2.60222
G01 X3.84612 Y-2.60181
G01 X3.84559 Y-2.60118
G01 X3.84527 Y-2.60000
G04 P0 ( dwell for no time -- G64 should not smooth over this point )
G00 Z0.08000 ( retract )

G00 X3.86799 Y-2.52608 ( rapid move to begin. )
G01 F180.00000
( Mill infeed pass 1/1 )
G01 Z-0.04000
G04 P0 ( dwell for no time -- G64 should not smooth over this point )
G01 F360.00000
G01 X3.86799 Y-2.52608
G01 X3.86799 Y-2.48671
G01 X3.86811 Y-2.48588
G01 X3.86846 Y-2.48511
G01 X3.86901 Y-2.48448
G01 X3.86971 Y-2.48402
G01 X3.87052 Y-2.48378
G01 X3.88594 Y-2.48375
G01 X3.88684 Y-2.48389
G01 X3.89141 Y-2.48619
G01 X3.89365 Y-2.48837
G01 X3.89420 Y-2.48914
G01 X3.89608 Y-2.49288
G01 X3.89635 Y-2.49375
G01 X3.89639 Y-2.49983
G01 X3.89625 Y-2.50073
G01 X3.89420 Y-2.50490
G01 X3.89365 Y-2.50567
G01 X3.89141 Y-2.50785
G01 X3.88726 Y-2.50997
G01 X3.88594 Y-2.51028
G01 X3.87389 Y-2.51028
G01 X3.87386 Y-2.52650
G01 X3.87343 Y-2.52767
G01 X3.87287 Y-2.52831
G01 X3.87177 Y-2.52891
G01 X3.87094 Y-2.52903
G01 X3.87011 Y-2.52891
G01 X3.86901 Y-2.52831
G01 X3.86825 Y-2.52730
G01 X3.86799 Y-2.52608
G01 X3.86877 Y-2.51464
G01 X3.86799 Y-2.51425
G01 X3.86877 Y-2.51464
G01 X3.87020 Y-2.51506
G01 X3.87388 Y-2.51520
G01 X3.87389 Y-2.48966
G01 X3.88524 Y-2.48966
G01 X3.88794 Y-2.49101
G01 X3.88914 Y-2.49221
G01 X3.89048 Y-2.49490
G01 X3.89048 Y-2.49913
G01 X3.88914 Y-2.50183
G01 X3.88794 Y-2.50303
G01 X3.88524 Y-2.50438
G01 X3.87389 Y-2.50438
G04 P0 ( dwell for no time -- G64 should not smooth over this point )
G00 Z0.08000 ( retract )

G00 X3.90550 Y-2.49764 ( rapid move to begin. )
G01 F180.00000
( Mill infeed pass 1/1 )
G01 Z-0.04000
G04 P0 ( dwell for no time -- G64 should not smooth over this point )
G01 F360.00000
G01 X3.90550 Y-2.49764
G01 X3.90553 Y-2.49848
G01 X3.90579 Y-2.49928
G01 X3.90658 Y-2.50025
G01 X3.90770 Y-2.50082
G01 X3.90896 Y-2.50086
G01 X3.90976 Y-2.50060
G01 X3.91391 Y-2.49848
G01 X3.91673 Y-2.49571
G01 X3.91673 Y-2.52312
G01 X3.90844 Y-2.52312
G01 X3.90760 Y-2.52324
G01 X3.90684 Y-2.52359
G01 X3.90595 Y-2.52448
G01 X3.90551 Y-2.52566
G01 X3.90560 Y-2.52691
G01 X3.90595 Y-2.52767
G01 X3.90684 Y-2.52856
G01 X3.90760 Y-2.52891
G01 X3.90844 Y-2.52903
G01 X3.93093 Y-2.52903
G01 X3.93176 Y-2.52891
G01 X3.93287 Y-2.52831
G01 X3.93342 Y-2.52767
G01 X3.93377 Y-2.52691
G01 X3.93385 Y-2.52566
G01 X3.93362 Y-2.52485
G01 X3.93316 Y-2.52414
G01 X3.93216 Y-2.52339
G01 X3.93093 Y-2.52312
G01 X3.92264 Y-2.52312
G01 X3.92261 Y-2.48629
G01 X3.92217 Y-2.48512
G01 X3.92130 Y-2.48423
G01 X3.92013 Y-2.48379
G01 X3.91889 Y-2.48386
G01 X3.91812 Y-2.48420
G01 X3.91748 Y-2.48474
G01 X3.91364 Y-2.49045
G01 X3.91044 Y-2.49365
G01 X3.90642 Y-2.49579
G01 X3.90571 Y-2.49682
G01 X3.90550 Y-2.49764
G04 P0 ( dwell for no time -- G64 should not smooth over this point )
G00 Z0.08000 ( retract )

G00 X4.14705 Y-2.64188 ( rapid move to begin. )
G01 F180.00000
( Mill infeed pass 1/1 )
G01 Z-0.04000
G04 P0 ( dwell for no time -- G64 should not smooth over this point )
G01 F360.00000
G01 X4.14705 Y-2.64188
G01 X4.15000 Y-2.64139
G01 X4.15000 Y-2.64117
G01 X4.15000 Y-2.64139
G01 X4.15295 Y-2.64188
G01 X4.15295 Y-2.64705
G01 X4.20000 Y-2.64705
G01 X4.20083 Y-2.64717
G01 X4.20193 Y-2.64777
G01 X4.20248 Y-2.64840
G01 X4.20292 Y-2.64958
G01 X4.20295 Y-2.85000
G01 X4.20283 Y-2.85083
G01 X4.20223 Y-2.85193
G01 X4.20123 Y-2.85269
G01 X4.20000 Y-2.85295
G01 X4.15295 Y-2.85295
G01 X4.15295 Y-2.90000
G01 X4.15283 Y-2.90083
G01 X4.15223 Y-2.90193
G01 X4.15123 Y-2.90268
G01 X4.15000 Y-2.90295
G01 X4.14877 Y-2.90268
G01 X4.14777 Y-2.90193
G01 X4.14717 Y-2.90083
G01 X4.14705 Y-2.90000
G01 X4.14705 Y-2.85812
G01 X4.15000 Y-2.85861
G01 X4.15295 Y-2.85812
G01 X4.15000 Y-2.85861
G01 X4.14809 Y-2.85838
G01 X4.14807 Y-2.85855
G01 X4.14809 Y-2.85838
G01 X4.14705 Y-2.85812
G01 X4.14705 Y-2.85295
G01 X4.10000 Y-2.85295
G01 X4.09917 Y-2.85283
G01 X4.09807 Y-2.85223
G01 X4.09751 Y-2.85160
G01 X4.09708 Y-2.85042
G01 X4.09704 Y-2.65000
G01 X4.09717 Y-2.64917
G01 X4.09777 Y-2.64807
G01 X4.09877 Y-2.64731
G01 X4.10000 Y-2.64705
G01 X4.14705 Y-2.64705
G01 X4.14705 Y-2.60000
G01 X4.14731 Y-2.59877
G01 X4.14807 Y-2.59777
G01 X4.14917 Y-2.59717
G01 X4.15042 Y-2.59708
G01 X4.15160 Y-2.59752
G01 X4.15223 Y-2.59807
G01 X4.15283 Y-2.59917
G01 X4.15295 Y-2.60000
G01 X4.15295 Y-2.64188
G04 P0 ( dwell for no time -- G64 should not smooth over this point )
G00 Z0.08000 ( retract )

G00 X4.22549 Y-2.74344 ( rapid move to begin. )
G01 F180.00000
( Mill infeed pass 1/1 )
G01 Z-0.04000
G04 P0 ( dwell for no time -- G64 should not smooth over this point )
G01 F360.00000
G01 X4.22549 Y-2.74344
G01 X4.22549 Y-2.71907
G01 X4.22561 Y-2.71823
G01 X4.22596 Y-2.71747
G01 X4.22651 Y-2.71683
G01 X4.22762 Y-2.71623
G01 X4.22887 Y-2.71614
G01 X4.23005 Y-2.71659
G01 X4.24060 Y-2.72578
G01 X4.24267 Y-2.72149
G01 X4.24322 Y-2.72073
G01 X4.24546 Y-2.71855
G01 X4.25004 Y-2.71625
G01 X4.25094 Y-2.71611
G01 X4.26077 Y-2.71615
G01 X4.26163 Y-2.71643
G01 X4.26579 Y-2.71855
G01 X4.26833 Y-2.72109
G01 X4.27045 Y-2.72524
G01 X4.27073 Y-2.72611
G01 X4.27073 Y-2.73827
G01 X4.27045 Y-2.73913
G01 X4.26833 Y-2.74329
G01 X4.26583 Y-2.74580
G01 X4.26509 Y-2.74620
G01 X4.26427 Y-2.74638
G01 X4.26343 Y-2.74632
G01 X4.26229 Y-2.74580
G01 X4.26170 Y-2.74521
G01 X4.26117 Y-2.74406
G01 X4.26117 Y-2.74281
G01 X4.26147 Y-2.74202
G01 X4.26351 Y-2.73981
G01 X4.26486 Y-2.73712
G01 X4.26486 Y-2.72726
G01 X4.26351 Y-2.72456
G01 X4.26231 Y-2.72337
G01 X4.25961 Y-2.72202
G01 X4.25163 Y-2.72202
G01 X4.24894 Y-2.72337
G01 X4.24774 Y-2.72456
G01 X4.24639 Y-2.72726
G01 X4.24639 Y-2.73219
G01 X4.24627 Y-2.73302
G01 X4.24592 Y-2.73379
G01 X4.24537 Y-2.73442
G01 X4.24466 Y-2.73488
G01 X4.24385 Y-2.73511
G01 X4.24259 Y-2.73502
G01 X4.24149 Y-2.73441
G01 X4.23139 Y-2.72557
G01 X4.23139 Y-2.74344
G01 X4.23127 Y-2.74427
G01 X4.23067 Y-2.74537
G01 X4.23004 Y-2.74592
G01 X4.22927 Y-2.74627
G01 X4.22802 Y-2.74636
G01 X4.22684 Y-2.74592
G01 X4.22595 Y-2.74503
G01 X4.22561 Y-2.74427
G01 X4.22549 Y-2.74344
G04 P0 ( dwell for no time -- G64 should not smooth over this point )
G00 Z0.08000 ( retract )

G00 X4.23139 Y-2.77610 ( rapid move to begin. )
G01 F180.00000
( Mill infeed pass 1/1 )
G01 Z-0.04000
G04 P0 ( dwell for no time -- G64 should not smooth over this point )
G01 F360.00000
G01 X4.23139 Y-2.77610
G01 X4.24611 Y-2.77610
G01 X4.24611 Y-2.76476
G01 X4.24476 Y-2.76206
G01 X4.24356 Y-2.76086
G01 X4.24087 Y-2.75951
G01 X4.23664 Y-2.75951
G01 X4.23394 Y-2.76086
G01 X4.23274 Y-2.76206
G01 X4.23139 Y-2.76476
G01 X4.23139 Y-2.77610
G04 P0 ( dwell for no time -- G64 should not smooth over this point )
G00 Z0.08000 ( retract )

G00 X4.25625 Y-2.76106 ( rapid move to begin. )
G01 F180.00000
( Mill infeed pass 1/1 )
G01 Z-0.04000
G04 P0 ( dwell for no time -- G64 should not smooth over this point )
G01 F360.00000
G01 X4.25625 Y-2.76106
G01 X4.26648 Y-2.75393
G01 X4.26769 Y-2.75361
G01 X4.26853 Y-2.75370
G01 X4.26965 Y-2.75425
G01 X4.27044 Y-2.75523
G01 X4.27076 Y-2.75644
G01 X4.27067 Y-2.75728
G01 X4.27036 Y-2.75806
G01 X4.26983 Y-2.75871
G01 X4.25201 Y-2.77122
G01 X4.25201 Y-2.77610
G01 X4.25694 Y-2.77610
G01 X4.25679 Y-2.77980
G01 X4.25638 Y-2.78123
G01 X4.25663 Y-2.78131
G01 X4.25638 Y-2.78123
G01 X4.25598 Y-2.78201
G01 X4.25638 Y-2.78123
G01 X4.25679 Y-2.77980
G01 X4.25694 Y-2.77610
G01 X4.26781 Y-2.77610
G01 X4.26864 Y-2.77622
G01 X4.26941 Y-2.77657
G01 X4.27029 Y-2.77746
G01 X4.27064 Y-2.77823
G01 X4.27076 Y-2.77906
G01 X4.27064 Y-2.77989
G01 X4.27029 Y-2.78065
G01 X4.26941 Y-2.78154
G01 X4.26864 Y-2.78189
G01 X4.26781 Y-2.78201
G01 X4.22844 Y-2.78201
G01 X4.22761 Y-2.78189
G01 X4.22684 Y-2.78154
G01 X4.22595 Y-2.78065
G01 X4.22561 Y-2.77989
G01 X4.22549 Y-2.77906
G01 X4.22552 Y-2.76361
G01 X4.22580 Y-2.76274
G01 X4.22792 Y-2.75858
G01 X4.23010 Y-2.75635
G01 X4.23087 Y-2.75579
G01 X4.23462 Y-2.75392
G01 X4.23548 Y-2.75364
G01 X4.24156 Y-2.75361
G01 X4.24246 Y-2.75375
G01 X4.24704 Y-2.75604
G01 X4.24927 Y-2.75822
G01 X4.24983 Y-2.75899
G01 X4.25170 Y-2.76274
G01 X4.25201 Y-2.76402
G01 X4.25625 Y-2.76106
G01 X4.25754 Y-2.76489
G01 X4.25796 Y-2.76705
G04 P0 ( dwell for no time -- G64 should not smooth over this point )
G00 Z0.08000 ( retract )

G00 X4.31614 Y-2.80130 ( rapid move to begin. )
G01 F180.00000
( Mill infeed pass 1/1 )
G01 Z-0.04000
G04 P0 ( dwell for no time -- G64 should not smooth over this point )
G01 F360.00000
G01 X4.31614 Y-2.80130
G01 X4.31620 Y-2.79460
G01 X4.31817 Y-2.78679
G01 X4.32017 Y-2.78274
G01 X4.32073 Y-2.78198
G01 X4.32482 Y-2.77793
G01 X4.32563 Y-2.77751
G01 X4.33172 Y-2.77553
G01 X4.33641 Y-2.77553
G01 X4.34292 Y-2.77769
G01 X4.34365 Y-2.77823
G01 X4.34580 Y-2.78042
G01 X4.34620 Y-2.78116
G01 X4.34638 Y-2.78198
G01 X4.34620 Y-2.78322
G01 X4.34553 Y-2.78428
G01 X4.34447 Y-2.78496
G01 X4.34323 Y-2.78513
G01 X4.34241 Y-2.78496
G01 X4.34167 Y-2.78455
G01 X4.33997 Y-2.78289
G01 X4.33546 Y-2.78139
G01 X4.33267 Y-2.78139
G01 X4.32816 Y-2.78289
G01 X4.32524 Y-2.78581
G01 X4.32373 Y-2.78884
G01 X4.32202 Y-2.79568
G01 X4.32202 Y-2.80057
G01 X4.32373 Y-2.80741
G01 X4.32524 Y-2.81044
G01 X4.32816 Y-2.81335
G01 X4.33267 Y-2.81486
G01 X4.33546 Y-2.81486
G01 X4.33997 Y-2.81335
G01 X4.34167 Y-2.81170
G01 X4.34241 Y-2.81129
G01 X4.34323 Y-2.81111
G01 X4.34406 Y-2.81117
G01 X4.34521 Y-2.81170
G01 X4.34580 Y-2.81229
G01 X4.34620 Y-2.81303
G01 X4.34638 Y-2.81427
G01 X4.34603 Y-2.81548
G01 X4.34553 Y-2.81615
G01 X4.34330 Y-2.81832
G01 X4.34250 Y-2.81874
G01 X4.33641 Y-2.82072
G01 X4.33171 Y-2.82072
G01 X4.32563 Y-2.81874
G01 X4.32448 Y-2.81802
G01 X4.32042 Y-2.81391
G01 X4.31830 Y-2.80976
G01 X4.31614 Y-2.80130
G04 P0 ( dwell for no time -- G64 should not smooth over this point )
G00 Z0.08000 ( retract )

G00 X4.35366 Y-2.81835 ( rapid move to begin. )
G01 F180.00000
( Mill infeed pass 1/1 )
G01 Z-0.04000
G04 P0 ( dwell for no time -- G64 should not smooth over this point )
G01 F360.00000
G01 X4.35366 Y-2.81835
G01 X4.35369 Y-2.81713
G01 X4.35420 Y-2.81603
G01 X4.37648 Y-2.79372
G01 X4.37798 Y-2.78921
G01 X4.37798 Y-2.78664
G01 X4.37663 Y-2.78394
G01 X4.37543 Y-2.78274
G01 X4.37274 Y-2.78139
G01 X4.36476 Y-2.78139
G01 X4.36206 Y-2.78274
G01 X4.35985 Y-2.78478
G01 X4.35906 Y-2.78507
G01 X4.35823 Y-2.78513
G01 X4.35740 Y-2.78496
G01 X4.35667 Y-2.78455
G01 X4.35584 Y-2.78360
G01 X4.35549 Y-2.78240
G01 X4.35555 Y-2.78156
G01 X4.35584 Y-2.78077
G01 X4.35635 Y-2.78010
G01 X4.35858 Y-2.77792
G01 X4.36274 Y-2.77580
G01 X4.36360 Y-2.77552
G01 X4.37389 Y-2.77552
G01 X4.37475 Y-2.77580
G01 X4.37850 Y-2.77767
G01 X4.37927 Y-2.77823
G01 X4.38145 Y-2.78046
G01 X4.38357 Y-2.78462
G01 X4.38385 Y-2.78548
G01 X4.38385 Y-2.79016
G01 X4.38186 Y-2.79625
G01 X4.38115 Y-2.79740
G01 X4.36369 Y-2.81486
G01 X4.38093 Y-2.81486
G01 X4.38176 Y-2.81498
G01 X4.38253 Y-2.81533
G01 X4.38316 Y-2.81588
G01 X4.38377 Y-2.81698
G01 X4.38385 Y-2.81823
G01 X4.38342 Y-2.81941
G01 X4.38253 Y-2.82029
G01 X4.38176 Y-2.82064
G01 X4.38093 Y-2.82076
G01 X4.35656 Y-2.82076
G01 X4.35575 Y-2.82065
G01 X4.35501 Y-2.82032
G01 X4.35412 Y-2.81948
G01 X4.35366 Y-2.81835
G04 P0 ( dwell for no time -- G64 should not smooth over this point )
G00 Z0.08000 ( retract )

G00 X4.33828 Y-2.90396 ( rapid move to begin. )
G01 F180.00000
( Mill infeed pass 1/1 )
G01 Z-0.04000
G04 P0 ( dwell for no time -- G64 should not smooth over this point )
G01 F360.00000
G01 X4.33828 Y-2.90396
G01 X4.33504 Y-2.89834
G01 X4.33504 Y-2.87739
G01 X4.34179 Y-2.86861
G01 X4.35079 Y-2.85882
G01 X4.34179 Y-2.86861
G01 X4.33119 Y-2.88239
G01 X4.32799 Y-2.88740
G01 X4.33270 Y-2.89429
G01 X4.33828 Y-2.90396
G01 X4.29664 Y-2.90240
G01 X4.29288 Y-2.90430
G01 X4.28206 Y-2.91290
G01 X4.27499 Y-2.92188
G01 X4.27404 Y-2.92912
G01 X4.27271 Y-2.93365
G01 X4.27130 Y-2.93709
G01 X4.26950 Y-2.94074
G01 X4.26704 Y-2.94381
G01 X4.26662 Y-2.94978
G01 X4.26680 Y-2.95421
G01 X4.26949 Y-2.95484
G01 X4.27234 Y-2.96408
G01 X4.27779 Y-2.97207
G01 X4.28535 Y-2.97810
G01 X4.29435 Y-2.98163
G01 X4.30400 Y-2.98236
G01 X4.31343 Y-2.98020
G01 X4.32180 Y-2.97537
G01 X4.32838 Y-2.96828
G01 X4.33258 Y-2.95956
G01 X4.33402 Y-2.95000
G01 X4.33258 Y-2.94043
G01 X4.32838 Y-2.93172
G01 X4.32180 Y-2.92463
G01 X4.31343 Y-2.91980
G01 X4.30400 Y-2.91764
G01 X4.29435 Y-2.91837
G01 X4.28535 Y-2.92190
G01 X4.27779 Y-2.92793
G01 X4.27234 Y-2.93592
G01 X4.26949 Y-2.94516
G01 X4.26949 Y-2.95484
G01 X4.26680 Y-2.95421
G01 X4.26704 Y-2.95619
G01 X4.26846 Y-2.95788
G01 X4.26942 Y-2.95930
G01 X4.26951 Y-2.95925
G01 X4.26942 Y-2.95930
G01 X4.27168 Y-2.96375
G01 X4.27306 Y-2.96748
G01 X4.27316 Y-2.96745
G01 X4.27306 Y-2.96748
G01 X4.27400 Y-2.97088
G01 X4.27499 Y-2.97812
G01 X4.28206 Y-2.98710
G01 X4.29288 Y-2.99569
G01 X4.29664 Y-2.99760
G01 X4.30361 Y-2.99810
G01 X4.30635 Y-2.99793
G01 X4.31769 Y-2.99536
G01 X4.31954 Y-2.99471
G01 X4.32140 Y-2.99378
G01 X4.31954 Y-2.99471
G01 X4.31769 Y-2.99536
G01 X4.30635 Y-2.99793
G01 X4.30361 Y-2.99810
G01 X4.29664 Y-2.99760
G01 X4.30461 Y-3.00124
G01 X4.31232 Y-3.00333
G01 X4.31491 Y-3.00383
G01 X4.31922 Y-2.99757
G01 X4.32450 Y-2.98841
G01 X4.32684 Y-2.98358
G01 X4.33042 Y-2.97446
G01 X4.33139 Y-2.97134
G01 X4.33347 Y-2.96225
G01 X4.33380 Y-2.96004
G01 X4.33448 Y-2.95096
G01 X4.33448 Y-2.94904
G01 X4.33380 Y-2.93996
G01 X4.33347 Y-2.93775
G01 X4.33139 Y-2.92865
G01 X4.33042 Y-2.92554
G01 X4.32684 Y-2.91642
G01 X4.32450 Y-2.91159
G01 X4.31922 Y-2.90243
G01 X4.31491 Y-2.89616
G01 X4.31232 Y-2.89667
G01 X4.30461 Y-2.89876
G01 X4.29664 Y-2.90240
G01 X4.29009 Y-2.88808
G01 X4.29917 Y-2.88387
G01 X4.30847 Y-2.88139
G01 X4.31381 Y-2.88034
G01 X4.31848 Y-2.87306
G01 X4.32952 Y-2.85873
G01 X4.33919 Y-2.84816
G01 X4.32996 Y-2.85820
G01 X4.32255 Y-2.86779
G01 X4.32122 Y-2.86814
G01 X4.30742 Y-2.87445
G01 X4.29497 Y-2.88314
G01 X4.29009 Y-2.88808
G01 X4.28400 Y-2.89128
G01 X4.27396 Y-2.89910
G01 X4.27130 Y-2.90138
G01 X4.26887 Y-2.90413
G01 X4.26238 Y-2.91242
G01 X4.25385 Y-2.91582
G01 X4.24955 Y-2.93189
G01 X4.24794 Y-2.94974
G01 X4.25087 Y-2.94942
G01 X4.25669 Y-2.92805
G01 X4.25669 Y-2.92996
G01 X4.25632 Y-2.92944
G01 X4.25087 Y-2.94942
G01 X4.25669 Y-2.97195
G01 X4.25669 Y-2.97004
G01 X4.25632 Y-2.97056
G01 X4.25087 Y-2.94942
G01 X4.24794 Y-2.94974
G01 X4.24946 Y-2.96760
G01 X4.25385 Y-2.98416
G01 X4.26237 Y-2.98756
G01 X4.27124 Y-2.99869
G01 X4.28396 Y-3.00877
G01 X4.29009 Y-3.01192
G01 X4.29497 Y-3.01686
G01 X4.30744 Y-3.02556
G01 X4.32080 Y-3.03171
G01 X4.32253 Y-3.03218
G01 X4.32957 Y-3.04135
G01 X4.33916 Y-3.05182
G01 X4.35053 Y-3.05284
G01 X4.33267 Y-3.05124
G01 X4.31537 Y-3.04655
G01 X4.29959 Y-3.03919
G01 X4.28488 Y-3.02895
G01 X4.27217 Y-3.01630
G01 X4.26159 Y-3.00120
G01 X4.25406 Y-2.98493
G01 X4.24946 Y-2.96760
G01 X4.24794 Y-2.94974
G01 X4.24955 Y-2.93189
G01 X4.25406 Y-2.91507
G01 X4.26159 Y-2.89880
G01 X4.27217 Y-2.88370
G01 X4.28488 Y-2.87105
G01 X4.29959 Y-2.86081
G01 X4.31585 Y-2.85327
G01 X4.33318 Y-2.84867
G01 X4.35104 Y-2.84716
G01 X4.36890 Y-2.84876
G01 X4.38620 Y-2.85345
G01 X4.40198 Y-2.86081
G01 X4.41669 Y-2.87105
G01 X4.42940 Y-2.88370
G01 X4.43972 Y-2.89836
G01 X4.44752 Y-2.91507
G01 X4.45211 Y-2.93239
G01 X4.45363 Y-2.94974
G01 X4.45211 Y-2.96760
G01 X4.44752 Y-2.98493
G01 X4.43998 Y-3.00120
G01 X4.42940 Y-3.01630
G01 X4.41669 Y-3.02895
G01 X4.40198 Y-3.03919
G01 X4.38572 Y-3.04673
G01 X4.36839 Y-3.05132
G01 X4.35053 Y-3.05284
G01 X4.33916 Y-3.05182
G01 X4.32914 Y-3.04081
G01 X4.31818 Y-3.02651
G01 X4.31380 Y-3.01966
G01 X4.30847 Y-3.01860
G01 X4.29917 Y-3.01612
G01 X4.28937 Y-3.01159
G01 X4.28509 Y-3.00939
G01 X4.28190 Y-3.00714
G01 X4.27396 Y-3.00089
G01 X4.27130 Y-2.99862
G01 X4.26887 Y-2.99587
G01 X4.26237 Y-2.98756
G01 X4.25385 Y-2.98416
G01 X4.24946 Y-2.96760
G01 X4.24880 Y-2.95983
G01 X4.25038 Y-2.95770
G01 X4.25126 Y-2.95683
G01 X4.25087 Y-2.95010
G01 X4.25126 Y-2.94311
G01 X4.25012 Y-2.94196
G01 X4.24880 Y-2.94021
G01 X4.24955 Y-2.93189
G01 X4.25385 Y-2.91582
G01 X4.26238 Y-2.91242
G01 X4.27124 Y-2.90131
G01 X4.28396 Y-2.89123
G01 X4.29009 Y-2.88808
G01 X4.29664 Y-2.90240
G01 X4.30361 Y-2.90190
G01 X4.30635 Y-2.90207
G01 X4.31769 Y-2.90464
G01 X4.31954 Y-2.90528
G01 X4.32140 Y-2.90621
G01 X4.31990 Y-2.90544
G01 X4.31807 Y-2.90475
G01 X4.31022 Y-2.90291
G01 X4.29664 Y-2.90240
G01 X4.33828 Y-2.90396
G01 X4.34118 Y-2.90981
G01 X4.34538 Y-2.92059
G01 X4.34656 Y-2.92426
G01 X4.34888 Y-2.93453
G01 X4.34946 Y-2.93788
G01 X4.35023 Y-2.94874
G01 X4.35027 Y-2.95126
G01 X4.34948 Y-2.96151
G01 X4.34903 Y-2.96490
G01 X4.34655 Y-2.97573
G01 X4.34519 Y-2.97995
G01 X4.34118 Y-2.99019
G01 X4.33828 Y-2.99604
G01 X4.33504 Y-3.00166
G01 X4.33504 Y-3.02260
G01 X4.33504 Y-3.00166
G01 X4.33238 Y-3.00624
G01 X4.32798 Y-3.01261
G01 X4.33090 Y-3.01720
G01 X4.34144 Y-3.03097
G01 X4.35079 Y-3.04119
G01 X4.35079 Y-3.04694
G01 X4.36762 Y-3.04546
G01 X4.38394 Y-3.04109
G01 X4.39926 Y-3.03395
G01 X4.41310 Y-3.02426
G01 X4.42504 Y-3.01231
G01 X4.43474 Y-2.99847
G01 X4.44188 Y-2.98315
G01 X4.44625 Y-2.96683
G01 X4.44772 Y-2.95000
G01 X4.44625 Y-2.93317
G01 X4.44188 Y-2.91684
G01 X4.43474 Y-2.90153
G01 X4.42504 Y-2.88769
G01 X4.41310 Y-2.87574
G01 X4.39926 Y-2.86605
G01 X4.38394 Y-2.85891
G01 X4.36762 Y-2.85453
G01 X4.35079 Y-2.85306
G01 X4.35079 Y-3.04119
G04 P0 ( dwell for no time -- G64 should not smooth over this point )
G00 Z0.08000 ( retract )

G00 X4.50295 Y-2.84705 ( rapid move to begin. )
G01 F180.00000
( Mill infeed pass 1/1 )
G01 Z-0.04000
G04 P0 ( dwell for no time -- G64 should not smooth over this point )
G01 F360.00000
G01 X4.50295 Y-2.84705
G01 X4.50295 Y-2.65295
G01 X4.59705 Y-2.65295
G01 X4.59705 Y-2.84705
G01 X4.50295 Y-2.84705
G04 P0 ( dwell for no time -- G64 should not smooth over this point )
G00 Z0.08000 ( retract )

G00 X4.63139 Y-2.77610 ( rapid move to begin. )
G01 F180.00000
( Mill infeed pass 1/1 )
G01 Z-0.04000
G04 P0 ( dwell for no time -- G64 should not smooth over this point )
G01 F360.00000
G01 X4.63139 Y-2.77610
G01 X4.64611 Y-2.77610
G01 X4.64611 Y-2.76476
G01 X4.64476 Y-2.76206
G01 X4.64356 Y-2.76086
G01 X4.64086 Y-2.75951
G01 X4.63664 Y-2.75951
G01 X4.63394 Y-2.76086
G01 X4.63274 Y-2.76206
G01 X4.63139 Y-2.76476
G01 X4.63139 Y-2.77610
G04 P0 ( dwell for no time -- G64 should not smooth over this point )
G00 Z0.08000 ( retract )

G00 X4.65796 Y-2.76705 ( rapid move to begin. )
G01 F180.00000
( Mill infeed pass 1/1 )
G01 Z-0.04000
G04 P0 ( dwell for no time -- G64 should not smooth over this point )
G01 F360.00000
G01 X4.65796 Y-2.76705
G01 X4.65754 Y-2.76489
G01 X4.65625 Y-2.76106
G01 X4.66648 Y-2.75393
G01 X4.66769 Y-2.75361
G01 X4.66853 Y-2.75370
G01 X4.66965 Y-2.75425
G01 X4.67044 Y-2.75523
G01 X4.67076 Y-2.75644
G01 X4.67067 Y-2.75728
G01 X4.67035 Y-2.75806
G01 X4.66983 Y-2.75871
G01 X4.65201 Y-2.77122
G01 X4.65201 Y-2.77610
G01 X4.65693 Y-2.77610
G01 X4.65679 Y-2.77980
G01 X4.65638 Y-2.78123
G01 X4.65663 Y-2.78131
G01 X4.65638 Y-2.78123
G01 X4.65598 Y-2.78201
G01 X4.65638 Y-2.78123
G01 X4.65679 Y-2.77980
G01 X4.65693 Y-2.77610
G01 X4.66781 Y-2.77610
G01 X4.66864 Y-2.77622
G01 X4.66941 Y-2.77657
G01 X4.67029 Y-2.77746
G01 X4.67064 Y-2.77823
G01 X4.67076 Y-2.77906
G01 X4.67064 Y-2.77989
G01 X4.67029 Y-2.78065
G01 X4.66941 Y-2.78154
G01 X4.66864 Y-2.78189
G01 X4.66781 Y-2.78201
G01 X4.62844 Y-2.78201
G01 X4.62761 Y-2.78189
G01 X4.62684 Y-2.78154
G01 X4.62596 Y-2.78065
G01 X4.62561 Y-2.77989
G01 X4.62549 Y-2.77906
G01 X4.62552 Y-2.76361
G01 X4.62580 Y-2.76274
G01 X4.62792 Y-2.75858
G01 X4.63010 Y-2.75635
G01 X4.63087 Y-2.75579
G01 X4.63462 Y-2.75392
G01 X4.63548 Y-2.75364
G01 X4.64156 Y-2.75361
G01 X4.64246 Y-2.75375
G01 X4.64704 Y-2.75604
G01 X4.64928 Y-2.75822
G01 X4.64983 Y-2.75899
G01 X4.65170 Y-2.76274
G01 X4.65201 Y-2.76402
G01 X4.65625 Y-2.76106
G04 P0 ( dwell for no time -- G64 should not smooth over this point )
G00 Z0.08000 ( retract )

G00 X4.62366 Y-2.73166 ( rapid move to begin. )
G01 F180.00000
( Mill infeed pass 1/1 )
G01 Z-0.04000
G04 P0 ( dwell for no time -- G64 should not smooth over this point )
G01 F360.00000
G01 X4.62366 Y-2.73166
G01 X4.62392 Y-2.73087
G01 X4.62440 Y-2.73018
G01 X4.62544 Y-2.72946
G01 X4.62625 Y-2.72925
G01 X4.62709 Y-2.72928
G01 X4.65173 Y-2.73747
G01 X4.65173 Y-2.72577
G01 X4.64156 Y-2.72577
G01 X4.64073 Y-2.72565
G01 X4.63997 Y-2.72530
G01 X4.63908 Y-2.72441
G01 X4.63864 Y-2.72323
G01 X4.63864 Y-2.72239
G01 X4.63888 Y-2.72159
G01 X4.63933 Y-2.72088
G01 X4.63997 Y-2.72033
G01 X4.64114 Y-2.71989
G01 X4.65173 Y-2.71986
G01 X4.65173 Y-2.71719
G01 X4.65200 Y-2.71596
G01 X4.65275 Y-2.71496
G01 X4.65346 Y-2.71450
G01 X4.65426 Y-2.71427
G01 X4.65511 Y-2.71427
G01 X4.65591 Y-2.71450
G01 X4.65662 Y-2.71496
G01 X4.65717 Y-2.71559
G01 X4.65761 Y-2.71677
G01 X4.65764 Y-2.71986
G01 X4.66781 Y-2.71986
G01 X4.66864 Y-2.71998
G01 X4.66941 Y-2.72033
G01 X4.67029 Y-2.72122
G01 X4.67064 Y-2.72198
G01 X4.67076 Y-2.72282
G01 X4.67064 Y-2.72365
G01 X4.67029 Y-2.72441
G01 X4.66941 Y-2.72530
G01 X4.66864 Y-2.72565
G01 X4.66781 Y-2.72577
G01 X4.65764 Y-2.72577
G01 X4.65761 Y-2.74199
G01 X4.65736 Y-2.74281
G01 X4.65689 Y-2.74353
G01 X4.65623 Y-2.74408
G01 X4.65545 Y-2.74442
G01 X4.65459 Y-2.74451
G01 X4.65375 Y-2.74436
G01 X4.62563 Y-2.73499
G01 X4.62488 Y-2.73461
G01 X4.62427 Y-2.73404
G01 X4.62370 Y-2.73292
G01 X4.62366 Y-2.73166
G04 P0 ( dwell for no time -- G64 should not smooth over this point )
G00 Z0.08000 ( retract )

G00 X4.55295 Y-2.64188 ( rapid move to begin. )
G01 F180.00000
( Mill infeed pass 1/1 )
G01 Z-0.04000
G04 P0 ( dwell for no time -- G64 should not smooth over this point )
G01 F360.00000
G01 X4.55295 Y-2.64188
G01 X4.55295 Y-2.60000
G01 X4.55283 Y-2.59917
G01 X4.55223 Y-2.59807
G01 X4.55160 Y-2.59752
G01 X4.55042 Y-2.59708
G01 X4.54917 Y-2.59717
G01 X4.54807 Y-2.59777
G01 X4.54731 Y-2.59877
G01 X4.54705 Y-2.60000
G01 X4.54705 Y-2.64705
G01 X4.50000 Y-2.64705
G01 X4.49877 Y-2.64731
G01 X4.49777 Y-2.64807
G01 X4.49717 Y-2.64917
G01 X4.49705 Y-2.65000
G01 X4.49708 Y-2.85042
G01 X4.49751 Y-2.85160
G01 X4.49807 Y-2.85223
G01 X4.49917 Y-2.85283
G01 X4.50000 Y-2.85295
G01 X4.54705 Y-2.85295
G01 X4.54705 Y-2.85812
G01 X4.54809 Y-2.85838
G01 X4.54807 Y-2.85855
G01 X4.54809 Y-2.85838
G01 X4.55000 Y-2.85861
G01 X4.55295 Y-2.85812
G01 X4.55000 Y-2.85861
G01 X4.54705 Y-2.85812
G01 X4.54705 Y-2.90000
G01 X4.54731 Y-2.90123
G01 X4.54807 Y-2.90223
G01 X4.54917 Y-2.90283
G01 X4.55000 Y-2.90295
G01 X4.55083 Y-2.90283
G01 X4.55193 Y-2.90223
G01 X4.55269 Y-2.90123
G01 X4.55295 Y-2.90000
G01 X4.55295 Y-2.85295
G01 X4.60000 Y-2.85295
G01 X4.60123 Y-2.85269
G01 X4.60223 Y-2.85193
G01 X4.60283 Y-2.85083
G01 X4.60295 Y-2.85000
G01 X4.60292 Y-2.64958
G01 X4.60248 Y-2.64840
G01 X4.60193 Y-2.64777
G01 X4.60083 Y-2.64717
G01 X4.60000 Y-2.64705
G01 X4.55295 Y-2.64705
G01 X4.55295 Y-2.64188
G01 X4.55000 Y-2.64139
G01 X4.55000 Y-2.64117
G01 X4.55000 Y-2.64139
G01 X4.54705 Y-2.64188

G04 P0 ( dwell for no time -- G64 should not smooth over this point )
G00 Z1.000000 ( retract )

M5 ( Spindle off. )
G04 P1.000000
M9 ( Coolant off. )
M2 ( Program end. )

