( pcb2gcode 3.0.3 )
( Software-independent Gcode )

G94 ( Millimeters per minute feed rate. )
G21 ( Units == Millimeters. )

G90 ( Absolute coordinates. )
G00 S7000 ( RPM spindle speed. )
G01 F200.00000 ( Feedrate. )


G00 Z25.00000 (Retract to tool change height)
T1
M5      (Spindle stop.)
G04 P1.00000 (Wait for spindle to stop)
(MSG, Change tool bit to mill diameter 0.04000mm)
M6      (Tool change.)
M0      (Temporary machine stop.)
M3 ( Spindle on clockwise. )
G04 P1.00000 (Wait for spindle to get up to speed)
G04 P0 ( dwell for no time -- G64 should not smooth over this point )
G00 Z1.00000 ( retract )

G00 X-6.81997 Y6.61197 ( rapid move to begin. )
G01 F100.00000
( Mill infeed pass 1/1 )
G01 Z-0.02500
G04 P0 ( dwell for no time -- G64 should not smooth over this point )
G01 F200.00000
G01 X-6.81997 Y6.61197
G01 X-6.81997 Y6.84498
G01 X-7.75690 Y6.84537
G01 X-7.77297 Y6.86500
G01 X-7.77297 Y7.16198
G01 X-8.00546 Y7.16198
G01 X-7.99609 Y6.79906
G01 X-7.94625 Y6.70216
G01 X-7.85936 Y6.63653
G01 X-7.75075 Y6.61197
G01 X-6.81997 Y6.61197
G01 X-6.83996 Y6.63196
G01 X-6.83414 Y6.83081
G01 X-7.76078 Y6.82576
G01 X-7.79299 Y6.86500
G01 X-7.78710 Y7.14783
G01 X-7.99113 Y7.14803
G01 X-7.97671 Y6.80401
G01 X-7.93096 Y6.71504
G01 X-7.85095 Y6.65466
G01 X-7.74851 Y6.63196
G01 X-6.83996 Y6.63196
G01 X-6.85997 Y6.65197
G01 X-6.85413 Y6.81080
G01 X-7.77351 Y6.80861
G01 X-7.81206 Y6.85456
G01 X-7.80716 Y7.12781
G01 X-7.97061 Y7.12802
G01 X-7.95684 Y6.80909
G01 X-7.91526 Y6.72825
G01 X-7.84234 Y6.67323
G01 X-7.74625 Y6.65197
G01 X-6.85997 Y6.65197
G04 P0 ( dwell for no time -- G64 should not smooth over this point )
G00 Z1.00000 ( retract )

G00 X-6.81997 Y8.40899 ( rapid move to begin. )
G01 F100.00000
( Mill infeed pass 1/1 )
G01 Z-0.02500
G04 P0 ( dwell for no time -- G64 should not smooth over this point )
G01 F200.00000
G01 X-6.81997 Y8.40899
G01 X-6.81997 Y8.64079
G01 X-7.81849 Y8.63203
G01 X-7.93170 Y8.56614
G01 X-7.99002 Y8.47455
G01 X-8.00597 Y8.38717
G01 X-8.00597 Y8.09098
G01 X-7.77297 Y8.09098
G01 X-7.77297 Y8.38900
G01 X-7.75690 Y8.40861
G01 X-6.81997 Y8.40899
G01 X-6.83996 Y8.42898
G01 X-6.83404 Y8.62659
G01 X-7.81318 Y8.61275
G01 X-7.91786 Y8.55174
G01 X-7.97140 Y8.46723
G01 X-7.99182 Y8.10513
G01 X-7.78715 Y8.10513
G01 X-7.79299 Y8.38900
G01 X-7.76078 Y8.42822
G01 X-6.83996 Y8.42898
G01 X-6.85997 Y8.44899
G01 X-7.76340 Y8.44808
G01 X-7.79896 Y8.42756
G01 X-7.81206 Y8.39941
G01 X-7.80716 Y8.12514
G01 X-7.97183 Y8.12512
G01 X-7.95242 Y8.45979
G01 X-7.90361 Y8.53688
G01 X-7.80770 Y8.59278
G01 X-6.85405 Y8.60642
G01 X-6.85997 Y8.44899
G04 P0 ( dwell for no time -- G64 should not smooth over this point )
G00 Z1.00000 ( retract )

G00 X-6.81997 Y11.69197 ( rapid move to begin. )
G01 F100.00000
( Mill infeed pass 1/1 )
G01 Z-0.02500
G04 P0 ( dwell for no time -- G64 should not smooth over this point )
G01 F200.00000
G01 X-6.81997 Y11.69197
G01 X-6.81997 Y11.92498
G01 X-7.75690 Y11.92537
G01 X-7.77297 Y11.94500
G01 X-7.77297 Y12.24198
G01 X-8.00546 Y12.24198
G01 X-7.99609 Y11.87906
G01 X-7.94625 Y11.78216
G01 X-7.85936 Y11.71653
G01 X-7.75075 Y11.69197
G01 X-6.81997 Y11.69197
G01 X-6.83996 Y11.71195
G01 X-6.83414 Y11.91081
G01 X-7.76078 Y11.90576
G01 X-7.79299 Y11.94500
G01 X-7.78710 Y12.22783
G01 X-7.99113 Y12.22803
G01 X-7.97671 Y11.88401
G01 X-7.93096 Y11.79504
G01 X-7.85095 Y11.73466
G01 X-7.74851 Y11.71195
G01 X-6.83996 Y11.71195
G01 X-6.85997 Y11.73197
G01 X-7.74625 Y11.73197
G01 X-7.84234 Y11.75323
G01 X-7.91526 Y11.80825
G01 X-7.95684 Y11.88909
G01 X-7.97061 Y12.20802
G01 X-7.80716 Y12.20781
G01 X-7.81206 Y11.93456
G01 X-7.77351 Y11.88861
G01 X-6.85413 Y11.89080
G01 X-6.85997 Y11.73197
G04 P0 ( dwell for no time -- G64 should not smooth over this point )
G00 Z1.00000 ( retract )

G00 X-6.81997 Y13.48899 ( rapid move to begin. )
G01 F100.00000
( Mill infeed pass 1/1 )
G01 Z-0.02500
G04 P0 ( dwell for no time -- G64 should not smooth over this point )
G01 F200.00000
G01 X-6.81997 Y13.48899
G01 X-6.81997 Y13.72079
G01 X-7.81849 Y13.71203
G01 X-7.93170 Y13.64614
G01 X-7.99002 Y13.55455
G01 X-8.00597 Y13.46717
G01 X-8.00597 Y13.17098
G01 X-7.77297 Y13.17098
G01 X-7.77297 Y13.46900
G01 X-7.75690 Y13.48861
G01 X-6.81997 Y13.48899
G01 X-6.83996 Y13.50898
G01 X-6.83404 Y13.70659
G01 X-7.81318 Y13.69275
G01 X-7.91786 Y13.63174
G01 X-7.97140 Y13.54723
G01 X-7.99182 Y13.18513
G01 X-7.78715 Y13.18513
G01 X-7.79299 Y13.46900
G01 X-7.76078 Y13.50822
G01 X-6.83996 Y13.50898
G01 X-6.85997 Y13.52899
G01 X-7.76340 Y13.52808
G01 X-7.79157 Y13.51495
G01 X-7.81206 Y13.47941
G01 X-7.80716 Y13.20514
G01 X-7.97183 Y13.20512
G01 X-7.95242 Y13.53979
G01 X-7.90361 Y13.61688
G01 X-7.80770 Y13.67278
G01 X-6.85405 Y13.68642
G01 X-6.85997 Y13.52899
G04 P0 ( dwell for no time -- G64 should not smooth over this point )
G00 Z1.00000 ( retract )

G00 X-4.95599 Y22.41597 ( rapid move to begin. )
G01 F100.00000
( Mill infeed pass 1/1 )
G01 Z-0.02500
G04 P0 ( dwell for no time -- G64 should not smooth over this point )
G01 F200.00000
G01 X-4.95599 Y22.41597
G01 X-4.95014 Y22.55880
G01 X-5.86950 Y22.55661
G01 X-5.90808 Y22.60256
G01 X-5.90318 Y22.87581
G01 X-6.05032 Y22.87592
G01 X-6.04153 Y22.57805
G01 X-6.00432 Y22.49486
G01 X-5.93566 Y22.43761
G01 X-5.84199 Y22.41597
G01 X-4.95599 Y22.41597
G01 X-4.93597 Y22.39596
G01 X-5.84433 Y22.39596
G01 X-5.94486 Y22.41922
G01 X-6.02068 Y22.48247
G01 X-6.06150 Y22.57366
G01 X-6.07054 Y22.89591
G01 X-5.88314 Y22.89583
G01 X-5.88898 Y22.61300
G01 X-5.85680 Y22.57376
G01 X-4.93016 Y22.57881
G01 X-4.93597 Y22.39596
G01 X-4.91598 Y22.37597
G01 X-5.84666 Y22.37597
G01 X-5.95380 Y22.40134
G01 X-6.03663 Y22.47038
G01 X-6.08103 Y22.56936
G01 X-6.08474 Y22.90998
G01 X-5.86899 Y22.90998
G01 X-5.86899 Y22.61300
G01 X-5.85289 Y22.59337
G01 X-4.91598 Y22.59298
G01 X-4.91598 Y22.37597
G04 P0 ( dwell for no time -- G64 should not smooth over this point )
G00 Z1.00000 ( retract )

G00 X-1.51297 Y24.49199 ( rapid move to begin. )
G01 F100.00000
( Mill infeed pass 1/1 )
G01 Z-0.02500
G04 P0 ( dwell for no time -- G64 should not smooth over this point )
G01 F200.00000
G01 X-1.51297 Y24.49199
G01 X-1.51297 Y47.90800
G01 X-1.53316 Y47.97523
G01 X-1.58490 Y48.01968
G01 X-46.25997 Y48.02997
G01 X-46.35159 Y47.98862
G01 X-46.38199 Y47.90800
G01 X-46.38199 Y46.12799
G01 X-78.52389 Y46.12710
G01 X-78.58546 Y46.10660
G01 X-78.62998 Y46.04798
G01 X-78.63999 Y28.43199
G01 X-78.62069 Y28.36770
G01 X-78.57029 Y28.32185
G01 X-47.32596 Y28.31665
G01 X-45.76038 Y29.42868
G01 X-45.71034 Y29.50826
G01 X-45.70897 Y40.26415
G01 X-45.69299 Y40.35061
G01 X-45.64719 Y40.42386
G01 X-45.55715 Y40.48609
G01 X-45.47137 Y40.50192
G01 X-45.30193 Y40.49805
G01 X-45.22113 Y40.46684
G01 X-45.14481 Y40.39051
G01 X-45.10897 Y40.26323
G01 X-45.10998 Y29.32236
G01 X-45.14648 Y29.21751
G01 X-45.20734 Y29.15198
G01 X-47.10863 Y27.75767
G01 X-47.23068 Y27.71098
G01 X-80.42099 Y27.70994
G01 X-80.50163 Y27.67959
G01 X-80.54298 Y27.58800
G01 X-80.54298 Y25.76598
G01 X-80.53099 Y25.71249
G01 X-80.48822 Y25.66417
G01 X-80.42099 Y25.64398
G01 X-78.85371 Y25.64297
G01 X-78.76950 Y25.61957
G01 X-78.71553 Y25.58300
G01 X-78.62277 Y25.42971
G01 X-78.54705 Y25.38808
G01 X-78.36603 Y25.40497
G01 X-77.43397 Y25.40497
G01 X-77.43397 Y25.17299
G01 X-78.36699 Y25.17299
G01 X-78.38698 Y25.15300
G01 X-78.38363 Y23.61787
G01 X-77.43397 Y23.60898
G01 X-77.43397 Y23.37594
G01 X-78.28127 Y23.37470
G01 X-78.35406 Y23.33609
G01 X-78.38355 Y23.27310
G01 X-78.37954 Y20.41049
G01 X-78.34159 Y20.35370
G01 X-78.27799 Y20.32598
G01 X-77.43397 Y20.32499
G01 X-77.43397 Y20.09299
G01 X-78.38363 Y20.08410
G01 X-78.38660 Y18.54509
G01 X-78.36699 Y18.52898
G01 X-77.43397 Y18.52898
G01 X-77.43397 Y18.29597
G01 X-78.36582 Y18.29597
G01 X-78.53229 Y18.31494
G01 X-78.62190 Y18.27432
G01 X-78.71649 Y18.11994
G01 X-78.83118 Y18.06297
G01 X-80.42101 Y18.05898
G01 X-80.50107 Y18.02911
G01 X-80.54169 Y17.95530
G01 X-80.54197 Y1.63499
G01 X-80.52177 Y1.56773
G01 X-80.47006 Y1.52328
G01 X-53.70196 Y1.51297
G01 X-53.62284 Y1.54286
G01 X-53.58225 Y1.61665
G01 X-53.58294 Y2.71698
G01 X-53.36696 Y2.71698
G01 X-53.36696 Y1.78500
G01 X-53.34697 Y1.76498
G01 X-51.81187 Y1.76836
G01 X-51.80298 Y2.71698
G01 X-51.58602 Y2.71698
G01 X-51.58868 Y1.63146
G01 X-51.55859 Y1.55432
G01 X-51.46699 Y1.51297
G01 X-1.63499 Y1.51297
G01 X-1.56773 Y1.53316
G01 X-1.52198 Y1.59193
G01 X-1.51398 Y6.25093
G01 X-1.53270 Y6.31603
G01 X-1.57118 Y6.35492
G01 X-1.63494 Y6.37298
G01 X-3.22427 Y6.37696
G01 X-3.34131 Y6.43500
G01 X-3.43343 Y6.58758
G01 X-3.52462 Y6.63094
G01 X-3.69013 Y6.61197
G01 X-4.62096 Y6.61197
G01 X-4.62096 Y6.84498
G01 X-3.68898 Y6.84498
G01 X-3.66899 Y6.86500
G01 X-3.67235 Y8.40010
G01 X-4.62096 Y8.40899
G01 X-4.62096 Y8.64099
G01 X-3.77369 Y8.64226
G01 X-3.70087 Y8.68087
G01 X-3.67141 Y8.74384
G01 X-3.67542 Y11.60642
G01 X-3.71334 Y11.66324
G01 X-3.77697 Y11.69097
G01 X-4.62096 Y11.69194
G01 X-4.62096 Y11.92498
G01 X-3.67235 Y11.93387
G01 X-3.66938 Y13.47289
G01 X-3.68898 Y13.48899
G01 X-4.62096 Y13.48899
G01 X-4.62096 Y13.72097
G01 X-3.68992 Y13.72097
G01 X-3.50897 Y13.70408
G01 X-3.43323 Y13.74464
G01 X-3.38218 Y13.84784
G01 X-3.34047 Y13.89585
G01 X-3.22424 Y13.95399
G01 X-1.63494 Y13.95798
G01 X-1.55488 Y13.98782
G01 X-1.51398 Y14.06499
G01 X-1.51426 Y22.27427
G01 X-1.55483 Y22.34904
G01 X-1.63504 Y22.37899
G01 X-2.71698 Y22.37602
G01 X-2.71698 Y22.59298
G01 X-1.78500 Y22.59298
G01 X-1.76498 Y22.61300
G01 X-1.76836 Y24.14810
G01 X-2.71698 Y24.15699
G01 X-2.71698 Y24.37294
G01 X-1.61665 Y24.37225
G01 X-1.54540 Y24.41038
G01 X-1.51297 Y24.49199
G01 X-1.49298 Y24.49199
G01 X-1.49298 Y47.90800
G01 X-1.51332 Y47.98112
G01 X-1.57131 Y48.03522
G01 X-46.25997 Y48.04996
G01 X-46.36622 Y48.00226
G01 X-46.40198 Y47.90800
G01 X-46.39614 Y46.14214
G01 X-78.52980 Y46.14620
G01 X-78.59793 Y46.12222
G01 X-78.64997 Y46.04798
G01 X-78.65998 Y28.43199
G01 X-78.63841 Y28.35843
G01 X-78.58063 Y28.30473
G01 X-47.31795 Y28.29831
G01 X-45.74879 Y29.41238
G01 X-45.69068 Y29.50455
G01 X-45.68898 Y40.26232
G01 X-45.67437 Y40.34337
G01 X-45.63274 Y40.41004
G01 X-45.54948 Y40.46763
G01 X-45.46977 Y40.48187
G01 X-45.30582 Y40.47845
G01 X-45.23203 Y40.45007
G01 X-45.16205 Y40.38040
G01 X-45.12878 Y40.26049
G01 X-45.12969 Y29.32569
G01 X-45.16363 Y29.22782
G01 X-45.22063 Y29.16691
G01 X-47.11821 Y27.77525
G01 X-47.23431 Y27.73064
G01 X-80.42099 Y27.72996
G01 X-80.51527 Y27.69422
G01 X-80.56297 Y27.58800
G01 X-80.56297 Y25.76598
G01 X-80.54804 Y25.70200
G01 X-80.50046 Y25.64835
G01 X-80.42101 Y25.62399
G01 X-78.85642 Y25.62315
G01 X-78.77789 Y25.60144
G01 X-78.72897 Y25.56816
G01 X-78.63857 Y25.41744
G01 X-78.54911 Y25.36819
G01 X-78.36509 Y25.38498
G01 X-77.44812 Y25.39082
G01 X-77.44812 Y25.18714
G01 X-78.36699 Y25.19298
G01 X-78.39526 Y25.18127
G01 X-78.40700 Y25.15300
G01 X-78.40024 Y23.60677
G01 X-78.36699 Y23.58900
G01 X-77.44812 Y23.59484
G01 X-77.44812 Y23.39009
G01 X-78.28457 Y23.39443
G01 X-78.36717 Y23.35120
G01 X-78.40311 Y23.27721
G01 X-78.39808 Y20.40302
G01 X-78.35322 Y20.33741
G01 X-78.27801 Y20.30599
G01 X-77.44812 Y20.31087
G01 X-77.44812 Y20.10714
G01 X-78.36699 Y20.11298
G01 X-78.40024 Y20.09520
G01 X-78.40621 Y18.54118
G01 X-78.36699 Y18.50899
G01 X-77.44812 Y18.51484
G01 X-77.44812 Y18.31011
G01 X-78.36465 Y18.31595
G01 X-78.53359 Y18.33490
G01 X-78.63585 Y18.28868
G01 X-78.72993 Y18.13475
G01 X-78.83438 Y18.08271
G01 X-80.42106 Y18.07897
G01 X-80.51415 Y18.04423
G01 X-80.56140 Y17.95863
G01 X-80.56196 Y1.63499
G01 X-80.54161 Y1.56184
G01 X-80.48365 Y1.50773
G01 X-53.70196 Y1.49298
G01 X-53.60971 Y1.52777
G01 X-53.56252 Y1.61332
G01 X-53.56879 Y2.70283
G01 X-53.38111 Y2.70283
G01 X-53.38693 Y1.78500
G01 X-53.36917 Y1.75173
G01 X-51.82300 Y1.74499
G01 X-51.79470 Y1.75670
G01 X-51.78299 Y1.78500
G01 X-51.78884 Y2.70283
G01 X-51.60019 Y2.70285
G01 X-51.60837 Y1.62793
G01 X-51.57322 Y1.54068
G01 X-51.46699 Y1.49298
G01 X-1.62379 Y1.49455
G01 X-1.55549 Y1.51736
G01 X-1.50199 Y1.59191
G01 X-1.49399 Y6.25090
G01 X-1.51540 Y6.32606
G01 X-1.56237 Y6.37287
G01 X-1.63489 Y6.39297
G01 X-3.21967 Y6.39645
G01 X-3.32891 Y6.45070
G01 X-3.42434 Y6.60648
G01 X-3.52325 Y6.65090
G01 X-3.69130 Y6.63193
G01 X-4.60681 Y6.62611
G01 X-4.60681 Y6.83084
G01 X-3.68898 Y6.82500
G01 X-3.66071 Y6.83670
G01 X-3.64898 Y6.86500
G01 X-3.65574 Y8.41120
G01 X-3.68898 Y8.42898
G01 X-4.60681 Y8.42314
G01 X-4.60681 Y8.62685
G01 X-3.77039 Y8.62253
G01 X-3.68776 Y8.66576
G01 X-3.65185 Y8.73972
G01 X-3.65685 Y11.61389
G01 X-3.70171 Y11.67952
G01 X-3.77694 Y11.71096
G01 X-4.60681 Y11.70606
G01 X-4.60681 Y11.91084
G01 X-3.68898 Y11.90499
G01 X-3.65574 Y11.92277
G01 X-3.64977 Y13.47680
G01 X-3.68898 Y13.50898
G01 X-4.60681 Y13.50314
G01 X-4.60681 Y13.70682
G01 X-3.69086 Y13.70100
G01 X-3.50699 Y13.68416
G01 X-3.41748 Y13.73232
G01 X-3.32823 Y13.88005
G01 X-3.21962 Y13.93451
G01 X-1.63489 Y13.93799
G01 X-1.54179 Y13.97273
G01 X-1.49620 Y14.05185
G01 X-1.49453 Y22.27754
G01 X-1.54169 Y22.36413
G01 X-1.62793 Y22.39837
G01 X-2.70285 Y22.39019
G01 X-2.70283 Y22.57884
G01 X-1.78500 Y22.57299
G01 X-1.75670 Y22.58470
G01 X-1.74499 Y22.61300
G01 X-1.75173 Y24.15920
G01 X-1.78500 Y24.17698
G01 X-2.70283 Y24.17114
G01 X-2.70283 Y24.35879
G01 X-1.61332 Y24.35252
G01 X-1.52777 Y24.39971
G01 X-1.49298 Y24.49199
G01 X-1.47395 Y24.48117
G01 X-1.51269 Y24.38661
G01 X-1.61002 Y24.33281
G01 X-2.68284 Y24.33878
G01 X-2.68284 Y24.19113
G01 X-1.78500 Y24.19699
G01 X-1.74642 Y24.18295
G01 X-1.72498 Y24.13700
G01 X-1.73303 Y22.58298
G01 X-1.78500 Y22.55298
G01 X-2.68284 Y22.55885
G01 X-2.68284 Y22.41026
G01 X-1.62440 Y22.41805
G01 X-1.52856 Y22.37922
G01 X-1.47479 Y22.28082
G01 X-1.47482 Y14.05500
G01 X-1.52871 Y13.95759
G01 X-1.63484 Y13.91797
G01 X-3.21487 Y13.91454
G01 X-3.31573 Y13.86394
G01 X-3.40585 Y13.71525
G01 X-3.50501 Y13.66428
G01 X-3.69183 Y13.68099
G01 X-4.58682 Y13.68683
G01 X-4.58682 Y13.52313
G01 X-3.68898 Y13.52899
G01 X-3.64304 Y13.50756
G01 X-3.62899 Y13.46900
G01 X-3.63702 Y11.91498
G01 X-3.68898 Y11.88498
G01 X-4.58682 Y11.89085
G01 X-4.58680 Y11.72608
G01 X-3.76409 Y11.72956
G01 X-3.68154 Y11.68838
G01 X-3.63509 Y11.61041
G01 X-3.63227 Y8.73561
G01 X-3.66991 Y8.65524
G01 X-3.76709 Y8.60282
G01 X-4.58680 Y8.60688
G01 X-4.58682 Y8.44313
G01 X-3.68898 Y8.44899
G01 X-3.63702 Y8.41900
G01 X-3.62990 Y6.85456
G01 X-3.65043 Y6.81903
G01 X-3.68898 Y6.80498
G01 X-4.58682 Y6.81085
G01 X-4.58682 Y6.64610
G01 X-3.69246 Y6.65194
G01 X-3.52188 Y6.67084
G01 X-3.40692 Y6.61778
G01 X-3.31626 Y6.46675
G01 X-3.21497 Y6.41644
G01 X-1.63484 Y6.41298
G01 X-1.55356 Y6.39083
G01 X-1.50070 Y6.34021
G01 X-1.47398 Y6.25085
G01 X-1.48198 Y1.59186
G01 X-1.49061 Y1.56097
G01 X-1.54324 Y1.50154
G01 X-1.63499 Y1.47296
G01 X-51.46699 Y1.47296
G01 X-51.58449 Y1.52371
G01 X-51.62805 Y1.62440
G01 X-51.62026 Y2.68284
G01 X-51.76885 Y2.68284
G01 X-51.76298 Y1.78500
G01 X-51.77703 Y1.74642
G01 X-51.82300 Y1.72498
G01 X-53.37697 Y1.73303
G01 X-53.40694 Y1.78500
G01 X-53.40110 Y2.68284
G01 X-53.54878 Y2.68284
G01 X-53.54281 Y1.61002
G01 X-53.59658 Y1.51269
G01 X-53.70196 Y1.47296
G01 X-80.46300 Y1.48198
G01 X-80.49399 Y1.49061
G01 X-80.55340 Y1.54324
G01 X-80.57958 Y1.61820
G01 X-80.58113 Y17.96196
G01 X-80.52724 Y18.05936
G01 X-80.42111 Y18.09899
G01 X-78.83760 Y18.10270
G01 X-78.74347 Y18.14971
G01 X-78.64977 Y18.30303
G01 X-78.53491 Y18.35487
G01 X-78.36351 Y18.33597
G01 X-77.46811 Y18.33010
G01 X-77.46811 Y18.49485
G01 X-78.36699 Y18.48898
G01 X-78.41294 Y18.51042
G01 X-78.42699 Y18.54900
G01 X-78.41896 Y20.10300
G01 X-78.36699 Y20.13299
G01 X-77.46811 Y20.12713
G01 X-77.46814 Y20.29086
G01 X-78.29087 Y20.28740
G01 X-78.37339 Y20.32855
G01 X-78.41987 Y20.40653
G01 X-78.42269 Y23.28135
G01 X-78.38502 Y23.36172
G01 X-78.28787 Y23.41414
G01 X-77.46814 Y23.41005
G01 X-77.46811 Y23.57485
G01 X-78.36699 Y23.56898
G01 X-78.41896 Y23.59898
G01 X-78.42607 Y25.16341
G01 X-78.40555 Y25.19895
G01 X-78.36699 Y25.21299
G01 X-77.46811 Y25.20713
G01 X-77.46811 Y25.37083
G01 X-78.36412 Y25.36496
G01 X-78.55119 Y25.34830
G01 X-78.65038 Y25.40052
G01 X-78.74253 Y25.55320
G01 X-78.78640 Y25.58305
G01 X-78.85914 Y25.60316
G01 X-80.42101 Y25.60398
G01 X-80.51271 Y25.63255
G01 X-80.56506 Y25.69153
G01 X-80.58299 Y25.76598
G01 X-80.58299 Y27.58800
G01 X-80.52533 Y27.71192
G01 X-80.42099 Y27.74997
G01 X-47.23802 Y27.75066
G01 X-47.12786 Y27.79297
G01 X-45.23399 Y29.18192
G01 X-45.18113 Y29.23836
G01 X-45.14971 Y29.32906
G01 X-45.14877 Y40.25772
G01 X-45.17988 Y40.36996
G01 X-45.24318 Y40.43295
G01 X-45.30978 Y40.45853
G01 X-45.46817 Y40.46183
G01 X-45.54163 Y40.44873
G01 X-45.61796 Y40.39595
G01 X-45.65537 Y40.33598
G01 X-45.66896 Y40.26049
G01 X-45.67102 Y29.50084
G01 X-45.73721 Y29.39607
G01 X-47.31572 Y28.27781
G01 X-78.59097 Y28.28761
G01 X-78.65612 Y28.34916
G01 X-78.67999 Y28.43201
G01 X-78.66999 Y46.04801
G01 X-78.61040 Y46.13787
G01 X-78.53572 Y46.16530
G01 X-46.41613 Y46.16213
G01 X-46.42199 Y47.90800
G01 X-46.37749 Y48.01922
G01 X-46.25997 Y48.06997
G01 X-1.57073 Y48.05709
G01 X-1.50154 Y47.99972
G01 X-1.47296 Y47.90800
G01 X-1.47296 Y24.49199
G04 P0 ( dwell for no time -- G64 should not smooth over this point )
G00 Z1.00000 ( retract )

G00 X-4.91598 Y24.15699 ( rapid move to begin. )
G01 F100.00000
( Mill infeed pass 1/1 )
G01 Z-0.02500
G04 P0 ( dwell for no time -- G64 should not smooth over this point )
G01 F200.00000
G01 X-4.91598 Y24.15699
G01 X-4.91598 Y24.37276
G01 X-5.91367 Y24.36303
G01 X-6.00717 Y24.31076
G01 X-6.06909 Y24.22115
G01 X-6.08497 Y24.13515
G01 X-6.08497 Y23.83898
G01 X-5.86899 Y23.83898
G01 X-5.86899 Y24.13700
G01 X-5.85289 Y24.15661
G01 X-4.91598 Y24.15699
G01 X-4.93597 Y24.17698
G01 X-5.85680 Y24.17622
G01 X-5.88898 Y24.13700
G01 X-5.88316 Y23.85313
G01 X-6.07082 Y23.85313
G01 X-6.05063 Y24.21348
G01 X-5.99370 Y24.29598
G01 X-5.90854 Y24.34371
G01 X-4.93005 Y24.35856
G01 X-4.93597 Y24.17698
G01 X-4.95599 Y24.19699
G01 X-5.86950 Y24.19336
G01 X-5.90808 Y24.14741
G01 X-5.90318 Y23.87314
G01 X-6.05083 Y23.87312
G01 X-6.03173 Y24.20563
G01 X-5.97989 Y24.28079
G01 X-5.90323 Y24.32377
G01 X-4.95004 Y24.33837
G01 X-4.95599 Y24.19699
G04 P0 ( dwell for no time -- G64 should not smooth over this point )
G00 Z1.00000 ( retract )

G00 X-38.24401 Y41.94646 ( rapid move to begin. )
G01 F100.00000
( Mill infeed pass 1/1 )
G01 Z-0.02500
G04 P0 ( dwell for no time -- G64 should not smooth over this point )
G01 F200.00000
G01 X-38.24401 Y41.94646
G01 X-38.24894 Y42.18743
G01 X-38.30499 Y42.42249
G01 X-38.38442 Y42.59800
G01 X-38.52318 Y42.79482
G01 X-38.66240 Y42.92718
G01 X-38.86506 Y43.05802
G01 X-39.09026 Y43.14359
G01 X-39.27946 Y43.17595
G01 X-39.52043 Y43.17102
G01 X-39.75549 Y43.11497
G01 X-39.93100 Y43.03554
G01 X-40.12782 Y42.89678
G01 X-40.26018 Y42.75754
G01 X-40.39102 Y42.55490
G01 X-40.47659 Y42.32967
G01 X-40.50895 Y42.14049
G01 X-40.50402 Y41.89952
G01 X-40.44797 Y41.66447
G01 X-40.36854 Y41.48893
G01 X-40.22978 Y41.29211
G01 X-40.09054 Y41.15975
G01 X-39.88790 Y41.02891
G01 X-39.66267 Y40.94337
G01 X-39.47349 Y40.91101
G01 X-39.23252 Y40.91594
G01 X-38.99747 Y40.97199
G01 X-38.82193 Y41.05142
G01 X-38.62511 Y41.19018
G01 X-38.49275 Y41.32940
G01 X-38.36191 Y41.53206
G01 X-38.27637 Y41.75726
G01 X-38.24401 Y41.94646
G01 X-38.26395 Y41.94796
G01 X-38.26877 Y42.18489
G01 X-38.32392 Y42.41601
G01 X-38.40179 Y42.58807
G01 X-38.53832 Y42.78177
G01 X-38.67477 Y42.91146
G01 X-38.87408 Y43.04016
G01 X-39.09552 Y43.12431
G01 X-39.28096 Y43.15601
G01 X-39.51787 Y43.15106
G01 X-39.74898 Y43.09597
G01 X-39.92102 Y43.01809
G01 X-40.11469 Y42.88156
G01 X-40.24438 Y42.74512
G01 X-40.37306 Y42.54583
G01 X-40.45721 Y42.32439
G01 X-40.48891 Y42.13900
G01 X-40.48406 Y41.90209
G01 X-40.42897 Y41.67098
G01 X-40.35109 Y41.49892
G01 X-40.21457 Y41.30524
G01 X-40.07812 Y41.17555
G01 X-39.87883 Y41.04687
G01 X-39.65739 Y40.96275
G01 X-39.47200 Y40.93105
G01 X-39.23506 Y40.93577
G01 X-39.00395 Y40.99092
G01 X-38.83187 Y41.06879
G01 X-38.63816 Y41.20532
G01 X-38.50847 Y41.34177
G01 X-38.37977 Y41.54108
G01 X-38.29565 Y41.76252
G01 X-38.26395 Y41.94796
G01 X-38.28399 Y41.94946
G01 X-38.31505 Y41.76780
G01 X-38.39770 Y41.55015
G01 X-38.52425 Y41.35419
G01 X-38.65130 Y41.22053
G01 X-38.84185 Y41.08622
G01 X-39.01045 Y41.00992
G01 X-39.23760 Y40.95574
G01 X-39.47050 Y40.95109
G01 X-39.65211 Y40.98213
G01 X-39.86976 Y41.06480
G01 X-40.06570 Y41.19132
G01 X-40.19935 Y41.31837
G01 X-40.33367 Y41.50887
G01 X-40.40994 Y41.67748
G01 X-40.46412 Y41.90463
G01 X-40.46887 Y42.13750
G01 X-40.43783 Y42.31911
G01 X-40.35513 Y42.53676
G01 X-40.22861 Y42.73270
G01 X-40.10156 Y42.86635
G01 X-39.91106 Y43.00067
G01 X-39.74248 Y43.07694
G01 X-39.51533 Y43.13112
G01 X-39.28246 Y43.13597
G01 X-39.10080 Y43.10491
G01 X-38.88315 Y43.02223
G01 X-38.68719 Y42.89569
G01 X-38.55353 Y42.76864
G01 X-38.41922 Y42.57809
G01 X-38.34292 Y42.40951
G01 X-38.28874 Y42.18235
G01 X-38.28399 Y41.94946
G01 X-38.41942 Y42.10836
G01 X-38.45450 Y42.30877
G01 X-38.52259 Y42.48116
G01 X-38.61546 Y42.62807
G01 X-38.75069 Y42.77120
G01 X-38.90232 Y42.87811
G01 X-39.07758 Y42.95581
G01 X-39.25292 Y42.99566
G01 X-39.43837 Y43.00176
G01 X-39.62732 Y42.97049
G01 X-39.81147 Y42.89973
G01 X-39.97276 Y42.79642
G01 X-40.10628 Y42.66787
G01 X-40.20684 Y42.52609
G01 X-40.28604 Y42.35172
G01 X-40.32975 Y42.15934
G01 X-40.33367 Y41.96765
G01 X-40.30265 Y41.79056
G01 X-40.23659 Y41.61718
G01 X-40.13141 Y41.45073
G01 X-40.00329 Y41.31677
G01 X-39.86186 Y41.21576
G01 X-39.67639 Y41.13217
G01 X-39.48937 Y41.09087
G01 X-39.30385 Y41.08705
G01 X-39.12666 Y41.11748
G01 X-38.94251 Y41.18825
G01 X-38.79051 Y41.28431
G01 X-38.65528 Y41.41134
G01 X-38.54129 Y41.57212
G01 X-38.46793 Y41.73625
G01 X-38.42569 Y41.91695
G01 X-38.41942 Y42.10836
G01 X-38.43944 Y42.10890
G01 X-38.47103 Y42.29396
G01 X-38.53603 Y42.46356
G01 X-38.63710 Y42.62350
G01 X-38.76229 Y42.75492
G01 X-38.90375 Y42.85596
G01 X-39.07446 Y42.93376
G01 X-39.25734 Y42.97615
G01 X-39.44675 Y42.98121
G01 X-39.63151 Y42.94870
G01 X-39.80077 Y42.88281
G01 X-39.95277 Y42.78677
G01 X-40.08490 Y42.66213
G01 X-40.19442 Y42.50770
G01 X-40.27027 Y42.33610
G01 X-40.30976 Y42.15881
G01 X-40.31454 Y41.97908
G01 X-40.28294 Y41.79401
G01 X-40.21446 Y41.61751
G01 X-40.11688 Y41.46447
G01 X-39.99750 Y41.33813
G01 X-39.84342 Y41.22810
G01 X-39.67194 Y41.15167
G01 X-39.49663 Y41.11182
G01 X-39.31507 Y41.10621
G01 X-39.13004 Y41.13719
G01 X-38.95320 Y41.20516
G01 X-38.80121 Y41.30120
G01 X-38.66908 Y41.42584
G01 X-38.55955 Y41.58027
G01 X-38.48371 Y41.75187
G01 X-38.44421 Y41.92917
G01 X-38.43944 Y42.10890
G01 X-38.45943 Y42.10943
G01 X-38.49074 Y42.29051
G01 X-38.55467 Y42.45634
G01 X-38.65165 Y42.60976
G01 X-38.77101 Y42.73610
G01 X-38.91535 Y42.83968
G01 X-39.08266 Y42.91552
G01 X-39.26179 Y42.95665
G01 X-39.44334 Y42.96150
G01 X-39.62435 Y42.93003
G01 X-39.79011 Y42.86592
G01 X-39.94207 Y42.76986
G01 X-40.07113 Y42.64766
G01 X-40.17423 Y42.50295
G01 X-40.24952 Y42.33539
G01 X-40.28975 Y42.15827
G01 X-40.29427 Y41.97456
G01 X-40.26219 Y41.79368
G01 X-40.19757 Y41.62820
G01 X-40.10471 Y41.48126
G01 X-39.98297 Y41.35188
G01 X-39.83862 Y41.24829
G01 X-39.67131 Y41.17245
G01 X-39.49219 Y41.13133
G01 X-39.31063 Y41.12648
G01 X-39.12963 Y41.15795
G01 X-38.96387 Y41.22206
G01 X-38.81190 Y41.31812
G01 X-38.68284 Y41.44032
G01 X-38.57974 Y41.58502
G01 X-38.50446 Y41.75259
G01 X-38.46471 Y41.92581
G01 X-38.45943 Y42.10943
G04 P0 ( dwell for no time -- G64 should not smooth over this point )
G00 Z1.00000 ( retract )

G00 X-40.91555 Y41.50996 ( rapid move to begin. )
G01 F100.00000
( Mill infeed pass 1/1 )
G01 Z-0.02500
G04 P0 ( dwell for no time -- G64 should not smooth over this point )
G01 F200.00000
G01 X-40.91555 Y41.50996
G01 X-41.16889 Y41.50996
G01 X-41.26633 Y41.39368
G01 X-41.38296 Y41.29587
G01 X-41.38296 Y41.04255
G01 X-41.24387 Y41.12714
G01 X-41.09531 Y41.25800
G01 X-41.00026 Y41.37070
G01 X-40.91555 Y41.50996
G01 X-40.95111 Y41.48995
G01 X-41.01649 Y41.38236
G01 X-41.10958 Y41.27199
G01 X-41.37316 Y41.05998
G01 X-41.36483 Y41.28738
G01 X-41.25099 Y41.38083
G01 X-41.16044 Y41.49185
G01 X-40.95111 Y41.48995
G01 X-40.98670 Y41.46996
G01 X-41.12394 Y41.28601
G01 X-41.35317 Y41.09556
G01 X-41.34481 Y41.27801
G01 X-41.23567 Y41.36800
G01 X-41.15109 Y41.47184
G01 X-40.98670 Y41.46996
G04 P0 ( dwell for no time -- G64 should not smooth over this point )
G00 Z1.00000 ( retract )

G00 X-40.91555 Y42.57697 ( rapid move to begin. )
G01 F100.00000
( Mill infeed pass 1/1 )
G01 Z-0.02500
G04 P0 ( dwell for no time -- G64 should not smooth over this point )
G01 F200.00000
G01 X-40.91555 Y42.57697
G01 X-41.16816 Y42.57697
G01 X-41.26884 Y42.69681
G01 X-41.38296 Y42.79211
G01 X-41.38296 Y43.04440
G01 X-41.24370 Y42.95967
G01 X-41.13100 Y42.86465
G01 X-41.00014 Y42.71608
G01 X-40.91555 Y42.57697
G01 X-40.95111 Y42.59696
G01 X-41.15970 Y42.59508
G01 X-41.25099 Y42.70712
G01 X-41.36483 Y42.80059
G01 X-41.37316 Y43.02698
G01 X-41.14499 Y42.85035
G01 X-41.01627 Y42.70425
G01 X-40.95111 Y42.59696
G01 X-40.98667 Y42.61697
G01 X-41.03242 Y42.69233
G01 X-41.15901 Y42.83602
G01 X-41.35317 Y42.99139
G01 X-41.34481 Y42.80996
G01 X-41.23564 Y42.71994
G01 X-41.15035 Y42.61509
G01 X-40.98667 Y42.61697
G04 P0 ( dwell for no time -- G64 should not smooth over this point )
G00 Z1.00000 ( retract )

G00 X-42.44997 Y42.79284 ( rapid move to begin. )
G01 F100.00000
( Mill infeed pass 1/1 )
G01 Z-0.02500
G04 P0 ( dwell for no time -- G64 should not smooth over this point )
G01 F200.00000
G01 X-42.44997 Y42.79284
G01 X-42.44997 Y43.04440
G01 X-42.58908 Y42.95980
G01 X-42.73765 Y42.82894
G01 X-42.83267 Y42.71626
G01 X-42.91740 Y42.57697
G01 X-42.66582 Y42.57697
G01 X-42.56513 Y42.69681
G01 X-42.44997 Y42.79284
G01 X-42.46996 Y42.80219
G01 X-42.57793 Y42.71217
G01 X-42.67428 Y42.59508
G01 X-42.89998 Y42.58677
G01 X-42.72332 Y42.81492
G01 X-42.45977 Y43.02698
G01 X-42.46996 Y42.80219
G01 X-42.48997 Y42.81156
G01 X-42.59073 Y42.72751
G01 X-42.68362 Y42.61509
G01 X-42.86439 Y42.60676
G01 X-42.70900 Y42.80089
G01 X-42.47976 Y42.99139
G01 X-42.48997 Y42.81156
G04 P0 ( dwell for no time -- G64 should not smooth over this point )
G00 Z1.00000 ( retract )

G00 X-42.48997 Y41.11367 ( rapid move to begin. )
G01 F100.00000
( Mill infeed pass 1/1 )
G01 Z-0.02500
G04 P0 ( dwell for no time -- G64 should not smooth over this point )
G01 F200.00000
G01 X-42.48997 Y41.11367
G01 X-42.48812 Y41.27728
G01 X-42.59830 Y41.36800
G01 X-42.68289 Y41.47184
G01 X-42.86439 Y41.48017
G01 X-42.70900 Y41.28604
G01 X-42.56528 Y41.15950
G01 X-42.48997 Y41.11367
G01 X-42.46996 Y41.07811
G01 X-42.57720 Y41.14332
G01 X-42.72332 Y41.27202
G01 X-42.89998 Y41.50016
G01 X-42.67354 Y41.49185
G01 X-42.58299 Y41.38083
G01 X-42.46810 Y41.28665
G01 X-42.46996 Y41.07811
G01 X-42.44997 Y41.04255
G01 X-42.58908 Y41.12714
G01 X-42.73765 Y41.25800
G01 X-42.83267 Y41.37070
G01 X-42.91740 Y41.50996
G01 X-42.66508 Y41.50996
G01 X-42.56513 Y41.39117
G01 X-42.44997 Y41.29513
G01 X-42.44997 Y41.04255
G04 P0 ( dwell for no time -- G64 should not smooth over this point )
G00 Z1.00000 ( retract )

G00 X-52.33885 Y45.18499 ( rapid move to begin. )
G01 F100.00000
( Mill infeed pass 1/1 )
G01 Z-0.02500
G04 P0 ( dwell for no time -- G64 should not smooth over this point )
G01 F200.00000
G01 X-52.33885 Y45.18499
G01 X-52.44218 Y45.35215
G01 X-52.59216 Y45.52779
G01 X-52.76780 Y45.67775
G01 X-52.93494 Y45.78110
G01 X-52.93494 Y45.53007
G01 X-52.74146 Y45.37137
G01 X-52.58985 Y45.18499
G01 X-52.33885 Y45.18499
G01 X-52.37471 Y45.20498
G01 X-52.45833 Y45.34036
G01 X-52.60631 Y45.51364
G01 X-52.92523 Y45.76363
G01 X-52.91690 Y45.53863
G01 X-52.73166 Y45.38971
G01 X-52.58127 Y45.20307
G01 X-52.37471 Y45.20498
G01 X-52.41060 Y45.22499
G01 X-52.57174 Y45.22306
G01 X-52.71898 Y45.40521
G01 X-52.89689 Y45.54813
G01 X-52.90522 Y45.72776
G01 X-52.62048 Y45.49947
G01 X-52.47456 Y45.32855
G01 X-52.41060 Y45.22499
G04 P0 ( dwell for no time -- G64 should not smooth over this point )
G00 Z1.00000 ( retract )

G00 X-52.33885 Y43.76797 ( rapid move to begin. )
G01 F100.00000
( Mill infeed pass 1/1 )
G01 Z-0.02500
G04 P0 ( dwell for no time -- G64 should not smooth over this point )
G01 F200.00000
G01 X-52.33885 Y43.76797
G01 X-52.44218 Y43.60082
G01 X-52.59216 Y43.42617
G01 X-52.76780 Y43.27519
G01 X-52.93494 Y43.17270
G01 X-52.93494 Y43.42388
G01 X-52.74860 Y43.57547
G01 X-52.59056 Y43.76797
G01 X-52.33885 Y43.76797
G01 X-52.37471 Y43.74796
G01 X-52.45830 Y43.61263
G01 X-52.60631 Y43.44029
G01 X-52.77959 Y43.29134
G01 X-52.92516 Y43.19015
G01 X-52.91685 Y43.41527
G01 X-52.73598 Y43.55995
G01 X-52.58200 Y43.74991
G01 X-52.37471 Y43.74796
G01 X-52.41060 Y43.72797
G01 X-52.57253 Y43.72990
G01 X-52.71479 Y43.55299
G01 X-52.89689 Y43.40574
G01 X-52.90519 Y43.22586
G01 X-52.62048 Y43.45449
G01 X-52.47451 Y43.62446
G01 X-52.41060 Y43.72797
G04 P0 ( dwell for no time -- G64 should not smooth over this point )
G00 Z1.00000 ( retract )

G00 X-54.35198 Y43.17270 ( rapid move to begin. )
G01 F100.00000
( Mill infeed pass 1/1 )
G01 Z-0.02500
G04 P0 ( dwell for no time -- G64 should not smooth over this point )
G01 F200.00000
G01 X-54.35198 Y43.17270
G01 X-54.35198 Y43.42452
G01 X-54.53737 Y43.57547
G01 X-54.69541 Y43.76797
G01 X-54.94809 Y43.76797
G01 X-54.84479 Y43.60082
G01 X-54.69480 Y43.42617
G01 X-54.51916 Y43.27519
G01 X-54.35198 Y43.17270
G01 X-54.37197 Y43.20841
G01 X-54.37006 Y43.41590
G01 X-54.55571 Y43.56566
G01 X-54.70397 Y43.74991
G01 X-54.93064 Y43.75825
G01 X-54.68060 Y43.44034
G01 X-54.50735 Y43.29139
G01 X-54.37197 Y43.20841
G01 X-54.39198 Y43.24412
G01 X-54.49551 Y43.30760
G01 X-54.66643 Y43.45451
G01 X-54.89475 Y43.73823
G01 X-54.71347 Y43.72990
G01 X-54.57118 Y43.55299
G01 X-54.39005 Y43.40641
G01 X-54.39198 Y43.24412
G04 P0 ( dwell for no time -- G64 should not smooth over this point )
G00 Z1.00000 ( retract )

G00 X-54.35198 Y45.52944 ( rapid move to begin. )
G01 F100.00000
( Mill infeed pass 1/1 )
G01 Z-0.02500
G04 P0 ( dwell for no time -- G64 should not smooth over this point )
G01 F200.00000
G01 X-54.35198 Y45.52944
G01 X-54.35198 Y45.78110
G01 X-54.51916 Y45.67775
G01 X-54.69480 Y45.52779
G01 X-54.84476 Y45.35215
G01 X-54.94809 Y45.18499
G01 X-54.69612 Y45.18499
G01 X-54.54451 Y45.37137
G01 X-54.35198 Y45.52944
G01 X-54.37197 Y45.53889
G01 X-54.55431 Y45.38969
G01 X-54.70473 Y45.20307
G01 X-54.93061 Y45.19472
G01 X-54.68060 Y45.51359
G01 X-54.36168 Y45.76363
G01 X-54.37197 Y45.53889
G01 X-54.39198 Y45.54839
G01 X-54.56699 Y45.40518
G01 X-54.71423 Y45.22306
G01 X-54.89475 Y45.21473
G01 X-54.66643 Y45.49942
G01 X-54.38169 Y45.72776
G01 X-54.39198 Y45.54839
G04 P0 ( dwell for no time -- G64 should not smooth over this point )
G00 Z1.00000 ( retract )

G00 X-57.12185 Y43.76797 ( rapid move to begin. )
G01 F100.00000
( Mill infeed pass 1/1 )
G01 Z-0.02500
G04 P0 ( dwell for no time -- G64 should not smooth over this point )
G01 F200.00000
G01 X-57.12185 Y43.76797
G01 X-57.22517 Y43.60082
G01 X-57.37516 Y43.42617
G01 X-57.55080 Y43.27519
G01 X-57.71798 Y43.17270
G01 X-57.71798 Y43.42385
G01 X-57.53160 Y43.57547
G01 X-57.37356 Y43.76797
G01 X-57.12185 Y43.76797
G01 X-57.15771 Y43.74796
G01 X-57.24130 Y43.61263
G01 X-57.38931 Y43.44029
G01 X-57.56259 Y43.29134
G01 X-57.70821 Y43.19015
G01 X-57.69990 Y43.41524
G01 X-57.51900 Y43.55995
G01 X-57.36500 Y43.74991
G01 X-57.15771 Y43.74796
G01 X-57.19360 Y43.72797
G01 X-57.35553 Y43.72990
G01 X-57.49779 Y43.55299
G01 X-57.67991 Y43.40574
G01 X-57.68822 Y43.22586
G01 X-57.40348 Y43.45449
G01 X-57.25751 Y43.62446
G01 X-57.19360 Y43.72797
G04 P0 ( dwell for no time -- G64 should not smooth over this point )
G00 Z1.00000 ( retract )

G00 X-57.12185 Y45.18499 ( rapid move to begin. )
G01 F100.00000
( Mill infeed pass 1/1 )
G01 Z-0.02500
G04 P0 ( dwell for no time -- G64 should not smooth over this point )
G01 F200.00000
G01 X-57.12185 Y45.18499
G01 X-57.22520 Y45.35215
G01 X-57.37516 Y45.52779
G01 X-57.55080 Y45.67775
G01 X-57.71798 Y45.78110
G01 X-57.71798 Y45.53010
G01 X-57.52446 Y45.37137
G01 X-57.37285 Y45.18499
G01 X-57.12185 Y45.18499
G01 X-57.15771 Y45.20498
G01 X-57.24135 Y45.34036
G01 X-57.38931 Y45.51364
G01 X-57.70826 Y45.76363
G01 X-57.69992 Y45.53866
G01 X-57.51466 Y45.38971
G01 X-57.36426 Y45.20307
G01 X-57.15771 Y45.20498
G01 X-57.19360 Y45.22499
G01 X-57.35474 Y45.22306
G01 X-57.50201 Y45.40521
G01 X-57.67991 Y45.54813
G01 X-57.68824 Y45.72776
G01 X-57.40348 Y45.49947
G01 X-57.25756 Y45.32855
G01 X-57.19360 Y45.22499
G04 P0 ( dwell for no time -- G64 should not smooth over this point )
G00 Z1.00000 ( retract )

G00 X-59.13497 Y45.52944 ( rapid move to begin. )
G01 F100.00000
( Mill infeed pass 1/1 )
G01 Z-0.02500
G04 P0 ( dwell for no time -- G64 should not smooth over this point )
G01 F200.00000
G01 X-59.13497 Y45.52944
G01 X-59.13497 Y45.78110
G01 X-59.30216 Y45.67775
G01 X-59.47780 Y45.52779
G01 X-59.62776 Y45.35217
G01 X-59.73025 Y45.18499
G01 X-59.47912 Y45.18499
G01 X-59.32751 Y45.37137
G01 X-59.13497 Y45.52944
G01 X-59.15496 Y45.53889
G01 X-59.33731 Y45.38969
G01 X-59.48773 Y45.20307
G01 X-59.71280 Y45.19477
G01 X-59.46360 Y45.51359
G01 X-59.14470 Y45.76363
G01 X-59.15496 Y45.53889
G01 X-59.17498 Y45.54839
G01 X-59.34999 Y45.40518
G01 X-59.49723 Y45.22306
G01 X-59.67709 Y45.21476
G01 X-59.44943 Y45.49942
G01 X-59.16472 Y45.72776
G01 X-59.17498 Y45.54839
G04 P0 ( dwell for no time -- G64 should not smooth over this point )
G00 Z1.00000 ( retract )

G00 X-59.17498 Y43.24412 ( rapid move to begin. )
G01 F100.00000
( Mill infeed pass 1/1 )
G01 Z-0.02500
G04 P0 ( dwell for no time -- G64 should not smooth over this point )
G01 F200.00000
G01 X-59.17498 Y43.24412
G01 X-59.17305 Y43.40641
G01 X-59.35418 Y43.55299
G01 X-59.49647 Y43.72990
G01 X-59.67709 Y43.73821
G01 X-59.44943 Y43.45451
G01 X-59.27851 Y43.30760
G01 X-59.17498 Y43.24412
G01 X-59.15496 Y43.20841
G01 X-59.29035 Y43.29139
G01 X-59.46360 Y43.44034
G01 X-59.61155 Y43.61260
G01 X-59.71280 Y43.75820
G01 X-59.48699 Y43.74991
G01 X-59.33871 Y43.56566
G01 X-59.15306 Y43.41590
G01 X-59.15496 Y43.20841
G01 X-59.13497 Y43.17270
G01 X-59.30216 Y43.27519
G01 X-59.47780 Y43.42617
G01 X-59.62776 Y43.60079
G01 X-59.73025 Y43.76797
G01 X-59.47841 Y43.76797
G01 X-59.32321 Y43.57831
G01 X-59.13497 Y43.42452
G01 X-59.13497 Y43.17270
G04 P0 ( dwell for no time -- G64 should not smooth over this point )
G00 Z1.00000 ( retract )

G00 X-49.92247 Y31.82693 ( rapid move to begin. )
G01 F100.00000
( Mill infeed pass 1/1 )
G01 Z-0.02500
G04 P0 ( dwell for no time -- G64 should not smooth over this point )
G01 F200.00000
G01 X-49.92247 Y31.82693
G01 X-49.93893 Y31.52980
G01 X-50.01295 Y31.24158
G01 X-50.13969 Y30.97666
G01 X-50.32029 Y30.73526
G01 X-50.54182 Y30.53658
G01 X-50.79783 Y30.38487
G01 X-51.07467 Y30.28690
G01 X-51.36910 Y30.24379
G01 X-51.67017 Y30.25947
G01 X-51.95485 Y30.33158
G01 X-52.22371 Y30.45914
G01 X-52.46547 Y30.63925
G01 X-52.66458 Y30.86038
G01 X-52.81515 Y31.11253
G01 X-52.91629 Y31.39655
G01 X-52.95950 Y31.69706
G01 X-52.94365 Y31.99030
G01 X-52.87037 Y32.27872
G01 X-52.74228 Y32.54732
G01 X-52.56166 Y32.78872
G01 X-52.33524 Y32.99098
G01 X-52.07863 Y33.14166
G01 X-51.80141 Y33.23853
G01 X-51.50680 Y33.28047
G01 X-51.20967 Y33.26419
G01 X-50.91772 Y33.18898
G01 X-50.64972 Y33.05966
G01 X-50.41203 Y32.88062
G01 X-50.21609 Y32.66185
G01 X-50.06260 Y32.40239
G01 X-49.96517 Y32.12535
G01 X-49.92247 Y31.82693
G01 X-49.90251 Y31.82583
G01 X-49.91836 Y31.53259
G01 X-49.99224 Y31.24031
G01 X-50.12570 Y30.96132
G01 X-50.30692 Y30.72040
G01 X-50.52529 Y30.52403
G01 X-50.78406 Y30.36935
G01 X-51.07560 Y30.26615
G01 X-51.36623 Y30.22398
G01 X-51.66735 Y30.23889
G01 X-51.95975 Y30.31220
G01 X-52.23900 Y30.44512
G01 X-52.47451 Y30.62058
G01 X-52.67710 Y30.84382
G01 X-52.83232 Y31.10226
G01 X-52.93610 Y31.39368
G01 X-52.97946 Y31.69812
G01 X-52.96242 Y31.99911
G01 X-52.88972 Y32.28367
G01 X-52.75627 Y32.56264
G01 X-52.57499 Y32.80363
G01 X-52.34540 Y33.00820
G01 X-52.09234 Y33.15725
G01 X-51.80799 Y33.25743
G01 X-51.50177 Y33.30061
G01 X-51.20080 Y33.28296
G01 X-50.91642 Y33.20968
G01 X-50.63771 Y33.07567
G01 X-50.39712 Y32.89395
G01 X-50.20121 Y32.67521
G01 X-50.04703 Y32.41613
G01 X-49.94630 Y32.13198
G01 X-49.90251 Y31.82583
G01 X-49.88254 Y31.82477
G01 X-49.90017 Y31.51989
G01 X-49.97286 Y31.23536
G01 X-50.10362 Y30.95939
G01 X-50.29354 Y30.70552
G01 X-50.52138 Y30.50219
G01 X-50.77383 Y30.35215
G01 X-51.06133 Y30.24918
G01 X-51.36336 Y30.20420
G01 X-51.68000 Y30.22068
G01 X-51.96468 Y30.29282
G01 X-52.24091 Y30.42302
G01 X-52.49516 Y30.61243
G01 X-52.69196 Y30.83041
G01 X-52.84946 Y31.09203
G01 X-52.95302 Y31.37930
G01 X-52.99892 Y31.68735
G01 X-52.98180 Y32.00407
G01 X-52.90512 Y32.29965
G01 X-52.77837 Y32.56457
G01 X-52.59633 Y32.80978
G01 X-52.36511 Y33.01844
G01 X-52.09183 Y33.17943
G01 X-51.80319 Y33.27907
G01 X-51.50065 Y33.32057
G01 X-51.20743 Y33.30411
G01 X-50.91142 Y33.22906
G01 X-50.62569 Y33.09164
G01 X-50.38224 Y32.90732
G01 X-50.17937 Y32.67907
G01 X-50.02981 Y32.42632
G01 X-49.92742 Y32.13864
G01 X-49.88254 Y31.82477
G01 X-49.74904 Y31.64610
G01 X-49.72900 Y31.64473
G01 X-49.74071 Y31.99553
G01 X-49.82387 Y32.33686
G01 X-49.94477 Y32.60206
G01 X-50.14721 Y32.88961
G01 X-50.40418 Y33.12901
G01 X-50.70451 Y33.31191
G01 X-50.97746 Y33.41427
G01 X-51.32374 Y33.47396
G01 X-51.67553 Y33.46213
G01 X-52.01683 Y33.37902
G01 X-52.28200 Y33.25811
G01 X-52.56953 Y33.05565
G01 X-52.80893 Y32.79868
G01 X-52.99183 Y32.49840
G01 X-53.09419 Y32.22449
G01 X-53.15386 Y31.87821
G01 X-53.14212 Y31.52751
G01 X-53.05813 Y31.18647
G01 X-52.90748 Y30.86955
G01 X-52.73489 Y30.63363
G01 X-52.47865 Y30.39399
G01 X-52.17842 Y30.21111
G01 X-51.90451 Y30.10874
G01 X-51.55823 Y30.04910
G01 X-51.20743 Y30.06071
G01 X-50.86608 Y30.14387
G01 X-50.59994 Y30.26472
G01 X-50.31335 Y30.46815
G01 X-50.07391 Y30.72421
G01 X-49.89103 Y31.02449
G01 X-49.78866 Y31.29843
G01 X-49.72900 Y31.64473
G01 X-49.70903 Y31.64336
G01 X-49.76936 Y31.29322
G01 X-49.87304 Y31.01575
G01 X-50.05798 Y30.71212
G01 X-50.30019 Y30.45309
G01 X-50.58998 Y30.24738
G01 X-50.85955 Y30.12497
G01 X-51.20471 Y30.04090
G01 X-51.55960 Y30.02904
G01 X-51.90974 Y30.08936
G01 X-52.18719 Y30.19305
G01 X-52.49082 Y30.37798
G01 X-52.74995 Y30.62030
G01 X-52.92472 Y30.85926
G01 X-53.07705 Y31.17971
G01 X-53.16201 Y31.52474
G01 X-53.17392 Y31.87958
G01 X-53.11357 Y32.22972
G01 X-53.00989 Y32.50719
G01 X-52.82493 Y32.81082
G01 X-52.58276 Y33.07081
G01 X-52.29199 Y33.27554
G01 X-52.02341 Y33.39799
G01 X-51.67825 Y33.48204
G01 X-51.32237 Y33.49393
G01 X-50.97223 Y33.43358
G01 X-50.69577 Y33.32990
G01 X-50.39212 Y33.14496
G01 X-50.13212 Y32.90274
G01 X-49.92742 Y32.61199
G01 X-49.80497 Y32.34341
G01 X-49.72090 Y31.99825
G01 X-49.70903 Y31.64336
G01 X-49.74904 Y31.64610
G01 X-49.76062 Y31.99281
G01 X-49.84284 Y32.33028
G01 X-49.96220 Y32.59205
G01 X-50.16235 Y32.87638
G01 X-50.41632 Y33.11298
G01 X-50.71330 Y33.29385
G01 X-50.98272 Y33.39489
G01 X-51.32511 Y33.45392
G01 X-51.67278 Y33.44221
G01 X-52.01025 Y33.36002
G01 X-52.27200 Y33.24069
G01 X-52.55635 Y33.04051
G01 X-52.79290 Y32.78654
G01 X-52.97375 Y32.48961
G01 X-53.07479 Y32.21923
G01 X-53.13382 Y31.87684
G01 X-53.12221 Y31.53025
G01 X-53.03918 Y31.19322
G01 X-52.89023 Y30.87984
G01 X-52.71987 Y30.64694
G01 X-52.46648 Y30.41001
G01 X-52.16963 Y30.22919
G01 X-51.89925 Y30.12815
G01 X-51.55686 Y30.06914
G01 X-51.21015 Y30.08063
G01 X-50.87263 Y30.16287
G01 X-50.60997 Y30.28215
G01 X-50.32658 Y30.48329
G01 X-50.08991 Y30.73638
G01 X-49.90911 Y31.03328
G01 X-49.80804 Y31.30369
G01 X-49.74904 Y31.64610
G04 P0 ( dwell for no time -- G64 should not smooth over this point )
G00 Z1.00000 ( retract )

G00 X-54.44804 Y31.64610 ( rapid move to begin. )
G01 F100.00000
( Mill infeed pass 1/1 )
G01 Z-0.02500
G04 P0 ( dwell for no time -- G64 should not smooth over this point )
G01 F200.00000
G01 X-54.44804 Y31.64610
G01 X-54.50702 Y31.30369
G01 X-54.60811 Y31.03328
G01 X-54.78891 Y30.73638
G01 X-55.02558 Y30.48329
G01 X-55.30897 Y30.28215
G01 X-55.57163 Y30.16287
G01 X-55.90915 Y30.08063
G01 X-56.25586 Y30.06914
G01 X-56.59825 Y30.12815
G01 X-56.86863 Y30.22919
G01 X-57.16548 Y30.41001
G01 X-57.41887 Y30.64694
G01 X-57.58923 Y30.87984
G01 X-57.73818 Y31.19322
G01 X-57.82121 Y31.53025
G01 X-57.83282 Y31.87684
G01 X-57.77379 Y32.21923
G01 X-57.67275 Y32.48961
G01 X-57.49190 Y32.78654
G01 X-57.25535 Y33.04051
G01 X-56.97100 Y33.24069
G01 X-56.70925 Y33.36002
G01 X-56.37178 Y33.44221
G01 X-56.02411 Y33.45392
G01 X-55.68172 Y33.39489
G01 X-55.41230 Y33.29385
G01 X-55.11532 Y33.11298
G01 X-54.86135 Y32.87638
G01 X-54.66120 Y32.59205
G01 X-54.54184 Y32.33028
G01 X-54.45962 Y31.99281
G01 X-54.44804 Y31.64610
G01 X-54.40801 Y31.64336
G01 X-54.41987 Y31.99825
G01 X-54.50394 Y32.34341
G01 X-54.62642 Y32.61199
G01 X-54.83112 Y32.90274
G01 X-55.09112 Y33.14496
G01 X-55.39477 Y33.32990
G01 X-55.67123 Y33.43358
G01 X-56.02137 Y33.49393
G01 X-56.37725 Y33.48204
G01 X-56.72241 Y33.39799
G01 X-56.99099 Y33.27554
G01 X-57.28176 Y33.07081
G01 X-57.52395 Y32.81082
G01 X-57.70889 Y32.50719
G01 X-57.81257 Y32.22972
G01 X-57.87292 Y31.87958
G01 X-57.86104 Y31.52474
G01 X-57.77605 Y31.17971
G01 X-57.62372 Y30.85926
G01 X-57.44895 Y30.62030
G01 X-57.18982 Y30.37798
G01 X-56.88621 Y30.19305
G01 X-56.60874 Y30.08936
G01 X-56.25860 Y30.02904
G01 X-55.90371 Y30.04090
G01 X-55.55855 Y30.12497
G01 X-55.28898 Y30.24738
G01 X-54.99919 Y30.45309
G01 X-54.75698 Y30.71212
G01 X-54.57204 Y31.01575
G01 X-54.46836 Y31.29322
G01 X-54.40801 Y31.64336
G01 X-54.42800 Y31.64473
G01 X-54.48766 Y31.29843
G01 X-54.59003 Y31.02449
G01 X-54.77291 Y30.72421
G01 X-55.01235 Y30.46815
G01 X-55.29894 Y30.26472
G01 X-55.56508 Y30.14387
G01 X-55.90643 Y30.06071
G01 X-56.25723 Y30.04910
G01 X-56.60351 Y30.10874
G01 X-56.87742 Y30.21111
G01 X-57.17765 Y30.39399
G01 X-57.43391 Y30.63363
G01 X-57.60648 Y30.86955
G01 X-57.75713 Y31.18647
G01 X-57.84112 Y31.52751
G01 X-57.85286 Y31.87821
G01 X-57.79319 Y32.22449
G01 X-57.69083 Y32.49840
G01 X-57.50793 Y32.79868
G01 X-57.26856 Y33.05565
G01 X-56.98100 Y33.25811
G01 X-56.71583 Y33.37902
G01 X-56.37453 Y33.46213
G01 X-56.02274 Y33.47396
G01 X-55.67646 Y33.41427
G01 X-55.40351 Y33.31191
G01 X-55.10318 Y33.12901
G01 X-54.84621 Y32.88961
G01 X-54.64377 Y32.60206
G01 X-54.52284 Y32.33686
G01 X-54.43971 Y31.99553
G01 X-54.42800 Y31.64473
G01 X-54.44804 Y31.64610
G01 X-54.58154 Y31.82477
G01 X-54.62642 Y32.13864
G01 X-54.72881 Y32.42632
G01 X-54.87837 Y32.67907
G01 X-55.08124 Y32.90732
G01 X-55.32469 Y33.09164
G01 X-55.61042 Y33.22906
G01 X-55.90643 Y33.30411
G01 X-56.19965 Y33.32057
G01 X-56.50219 Y33.27907
G01 X-56.79083 Y33.17943
G01 X-57.06411 Y33.01844
G01 X-57.29535 Y32.80978
G01 X-57.47737 Y32.56457
G01 X-57.60412 Y32.29965
G01 X-57.68080 Y32.00407
G01 X-57.69792 Y31.68735
G01 X-57.65202 Y31.37930
G01 X-57.54849 Y31.09203
G01 X-57.39096 Y30.83041
G01 X-57.19416 Y30.61243
G01 X-56.93991 Y30.42302
G01 X-56.66368 Y30.29282
G01 X-56.37900 Y30.22068
G01 X-56.06236 Y30.20420
G01 X-55.76033 Y30.24918
G01 X-55.47283 Y30.35215
G01 X-55.22038 Y30.50219
G01 X-54.99254 Y30.70552
G01 X-54.80262 Y30.95939
G01 X-54.67186 Y31.23536
G01 X-54.59917 Y31.51989
G01 X-54.58154 Y31.82477
G01 X-54.60151 Y31.82583
G01 X-54.64530 Y32.13198
G01 X-54.74603 Y32.41613
G01 X-54.90021 Y32.67521
G01 X-55.09612 Y32.89395
G01 X-55.33671 Y33.07567
G01 X-55.61542 Y33.20968
G01 X-55.89980 Y33.28296
G01 X-56.20077 Y33.30061
G01 X-56.50699 Y33.25743
G01 X-56.79134 Y33.15725
G01 X-57.04440 Y33.00820
G01 X-57.27399 Y32.80363
G01 X-57.45527 Y32.56264
G01 X-57.58606 Y32.29104
G01 X-57.66261 Y31.99139
G01 X-57.67811 Y31.69022
G01 X-57.63510 Y31.39368
G01 X-57.53465 Y31.10935
G01 X-57.37610 Y30.84382
G01 X-57.17930 Y30.62584
G01 X-56.93800 Y30.44512
G01 X-56.65875 Y30.31220
G01 X-56.36635 Y30.23889
G01 X-56.06523 Y30.22398
G01 X-55.77460 Y30.26615
G01 X-55.48306 Y30.36935
G01 X-55.22429 Y30.52403
G01 X-55.00592 Y30.72040
G01 X-54.82470 Y30.96132
G01 X-54.69124 Y31.24031
G01 X-54.61736 Y31.53259
G01 X-54.60151 Y31.82583
G01 X-54.62147 Y31.82693
G01 X-54.66417 Y32.12535
G01 X-54.76160 Y32.40239
G01 X-54.91509 Y32.66185
G01 X-55.11103 Y32.88062
G01 X-55.34872 Y33.05966
G01 X-55.61672 Y33.18898
G01 X-55.90867 Y33.26419
G01 X-56.20580 Y33.28047
G01 X-56.50041 Y33.23853
G01 X-56.77763 Y33.14166
G01 X-57.03424 Y32.99098
G01 X-57.26066 Y32.78872
G01 X-57.44128 Y32.54732
G01 X-57.56937 Y32.27872
G01 X-57.64265 Y31.99030
G01 X-57.65850 Y31.69706
G01 X-57.61435 Y31.39271
G01 X-57.51415 Y31.11253
G01 X-57.36127 Y30.85723
G01 X-57.16447 Y30.63925
G01 X-56.92271 Y30.45914
G01 X-56.65385 Y30.33158
G01 X-56.36917 Y30.25947
G01 X-56.06810 Y30.24379
G01 X-55.77367 Y30.28690
G01 X-55.49683 Y30.38487
G01 X-55.24082 Y30.53658
G01 X-55.01929 Y30.73526
G01 X-54.83869 Y30.97666
G01 X-54.71195 Y31.24158
G01 X-54.63793 Y31.52980
G01 X-54.62147 Y31.82693
G04 P0 ( dwell for no time -- G64 should not smooth over this point )
G00 Z1.00000 ( retract )

G00 X-59.14704 Y31.64610 ( rapid move to begin. )
G01 F100.00000
( Mill infeed pass 1/1 )
G01 Z-0.02500
G04 P0 ( dwell for no time -- G64 should not smooth over this point )
G01 F200.00000
G01 X-59.14704 Y31.64610
G01 X-59.20604 Y31.30369
G01 X-59.30711 Y31.03328
G01 X-59.48791 Y30.73638
G01 X-59.72458 Y30.48329
G01 X-60.00797 Y30.28215
G01 X-60.27063 Y30.16287
G01 X-60.60815 Y30.08063
G01 X-60.95486 Y30.06914
G01 X-61.29725 Y30.12815
G01 X-61.56763 Y30.22919
G01 X-61.86448 Y30.41001
G01 X-62.11787 Y30.64694
G01 X-62.28823 Y30.87984
G01 X-62.43718 Y31.19322
G01 X-62.52021 Y31.53025
G01 X-62.53182 Y31.87684
G01 X-62.47279 Y32.21923
G01 X-62.37175 Y32.48961
G01 X-62.19090 Y32.78654
G01 X-61.95435 Y33.04051
G01 X-61.67000 Y33.24069
G01 X-61.40825 Y33.36002
G01 X-61.07078 Y33.44221
G01 X-60.72311 Y33.45392
G01 X-60.38072 Y33.39489
G01 X-60.11130 Y33.29385
G01 X-59.81432 Y33.11298
G01 X-59.56035 Y32.87638
G01 X-59.36020 Y32.59205
G01 X-59.24084 Y32.33028
G01 X-59.15862 Y31.99281
G01 X-59.14704 Y31.64610
G01 X-59.10703 Y31.64336
G01 X-59.11890 Y31.99825
G01 X-59.20297 Y32.34341
G01 X-59.32542 Y32.61199
G01 X-59.53012 Y32.90274
G01 X-59.79012 Y33.14496
G01 X-60.09377 Y33.32990
G01 X-60.37023 Y33.43358
G01 X-60.72037 Y33.49393
G01 X-61.07625 Y33.48204
G01 X-61.42141 Y33.39799
G01 X-61.68999 Y33.27554
G01 X-61.98076 Y33.07081
G01 X-62.22295 Y32.81082
G01 X-62.40789 Y32.50719
G01 X-62.51157 Y32.22972
G01 X-62.57192 Y31.87958
G01 X-62.56004 Y31.52474
G01 X-62.47505 Y31.17971
G01 X-62.32272 Y30.85926
G01 X-62.14795 Y30.62030
G01 X-61.88882 Y30.37798
G01 X-61.58521 Y30.19305
G01 X-61.30774 Y30.08936
G01 X-60.95760 Y30.02904
G01 X-60.60271 Y30.04090
G01 X-60.25755 Y30.12497
G01 X-59.98798 Y30.24738
G01 X-59.69819 Y30.45309
G01 X-59.45598 Y30.71212
G01 X-59.27104 Y31.01575
G01 X-59.16736 Y31.29322
G01 X-59.10703 Y31.64336
G01 X-59.12700 Y31.64473
G01 X-59.18666 Y31.29843
G01 X-59.28903 Y31.02449
G01 X-59.47191 Y30.72421
G01 X-59.71135 Y30.46815
G01 X-59.99794 Y30.26472
G01 X-60.26408 Y30.14387
G01 X-60.60543 Y30.06071
G01 X-60.95623 Y30.04910
G01 X-61.30251 Y30.10874
G01 X-61.57642 Y30.21111
G01 X-61.87665 Y30.39399
G01 X-62.13291 Y30.63363
G01 X-62.30548 Y30.86955
G01 X-62.45613 Y31.18647
G01 X-62.54012 Y31.52751
G01 X-62.55186 Y31.87821
G01 X-62.49219 Y32.22449
G01 X-62.38983 Y32.49840
G01 X-62.20693 Y32.79868
G01 X-61.96756 Y33.05565
G01 X-61.68000 Y33.25811
G01 X-61.41483 Y33.37902
G01 X-61.07353 Y33.46213
G01 X-60.72174 Y33.47396
G01 X-60.37546 Y33.41427
G01 X-60.10251 Y33.31191
G01 X-59.80218 Y33.12901
G01 X-59.54521 Y32.88961
G01 X-59.34277 Y32.60206
G01 X-59.22187 Y32.33686
G01 X-59.13871 Y31.99553
G01 X-59.12700 Y31.64473
G01 X-59.14704 Y31.64610
G01 X-59.28054 Y31.82477
G01 X-59.32542 Y32.13864
G01 X-59.42781 Y32.42632
G01 X-59.57737 Y32.67907
G01 X-59.78024 Y32.90732
G01 X-60.02369 Y33.09164
G01 X-60.30942 Y33.22906
G01 X-60.60543 Y33.30411
G01 X-60.89865 Y33.32057
G01 X-61.20119 Y33.27907
G01 X-61.48983 Y33.17943
G01 X-61.76311 Y33.01844
G01 X-61.99435 Y32.80978
G01 X-62.17637 Y32.56457
G01 X-62.30312 Y32.29965
G01 X-62.37980 Y32.00407
G01 X-62.39692 Y31.68735
G01 X-62.35102 Y31.37930
G01 X-62.24749 Y31.09203
G01 X-62.08996 Y30.83041
G01 X-61.89316 Y30.61243
G01 X-61.63891 Y30.42302
G01 X-61.36268 Y30.29282
G01 X-61.07800 Y30.22068
G01 X-60.76136 Y30.20420
G01 X-60.45933 Y30.24918
G01 X-60.17183 Y30.35215
G01 X-59.91938 Y30.50219
G01 X-59.69154 Y30.70552
G01 X-59.50162 Y30.95939
G01 X-59.37086 Y31.23536
G01 X-59.29817 Y31.51989
G01 X-59.28054 Y31.82477
G01 X-59.30051 Y31.82583
G01 X-59.34430 Y32.13198
G01 X-59.44503 Y32.41613
G01 X-59.59921 Y32.67521
G01 X-59.79512 Y32.89395
G01 X-60.03571 Y33.07567
G01 X-60.31442 Y33.20968
G01 X-60.59880 Y33.28296
G01 X-60.89977 Y33.30061
G01 X-61.20599 Y33.25743
G01 X-61.49034 Y33.15725
G01 X-61.74340 Y33.00820
G01 X-61.97299 Y32.80363
G01 X-62.15427 Y32.56264
G01 X-62.28506 Y32.29104
G01 X-62.36161 Y31.99139
G01 X-62.37711 Y31.69022
G01 X-62.33410 Y31.39368
G01 X-62.23365 Y31.10935
G01 X-62.07510 Y30.84382
G01 X-61.87830 Y30.62584
G01 X-61.63700 Y30.44512
G01 X-61.35775 Y30.31220
G01 X-61.06535 Y30.23889
G01 X-60.76423 Y30.22398
G01 X-60.47360 Y30.26615
G01 X-60.18206 Y30.36935
G01 X-59.92329 Y30.52403
G01 X-59.70492 Y30.72040
G01 X-59.52370 Y30.96132
G01 X-59.39024 Y31.24031
G01 X-59.31636 Y31.53259
G01 X-59.30051 Y31.82583
G01 X-59.32047 Y31.82693
G01 X-59.36317 Y32.12535
G01 X-59.46060 Y32.40239
G01 X-59.61409 Y32.66185
G01 X-59.81003 Y32.88062
G01 X-60.04772 Y33.05966
G01 X-60.31572 Y33.18898
G01 X-60.60767 Y33.26419
G01 X-60.90480 Y33.28047
G01 X-61.19941 Y33.23853
G01 X-61.47663 Y33.14166
G01 X-61.73324 Y32.99098
G01 X-61.95966 Y32.78872
G01 X-62.14028 Y32.54732
G01 X-62.26837 Y32.27872
G01 X-62.34165 Y31.99030
G01 X-62.35750 Y31.69706
G01 X-62.31335 Y31.39271
G01 X-62.21315 Y31.11253
G01 X-62.06027 Y30.85723
G01 X-61.86347 Y30.63925
G01 X-61.62171 Y30.45914
G01 X-61.35285 Y30.33158
G01 X-61.06817 Y30.25947
G01 X-60.76710 Y30.24379
G01 X-60.47267 Y30.28690
G01 X-60.19583 Y30.38487
G01 X-59.93982 Y30.53658
G01 X-59.71829 Y30.73526
G01 X-59.53769 Y30.97666
G01 X-59.41095 Y31.24158
G01 X-59.33693 Y31.52980
G01 X-59.32047 Y31.82693
G04 P0 ( dwell for no time -- G64 should not smooth over this point )
G00 Z1.00000 ( retract )

G00 X-68.08304 Y36.55956 ( rapid move to begin. )
G01 F100.00000
( Mill infeed pass 1/1 )
G01 Z-0.02500
G04 P0 ( dwell for no time -- G64 should not smooth over this point )
G01 F200.00000
G01 X-68.08304 Y36.55956
G01 X-68.09769 Y36.70032
G01 X-68.14684 Y36.88308
G01 X-68.22744 Y37.05514
G01 X-68.30587 Y37.17276
G01 X-68.40001 Y37.27965
G01 X-68.54468 Y37.40169
G01 X-68.66602 Y37.47507
G01 X-68.84097 Y37.54782
G01 X-69.02657 Y37.58808
G01 X-69.21613 Y37.59692
G01 X-69.40778 Y37.57136
G01 X-69.54537 Y37.53037
G01 X-69.80163 Y37.39435
G01 X-69.94763 Y37.26893
G01 X-70.09512 Y37.09062
G01 X-70.17079 Y37.06499
G01 X-70.25753 Y37.10225
G01 X-70.35895 Y37.23266
G01 X-70.46172 Y37.33347
G01 X-70.66017 Y37.46905
G01 X-70.93200 Y37.56852
G01 X-71.21666 Y37.59395
G01 X-71.45100 Y37.55851
G01 X-71.62827 Y37.49384
G01 X-71.83091 Y37.37091
G01 X-71.97099 Y37.24259
G01 X-72.11056 Y37.05193
G01 X-72.20589 Y36.83570
G01 X-72.24701 Y36.65056
G01 X-72.25194 Y36.41348
G01 X-72.21953 Y36.22697
G01 X-72.17368 Y36.09329
G01 X-72.03165 Y35.84670
G01 X-71.93797 Y35.74033
G01 X-71.79228 Y35.61826
G01 X-71.67196 Y35.54490
G01 X-71.49596 Y35.47315
G01 X-71.31133 Y35.43187
G01 X-71.12182 Y35.42303
G01 X-70.93018 Y35.44859
G01 X-70.79218 Y35.48971
G01 X-70.61699 Y35.57335
G01 X-70.49838 Y35.65471
G01 X-70.39053 Y35.75181
G01 X-70.25405 Y35.91892
G01 X-70.16800 Y35.95499
G01 X-70.08042 Y35.91770
G01 X-69.97912 Y35.78747
G01 X-69.83876 Y35.65595
G01 X-69.63455 Y35.53027
G01 X-69.35921 Y35.44178
G01 X-69.12063 Y35.42606
G01 X-68.93356 Y35.45054
G01 X-68.70925 Y35.52727
G01 X-68.54466 Y35.62136
G01 X-68.36683 Y35.77754
G01 X-68.22726 Y35.96822
G01 X-68.14684 Y36.13987
G01 X-68.09780 Y36.32222
G01 X-68.08304 Y36.55956
G01 X-68.10305 Y36.55915
G01 X-68.11735 Y36.69666
G01 X-68.16561 Y36.87622
G01 X-68.24486 Y37.04531
G01 X-68.32175 Y37.16057
G01 X-68.41400 Y37.26537
G01 X-68.55634 Y37.38544
G01 X-68.67506 Y37.45724
G01 X-68.84697 Y37.52874
G01 X-69.02916 Y37.56824
G01 X-69.21527 Y37.57685
G01 X-69.40358 Y37.55176
G01 X-69.53775 Y37.51178
G01 X-69.79027 Y37.37774
G01 X-69.93330 Y37.25488
G01 X-70.08230 Y37.07528
G01 X-70.17160 Y37.04500
G01 X-70.27107 Y37.08752
G01 X-70.37389 Y37.21935
G01 X-70.47442 Y37.31800
G01 X-70.66934 Y37.45127
G01 X-70.93703 Y37.54917
G01 X-71.21537 Y37.57390
G01 X-71.44602 Y37.53903
G01 X-71.61958 Y37.47573
G01 X-71.81885 Y37.35483
G01 X-71.95603 Y37.22918
G01 X-72.09314 Y37.04188
G01 X-72.18679 Y36.82943
G01 X-72.22705 Y36.64818
G01 X-72.23190 Y36.41500
G01 X-72.20010 Y36.23195
G01 X-72.15540 Y36.10159
G01 X-72.01531 Y35.85841
G01 X-71.92398 Y35.75468
G01 X-71.78059 Y35.63456
G01 X-71.66291 Y35.56281
G01 X-71.48997 Y35.49230
G01 X-71.30866 Y35.45176
G01 X-71.12268 Y35.44302
G01 X-70.93437 Y35.46814
G01 X-70.79937 Y35.50835
G01 X-70.62700 Y35.59067
G01 X-70.51075 Y35.67043
G01 X-70.40503 Y35.76558
G01 X-70.26614 Y35.93487
G01 X-70.16800 Y35.97497
G01 X-70.06688 Y35.93243
G01 X-69.96429 Y35.80098
G01 X-69.82657 Y35.67193
G01 X-69.62611 Y35.54856
G01 X-69.35543 Y35.46156
G01 X-69.12126 Y35.44605
G01 X-68.93810 Y35.47002
G01 X-68.71748 Y35.54551
G01 X-68.55629 Y35.63761
G01 X-68.38159 Y35.79105
G01 X-68.24446 Y35.97840
G01 X-68.16561 Y36.14673
G01 X-68.11756 Y36.32547
G01 X-68.10305 Y36.55915
G01 X-68.12312 Y36.55872
G01 X-68.13737 Y36.32872
G01 X-68.18449 Y36.15361
G01 X-68.26175 Y35.98867
G01 X-68.39642 Y35.80462
G01 X-68.56798 Y35.65400
G01 X-68.72576 Y35.56382
G01 X-68.94270 Y35.48958
G01 X-69.12192 Y35.46614
G01 X-69.35167 Y35.48135
G01 X-69.61771 Y35.56687
G01 X-69.81435 Y35.68790
G01 X-69.94946 Y35.81450
G01 X-70.05334 Y35.94714
G01 X-70.16310 Y35.99479
G01 X-70.28192 Y35.94775
G01 X-70.41956 Y35.77939
G01 X-70.52314 Y35.68618
G01 X-70.63701 Y35.60805
G01 X-70.80658 Y35.52707
G01 X-70.93856 Y35.48775
G01 X-71.12355 Y35.46309
G01 X-71.30599 Y35.47167
G01 X-71.48397 Y35.51145
G01 X-71.65387 Y35.58072
G01 X-71.76888 Y35.65085
G01 X-71.90995 Y35.76903
G01 X-71.99898 Y35.87012
G01 X-72.13711 Y36.10990
G01 X-72.18067 Y36.23692
G01 X-72.21186 Y36.41653
G01 X-72.20711 Y36.64576
G01 X-72.16769 Y36.82318
G01 X-72.07572 Y37.03182
G01 X-71.94107 Y37.21576
G01 X-71.80678 Y37.33875
G01 X-71.61087 Y37.45762
G01 X-71.44105 Y37.51955
G01 X-71.21407 Y37.55389
G01 X-71.07732 Y37.55112
G01 X-70.94209 Y37.52971
G01 X-70.67856 Y37.43334
G01 X-70.48717 Y37.30248
G01 X-70.28461 Y37.07281
G01 X-70.17242 Y37.02501
G01 X-70.06947 Y37.05994
G01 X-69.91895 Y37.24083
G01 X-69.77895 Y37.36110
G01 X-69.53013 Y37.49318
G01 X-69.39937 Y37.53215
G01 X-69.21441 Y37.55679
G01 X-69.03178 Y37.54835
G01 X-68.85296 Y37.50957
G01 X-68.68413 Y37.43934
G01 X-68.56803 Y37.36913
G01 X-68.42802 Y37.25102
G01 X-68.26234 Y37.03548
G01 X-68.18449 Y36.86933
G01 X-68.13709 Y36.69301
G01 X-68.12312 Y36.55872
G01 X-68.26013 Y36.56946
G01 X-68.28926 Y36.74640
G01 X-68.35261 Y36.91439
G01 X-68.44392 Y37.06176
G01 X-68.56602 Y37.19308
G01 X-68.72180 Y37.30380
G01 X-68.88029 Y37.37403
G01 X-69.04364 Y37.41218
G01 X-69.23485 Y37.41825
G01 X-69.40031 Y37.39054
G01 X-69.56851 Y37.32780
G01 X-69.73048 Y37.22598
G01 X-69.85220 Y37.11053
G01 X-69.95662 Y36.96448
G01 X-70.03033 Y36.80078
G01 X-70.07044 Y36.62577
G01 X-70.07501 Y36.44091
G01 X-70.04359 Y36.26415
G01 X-69.97806 Y36.09700
G01 X-69.88827 Y35.95529
G01 X-69.76980 Y35.82875
G01 X-69.61400 Y35.71808
G01 X-69.44979 Y35.64599
G01 X-69.28060 Y35.60825
G01 X-69.11293 Y35.60294
G01 X-68.93567 Y35.63141
G01 X-68.76747 Y35.69418
G01 X-68.61484 Y35.78874
G01 X-68.47603 Y35.92039
G01 X-68.37351 Y36.06779
G01 X-68.30196 Y36.23245
G01 X-68.26554 Y36.39618
G01 X-68.26013 Y36.56946
G01 X-68.28012 Y36.56994
G01 X-68.30897 Y36.74305
G01 X-68.37128 Y36.90723
G01 X-68.46559 Y37.05724
G01 X-68.58654 Y37.18455
G01 X-68.72330 Y37.28170
G01 X-68.87750 Y37.35206
G01 X-69.05601 Y37.39372
G01 X-69.22368 Y37.39905
G01 X-69.39701 Y37.37083
G01 X-69.56848 Y37.30558
G01 X-69.71672 Y37.21145
G01 X-69.84359 Y37.09006
G01 X-69.94417 Y36.94609
G01 X-70.01204 Y36.79268
G01 X-70.05093 Y36.62143
G01 X-70.05530 Y36.44429
G01 X-70.02492 Y36.27132
G01 X-69.96472 Y36.11475
G01 X-69.87138 Y35.96601
G01 X-69.74943 Y35.83743
G01 X-69.60582 Y35.73634
G01 X-69.45266 Y35.66794
G01 X-69.28763 Y35.62926
G01 X-69.10442 Y35.62344
G01 X-68.93135 Y35.65321
G01 X-68.76749 Y35.71640
G01 X-68.62548 Y35.80568
G01 X-68.49754 Y35.92595
G01 X-68.39180 Y36.07589
G01 X-68.32147 Y36.23680
G01 X-68.28504 Y36.40053
G01 X-68.28012 Y36.56994
G01 X-68.30011 Y36.57045
G01 X-68.32868 Y36.73967
G01 X-68.38992 Y36.90004
G01 X-68.48014 Y37.04353
G01 X-68.59813 Y37.16824
G01 X-68.73488 Y37.26540
G01 X-68.88570 Y37.33382
G01 X-69.05273 Y37.37322
G01 X-69.22825 Y37.37881
G01 X-69.39370 Y37.35110
G01 X-69.55428 Y37.29042
G01 X-69.69985 Y37.19936
G01 X-69.82726 Y37.07853
G01 X-69.92588 Y36.93799
G01 X-69.99497 Y36.78084
G01 X-70.03140 Y36.61709
G01 X-70.03587 Y36.45153
G01 X-70.00625 Y36.27850
G01 X-69.94427 Y36.11841
G01 X-69.85449 Y35.97670
G01 X-69.74077 Y35.85628
G01 X-69.59767 Y35.75460
G01 X-69.44450 Y35.68620
G01 X-69.28316 Y35.64874
G01 X-69.10773 Y35.64317
G01 X-68.93846 Y35.67190
G01 X-68.77816 Y35.73332
G01 X-68.63612 Y35.82260
G01 X-68.51131 Y35.94046
G01 X-68.41009 Y36.08397
G01 X-68.34100 Y36.24114
G01 X-68.30458 Y36.40487
G01 X-68.30011 Y36.57045
G04 P0 ( dwell for no time -- G64 should not smooth over this point )
G00 Z1.00000 ( retract )

G00 X-68.30600 Y38.16298 ( rapid move to begin. )
G01 F100.00000
( Mill infeed pass 1/1 )
G01 Z-0.02500
G04 P0 ( dwell for no time -- G64 should not smooth over this point )
G01 F200.00000
G01 X-68.30600 Y38.16298
G01 X-68.31184 Y39.87713
G01 X-70.02599 Y39.88299
G01 X-70.04598 Y39.86298
G01 X-70.04013 Y38.14886
G01 X-68.32599 Y38.14299
G01 X-68.28598 Y38.16298
G01 X-68.28598 Y39.86298
G01 X-68.29769 Y39.89127
G01 X-68.32599 Y39.90298
G01 X-70.02599 Y39.90298
G01 X-70.05428 Y39.89127
G01 X-70.06599 Y39.86298
G01 X-70.06599 Y38.16298
G01 X-70.05428 Y38.13471
G01 X-70.02599 Y38.12298
G01 X-68.32599 Y38.12298
G01 X-68.29769 Y38.13471
G01 X-68.28598 Y38.16298
G01 X-68.26599 Y38.16298
G01 X-68.26599 Y39.86298
G01 X-68.28743 Y39.90895
G01 X-68.32599 Y39.92300
G01 X-70.02599 Y39.92300
G01 X-70.07196 Y39.90156
G01 X-70.08598 Y39.86298
G01 X-70.08598 Y38.16298
G01 X-70.06454 Y38.11703
G01 X-70.02599 Y38.10299
G01 X-68.31558 Y38.10390
G01 X-68.28002 Y38.12442
G01 X-68.26599 Y38.16298
G01 X-68.12983 Y38.16898
G01 X-68.12993 Y39.85818
G01 X-68.13694 Y39.91535
G01 X-68.16940 Y39.98040
G01 X-68.22182 Y40.02848
G01 X-68.31166 Y40.05823
G01 X-70.04158 Y40.05797
G01 X-70.11504 Y40.03727
G01 X-70.15796 Y40.00743
G01 X-70.20358 Y39.94616
G01 X-70.25062 Y39.82587
G01 X-70.30188 Y39.78167
G01 X-70.37610 Y39.76305
G01 X-70.46731 Y39.78906
G01 X-70.63150 Y39.91137
G01 X-70.62281 Y39.73329
G01 X-70.52924 Y39.65686
G01 X-70.44519 Y39.55577
G01 X-70.31092 Y39.54131
G01 X-70.23079 Y39.44698
G01 X-70.22296 Y38.62427
G01 X-70.24039 Y38.55130
G01 X-70.29040 Y38.49201
G01 X-70.35921 Y38.46395
G01 X-70.44737 Y38.46397
G01 X-70.52924 Y38.36511
G01 X-70.62284 Y38.28871
G01 X-70.63150 Y38.11043
G01 X-70.46622 Y38.23293
G01 X-70.37488 Y38.25892
G01 X-70.30234 Y38.24055
G01 X-70.25146 Y38.19811
G01 X-70.19276 Y38.05907
G01 X-70.15908 Y38.01879
G01 X-70.09576 Y37.97888
G01 X-70.04308 Y37.96697
G01 X-68.33140 Y37.96590
G01 X-68.25378 Y37.97985
G01 X-68.21098 Y38.00441
G01 X-68.15162 Y38.07530
G01 X-68.12983 Y38.16898
G01 X-68.10984 Y38.16664
G01 X-68.13323 Y38.06611
G01 X-68.19790 Y37.98884
G01 X-68.24682 Y37.96080
G01 X-68.32957 Y37.94589
G01 X-70.04539 Y37.94695
G01 X-70.10353 Y37.96016
G01 X-70.17237 Y38.00352
G01 X-70.21016 Y38.04871
G01 X-70.26663 Y38.18505
G01 X-70.31534 Y38.22488
G01 X-70.37590 Y38.23893
G01 X-70.45514 Y38.21630
G01 X-70.65151 Y38.07301
G01 X-70.64283 Y38.29801
G01 X-70.54211 Y38.38041
G01 X-70.45680 Y38.48394
G01 X-70.36279 Y38.48361
G01 X-70.30325 Y38.50733
G01 X-70.25603 Y38.56438
G01 X-70.24298 Y38.62417
G01 X-70.24951 Y39.43999
G01 X-70.32406 Y39.52572
G01 X-70.45507 Y39.53631
G01 X-70.54211 Y39.64157
G01 X-70.64283 Y39.72396
G01 X-70.65151 Y39.94886
G01 X-70.45619 Y39.80570
G01 X-70.37706 Y39.78304
G01 X-70.31224 Y39.79877
G01 X-70.26607 Y39.83857
G01 X-70.22139 Y39.95576
G01 X-70.17201 Y40.02201
G01 X-70.12373 Y40.05559
G01 X-70.04438 Y40.07799
G01 X-68.30841 Y40.07824
G01 X-68.21146 Y40.04611
G01 X-68.15317 Y39.99265
G01 X-68.11753 Y39.92125
G01 X-68.10994 Y39.85945
G01 X-68.10984 Y38.16664
G01 X-68.08997 Y38.16430
G01 X-68.11535 Y38.05717
G01 X-68.18504 Y37.97352
G01 X-68.23993 Y37.94203
G01 X-68.32779 Y37.92597
G01 X-70.04768 Y37.92696
G01 X-70.11120 Y37.94170
G01 X-70.18568 Y37.98825
G01 X-70.22756 Y38.03834
G01 X-70.28179 Y38.17202
G01 X-70.32416 Y38.20692
G01 X-70.37694 Y38.21896
G01 X-70.44407 Y38.19963
G01 X-70.66096 Y38.05531
G01 X-70.66096 Y38.30647
G01 X-70.55499 Y38.39572
G01 X-70.46536 Y38.50207
G01 X-70.36637 Y38.50329
G01 X-70.31610 Y38.52265
G01 X-70.27399 Y38.57317
G01 X-70.26297 Y38.62407
G01 X-70.26825 Y39.43298
G01 X-70.33302 Y39.50784
G01 X-70.46419 Y39.51835
G01 X-70.55255 Y39.62381
G01 X-70.66096 Y39.71553
G01 X-70.66096 Y39.96656
G01 X-70.44509 Y39.82234
G01 X-70.37803 Y39.80301
G01 X-70.32261 Y39.81586
G01 X-70.28151 Y39.85127
G01 X-70.23919 Y39.96537
G01 X-70.18590 Y40.03638
G01 X-70.13229 Y40.07365
G01 X-70.04717 Y40.09798
G01 X-68.30521 Y40.09798
G01 X-68.20133 Y40.06333
G01 X-68.13722 Y40.00471
G01 X-68.09841 Y39.92706
G01 X-68.08997 Y39.86072
G01 X-68.08997 Y38.16430
G04 P0 ( dwell for no time -- G64 should not smooth over this point )
G00 Z1.00000 ( retract )

G00 X-72.11112 Y43.83968 ( rapid move to begin. )
G01 F100.00000
( Mill infeed pass 1/1 )
G01 Z-0.02500
G04 P0 ( dwell for no time -- G64 should not smooth over this point )
G01 F200.00000
G01 X-72.11112 Y43.83968
G01 X-72.13439 Y43.48901
G01 X-72.22436 Y43.15550
G01 X-72.37739 Y42.84580
G01 X-72.58501 Y42.57461
G01 X-72.84719 Y42.34375
G01 X-73.14605 Y42.17049
G01 X-73.46906 Y42.05952
G01 X-73.81732 Y42.01225
G01 X-74.17195 Y42.03539
G01 X-74.50548 Y42.12536
G01 X-74.81185 Y42.27633
G01 X-75.08638 Y42.48601
G01 X-75.31495 Y42.74501
G01 X-75.49298 Y43.05258
G01 X-75.60375 Y43.37976
G01 X-75.64871 Y43.71834
G01 X-75.62719 Y44.06312
G01 X-75.53911 Y44.39713
G01 X-75.38465 Y44.71283
G01 X-75.17497 Y44.98738
G01 X-74.91277 Y45.21824
G01 X-74.60840 Y45.39398
G01 X-74.28120 Y45.50475
G01 X-73.93873 Y45.54986
G01 X-73.59786 Y45.52819
G01 X-73.26014 Y45.43874
G01 X-72.94480 Y45.28357
G01 X-72.67074 Y45.07331
G01 X-72.44503 Y44.81694
G01 X-72.26949 Y44.51489
G01 X-72.15712 Y44.18603
G01 X-72.11112 Y43.83968
G01 X-72.09116 Y43.83838
G01 X-72.11509 Y43.48382
G01 X-72.20642 Y43.14666
G01 X-72.35740 Y42.84029
G01 X-72.57447 Y42.55672
G01 X-72.83713 Y42.32645
G01 X-73.13243 Y42.15485
G01 X-73.46256 Y42.04060
G01 X-73.82257 Y41.99216
G01 X-74.17713 Y42.01609
G01 X-74.51432 Y42.10742
G01 X-74.82069 Y42.25840
G01 X-75.09854 Y42.47014
G01 X-75.33456 Y42.73821
G01 X-75.50865 Y43.03897
G01 X-75.62178 Y43.36952
G01 X-75.66880 Y43.72352
G01 X-75.64716 Y44.06439
G01 X-75.55844 Y44.40226
G01 X-75.39847 Y44.72832
G01 X-75.19085 Y44.99954
G01 X-74.92918 Y45.23096
G01 X-74.62201 Y45.40965
G01 X-74.28384 Y45.52456
G01 X-73.93746 Y45.56980
G01 X-73.59659 Y45.54816
G01 X-73.25872 Y45.45944
G01 X-72.93934 Y45.30361
G01 X-72.65572 Y45.08651
G01 X-72.42545 Y44.82383
G01 X-72.25057 Y44.52136
G01 X-72.13820 Y44.19251
G01 X-72.09116 Y43.83838
G01 X-72.07122 Y43.83709
G01 X-72.07160 Y43.84890
G01 X-72.11928 Y44.19896
G01 X-72.23165 Y44.52784
G01 X-72.40818 Y44.83389
G01 X-72.64927 Y45.10772
G01 X-72.93053 Y45.32157
G01 X-73.25359 Y45.47877
G01 X-73.59532 Y45.56812
G01 X-73.93619 Y45.58976
G01 X-74.29789 Y45.54173
G01 X-74.63202 Y45.42698
G01 X-74.93278 Y45.25286
G01 X-75.20672 Y45.01169
G01 X-75.42057 Y44.73043
G01 X-75.57365 Y44.41844
G01 X-75.66524 Y44.07722
G01 X-75.68836 Y43.71308
G01 X-75.64073 Y43.36310
G01 X-75.53085 Y43.03971
G01 X-75.35186 Y42.72817
G01 X-75.11069 Y42.45426
G01 X-74.83949 Y42.24664
G01 X-74.52316 Y42.08949
G01 X-74.18234 Y41.99676
G01 X-73.81198 Y41.97263
G01 X-73.45605 Y42.02167
G01 X-73.13304 Y42.13267
G01 X-72.82710 Y42.30918
G01 X-72.56124 Y42.54171
G01 X-72.33947 Y42.83145
G01 X-72.18435 Y43.14877
G01 X-72.09576 Y43.47864
G01 X-72.07122 Y43.83709
G01 X-71.93403 Y43.84354
G01 X-71.94270 Y43.59475
G01 X-72.01366 Y43.22708
G01 X-72.15433 Y42.88083
G01 X-72.35806 Y42.56747
G01 X-72.61798 Y42.29881
G01 X-72.92448 Y42.08543
G01 X-73.26695 Y41.93409
G01 X-73.63220 Y41.85038
G01 X-73.81742 Y41.83503
G01 X-74.06621 Y41.84377
G01 X-74.43385 Y41.91476
G01 X-74.78008 Y42.05540
G01 X-75.09341 Y42.25914
G01 X-75.36207 Y42.51906
G01 X-75.57543 Y42.82551
G01 X-75.72679 Y43.16798
G01 X-75.81020 Y43.53168
G01 X-75.82181 Y43.90513
G01 X-75.76250 Y44.27569
G01 X-75.68412 Y44.51184
G01 X-75.60634 Y44.67988
G01 X-75.40182 Y44.99441
G01 X-75.14195 Y45.26304
G01 X-74.83443 Y45.47643
G01 X-74.49296 Y45.62779
G01 X-74.12829 Y45.71120
G01 X-73.75483 Y45.72291
G01 X-73.38620 Y45.66375
G01 X-73.03378 Y45.53421
G01 X-72.87152 Y45.44587
G01 X-72.66718 Y45.30356
G01 X-72.39784 Y45.04300
G01 X-72.18443 Y44.73549
G01 X-72.03309 Y44.39398
G01 X-71.94938 Y44.02777
G01 X-71.93403 Y43.84354
G01 X-71.91399 Y43.84402
G01 X-71.92956 Y44.03084
G01 X-72.01402 Y44.40031
G01 X-72.16693 Y44.74532
G01 X-72.38252 Y45.05601
G01 X-72.65443 Y45.31905
G01 X-72.86101 Y45.46292
G01 X-73.02550 Y45.55248
G01 X-73.38112 Y45.68319
G01 X-73.75354 Y45.74295
G01 X-74.13085 Y45.73111
G01 X-74.49928 Y45.64684
G01 X-74.84429 Y45.49393
G01 X-75.15496 Y45.27836
G01 X-75.41754 Y45.00694
G01 X-75.62389 Y44.68959
G01 X-75.70273 Y44.51923
G01 X-75.78201 Y44.28047
G01 X-75.84187 Y43.90643
G01 X-75.83011 Y43.52911
G01 X-75.74584 Y43.16163
G01 X-75.59293 Y42.81568
G01 X-75.37739 Y42.50603
G01 X-75.10594 Y42.24342
G01 X-74.78938 Y42.03760
G01 X-74.43957 Y41.89551
G01 X-74.06847 Y41.82383
G01 X-73.81694 Y41.81499
G01 X-73.62910 Y41.83056
G01 X-73.26060 Y41.91502
G01 X-72.91463 Y42.06790
G01 X-72.60495 Y42.28352
G01 X-72.34234 Y42.55495
G01 X-72.13652 Y42.87153
G01 X-71.99441 Y43.22137
G01 X-71.92278 Y43.59249
G01 X-71.91399 Y43.84402
G01 X-71.89400 Y43.84450
G01 X-71.90980 Y44.03389
G01 X-71.99504 Y44.40663
G01 X-72.14948 Y44.75512
G01 X-72.36728 Y45.06896
G01 X-72.64173 Y45.33449
G01 X-72.85049 Y45.47993
G01 X-73.01724 Y45.57069
G01 X-73.37607 Y45.70254
G01 X-73.75227 Y45.76292
G01 X-74.13342 Y45.75105
G01 X-74.50563 Y45.66591
G01 X-74.85412 Y45.51146
G01 X-75.16796 Y45.29368
G01 X-75.43327 Y45.01946
G01 X-75.64144 Y44.69929
G01 X-75.72135 Y44.52660
G01 X-75.80149 Y44.28522
G01 X-75.86192 Y43.90770
G01 X-75.85005 Y43.52655
G01 X-75.76491 Y43.15530
G01 X-75.61046 Y42.80582
G01 X-75.39268 Y42.49300
G01 X-75.11846 Y42.22769
G01 X-74.79867 Y42.01979
G01 X-74.44528 Y41.87623
G01 X-74.07073 Y41.80389
G01 X-73.81645 Y41.79500
G01 X-73.62606 Y41.81080
G01 X-73.25430 Y41.89605
G01 X-72.90482 Y42.05048
G01 X-72.59200 Y42.26828
G01 X-72.32669 Y42.54247
G01 X-72.11879 Y42.86229
G01 X-71.97523 Y43.21568
G01 X-71.90289 Y43.59022
G01 X-71.89400 Y43.84450
G04 P0 ( dwell for no time -- G64 should not smooth over this point )
G00 Z1.00000 ( retract )

G00 X-71.71798 Y39.73489 ( rapid move to begin. )
G01 F100.00000
( Mill infeed pass 1/1 )
G01 Z-0.02500
G04 P0 ( dwell for no time -- G64 should not smooth over this point )
G01 F200.00000
G01 X-71.71798 Y39.73489
G01 X-71.70686 Y39.92231
G01 X-71.71798 Y39.89988
G01 X-71.89334 Y39.76646
G01 X-72.07439 Y39.54878
G01 X-71.89309 Y39.55714
G01 X-71.81072 Y39.65688
G01 X-71.71798 Y39.73489
G01 X-71.69797 Y39.72556
G01 X-71.80274 Y39.63666
G01 X-71.88374 Y39.53712
G01 X-72.10995 Y39.52879
G01 X-71.90721 Y39.78096
G01 X-71.68796 Y39.95195
G01 X-71.69797 Y39.72556
G01 X-71.67798 Y39.71627
G01 X-71.78496 Y39.62628
G01 X-71.87528 Y39.51899
G01 X-72.12740 Y39.51899
G01 X-72.04579 Y39.65310
G01 X-71.92111 Y39.79547
G01 X-71.77264 Y39.91444
G01 X-71.67798 Y39.96928
G01 X-71.67798 Y39.71627
G04 P0 ( dwell for no time -- G64 should not smooth over this point )
G00 Z1.00000 ( retract )

G00 X-71.71798 Y38.12135 ( rapid move to begin. )
G01 F100.00000
( Mill infeed pass 1/1 )
G01 Z-0.02500
G04 P0 ( dwell for no time -- G64 should not smooth over this point )
G01 F200.00000
G01 X-71.71798 Y38.12135
G01 X-71.71610 Y38.28795
G01 X-71.81072 Y38.36509
G01 X-71.89235 Y38.46382
G01 X-72.07414 Y38.47220
G01 X-71.89327 Y38.25442
G01 X-71.71798 Y38.12135
G01 X-71.68801 Y38.06974
G01 X-71.69611 Y38.29727
G01 X-71.79784 Y38.38041
G01 X-71.88301 Y38.48383
G01 X-72.10983 Y38.49219
G01 X-71.90716 Y38.23994
G01 X-71.69797 Y38.08691
G01 X-71.67798 Y38.05244
G01 X-71.67798 Y38.30570
G01 X-71.78496 Y38.39570
G01 X-71.87455 Y38.50197
G01 X-72.12728 Y38.50197
G01 X-72.04579 Y38.36885
G01 X-71.92108 Y38.22547
G01 X-71.77269 Y38.10657
G01 X-71.67798 Y38.05244
G04 P0 ( dwell for no time -- G64 should not smooth over this point )
G00 Z1.00000 ( retract )

G00 X-70.30254 Y36.57457 ( rapid move to begin. )
G01 F100.00000
( Mill infeed pass 1/1 )
G01 Z-0.02500
G04 P0 ( dwell for no time -- G64 should not smooth over this point )
G01 F200.00000
G01 X-70.30254 Y36.57457
G01 X-70.30584 Y36.40898
G01 X-70.34112 Y36.24498
G01 X-70.40909 Y36.08734
G01 X-70.50673 Y35.94612
G01 X-70.63018 Y35.82682
G01 X-70.77818 Y35.73230
G01 X-70.93828 Y35.67050
G01 X-71.10140 Y35.64180
G01 X-71.26914 Y35.64475
G01 X-71.44069 Y35.68227
G01 X-71.59776 Y35.75153
G01 X-71.73820 Y35.85029
G01 X-71.85649 Y35.97472
G01 X-71.94628 Y36.11640
G01 X-72.00767 Y36.27439
G01 X-72.03741 Y36.44348
G01 X-72.03340 Y36.61511
G01 X-71.99698 Y36.77883
G01 X-71.92596 Y36.93939
G01 X-71.83068 Y37.07487
G01 X-71.70978 Y37.19115
G01 X-71.56530 Y37.28389
G01 X-71.40162 Y37.34749
G01 X-71.23244 Y37.37665
G01 X-71.06474 Y37.37251
G01 X-70.89929 Y37.33570
G01 X-70.74564 Y37.26837
G01 X-70.60478 Y37.17025
G01 X-70.48593 Y37.04637
G01 X-70.39469 Y36.90352
G01 X-70.33338 Y36.74739
G01 X-70.30254 Y36.57457
G01 X-70.28255 Y36.57421
G01 X-70.28631 Y36.40477
G01 X-70.32157 Y36.24076
G01 X-70.39076 Y36.07937
G01 X-70.49543 Y35.92870
G01 X-70.62253 Y35.80751
G01 X-70.77094 Y35.71366
G01 X-70.92731 Y35.65290
G01 X-71.09403 Y35.62240
G01 X-71.27732 Y35.62567
G01 X-71.44872 Y35.66395
G01 X-71.60924 Y35.73515
G01 X-71.75265 Y35.83647
G01 X-71.87338 Y35.96400
G01 X-71.96317 Y36.10571
G01 X-72.02525 Y36.26342
G01 X-72.05743 Y36.44388
G01 X-72.05291 Y36.61945
G01 X-72.01404 Y36.79070
G01 X-71.94618 Y36.94409
G01 X-71.84958 Y37.08338
G01 X-71.71745 Y37.21046
G01 X-71.56904 Y37.30431
G01 X-71.41267 Y37.36507
G01 X-71.23983 Y37.39605
G01 X-71.06426 Y37.39250
G01 X-70.89126 Y37.35402
G01 X-70.73073 Y37.28282
G01 X-70.58733 Y37.18150
G01 X-70.47145 Y37.06019
G01 X-70.37607 Y36.91084
G01 X-70.31263 Y36.74708
G01 X-70.28255 Y36.57421
G01 X-70.26256 Y36.57388
G01 X-70.26675 Y36.40058
G01 X-70.30201 Y36.23657
G01 X-70.37242 Y36.07142
G01 X-70.47389 Y35.92329
G01 X-70.61176 Y35.79067
G01 X-70.75314 Y35.70038
G01 X-70.92007 Y35.63426
G01 X-71.10211 Y35.60180
G01 X-71.28158 Y35.60614
G01 X-71.45674 Y35.64564
G01 X-71.62070 Y35.71876
G01 X-71.76711 Y35.82268
G01 X-71.89027 Y35.95331
G01 X-71.98529 Y36.10538
G01 X-72.04704 Y36.26738
G01 X-72.07742 Y36.44432
G01 X-72.07244 Y36.62379
G01 X-72.03233 Y36.79877
G01 X-71.95875 Y36.96232
G01 X-71.85842 Y37.10370
G01 X-71.72822 Y37.22730
G01 X-71.57628 Y37.32295
G01 X-71.40851 Y37.38688
G01 X-71.23144 Y37.41663
G01 X-71.05222 Y37.41107
G01 X-70.88324 Y37.37233
G01 X-70.71928 Y37.29920
G01 X-70.57285 Y37.19532
G01 X-70.44981 Y37.06486
G01 X-70.35746 Y36.91815
G01 X-70.29294 Y36.75061
G01 X-70.26256 Y36.57388
G04 P0 ( dwell for no time -- G64 should not smooth over this point )
G00 Z1.00000 ( retract )

G00 X-72.11133 Y31.80579 ( rapid move to begin. )
G01 F100.00000
( Mill infeed pass 1/1 )
G01 Z-0.02500
G04 P0 ( dwell for no time -- G64 should not smooth over this point )
G01 F200.00000
G01 X-72.11133 Y31.80579
G01 X-72.13243 Y31.46099
G01 X-72.21877 Y31.13053
G01 X-72.37213 Y30.81433
G01 X-72.58354 Y30.53617
G01 X-72.84226 Y30.30729
G01 X-73.14053 Y30.13303
G01 X-73.46316 Y30.02094
G01 X-73.81125 Y29.97250
G01 X-74.15999 Y29.99343
G01 X-74.49410 Y30.08111
G01 X-74.80152 Y30.22998
G01 X-75.08191 Y30.44186
G01 X-75.31724 Y30.70818
G01 X-75.49047 Y31.00704
G01 X-75.60146 Y31.33005
G01 X-75.64848 Y31.67229
G01 X-75.62755 Y32.02098
G01 X-75.53987 Y32.35509
G01 X-75.39100 Y32.66251
G01 X-75.17645 Y32.94580
G01 X-74.91767 Y33.17470
G01 X-74.61394 Y33.35146
G01 X-74.28712 Y33.46337
G01 X-73.94869 Y33.50950
G01 X-73.60386 Y33.48915
G01 X-73.26017 Y33.39875
G01 X-72.94996 Y33.24679
G01 X-72.67518 Y33.03744
G01 X-72.44859 Y32.78186
G01 X-72.27203 Y32.48042
G01 X-72.15852 Y32.15194
G01 X-72.11133 Y31.80579
G01 X-72.09136 Y31.80460
G01 X-72.11308 Y31.45593
G01 X-72.19941 Y31.12548
G01 X-72.35415 Y30.80557
G01 X-72.57028 Y30.52121
G01 X-72.82583 Y30.29462
G01 X-73.12687 Y30.11740
G01 X-73.45659 Y30.00204
G01 X-73.81638 Y29.95238
G01 X-74.15732 Y29.97285
G01 X-74.49550 Y30.06041
G01 X-74.81693 Y30.21611
G01 X-75.09979 Y30.43132
G01 X-75.32991 Y30.69175
G01 X-75.50614 Y30.99345
G01 X-75.62219 Y31.33117
G01 X-75.66832 Y31.66957
G01 X-75.64812 Y32.01832
G01 X-75.56057 Y32.35649
G01 X-75.40487 Y32.67793
G01 X-75.18970 Y32.96076
G01 X-74.92775 Y33.19197
G01 X-74.62760 Y33.36711
G01 X-74.29740 Y33.48138
G01 X-73.94358 Y33.52962
G01 X-73.59486 Y33.50787
G01 X-73.25877 Y33.41946
G01 X-72.94452 Y33.26680
G01 X-72.66594 Y33.05601
G01 X-72.42903 Y32.78882
G01 X-72.25311 Y32.48695
G01 X-72.13962 Y32.15847
G01 X-72.09136 Y31.80460
G01 X-72.07140 Y31.80338
G01 X-72.12072 Y32.16500
G01 X-72.23914 Y32.50422
G01 X-72.41178 Y32.79893
G01 X-72.64526 Y33.06398
G01 X-72.92575 Y33.27861
G01 X-73.25369 Y33.43881
G01 X-73.60144 Y33.52908
G01 X-73.94239 Y33.54958
G01 X-74.29253 Y33.50300
G01 X-74.63766 Y33.38438
G01 X-74.94741 Y33.20231
G01 X-75.21099 Y32.96706
G01 X-75.42082 Y32.69002
G01 X-75.57992 Y32.36155
G01 X-75.66809 Y32.01951
G01 X-75.68813 Y31.66688
G01 X-75.64200 Y31.32845
G01 X-75.52344 Y30.98339
G01 X-75.34490 Y30.67852
G01 X-75.11480 Y30.41809
G01 X-74.82902 Y30.20016
G01 X-74.50055 Y30.04105
G01 X-74.15852 Y29.95289
G01 X-73.81757 Y29.93242
G01 X-73.45003 Y29.98314
G01 X-73.11676 Y30.10016
G01 X-72.82204 Y30.27278
G01 X-72.55699 Y30.50625
G01 X-72.33617 Y30.79683
G01 X-72.18006 Y31.12043
G01 X-72.09372 Y31.45088
G01 X-72.07140 Y31.80338
G01 X-71.93403 Y31.80455
G01 X-71.94270 Y31.55576
G01 X-72.01369 Y31.18707
G01 X-72.15433 Y30.84082
G01 X-72.35806 Y30.52749
G01 X-72.61798 Y30.25881
G01 X-72.92448 Y30.04545
G01 X-73.26695 Y29.89409
G01 X-73.63068 Y29.81067
G01 X-74.00413 Y29.79914
G01 X-74.37373 Y29.85830
G01 X-74.72382 Y29.98726
G01 X-75.04391 Y30.18126
G01 X-75.32036 Y30.43249
G01 X-75.54442 Y30.73224
G01 X-75.70705 Y31.07011
G01 X-75.76273 Y31.24674
G01 X-75.81015 Y31.49167
G01 X-75.82181 Y31.86612
G01 X-75.76265 Y32.23472
G01 X-75.63316 Y32.58715
G01 X-75.54485 Y32.74938
G01 X-75.40251 Y32.95372
G01 X-75.14190 Y33.22309
G01 X-74.83438 Y33.43746
G01 X-74.49301 Y33.58875
G01 X-74.12829 Y33.67119
G01 X-73.75384 Y33.68392
G01 X-73.50701 Y33.65194
G01 X-73.32750 Y33.60782
G01 X-72.97983 Y33.46662
G01 X-72.66647 Y33.26289
G01 X-72.39781 Y33.00297
G01 X-72.18440 Y32.69644
G01 X-72.03309 Y32.35499
G01 X-71.94938 Y31.98878
G01 X-71.93403 Y31.80455
G01 X-71.91399 Y31.80503
G01 X-71.92956 Y31.99185
G01 X-72.01402 Y32.36132
G01 X-72.16690 Y32.70630
G01 X-72.38252 Y33.01600
G01 X-72.65395 Y33.27861
G01 X-72.97053 Y33.48443
G01 X-73.32133 Y33.62687
G01 X-73.50332 Y33.67163
G01 X-73.75288 Y33.70396
G01 X-74.13085 Y33.69113
G01 X-74.49933 Y33.60782
G01 X-74.84424 Y33.45496
G01 X-75.15493 Y33.23838
G01 X-75.41800 Y32.96647
G01 X-75.56189 Y32.75989
G01 X-75.65143 Y32.59543
G01 X-75.78211 Y32.23980
G01 X-75.84187 Y31.86739
G01 X-75.83009 Y31.48944
G01 X-75.78216 Y31.24181
G01 X-75.72570 Y31.06274
G01 X-75.56161 Y30.72182
G01 X-75.33525 Y30.41898
G01 X-75.05592 Y30.16516
G01 X-74.73253 Y29.96917
G01 X-74.37881 Y29.83884
G01 X-74.00543 Y29.77908
G01 X-73.62809 Y29.79074
G01 X-73.26060 Y29.87501
G01 X-72.91463 Y30.02792
G01 X-72.60495 Y30.24352
G01 X-72.34234 Y30.51497
G01 X-72.13652 Y30.83153
G01 X-71.99441 Y31.18136
G01 X-71.92278 Y31.55350
G01 X-71.91399 Y31.80503
G01 X-71.89400 Y31.80551
G01 X-71.90980 Y31.99490
G01 X-71.99504 Y32.36764
G01 X-72.14948 Y32.71613
G01 X-72.36728 Y33.02896
G01 X-72.64147 Y33.29426
G01 X-72.96129 Y33.50216
G01 X-73.31516 Y33.64592
G01 X-73.49966 Y33.69129
G01 X-73.75194 Y33.72393
G01 X-74.13342 Y33.71105
G01 X-74.50566 Y33.62690
G01 X-74.85409 Y33.47247
G01 X-75.16796 Y33.25367
G01 X-75.43349 Y32.97922
G01 X-75.57893 Y32.77043
G01 X-75.66969 Y32.60371
G01 X-75.80154 Y32.24488
G01 X-75.86192 Y31.86868
G01 X-75.85003 Y31.48720
G01 X-75.80157 Y31.23688
G01 X-75.74434 Y31.05535
G01 X-75.57878 Y30.71141
G01 X-75.35011 Y30.40547
G01 X-75.06794 Y30.14905
G01 X-74.74124 Y29.95106
G01 X-74.38389 Y29.81941
G01 X-74.00670 Y29.75904
G01 X-73.62555 Y29.77090
G01 X-73.25430 Y29.85604
G01 X-72.90482 Y30.01050
G01 X-72.59200 Y30.22828
G01 X-72.32669 Y30.50249
G01 X-72.11879 Y30.82228
G01 X-71.97523 Y31.17567
G01 X-71.90289 Y31.55123
G01 X-71.89400 Y31.80551
G04 P0 ( dwell for no time -- G64 should not smooth over this point )
G00 Z1.00000 ( retract )

G00 X-74.09154 Y24.89499 ( rapid move to begin. )
G01 F100.00000
( Mill infeed pass 1/1 )
G01 Z-0.02500
G04 P0 ( dwell for no time -- G64 should not smooth over this point )
G01 F200.00000
G01 X-74.09154 Y24.89499
G01 X-74.24881 Y24.88914
G01 X-74.24391 Y25.16341
G01 X-74.28247 Y25.20936
G01 X-75.20080 Y25.20718
G01 X-75.20083 Y25.37083
G01 X-74.30965 Y25.36509
G01 X-74.21361 Y25.34373
G01 X-74.14068 Y25.28869
G01 X-74.09910 Y25.20784
G01 X-74.09154 Y24.89499
G01 X-74.07101 Y24.87497
G01 X-74.26885 Y24.86913
G01 X-74.26299 Y25.15300
G01 X-74.29519 Y25.19222
G01 X-75.22079 Y25.18716
G01 X-75.22082 Y25.39082
G01 X-74.30744 Y25.38511
G01 X-74.20500 Y25.36230
G01 X-74.12499 Y25.30189
G01 X-74.07924 Y25.21292
G01 X-74.07101 Y24.87497
G01 X-74.05049 Y24.85498
G01 X-74.28298 Y24.85498
G01 X-74.28298 Y25.15300
G01 X-74.29908 Y25.17261
G01 X-75.23497 Y25.17299
G01 X-75.23497 Y25.40497
G01 X-74.30520 Y25.40497
G01 X-74.19659 Y25.38043
G01 X-74.10970 Y25.31477
G01 X-74.05986 Y25.21787
G01 X-74.05049 Y24.85498
G04 P0 ( dwell for no time -- G64 should not smooth over this point )
G00 Z1.00000 ( retract )

G00 X-74.08988 Y23.63339 ( rapid move to begin. )
G01 F100.00000
( Mill infeed pass 1/1 )
G01 Z-0.02500
G04 P0 ( dwell for no time -- G64 should not smooth over this point )
G01 F200.00000
G01 X-74.08988 Y23.63339
G01 X-74.08412 Y23.89184
G01 X-74.24881 Y23.89181
G01 X-74.24300 Y23.62900
G01 X-74.27299 Y23.57703
G01 X-75.20080 Y23.57480
G01 X-75.20088 Y23.41051
G01 X-74.24823 Y23.42417
G01 X-74.15234 Y23.48008
G01 X-74.10352 Y23.55717
G01 X-74.08988 Y23.63339
G01 X-74.06989 Y23.63159
G01 X-74.06413 Y23.91183
G01 X-74.26880 Y23.91183
G01 X-74.26299 Y23.62900
G01 X-74.28077 Y23.59573
G01 X-75.22082 Y23.59484
G01 X-75.22090 Y23.39034
G01 X-74.24277 Y23.40421
G01 X-74.13809 Y23.46522
G01 X-74.08455 Y23.54973
G01 X-74.06989 Y23.63159
G01 X-74.04998 Y23.62979
G01 X-74.06593 Y23.54241
G01 X-74.12423 Y23.45082
G01 X-74.23746 Y23.38493
G01 X-75.23497 Y23.37614
G01 X-75.23497 Y23.60898
G01 X-74.29187 Y23.61236
G01 X-74.28298 Y23.92598
G01 X-74.04998 Y23.92598
G01 X-74.04998 Y23.62979
G04 P0 ( dwell for no time -- G64 should not smooth over this point )
G00 Z1.00000 ( retract )

G00 X-74.09154 Y19.81499 ( rapid move to begin. )
G01 F100.00000
( Mill infeed pass 1/1 )
G01 Z-0.02500
G04 P0 ( dwell for no time -- G64 should not smooth over this point )
G01 F200.00000
G01 X-74.09154 Y19.81499
G01 X-74.24881 Y19.80914
G01 X-74.24391 Y20.08341
G01 X-74.28247 Y20.12936
G01 X-75.20080 Y20.12718
G01 X-75.20083 Y20.29083
G01 X-74.30965 Y20.28509
G01 X-74.21361 Y20.26373
G01 X-74.14068 Y20.20869
G01 X-74.09910 Y20.12784
G01 X-74.09154 Y19.81499
G01 X-74.07101 Y19.79497
G01 X-74.26885 Y19.78913
G01 X-74.26299 Y20.07300
G01 X-74.29519 Y20.11222
G01 X-75.22079 Y20.10716
G01 X-75.22082 Y20.31082
G01 X-74.30744 Y20.30511
G01 X-74.20500 Y20.28230
G01 X-74.12499 Y20.22189
G01 X-74.07924 Y20.13292
G01 X-74.07101 Y19.79497
G01 X-74.05049 Y19.77498
G01 X-74.28298 Y19.77498
G01 X-74.28298 Y20.07300
G01 X-74.29908 Y20.09261
G01 X-75.23497 Y20.09299
G01 X-75.23497 Y20.32497
G01 X-74.30520 Y20.32497
G01 X-74.19659 Y20.30043
G01 X-74.10970 Y20.23477
G01 X-74.05986 Y20.13787
G01 X-74.05049 Y19.77498
G04 P0 ( dwell for no time -- G64 should not smooth over this point )
G00 Z1.00000 ( retract )

G00 X-74.08988 Y18.55339 ( rapid move to begin. )
G01 F100.00000
( Mill infeed pass 1/1 )
G01 Z-0.02500
G04 P0 ( dwell for no time -- G64 should not smooth over this point )
G01 F200.00000
G01 X-74.08988 Y18.55339
G01 X-74.08412 Y18.81184
G01 X-74.24881 Y18.81181
G01 X-74.24300 Y18.54900
G01 X-74.27299 Y18.49703
G01 X-75.20080 Y18.49480
G01 X-75.20088 Y18.33051
G01 X-74.24823 Y18.34417
G01 X-74.15234 Y18.40008
G01 X-74.10352 Y18.47717
G01 X-74.08988 Y18.55339
G01 X-74.06989 Y18.55159
G01 X-74.06413 Y18.83183
G01 X-74.26880 Y18.83183
G01 X-74.26299 Y18.54900
G01 X-74.28077 Y18.51573
G01 X-75.22082 Y18.51484
G01 X-75.22090 Y18.31034
G01 X-74.24277 Y18.32421
G01 X-74.13809 Y18.38522
G01 X-74.08455 Y18.46973
G01 X-74.06989 Y18.55159
G01 X-74.04998 Y18.54979
G01 X-74.06593 Y18.46241
G01 X-74.12423 Y18.37082
G01 X-74.23746 Y18.30493
G01 X-75.23497 Y18.29614
G01 X-75.23497 Y18.52898
G01 X-74.29187 Y18.53236
G01 X-74.28298 Y18.84598
G01 X-74.04998 Y18.84598
G01 X-74.04998 Y18.54979
G04 P0 ( dwell for no time -- G64 should not smooth over this point )
G00 Z1.00000 ( retract )

G00 X-53.08899 Y5.90899 ( rapid move to begin. )
G01 F100.00000
( Mill infeed pass 1/1 )
G01 Z-0.02500
G04 P0 ( dwell for no time -- G64 should not smooth over this point )
G01 F200.00000
G01 X-53.08899 Y5.90899
G01 X-53.08302 Y6.05032
G01 X-53.38091 Y6.04153
G01 X-53.46407 Y6.00432
G01 X-53.52132 Y5.93566
G01 X-53.54296 Y5.84199
G01 X-53.54880 Y4.95012
G01 X-53.40113 Y4.95014
G01 X-53.40331 Y5.86950
G01 X-53.38553 Y5.89495
G01 X-53.34697 Y5.90899
G01 X-53.08899 Y5.90899
G01 X-53.06897 Y5.88898
G01 X-53.06305 Y6.07054
G01 X-53.38530 Y6.06150
G01 X-53.47646 Y6.02068
G01 X-53.53968 Y5.94486
G01 X-53.56298 Y5.84433
G01 X-53.56882 Y4.93013
G01 X-53.38111 Y4.93016
G01 X-53.38022 Y5.87120
G01 X-53.34697 Y5.88898
G01 X-53.06897 Y5.88898
G01 X-53.04896 Y5.86899
G01 X-53.36359 Y5.86010
G01 X-53.36696 Y4.91598
G01 X-53.58294 Y4.91598
G01 X-53.58294 Y5.84666
G01 X-53.55759 Y5.95380
G01 X-53.48853 Y6.03663
G01 X-53.38960 Y6.08103
G01 X-53.04896 Y6.08474
G01 X-53.04896 Y5.86899
G04 P0 ( dwell for no time -- G64 should not smooth over this point )
G00 Z1.00000 ( retract )

G00 X-51.62656 Y4.95599 ( rapid move to begin. )
G01 F100.00000
( Mill infeed pass 1/1 )
G01 Z-0.02500
G04 P0 ( dwell for no time -- G64 should not smooth over this point )
G01 F200.00000
G01 X-51.62656 Y4.95599
G01 X-51.76880 Y4.95014
G01 X-51.76661 Y5.86950
G01 X-51.81256 Y5.90808
G01 X-52.08581 Y5.90318
G01 X-52.08586 Y6.05070
G01 X-51.75452 Y6.03244
G01 X-51.67814 Y5.97989
G01 X-51.63519 Y5.90323
G01 X-51.62656 Y4.95599
G01 X-51.60636 Y4.93597
G01 X-51.61525 Y5.90854
G01 X-51.66295 Y5.99370
G01 X-51.74629 Y6.05106
G01 X-52.10583 Y6.07074
G01 X-52.10583 Y5.88316
G01 X-51.82300 Y5.88898
G01 X-51.78376 Y5.85680
G01 X-51.78884 Y4.93013
G01 X-51.60636 Y4.93597
G01 X-51.58617 Y4.91598
G01 X-51.80298 Y4.91598
G01 X-51.80337 Y5.85289
G01 X-51.82300 Y5.86899
G01 X-52.11995 Y5.86899
G01 X-52.11995 Y6.08492
G01 X-51.80131 Y6.08398
G01 X-51.73821 Y6.06935
G01 X-51.64817 Y6.00717
G01 X-51.59592 Y5.91367
G01 X-51.58617 Y4.91598

G04 P0 ( dwell for no time -- G64 should not smooth over this point )
G00 Z25.000000 ( retract )

M5 ( Spindle off. )
G04 P1.000000
M9 ( Coolant off. )
M2 ( Program end. )

