( pcb2gcode 3.0.2 )
( Software-independent Gcode )

G94 ( Millimeters per minute feed rate. )
G21 ( Units == Millimeters. )

G90 ( Absolute coordinates. )
G00 S7000 ( RPM spindle speed. )
G01 F200.00000 ( Feedrate. )


G00 Z25.00000 (Retract to tool change height)
T1
M5      (Spindle stop.)
G04 P1.00000 (Wait for spindle to stop)
(MSG, Change tool bit to mill diameter 0.04000mm)
M6      (Tool change.)
M0      (Temporary machine stop.)
M3 ( Spindle on clockwise. )
G04 P1.00000 (Wait for spindle to get up to speed)
G04 P0 ( dwell for no time -- G64 should not smooth over this point )
G00 Z1.00000 ( retract )

G00 X1.47398 Y1.61998 ( rapid move to begin. )
G01 F100.00000
( Mill infeed pass 1/1 )
G01 Z-0.02500
G04 P0 ( dwell for no time -- G64 should not smooth over this point )
G01 F200.00000
G01 X1.47398 Y1.61998
G01 X1.47398 Y6.25098
G01 X1.50070 Y6.34021
G01 X1.55356 Y6.39083
G01 X1.63484 Y6.41298
G01 X3.21497 Y6.41644
G01 X3.31626 Y6.46675
G01 X3.40692 Y6.61778
G01 X3.52188 Y6.67084
G01 X3.69246 Y6.65194
G01 X4.58682 Y6.64610
G01 X4.58682 Y6.81085
G01 X3.68898 Y6.80498
G01 X3.65043 Y6.81903
G01 X3.63260 Y6.84448
G01 X3.63702 Y8.41900
G01 X3.68898 Y8.44899
G01 X4.58682 Y8.44313
G01 X4.58682 Y8.60683
G01 X3.79099 Y8.60096
G01 X3.68561 Y8.64069
G01 X3.63181 Y8.73800
G01 X3.63227 Y9.05735
G01 X3.66991 Y9.13772
G01 X3.76711 Y9.19017
G01 X7.74719 Y9.19197
G01 X7.89200 Y9.21897
G01 X23.58798 Y9.21714
G01 X23.68526 Y9.16334
G01 X23.72499 Y9.05801
G01 X23.72575 Y6.87704
G01 X23.75384 Y6.78540
G01 X23.81790 Y6.71605
G01 X23.94208 Y6.67889
G01 X27.12485 Y6.67897
G01 X27.20220 Y6.69195
G01 X27.26598 Y6.72934
G01 X27.31345 Y6.78532
G01 X27.33829 Y6.85443
G01 X27.34197 Y9.05809
G01 X27.35990 Y9.13149
G01 X27.41220 Y9.19042
G01 X27.50400 Y9.21897
G01 X31.07100 Y9.21798
G01 X31.17836 Y9.16324
G01 X31.21702 Y9.06764
G01 X31.21875 Y6.87704
G01 X31.24684 Y6.78540
G01 X31.31090 Y6.71605
G01 X31.43508 Y6.67889
G01 X34.61653 Y6.67897
G01 X34.71097 Y6.69891
G01 X34.79558 Y6.77008
G01 X34.83426 Y6.87844
G01 X34.83497 Y9.05702
G01 X34.85285 Y9.13142
G01 X34.90523 Y9.19042
G01 X34.99700 Y9.21897
G01 X37.85653 Y9.21897
G01 X38.15694 Y9.24353
G01 X38.45305 Y9.29941
G01 X38.66857 Y9.36179
G01 X38.94891 Y9.47259
G01 X39.21523 Y9.61259
G01 X39.46481 Y9.77998
G01 X39.69513 Y9.97404
G01 X39.85221 Y10.13403
G01 X40.04266 Y10.36766
G01 X40.16750 Y10.55496
G01 X40.31048 Y10.81937
G01 X40.44865 Y11.16921
G01 X40.53773 Y11.53426
G01 X40.57697 Y11.90914
G01 X40.58510 Y20.00003
G01 X40.65091 Y20.08738
G01 X40.73976 Y20.11397
G01 X43.36924 Y20.12235
G01 X43.44862 Y20.16393
G01 X43.51270 Y20.25540
G01 X43.52599 Y20.33238
G01 X43.53033 Y20.77569
G01 X43.58172 Y20.86335
G01 X43.67732 Y20.90201
G01 X57.18199 Y20.90297
G01 X57.45024 Y20.83937
G01 X57.62924 Y20.73937
G01 X57.78936 Y20.58943
G01 X57.88740 Y20.44049
G01 X57.95278 Y20.27800
G01 X57.98697 Y20.05298
G01 X57.98694 Y7.34442
G01 X58.01245 Y7.03231
G01 X58.08910 Y6.64913
G01 X58.18509 Y6.35238
G01 X58.31158 Y6.06602
G01 X58.46655 Y5.79434
G01 X58.64798 Y5.54034
G01 X58.85463 Y5.30625
G01 X59.14518 Y5.04517
G01 X59.46710 Y4.82335
G01 X59.74333 Y4.67740
G01 X60.03231 Y4.55982
G01 X60.40962 Y4.45568
G01 X60.71811 Y4.40770
G01 X61.03149 Y4.39195
G01 X65.66295 Y4.39297
G01 X65.95536 Y4.41266
G01 X66.18827 Y4.44872
G01 X66.64629 Y4.57646
G01 X67.07682 Y4.77361
G01 X67.47303 Y5.03447
G01 X67.82307 Y5.35413
G01 X68.11921 Y5.72383
G01 X68.35477 Y6.13602
G01 X68.49960 Y6.50206
G01 X68.60950 Y6.96327
G01 X68.64598 Y7.43828
G01 X68.64296 Y20.03597
G01 X68.66282 Y20.21918
G01 X68.71768 Y20.38740
G01 X68.80574 Y20.54140
G01 X68.91476 Y20.66642
G01 X69.05573 Y20.77480
G01 X69.18596 Y20.84051
G01 X69.34496 Y20.88753
G01 X69.48499 Y20.90297
G01 X74.16299 Y20.90297
G01 X74.30873 Y20.87587
G01 X78.30440 Y20.87086
G01 X78.38772 Y20.81859
G01 X78.42503 Y20.72464
G01 X78.42536 Y20.43825
G01 X78.37078 Y20.32596
G01 X78.26399 Y20.28496
G01 X77.46811 Y20.29083
G01 X77.46811 Y20.12713
G01 X78.36699 Y20.13299
G01 X78.41896 Y20.10300
G01 X78.42338 Y18.52848
G01 X78.40555 Y18.50303
G01 X78.36699 Y18.48898
G01 X77.46811 Y18.49485
G01 X77.46811 Y18.33010
G01 X78.36351 Y18.33597
G01 X78.53491 Y18.35487
G01 X78.64977 Y18.30303
G01 X78.74347 Y18.14971
G01 X78.83760 Y18.10270
G01 X80.42111 Y18.09899
G01 X80.52724 Y18.05936
G01 X80.58113 Y17.96196
G01 X80.58197 Y1.63499
G01 X80.54235 Y1.52871
G01 X80.44496 Y1.47482
G01 X53.70196 Y1.47296
G01 X53.59658 Y1.51269
G01 X53.54281 Y1.61002
G01 X53.54878 Y2.68284
G01 X53.40110 Y2.68284
G01 X53.40694 Y1.78500
G01 X53.38553 Y1.73903
G01 X53.34697 Y1.72498
G01 X51.79298 Y1.73303
G01 X51.76298 Y1.78500
G01 X51.76885 Y2.68284
G01 X51.62026 Y2.68284
G01 X51.62805 Y1.62440
G01 X51.58449 Y1.52371
G01 X51.46699 Y1.47296
G01 X1.63499 Y1.47296
G01 X1.52871 Y1.51258
G01 X1.47730 Y1.60027
G01 X1.47398 Y1.61998
G01 X1.49399 Y1.61998
G01 X1.54179 Y1.52772
G01 X1.63499 Y1.49298
G01 X51.46699 Y1.49298
G01 X51.57322 Y1.54068
G01 X51.60837 Y1.62793
G01 X51.60019 Y2.70285
G01 X51.78884 Y2.70283
G01 X51.78299 Y1.78500
G01 X51.79470 Y1.75670
G01 X51.82300 Y1.74499
G01 X53.36917 Y1.75173
G01 X53.38693 Y1.78500
G01 X53.38111 Y2.70283
G01 X53.56879 Y2.70283
G01 X53.56252 Y1.61332
G01 X53.60971 Y1.52777
G01 X53.70196 Y1.49298
G01 X80.44809 Y1.49620
G01 X80.52721 Y1.54179
G01 X80.56196 Y1.63499
G01 X80.55975 Y17.96510
G01 X80.51415 Y18.04423
G01 X80.42106 Y18.07897
G01 X78.83438 Y18.08271
G01 X78.72993 Y18.13475
G01 X78.63585 Y18.28868
G01 X78.53359 Y18.33490
G01 X78.36465 Y18.31595
G01 X77.44812 Y18.31011
G01 X77.44812 Y18.51484
G01 X78.36699 Y18.50899
G01 X78.40395 Y18.53368
G01 X78.40024 Y20.09520
G01 X78.36699 Y20.11298
G01 X77.44812 Y20.10714
G01 X77.44812 Y20.31082
G01 X78.26399 Y20.30498
G01 X78.35716 Y20.34064
G01 X78.40504 Y20.43830
G01 X78.40534 Y20.72108
G01 X78.37464 Y20.80259
G01 X78.30788 Y20.84910
G01 X74.30680 Y20.85588
G01 X74.16299 Y20.88296
G01 X69.48078 Y20.88275
G01 X69.35063 Y20.86835
G01 X69.19162 Y20.82133
G01 X69.06780 Y20.75888
G01 X68.92985 Y20.65326
G01 X68.81611 Y20.52159
G01 X68.73511 Y20.37760
G01 X68.68187 Y20.21311
G01 X68.66297 Y20.03597
G01 X68.66599 Y7.43752
G01 X68.62934 Y6.96017
G01 X68.51872 Y6.49604
G01 X68.37283 Y6.12733
G01 X68.13579 Y5.71255
G01 X67.83770 Y5.34042
G01 X67.48535 Y5.01862
G01 X67.08652 Y4.75606
G01 X66.65320 Y4.55766
G01 X66.19249 Y4.42914
G01 X65.95757 Y4.39277
G01 X65.66361 Y4.37296
G01 X61.03098 Y4.37196
G01 X60.71605 Y4.38779
G01 X60.40541 Y4.43610
G01 X60.02585 Y4.54087
G01 X59.73487 Y4.65926
G01 X59.45672 Y4.80623
G01 X59.13279 Y5.02942
G01 X58.84041 Y5.29216
G01 X58.63231 Y5.52787
G01 X58.44968 Y5.78354
G01 X58.29370 Y6.05700
G01 X58.16637 Y6.34524
G01 X58.06972 Y6.64407
G01 X57.99261 Y7.02954
G01 X57.96696 Y7.34361
G01 X57.96696 Y20.05298
G01 X57.93653 Y20.26182
G01 X57.87059 Y20.42964
G01 X57.77557 Y20.57495
G01 X57.61948 Y20.72189
G01 X57.43010 Y20.82593
G01 X57.18199 Y20.88296
G01 X43.68799 Y20.88296
G01 X43.59480 Y20.84821
G01 X43.54755 Y20.76269
G01 X43.54598 Y20.33058
G01 X43.53160 Y20.24752
G01 X43.46218 Y20.14846
G01 X43.37420 Y20.10239
G01 X40.73984 Y20.09395
G01 X40.65889 Y20.06830
G01 X40.60565 Y19.99766
G01 X40.59699 Y11.90807
G01 X40.55747 Y11.53083
G01 X40.46775 Y11.16314
G01 X40.32864 Y10.81092
G01 X40.18467 Y10.54465
G01 X40.05876 Y10.35577
G01 X39.86714 Y10.12067
G01 X39.70875 Y9.95935
G01 X39.47687 Y9.76398
G01 X39.22546 Y9.59537
G01 X38.95726 Y9.45438
G01 X38.67505 Y9.34285
G01 X38.45770 Y9.27993
G01 X38.15963 Y9.22367
G01 X37.85734 Y9.19896
G01 X34.99700 Y9.19896
G01 X34.91747 Y9.17462
G01 X34.86990 Y9.12093
G01 X34.85499 Y9.05699
G01 X34.85428 Y6.87493
G01 X34.81257 Y6.75824
G01 X34.72006 Y6.68042
G01 X34.61867 Y6.65896
G01 X31.43338 Y6.65888
G01 X31.34989 Y6.67308
G01 X31.29853 Y6.69995
G01 X31.22909 Y6.77519
G01 X31.19873 Y6.87402
G01 X31.19734 Y9.06408
G01 X31.16322 Y9.15016
G01 X31.07100 Y9.19796
G01 X27.50400 Y9.19896
G01 X27.42447 Y9.17462
G01 X27.37690 Y9.12098
G01 X27.36199 Y9.05804
G01 X27.35825 Y6.85093
G01 X27.33102 Y6.77516
G01 X27.27906 Y6.71382
G01 X27.20916 Y6.67285
G01 X27.12653 Y6.65896
G01 X23.94038 Y6.65888
G01 X23.85689 Y6.67308
G01 X23.80553 Y6.69995
G01 X23.73609 Y6.77519
G01 X23.70573 Y6.87402
G01 X23.70434 Y9.06517
G01 X23.67017 Y9.15024
G01 X23.58465 Y9.19741
G01 X7.89200 Y9.19896
G01 X7.74910 Y9.17195
G01 X3.77042 Y9.17043
G01 X3.68774 Y9.12720
G01 X3.65185 Y9.05324
G01 X3.65154 Y8.74132
G01 X3.69871 Y8.65578
G01 X3.79099 Y8.62098
G01 X4.60681 Y8.62682
G01 X4.60681 Y8.42314
G01 X3.68898 Y8.42898
G01 X3.65574 Y8.41120
G01 X3.65203 Y6.84968
G01 X3.68898 Y6.82500
G01 X4.60681 Y6.83084
G01 X4.60681 Y6.62611
G01 X3.69130 Y6.63193
G01 X3.52325 Y6.65090
G01 X3.42434 Y6.60648
G01 X3.32891 Y6.45070
G01 X3.21967 Y6.39645
G01 X1.63489 Y6.39297
G01 X1.56237 Y6.37287
G01 X1.51540 Y6.32606
G01 X1.49399 Y6.25098
G01 X1.49399 Y1.61998
G01 X1.51398 Y1.61998
G01 X1.55488 Y1.54284
G01 X1.63499 Y1.51297
G01 X51.46699 Y1.51297
G01 X51.55859 Y1.55432
G01 X51.58868 Y1.63146
G01 X51.58602 Y2.71698
G01 X51.80298 Y2.71698
G01 X51.80298 Y1.78500
G01 X51.82300 Y1.76498
G01 X53.35807 Y1.76836
G01 X53.36696 Y2.71698
G01 X53.58294 Y2.71698
G01 X53.58225 Y1.61665
G01 X53.62284 Y1.54286
G01 X53.70196 Y1.51297
G01 X80.44154 Y1.51510
G01 X80.51210 Y1.55488
G01 X80.54197 Y1.63499
G01 X80.54085 Y17.95855
G01 X80.50107 Y18.02911
G01 X80.42101 Y18.05898
G01 X78.83118 Y18.06297
G01 X78.71649 Y18.11994
G01 X78.62190 Y18.27432
G01 X78.53229 Y18.31494
G01 X78.36582 Y18.29597
G01 X77.43397 Y18.29597
G01 X77.43397 Y18.52898
G01 X78.36699 Y18.52898
G01 X78.38546 Y18.54133
G01 X78.38363 Y20.08410
G01 X77.43397 Y20.09299
G01 X77.43397 Y20.32497
G01 X78.26399 Y20.32497
G01 X78.34357 Y20.35530
G01 X78.38551 Y20.44265
G01 X78.38599 Y20.71399
G01 X78.35780 Y20.79179
G01 X78.30042 Y20.83053
G01 X74.30490 Y20.83597
G01 X74.16299 Y20.86297
G01 X69.48288 Y20.86286
G01 X69.35629 Y20.84917
G01 X69.19729 Y20.80216
G01 X69.07989 Y20.74292
G01 X68.94491 Y20.64013
G01 X68.83353 Y20.51178
G01 X68.75253 Y20.36779
G01 X68.70092 Y20.20704
G01 X68.68296 Y20.03597
G01 X68.68598 Y7.43675
G01 X68.64915 Y6.95707
G01 X68.53785 Y6.49002
G01 X68.39091 Y6.11865
G01 X68.15238 Y5.70127
G01 X67.85233 Y5.32670
G01 X67.49767 Y5.00280
G01 X67.09625 Y4.73851
G01 X66.66008 Y4.53882
G01 X66.19673 Y4.40956
G01 X65.95978 Y4.37288
G01 X65.66430 Y4.35297
G01 X61.03047 Y4.35197
G01 X60.71402 Y4.36790
G01 X60.40119 Y4.41657
G01 X60.01940 Y4.52193
G01 X59.72644 Y4.64113
G01 X59.44635 Y4.78911
G01 X59.12039 Y5.01372
G01 X58.82621 Y5.27808
G01 X58.61666 Y5.51542
G01 X58.43284 Y5.77275
G01 X58.27584 Y6.04801
G01 X58.14768 Y6.33813
G01 X58.05037 Y6.63904
G01 X57.97282 Y7.02675
G01 X57.94697 Y7.34280
G01 X57.94697 Y20.05298
G01 X57.91674 Y20.25890
G01 X57.85558 Y20.41532
G01 X57.76177 Y20.56048
G01 X57.60973 Y20.70444
G01 X57.42553 Y20.80645
G01 X57.18199 Y20.86297
G01 X43.68799 Y20.86297
G01 X43.60788 Y20.83310
G01 X43.56726 Y20.75933
G01 X43.56597 Y20.32878
G01 X43.55007 Y20.23983
G01 X43.47539 Y20.13343
G01 X43.37902 Y20.08296
G01 X40.73991 Y20.07397
G01 X40.67194 Y20.05314
G01 X40.62381 Y19.98931
G01 X40.61698 Y11.90703
G01 X40.57723 Y11.52740
G01 X40.48685 Y11.15707
G01 X40.34680 Y10.80246
G01 X40.20181 Y10.53431
G01 X40.07486 Y10.34389
G01 X39.88205 Y10.10731
G01 X39.72236 Y9.94467
G01 X39.48891 Y9.74798
G01 X39.23573 Y9.57818
G01 X38.96562 Y9.43617
G01 X38.68152 Y9.32390
G01 X38.46235 Y9.26045
G01 X38.16230 Y9.20383
G01 X37.85816 Y9.17897
G01 X34.99700 Y9.17897
G01 X34.92971 Y9.15880
G01 X34.88694 Y9.11046
G01 X34.87498 Y9.05699
G01 X34.87396 Y6.87148
G01 X34.82900 Y6.74681
G01 X34.72888 Y6.66246
G01 X34.62082 Y6.63897
G01 X31.43168 Y6.63897
G01 X31.34346 Y6.65413
G01 X31.28634 Y6.68408
G01 X31.21174 Y6.76520
G01 X31.17897 Y6.87102
G01 X31.17798 Y9.05699
G01 X31.14811 Y9.13708
G01 X31.07100 Y9.17797
G01 X27.50400 Y9.17897
G01 X27.43671 Y9.15880
G01 X27.39394 Y9.11049
G01 X27.38198 Y9.05801
G01 X27.37796 Y6.84747
G01 X27.34837 Y6.76515
G01 X27.29193 Y6.69850
G01 X27.21599 Y6.65405
G01 X27.12826 Y6.63897
G01 X23.93868 Y6.63897
G01 X23.85046 Y6.65413
G01 X23.79334 Y6.68408
G01 X23.71874 Y6.76520
G01 X23.68597 Y6.87102
G01 X23.68498 Y9.05799
G01 X23.65509 Y9.13711
G01 X23.58132 Y9.17770
G01 X7.89200 Y9.17897
G01 X7.75105 Y9.15197
G01 X3.77369 Y9.15070
G01 X3.70085 Y9.11209
G01 X3.67141 Y9.04910
G01 X3.67125 Y8.74465
G01 X3.71184 Y8.67086
G01 X3.79099 Y8.64097
G01 X4.62096 Y8.64097
G01 X4.62096 Y8.40899
G01 X3.67235 Y8.40010
G01 X3.67052 Y6.85733
G01 X3.68898 Y6.84498
G01 X4.62096 Y6.84498
G01 X4.62096 Y6.61197
G01 X3.69013 Y6.61197
G01 X3.52462 Y6.63094
G01 X3.43343 Y6.58758
G01 X3.34131 Y6.43500
G01 X3.22427 Y6.37696
G01 X1.63494 Y6.37298
G01 X1.57118 Y6.35492
G01 X1.53270 Y6.31603
G01 X1.51398 Y6.25098
G01 X1.51398 Y1.61998
G04 P0 ( dwell for no time -- G64 should not smooth over this point )
G00 Z1.00000 ( retract )

G00 X6.81997 Y6.61197 ( rapid move to begin. )
G01 F100.00000
( Mill infeed pass 1/1 )
G01 Z-0.02500
G04 P0 ( dwell for no time -- G64 should not smooth over this point )
G01 F200.00000
G01 X6.81997 Y6.61197
G01 X6.81997 Y6.84498
G01 X7.75690 Y6.84537
G01 X7.77297 Y6.86500
G01 X7.77297 Y7.16198
G01 X8.00546 Y7.16198
G01 X7.99609 Y6.79906
G01 X7.94625 Y6.70216
G01 X7.85936 Y6.63653
G01 X7.75075 Y6.61197
G01 X6.81997 Y6.61197
G01 X6.83996 Y6.63196
G01 X6.83414 Y6.83081
G01 X7.76078 Y6.82576
G01 X7.79299 Y6.86500
G01 X7.78710 Y7.14783
G01 X7.99113 Y7.14803
G01 X7.97671 Y6.80401
G01 X7.93096 Y6.71504
G01 X7.85095 Y6.65466
G01 X7.74851 Y6.63196
G01 X6.83996 Y6.63196
G01 X6.85997 Y6.65197
G01 X6.85413 Y6.81080
G01 X7.77351 Y6.80861
G01 X7.81206 Y6.85456
G01 X7.80716 Y7.12781
G01 X7.97061 Y7.12802
G01 X7.95684 Y6.80909
G01 X7.91526 Y6.72825
G01 X7.84234 Y6.67323
G01 X7.74625 Y6.65197
G01 X6.85997 Y6.65197
G04 P0 ( dwell for no time -- G64 should not smooth over this point )
G00 Z1.00000 ( retract )

G00 X6.81997 Y8.40899 ( rapid move to begin. )
G01 F100.00000
( Mill infeed pass 1/1 )
G01 Z-0.02500
G04 P0 ( dwell for no time -- G64 should not smooth over this point )
G01 F200.00000
G01 X6.81997 Y8.40899
G01 X6.81997 Y8.64097
G01 X7.75082 Y8.64097
G01 X7.85936 Y8.61737
G01 X7.94623 Y8.55082
G01 X7.99609 Y8.45387
G01 X8.00546 Y8.09098
G01 X7.77297 Y8.09098
G01 X7.77297 Y8.38900
G01 X7.75690 Y8.40861
G01 X6.81997 Y8.40899
G01 X6.83996 Y8.42898
G01 X6.83411 Y8.62682
G01 X7.74867 Y8.62098
G01 X7.85095 Y8.59924
G01 X7.93086 Y8.53800
G01 X7.97671 Y8.44892
G01 X7.99113 Y8.10493
G01 X7.78710 Y8.10513
G01 X7.79299 Y8.38900
G01 X7.76078 Y8.42822
G01 X6.83996 Y8.42898
G01 X6.85997 Y8.44899
G01 X7.77351 Y8.44536
G01 X7.81206 Y8.39941
G01 X7.80716 Y8.12514
G01 X7.97061 Y8.12494
G01 X7.95684 Y8.44384
G01 X7.91516 Y8.52486
G01 X7.84234 Y8.58064
G01 X7.74653 Y8.60096
G01 X6.85410 Y8.60683
G01 X6.85997 Y8.44899
G04 P0 ( dwell for no time -- G64 should not smooth over this point )
G00 Z1.00000 ( retract )

G00 X3.62899 Y9.40500 ( rapid move to begin. )
G01 F100.00000
( Mill infeed pass 1/1 )
G01 Z-0.02500
G04 P0 ( dwell for no time -- G64 should not smooth over this point )
G01 F200.00000
G01 X3.62899 Y9.40500
G01 X3.62899 Y10.92900
G01 X3.64304 Y10.96756
G01 X3.67857 Y10.98808
G01 X7.75298 Y10.98899
G01 X7.80269 Y10.95994
G01 X9.85798 Y10.96199
G01 X9.89657 Y10.94795
G01 X9.91709 Y10.91241
G01 X9.91800 Y9.43197
G01 X9.90396 Y9.39342
G01 X9.86842 Y9.37289
G01 X7.80185 Y9.37279
G01 X7.75298 Y9.34498
G01 X3.68898 Y9.34498
G01 X3.64304 Y9.36642
G01 X3.62899 Y9.40500
G01 X3.64898 Y9.40500
G01 X3.66071 Y9.37670
G01 X3.68898 Y9.36499
G01 X7.75298 Y9.36499
G01 X7.78946 Y9.39342
G01 X9.86581 Y9.39276
G01 X9.89799 Y9.43197
G01 X9.89799 Y10.90200
G01 X9.88628 Y10.93027
G01 X9.85798 Y10.94198
G01 X7.78976 Y10.93926
G01 X7.75298 Y10.96898
G01 X3.68119 Y10.96822
G01 X3.64898 Y10.92900
G01 X3.64898 Y9.40500
G01 X3.68510 Y9.38537
G01 X7.75298 Y9.38498
G01 X7.77297 Y9.41138
G01 X9.85801 Y9.41198
G01 X9.87800 Y9.43197
G01 X9.87800 Y10.90200
G01 X9.86190 Y10.92161
G01 X7.77297 Y10.92138
G01 X7.75298 Y10.94899
G01 X3.68898 Y10.94899
G01 X3.66899 Y10.92900
G01 X3.66899 Y9.40500
G04 P0 ( dwell for no time -- G64 should not smooth over this point )
G00 Z1.00000 ( retract )

G00 X6.81997 Y11.69197 ( rapid move to begin. )
G01 F100.00000
( Mill infeed pass 1/1 )
G01 Z-0.02500
G04 P0 ( dwell for no time -- G64 should not smooth over this point )
G01 F200.00000
G01 X6.81997 Y11.69197
G01 X6.81997 Y11.92498
G01 X7.75690 Y11.92537
G01 X7.77297 Y11.94500
G01 X7.77297 Y12.24198
G01 X8.00546 Y12.24198
G01 X7.99609 Y11.87906
G01 X7.94625 Y11.78216
G01 X7.85936 Y11.71653
G01 X7.75075 Y11.69197
G01 X6.81997 Y11.69197
G01 X6.83996 Y11.71195
G01 X6.83414 Y11.91081
G01 X7.76078 Y11.90576
G01 X7.79299 Y11.94500
G01 X7.78710 Y12.22783
G01 X7.99113 Y12.22803
G01 X7.97671 Y11.88401
G01 X7.93096 Y11.79504
G01 X7.85095 Y11.73466
G01 X7.74851 Y11.71195
G01 X6.83996 Y11.71195
G01 X6.85997 Y11.73197
G01 X7.74625 Y11.73197
G01 X7.84234 Y11.75323
G01 X7.91526 Y11.80825
G01 X7.95684 Y11.88909
G01 X7.97061 Y12.20802
G01 X7.80716 Y12.20781
G01 X7.81206 Y11.93456
G01 X7.77351 Y11.88861
G01 X6.85413 Y11.89080
G01 X6.85997 Y11.73197
G04 P0 ( dwell for no time -- G64 should not smooth over this point )
G00 Z1.00000 ( retract )

G00 X10.66997 Y9.43197 ( rapid move to begin. )
G01 F100.00000
( Mill infeed pass 1/1 )
G01 Z-0.02500
G04 P0 ( dwell for no time -- G64 should not smooth over this point )
G01 F200.00000
G01 X10.66997 Y9.43197
G01 X10.66997 Y10.90200
G01 X10.68402 Y10.94056
G01 X10.71955 Y10.96108
G01 X17.60501 Y10.96199
G01 X17.64357 Y10.94795
G01 X17.66409 Y10.91241
G01 X17.66500 Y9.43197
G01 X17.65096 Y9.39342
G01 X17.61542 Y9.37289
G01 X10.72999 Y9.37198
G01 X10.69141 Y9.38603
G01 X10.66997 Y9.43197
G01 X10.68999 Y9.43197
G01 X10.70170 Y9.40370
G01 X10.72999 Y9.39200
G01 X17.61281 Y9.39276
G01 X17.64499 Y9.43197
G01 X17.64499 Y10.90200
G01 X17.63328 Y10.93027
G01 X17.60501 Y10.94198
G01 X10.72217 Y10.94122
G01 X10.68999 Y10.90200
G01 X10.68999 Y9.43197
G01 X10.72999 Y9.41198
G01 X17.60890 Y9.41237
G01 X17.62500 Y9.43197
G01 X17.62500 Y10.90200
G01 X17.60501 Y10.92199
G01 X10.72608 Y10.92161
G01 X10.70998 Y10.90200
G01 X10.70998 Y9.43197
G04 P0 ( dwell for no time -- G64 should not smooth over this point )
G00 Z1.00000 ( retract )

G00 X6.81997 Y13.48899 ( rapid move to begin. )
G01 F100.00000
( Mill infeed pass 1/1 )
G01 Z-0.02500
G04 P0 ( dwell for no time -- G64 should not smooth over this point )
G01 F200.00000
G01 X6.81997 Y13.48899
G01 X6.81997 Y13.72079
G01 X7.81849 Y13.71203
G01 X7.93170 Y13.64614
G01 X7.99002 Y13.55455
G01 X8.00597 Y13.46717
G01 X8.00597 Y13.17098
G01 X7.77297 Y13.17098
G01 X7.77297 Y13.46900
G01 X7.75690 Y13.48861
G01 X6.81997 Y13.48899
G01 X6.83996 Y13.50898
G01 X6.83404 Y13.70659
G01 X7.81318 Y13.69275
G01 X7.91786 Y13.63174
G01 X7.97140 Y13.54723
G01 X7.99182 Y13.18513
G01 X7.78715 Y13.18513
G01 X7.79299 Y13.46900
G01 X7.76078 Y13.50822
G01 X6.83996 Y13.50898
G01 X6.85997 Y13.52899
G01 X7.76340 Y13.52808
G01 X7.79157 Y13.51495
G01 X7.81206 Y13.47941
G01 X7.80716 Y13.20514
G01 X7.97183 Y13.20512
G01 X7.95242 Y13.53979
G01 X7.90361 Y13.61688
G01 X7.80770 Y13.67278
G01 X6.85405 Y13.68642
G01 X6.85997 Y13.52899
G04 P0 ( dwell for no time -- G64 should not smooth over this point )
G00 Z1.00000 ( retract )

G00 X10.66499 Y15.34243 ( rapid move to begin. )
G01 F100.00000
( Mill infeed pass 1/1 )
G01 Z-0.02500
G04 P0 ( dwell for no time -- G64 should not smooth over this point )
G01 F200.00000
G01 X10.66499 Y15.34243
G01 X10.68991 Y15.27227
G01 X10.72362 Y15.22960
G01 X10.76629 Y15.19592
G01 X10.83639 Y15.17067
G01 X18.98987 Y15.16699
G01 X19.06719 Y15.17997
G01 X19.13099 Y15.21736
G01 X19.17846 Y15.27331
G01 X19.20328 Y15.34238
G01 X19.20328 Y16.57557
G01 X19.17803 Y16.64568
G01 X19.14425 Y16.68825
G01 X19.10168 Y16.72203
G01 X19.03155 Y16.74728
G01 X10.87901 Y16.75104
G01 X10.80070 Y16.73795
G01 X10.73695 Y16.70059
G01 X10.68948 Y16.64464
G01 X10.66469 Y16.57557
G01 X10.66499 Y15.34243
G01 X10.62499 Y15.33547
G01 X10.62499 Y16.58248
G01 X10.65455 Y16.66480
G01 X10.71102 Y16.73145
G01 X10.78691 Y16.77585
G01 X10.87566 Y16.79096
G01 X19.03848 Y16.78698
G01 X19.12116 Y16.75726
G01 X19.17275 Y16.71675
G01 X19.21326 Y16.66516
G01 X19.24298 Y16.58248
G01 X19.24298 Y15.33547
G01 X19.21339 Y15.25315
G01 X19.15692 Y15.18650
G01 X19.08100 Y15.14207
G01 X18.99327 Y15.12698
G01 X10.82946 Y15.13097
G01 X10.74678 Y15.16069
G01 X10.69522 Y15.20120
G01 X10.65468 Y15.25279
G01 X10.62499 Y15.33547
G01 X10.64498 Y15.33892
G01 X10.67218 Y15.26247
G01 X10.70937 Y15.21535
G01 X10.75646 Y15.17819
G01 X10.83289 Y15.15068
G01 X18.99157 Y15.14697
G01 X19.07415 Y15.16087
G01 X19.14405 Y15.20181
G01 X19.19606 Y15.26315
G01 X19.22327 Y15.33890
G01 X19.22327 Y16.57905
G01 X19.19576 Y16.65548
G01 X19.15850 Y16.70250
G01 X19.11148 Y16.73976
G01 X19.03505 Y16.76727
G01 X10.87734 Y16.77103
G01 X10.79377 Y16.75706
G01 X10.72389 Y16.71614
G01 X10.67188 Y16.65480
G01 X10.64470 Y16.57905
G01 X10.64498 Y15.33892
G01 X10.66499 Y15.34243
G01 X10.81996 Y16.51710
G01 X10.83913 Y16.55055
G01 X10.93748 Y16.59757
G01 X11.03129 Y16.53430
G01 X11.32753 Y15.75675
G01 X11.32745 Y15.72084
G01 X11.32753 Y15.75675
G01 X11.62686 Y16.53465
G01 X11.67792 Y16.58594
G01 X11.74706 Y16.59432
G01 X11.78996 Y16.57788
G01 X11.83578 Y16.52543
G01 X11.83636 Y16.44182
G01 X11.43436 Y15.39282
G01 X11.38435 Y15.33527
G01 X11.34833 Y15.32333
G01 X11.27744 Y15.33031
G01 X11.21945 Y15.39318
G01 X10.81760 Y16.46526
G01 X10.83759 Y16.46468
G01 X11.23814 Y15.40029
G01 X11.28965 Y15.34662
G01 X11.34835 Y15.34334
G01 X11.41569 Y15.39998
G01 X11.81770 Y16.44898
G01 X11.81576 Y16.52167
G01 X11.74759 Y16.57433
G01 X11.69029 Y16.56976
G01 X11.64378 Y16.52398
G01 X11.32742 Y15.70062
G01 X11.32737 Y15.66455
G01 X11.32742 Y15.70062
G01 X11.01432 Y16.52371
G01 X10.93184 Y16.57793
G01 X10.84236 Y16.52195
G01 X10.83759 Y16.46468
G01 X10.85758 Y16.46407
G01 X11.25686 Y15.40738
G01 X11.29750 Y15.36501
G01 X11.34838 Y15.36333
G01 X11.39702 Y15.40715
G01 X11.79903 Y16.45614
G01 X11.79748 Y16.51352
G01 X11.74812 Y16.55434
G01 X11.69844 Y16.55147
G01 X11.66070 Y16.51332
G01 X11.32732 Y15.64448
G01 X10.99738 Y16.51309
G01 X10.92354 Y16.55665
G01 X10.86253 Y16.51715
G01 X10.85758 Y16.46407
G04 P0 ( dwell for no time -- G64 should not smooth over this point )
G00 Z1.00000 ( retract )

G00 X11.94398 Y15.43450 ( rapid move to begin. )
G01 F100.00000
( Mill infeed pass 1/1 )
G01 Z-0.02500
G04 P0 ( dwell for no time -- G64 should not smooth over this point )
G01 F200.00000
G01 X11.94398 Y15.43450
G01 X11.98135 Y15.35106
G01 X12.02760 Y15.32825
G01 X12.70814 Y15.31898
G01 X12.80459 Y15.37009
G01 X12.81523 Y15.47799
G01 X12.73997 Y15.54441
G01 X12.16819 Y15.54311
G01 X12.16822 Y15.87385
G01 X12.48803 Y15.87225
G01 X12.54132 Y15.90379
G01 X12.57296 Y15.98299
G01 X12.54132 Y16.06216
G01 X12.48803 Y16.09371
G01 X12.16822 Y16.09211
G01 X12.16819 Y16.37382
G01 X12.74271 Y16.37362
G01 X12.80535 Y16.42983
G01 X12.82254 Y16.46554
G01 X12.77721 Y16.57539
G01 X12.74035 Y16.58870
G01 X12.05981 Y16.59798
G01 X11.96192 Y16.54461
G01 X11.94398 Y15.43450
G01 X11.96397 Y15.43432
G01 X11.99793 Y15.36234
G01 X12.02788 Y15.34824
G01 X12.70842 Y15.33897
G01 X12.78561 Y15.37804
G01 X12.79806 Y15.46663
G01 X12.72882 Y15.52688
G01 X12.14815 Y15.52310
G01 X12.14817 Y15.89386
G01 X12.47848 Y15.89025
G01 X12.52651 Y15.91723
G01 X12.55297 Y15.98299
G01 X12.52651 Y16.04873
G01 X12.47848 Y16.07570
G01 X12.14817 Y16.07209
G01 X12.14815 Y16.39386
G01 X12.72755 Y16.38980
G01 X12.79120 Y16.44395
G01 X12.80291 Y16.47225
G01 X12.77284 Y16.55086
G01 X12.74007 Y16.56871
G01 X12.05953 Y16.57799
G01 X11.98145 Y16.53778
G01 X11.96397 Y15.43432
G01 X11.98399 Y15.43415
G01 X12.02816 Y15.36826
G01 X12.70870 Y15.35899
G01 X12.77017 Y15.39074
G01 X12.77893 Y15.46084
G01 X12.72427 Y15.50740
G01 X12.13398 Y15.50895
G01 X12.13398 Y15.90803
G01 X12.47357 Y15.90964
G01 X12.51167 Y15.93064
G01 X12.53296 Y15.98299
G01 X12.51167 Y16.03531
G01 X12.47357 Y16.05632
G01 X12.13398 Y16.05792
G01 X12.13398 Y16.40801
G01 X12.72364 Y16.40943
G01 X12.78254 Y16.46833
G01 X12.75800 Y16.53635
G01 X12.73979 Y16.54870
G01 X12.05925 Y16.55797
G01 X11.99735 Y16.52566
G01 X11.98399 Y15.43415
G04 P0 ( dwell for no time -- G64 should not smooth over this point )
G00 Z1.00000 ( retract )

G00 X18.41697 Y9.43197 ( rapid move to begin. )
G01 F100.00000
( Mill infeed pass 1/1 )
G01 Z-0.02500
G04 P0 ( dwell for no time -- G64 should not smooth over this point )
G01 F200.00000
G01 X18.41697 Y9.43197
G01 X18.41697 Y10.90200
G01 X18.43102 Y10.94056
G01 X18.46655 Y10.96108
G01 X25.11851 Y10.95836
G01 X25.14396 Y10.94056
G01 X25.15800 Y10.90200
G01 X25.15437 Y6.87148
G01 X25.13657 Y6.84603
G01 X25.09801 Y6.83198
G01 X23.93799 Y6.83198
G01 X23.88602 Y6.86198
G01 X23.88384 Y9.37785
G01 X18.47699 Y9.37198
G01 X18.43841 Y9.38603
G01 X18.41697 Y9.43197
G01 X18.43699 Y9.43197
G01 X18.44870 Y9.40370
G01 X18.47699 Y9.39200
G01 X23.90383 Y9.39784
G01 X23.90103 Y6.87668
G01 X23.93799 Y6.85200
G01 X25.10581 Y6.85276
G01 X25.13799 Y6.89197
G01 X25.13799 Y10.90200
G01 X25.11330 Y10.93893
G01 X18.47699 Y10.94198
G01 X18.44870 Y10.93027
G01 X18.43699 Y10.90200
G01 X18.43699 Y9.43197
G01 X18.47308 Y9.41237
G01 X23.91800 Y9.41198
G01 X23.91950 Y6.88433
G01 X23.93799 Y6.87198
G01 X25.10190 Y6.87237
G01 X25.11800 Y6.89197
G01 X25.11800 Y10.90200
G01 X25.10565 Y10.92047
G01 X18.47308 Y10.92161
G01 X18.45698 Y10.90200
G01 X18.45698 Y9.43197
G04 P0 ( dwell for no time -- G64 should not smooth over this point )
G00 Z1.00000 ( retract )

G00 X25.90997 Y6.89197 ( rapid move to begin. )
G01 F100.00000
( Mill infeed pass 1/1 )
G01 Z-0.02500
G04 P0 ( dwell for no time -- G64 should not smooth over this point )
G01 F200.00000
G01 X25.90997 Y6.89197
G01 X25.90997 Y10.90200
G01 X25.93997 Y10.95394
G01 X32.59101 Y10.96199
G01 X32.64295 Y10.93200
G01 X32.65100 Y6.89197
G01 X32.62101 Y6.84003
G01 X31.43099 Y6.83198
G01 X31.37902 Y6.86198
G01 X31.37684 Y9.37691
G01 X27.18411 Y9.37777
G01 X27.18193 Y6.86198
G01 X27.13001 Y6.83198
G01 X25.96999 Y6.83198
G01 X25.93141 Y6.84603
G01 X25.90997 Y6.89197
G01 X25.92999 Y6.89197
G01 X25.94170 Y6.86370
G01 X25.96999 Y6.85200
G01 X27.13001 Y6.85200
G01 X27.16692 Y6.87668
G01 X27.16415 Y9.39776
G01 X31.39683 Y9.39690
G01 X31.39403 Y6.87668
G01 X31.43099 Y6.85200
G01 X32.61321 Y6.85873
G01 X32.63099 Y6.89197
G01 X32.63099 Y10.90200
G01 X32.61928 Y10.93027
G01 X32.59101 Y10.94198
G01 X25.94777 Y10.93525
G01 X25.92999 Y10.90200
G01 X25.92999 Y6.89197
G01 X25.96999 Y6.87198
G01 X27.13001 Y6.87198
G01 X27.14847 Y6.88433
G01 X27.14997 Y9.41193
G01 X31.41100 Y9.41105
G01 X31.41250 Y6.88433
G01 X31.43099 Y6.87198
G01 X32.60211 Y6.87536
G01 X32.61100 Y10.90200
G01 X32.59101 Y10.92199
G01 X25.95887 Y10.91861
G01 X25.94998 Y6.89197
G04 P0 ( dwell for no time -- G64 should not smooth over this point )
G00 Z1.00000 ( retract )

G00 X33.40297 Y6.89197 ( rapid move to begin. )
G01 F100.00000
( Mill infeed pass 1/1 )
G01 Z-0.02500
G04 P0 ( dwell for no time -- G64 should not smooth over this point )
G01 F200.00000
G01 X33.40297 Y6.89197
G01 X33.40297 Y10.90200
G01 X33.42441 Y10.94795
G01 X33.46299 Y10.96199
G01 X37.79257 Y10.96118
G01 X37.96862 Y10.97784
G01 X38.14292 Y11.02478
G01 X38.31625 Y11.10629
G01 X38.46583 Y11.21257
G01 X38.59592 Y11.34462
G01 X38.70027 Y11.49628
G01 X38.77314 Y11.65402
G01 X38.82069 Y11.83009
G01 X38.84164 Y12.19986
G01 X36.32598 Y12.20202
G01 X36.29598 Y12.25399
G01 X36.29598 Y13.41401
G01 X36.31003 Y13.45257
G01 X36.35597 Y13.47400
G01 X40.36600 Y13.47400
G01 X40.41195 Y13.45254
G01 X40.42599 Y13.41396
G01 X40.42533 Y11.91383
G01 X40.40128 Y11.64584
G01 X40.34926 Y11.37840
G01 X40.23265 Y11.02021
G01 X40.07062 Y10.68955
G01 X39.85678 Y10.37515
G01 X39.59526 Y10.09016
G01 X39.28879 Y9.84206
G01 X38.92800 Y9.63218
G01 X38.55158 Y9.48552
G01 X38.15633 Y9.39779
G01 X37.79814 Y9.37114
G01 X34.67714 Y9.37782
G01 X34.68300 Y6.89200
G01 X34.66896 Y6.85342
G01 X34.64351 Y6.83561
G01 X33.46299 Y6.83198
G01 X33.42441 Y6.84603
G01 X33.40297 Y6.89197
G01 X33.42299 Y6.89197
G01 X33.43470 Y6.86370
G01 X33.46299 Y6.85200
G01 X34.62301 Y6.85200
G01 X34.65994 Y6.87668
G01 X34.65715 Y9.39784
G01 X37.79814 Y9.39116
G01 X38.15483 Y9.41773
G01 X38.54721 Y9.50505
G01 X38.92071 Y9.65080
G01 X39.27621 Y9.85760
G01 X39.58698 Y10.10975
G01 X39.84027 Y10.38643
G01 X40.05267 Y10.69837
G01 X40.21469 Y11.02900
G01 X40.33024 Y11.38457
G01 X40.38078 Y11.64365
G01 X40.40532 Y11.91386
G01 X40.40296 Y13.42930
G01 X40.36600 Y13.45399
G01 X36.35597 Y13.45399
G01 X36.32770 Y13.44228
G01 X36.31600 Y13.41401
G01 X36.31600 Y12.25399
G01 X36.34068 Y12.21703
G01 X38.86166 Y12.21983
G01 X38.84037 Y11.82628
G01 X38.79201 Y11.64716
G01 X38.71772 Y11.48635
G01 X38.61142 Y11.33184
G01 X38.47883 Y11.19727
G01 X38.32635 Y11.08897
G01 X38.14982 Y11.00594
G01 X37.97218 Y10.95811
G01 X37.79351 Y10.94119
G01 X33.46299 Y10.94198
G01 X33.43470 Y10.93027
G01 X33.42299 Y10.90200
G01 X33.42299 Y6.89197
G01 X33.46299 Y6.87198
G01 X34.62690 Y6.87237
G01 X34.64300 Y6.89197
G01 X34.64297 Y9.41198
G01 X37.79814 Y9.41115
G01 X38.15335 Y9.43766
G01 X38.54576 Y9.52545
G01 X38.91342 Y9.66941
G01 X39.26361 Y9.87315
G01 X39.57225 Y10.12326
G01 X39.82374 Y10.39771
G01 X40.03471 Y10.70716
G01 X40.19673 Y11.03781
G01 X40.31119 Y11.39072
G01 X40.36115 Y11.64746
G01 X40.38533 Y11.91386
G01 X40.38447 Y13.42165
G01 X40.36600 Y13.43400
G01 X36.34185 Y13.42813
G01 X36.33598 Y12.25399
G01 X36.34833 Y12.23550
G01 X38.87581 Y12.23400
G01 X38.87550 Y11.95305
G01 X38.86008 Y11.82250
G01 X38.81088 Y11.64033
G01 X38.73517 Y11.47642
G01 X38.62689 Y11.31904
G01 X38.49186 Y11.18198
G01 X38.33649 Y11.07162
G01 X38.15673 Y10.98709
G01 X37.97576 Y10.93835
G01 X37.79445 Y10.92118
G01 X33.44884 Y10.91612
G01 X33.44298 Y6.89197
G04 P0 ( dwell for no time -- G64 should not smooth over this point )
G00 Z1.00000 ( retract )

G00 X36.29598 Y14.28599 ( rapid move to begin. )
G01 F100.00000
( Mill infeed pass 1/1 )
G01 Z-0.02500
G04 P0 ( dwell for no time -- G64 should not smooth over this point )
G01 F200.00000
G01 X36.29598 Y14.28599
G01 X36.29598 Y15.44601
G01 X36.32598 Y15.49795
G01 X38.84083 Y15.50014
G01 X38.84093 Y20.52535
G01 X38.77497 Y20.52903
G01 X38.74497 Y20.58100
G01 X38.74589 Y23.13141
G01 X38.76641 Y23.16695
G01 X38.80499 Y23.18099
G01 X40.48599 Y23.17294
G01 X40.51599 Y23.12100
G01 X40.51599 Y20.58100
G01 X40.48599 Y20.52903
G01 X40.42104 Y20.52532
G01 X40.41794 Y14.25594
G01 X40.36600 Y14.22597
G01 X36.35597 Y14.22597
G01 X36.31003 Y14.24741
G01 X36.29598 Y14.28599
G01 X36.31600 Y14.28599
G01 X36.32770 Y14.25770
G01 X36.35597 Y14.24599
G01 X40.36600 Y14.24599
G01 X40.40293 Y14.27065
G01 X40.40047 Y20.54625
G01 X40.47128 Y20.54404
G01 X40.49597 Y20.58100
G01 X40.49597 Y23.12100
G01 X40.48426 Y23.14927
G01 X40.45599 Y23.16098
G01 X38.80499 Y23.16098
G01 X38.76575 Y23.12880
G01 X38.76499 Y20.58100
G01 X38.78968 Y20.54404
G01 X38.86151 Y20.54628
G01 X38.86082 Y15.48015
G01 X36.35597 Y15.48599
G01 X36.32770 Y15.47428
G01 X36.31600 Y15.44601
G01 X36.31600 Y14.28599
G01 X36.35209 Y14.26633
G01 X40.36600 Y14.26595
G01 X40.38447 Y14.27829
G01 X40.38599 Y20.56098
G01 X40.45988 Y20.56137
G01 X40.47598 Y20.58100
G01 X40.47598 Y23.12100
G01 X40.45599 Y23.14099
G01 X38.80499 Y23.14099
G01 X38.78536 Y23.12489
G01 X38.78498 Y20.58100
G01 X38.80108 Y20.56137
G01 X38.87599 Y20.56098
G01 X38.87497 Y15.46597
G01 X36.34833 Y15.46447
G01 X36.33598 Y15.44601
G01 X36.33598 Y14.28599
G04 P0 ( dwell for no time -- G64 should not smooth over this point )
G00 Z1.00000 ( retract )

G00 X41.32498 Y20.58100 ( rapid move to begin. )
G01 F100.00000
( Mill infeed pass 1/1 )
G01 Z-0.02500
G04 P0 ( dwell for no time -- G64 should not smooth over this point )
G01 F200.00000
G01 X41.32498 Y20.58100
G01 X41.32498 Y23.12100
G01 X41.34499 Y23.14099
G01 X43.00364 Y23.13947
G01 X43.01598 Y23.12100
G01 X43.01598 Y22.60599
G01 X50.62887 Y22.60459
G01 X50.64497 Y22.58498
G01 X50.64497 Y21.11597
G01 X50.62496 Y21.09596
G01 X43.01598 Y21.09599
G01 X43.01598 Y20.58100
G01 X43.00364 Y20.56251
G01 X41.34108 Y20.56137
G01 X41.30499 Y20.58100
G01 X41.30499 Y23.12100
G01 X41.33717 Y23.16022
G01 X43.01128 Y23.15793
G01 X43.03597 Y23.12100
G01 X43.03013 Y22.62014
G01 X50.62498 Y22.62496
G01 X50.65325 Y22.61325
G01 X50.66496 Y22.58498
G01 X50.66496 Y21.11597
G01 X50.63278 Y21.07673
G01 X43.03013 Y21.08184
G01 X43.03597 Y20.58100
G01 X43.01128 Y20.54404
G01 X41.34499 Y20.54099
G01 X41.31670 Y20.55270
G01 X41.30499 Y20.58100
G01 X41.28497 Y20.58100
G01 X41.29902 Y20.54242
G01 X41.34499 Y20.52098
G01 X43.01649 Y20.52461
G01 X43.04194 Y20.54242
G01 X43.05599 Y20.58100
G01 X43.05012 Y21.06185
G01 X50.63540 Y21.05687
G01 X50.67093 Y21.07739
G01 X50.68498 Y21.11597
G01 X50.68406 Y22.59540
G01 X50.66354 Y22.63093
G01 X50.62498 Y22.64498
G01 X43.05012 Y22.64013
G01 X43.05599 Y23.12100
G01 X43.04194 Y23.15956
G01 X43.01649 Y23.17736
G01 X41.33455 Y23.18008
G01 X41.29902 Y23.15956
G01 X41.28497 Y23.12100
G01 X41.28497 Y20.58100
G04 P0 ( dwell for no time -- G64 should not smooth over this point )
G00 Z1.00000 ( retract )

G00 X33.69698 Y29.87897 ( rapid move to begin. )
G01 F100.00000
( Mill infeed pass 1/1 )
G01 Z-0.02500
G04 P0 ( dwell for no time -- G64 should not smooth over this point )
G01 F200.00000
G01 X33.69698 Y29.87897
G01 X33.69698 Y31.34900
G01 X33.71308 Y31.36861
G01 X35.45773 Y31.36808
G01 X35.73980 Y31.34143
G01 X36.02260 Y31.28123
G01 X36.40571 Y31.14130
G01 X36.76596 Y30.93694
G01 X37.08864 Y30.67405
G01 X37.35747 Y30.36820
G01 X37.53695 Y30.08941
G01 X37.67027 Y29.80791
G01 X37.76745 Y29.51126
G01 X37.82801 Y29.19328
G01 X37.84635 Y28.93547
G01 X37.84599 Y28.22099
G01 X37.91988 Y28.22061
G01 X37.93598 Y28.20100
G01 X37.93598 Y25.66100
G01 X37.91988 Y25.64137
G01 X36.26499 Y25.64098
G01 X36.24650 Y25.65333
G01 X36.24498 Y28.20100
G01 X36.26108 Y28.22061
G01 X36.33609 Y28.22099
G01 X36.33875 Y28.77194
G01 X36.32313 Y29.05030
G01 X36.25211 Y29.28507
G01 X36.13878 Y29.47633
G01 X35.98811 Y29.63407
G01 X35.80198 Y29.75622
G01 X35.58755 Y29.83402
G01 X35.37487 Y29.85972
G01 X33.71699 Y29.85899
G01 X33.67699 Y29.87897
G01 X33.67699 Y31.34900
G01 X33.70919 Y31.38822
G01 X35.45775 Y31.38809
G01 X35.74396 Y31.36099
G01 X36.02946 Y31.30003
G01 X36.41556 Y31.15873
G01 X36.77858 Y30.95246
G01 X37.10365 Y30.68725
G01 X37.37248 Y30.38141
G01 X37.55503 Y30.09797
G01 X37.68742 Y29.81880
G01 X37.78645 Y29.51748
G01 X37.84767 Y29.19701
G01 X37.86636 Y28.93547
G01 X37.86047 Y28.23570
G01 X37.93128 Y28.23793
G01 X37.95597 Y28.20100
G01 X37.95597 Y25.66100
G01 X37.92379 Y25.62176
G01 X36.26499 Y25.62099
G01 X36.22803 Y25.64568
G01 X36.22499 Y28.20100
G01 X36.24968 Y28.23793
G01 X36.32166 Y28.23572
G01 X36.30330 Y29.04679
G01 X36.23367 Y29.27697
G01 X36.12273 Y29.46419
G01 X35.97523 Y29.61860
G01 X35.79296 Y29.73821
G01 X35.58288 Y29.81443
G01 X35.37366 Y29.83973
G01 X33.71699 Y29.83900
G01 X33.68870 Y29.85070
G01 X33.67699 Y29.87897
G01 X33.65789 Y29.86856
G01 X33.67843 Y29.83303
G01 X33.71702 Y29.81898
G01 X35.37246 Y29.81972
G01 X35.57820 Y29.79485
G01 X35.78394 Y29.72022
G01 X35.96235 Y29.60313
G01 X36.10670 Y29.45203
G01 X36.21523 Y29.26887
G01 X36.28348 Y29.04329
G01 X36.30119 Y28.25665
G01 X36.23497 Y28.25294
G01 X36.20497 Y28.20100
G01 X36.21302 Y25.63098
G01 X36.26499 Y25.60098
G01 X37.91599 Y25.60098
G01 X37.96194 Y25.62242
G01 X37.97599 Y25.66100
G01 X37.97599 Y28.20100
G01 X37.94599 Y28.25294
G01 X37.88107 Y28.25665
G01 X37.88635 Y28.93547
G01 X37.86733 Y29.20074
G01 X37.80545 Y29.52370
G01 X37.70830 Y29.82035
G01 X37.57309 Y30.10656
G01 X37.38752 Y30.39459
G01 X37.11869 Y30.70046
G01 X36.79120 Y30.96797
G01 X36.42542 Y31.17613
G01 X36.03632 Y31.31882
G01 X35.74810 Y31.38055
G01 X35.45775 Y31.40808
G01 X33.70658 Y31.40808
G01 X33.67102 Y31.38756
G01 X33.65697 Y31.34900
G01 X33.65697 Y29.87897
G04 P0 ( dwell for no time -- G64 should not smooth over this point )
G00 Z1.00000 ( retract )

G00 X29.37796 Y29.87897 ( rapid move to begin. )
G01 F100.00000
( Mill infeed pass 1/1 )
G01 Z-0.02500
G04 P0 ( dwell for no time -- G64 should not smooth over this point )
G01 F200.00000
G01 X29.37796 Y29.87897
G01 X29.37796 Y31.34798
G01 X29.39030 Y31.36645
G01 X32.84498 Y31.36899
G01 X32.86500 Y31.34900
G01 X32.86500 Y29.87897
G01 X32.85265 Y29.86051
G01 X29.39797 Y29.85896
G01 X29.35797 Y29.87897
G01 X29.35797 Y31.34798
G01 X29.38266 Y31.38492
G01 X32.84498 Y31.38898
G01 X32.87328 Y31.37727
G01 X32.88499 Y31.34900
G01 X32.88499 Y29.87897
G01 X32.86030 Y29.84204
G01 X29.39797 Y29.83897
G01 X29.36968 Y29.85068
G01 X29.35797 Y29.87897
G01 X29.33795 Y29.87897
G01 X29.35200 Y29.84039
G01 X29.39797 Y29.81895
G01 X32.86551 Y29.82261
G01 X32.89096 Y29.84042
G01 X32.90500 Y29.87897
G01 X32.90137 Y31.36952
G01 X32.88357 Y31.39495
G01 X32.84498 Y31.40899
G01 X29.37743 Y31.40435
G01 X29.35200 Y31.38654
G01 X29.33795 Y31.34798
G01 X29.33795 Y29.87897
G04 P0 ( dwell for no time -- G64 should not smooth over this point )
G00 Z1.00000 ( retract )

G00 X26.68495 Y35.79126 ( rapid move to begin. )
G01 F100.00000
( Mill infeed pass 1/1 )
G01 Z-0.02500
G04 P0 ( dwell for no time -- G64 should not smooth over this point )
G01 F200.00000
G01 X26.68495 Y35.79126
G01 X26.68495 Y36.00797
G01 X26.97659 Y36.00949
G01 X26.98894 Y36.02798
G01 X26.98894 Y36.23497
G01 X27.20468 Y36.23497
G01 X27.20103 Y35.98432
G01 X27.18101 Y35.92334
G01 X27.12887 Y35.85382
G01 X27.01119 Y35.79590
G01 X26.68495 Y35.79126
G01 X26.70497 Y35.81155
G01 X26.69920 Y35.99369
G01 X26.96892 Y35.98798
G01 X27.00217 Y36.00576
G01 X27.00314 Y36.22080
G01 X27.19044 Y36.22092
G01 X27.18104 Y35.98767
G01 X27.16328 Y35.93258
G01 X27.11609 Y35.86921
G01 X27.00649 Y35.81536
G01 X26.70497 Y35.81155
G01 X26.72498 Y35.83185
G01 X27.00174 Y35.83530
G01 X27.10296 Y35.88503
G01 X27.16112 Y35.99100
G01 X27.17014 Y36.20093
G01 X27.02315 Y36.20078
G01 X27.02894 Y36.02798
G01 X27.01490 Y35.98940
G01 X26.96892 Y35.96799
G01 X26.71909 Y35.97383
G01 X26.72498 Y35.83185
G04 P0 ( dwell for no time -- G64 should not smooth over this point )
G00 Z1.00000 ( retract )

G00 X26.72498 Y37.24800 ( rapid move to begin. )
G01 F100.00000
( Mill infeed pass 1/1 )
G01 Z-0.02500
G04 P0 ( dwell for no time -- G64 should not smooth over this point )
G01 F200.00000
G01 X26.72498 Y37.24800
G01 X26.71901 Y37.39016
G01 X27.00174 Y37.38066
G01 X27.10296 Y37.33093
G01 X27.16112 Y37.22496
G01 X27.17014 Y37.01602
G01 X27.02315 Y37.01617
G01 X27.02803 Y37.19842
G01 X26.98942 Y37.24437
G01 X26.72498 Y37.24800
G01 X26.70497 Y37.22801
G01 X26.69902 Y37.41046
G01 X27.00649 Y37.40060
G01 X27.11609 Y37.34675
G01 X27.16328 Y37.28338
G01 X27.18104 Y37.22829
G01 X27.19044 Y36.99603
G01 X27.00314 Y36.99616
G01 X27.00893 Y37.18800
G01 X26.98424 Y37.22496
G01 X26.70497 Y37.22801
G01 X26.68495 Y37.20799
G01 X26.97659 Y37.20647
G01 X26.98894 Y37.18800
G01 X26.98894 Y36.98198
G01 X27.20468 Y36.98198
G01 X27.20103 Y37.23164
G01 X27.18101 Y37.29263
G01 X27.12887 Y37.36214
G01 X27.01119 Y37.42006
G01 X26.68495 Y37.42471
G01 X26.68495 Y37.20799
G04 P0 ( dwell for no time -- G64 should not smooth over this point )
G00 Z1.00000 ( retract )

G00 X25.30306 Y37.02199 ( rapid move to begin. )
G01 F100.00000
( Mill infeed pass 1/1 )
G01 Z-0.02500
G04 P0 ( dwell for no time -- G64 should not smooth over this point )
G01 F200.00000
G01 X25.30306 Y37.02199
G01 X25.44482 Y37.01617
G01 X25.43994 Y37.19842
G01 X25.46903 Y37.23995
G01 X25.74883 Y37.24213
G01 X25.74893 Y37.39016
G01 X25.46623 Y37.38066
G01 X25.36501 Y37.33093
G01 X25.30657 Y37.22488
G01 X25.30306 Y37.02199
G01 X25.28269 Y37.00197
G01 X25.28663 Y37.22826
G01 X25.30466 Y37.28338
G01 X25.35188 Y37.34675
G01 X25.46143 Y37.40060
G01 X25.76892 Y37.41046
G01 X25.76875 Y37.22227
G01 X25.48373 Y37.22496
G01 X25.45904 Y37.18800
G01 X25.46484 Y36.99616
G01 X25.28269 Y37.00197
G01 X25.26232 Y36.98198
G01 X25.47903 Y36.98198
G01 X25.48792 Y37.20461
G01 X25.78297 Y37.20799
G01 X25.78297 Y37.42471
G01 X25.45676 Y37.42006
G01 X25.33911 Y37.36214
G01 X25.28693 Y37.29263
G01 X25.26692 Y37.23161
G01 X25.26232 Y36.98198
G04 P0 ( dwell for no time -- G64 should not smooth over this point )
G00 Z1.00000 ( retract )

G00 X25.26232 Y36.23497 ( rapid move to begin. )
G01 F100.00000
( Mill infeed pass 1/1 )
G01 Z-0.02500
G04 P0 ( dwell for no time -- G64 should not smooth over this point )
G01 F200.00000
G01 X25.26232 Y36.23497
G01 X25.26692 Y35.98435
G01 X25.28693 Y35.92334
G01 X25.33911 Y35.85382
G01 X25.45676 Y35.79590
G01 X25.78297 Y35.79126
G01 X25.78297 Y36.00797
G01 X25.48792 Y36.01135
G01 X25.47903 Y36.23497
G01 X25.26232 Y36.23497
G01 X25.28269 Y36.21495
G01 X25.28663 Y35.98770
G01 X25.30466 Y35.93258
G01 X25.35188 Y35.86921
G01 X25.46143 Y35.81536
G01 X25.76892 Y35.80551
G01 X25.76875 Y35.99369
G01 X25.48373 Y35.99103
G01 X25.45904 Y36.02798
G01 X25.46484 Y36.22080
G01 X25.28269 Y36.21495
G01 X25.30306 Y36.19496
G01 X25.30657 Y35.99108
G01 X25.32265 Y35.94195
G01 X25.36501 Y35.88503
G01 X25.46623 Y35.83530
G01 X25.74893 Y35.82580
G01 X25.74883 Y35.97383
G01 X25.46903 Y35.97602
G01 X25.43994 Y36.01757
G01 X25.44482 Y36.20078
G01 X25.30306 Y36.19496
G04 P0 ( dwell for no time -- G64 should not smooth over this point )
G00 Z1.00000 ( retract )

G00 X13.59199 Y18.01999 ( rapid move to begin. )
G01 F100.00000
( Mill infeed pass 1/1 )
G01 Z-0.02500
G04 P0 ( dwell for no time -- G64 should not smooth over this point )
G01 F200.00000
G01 X13.59199 Y18.01999
G01 X13.59199 Y18.76899
G01 X13.64281 Y18.86152
G01 X13.68104 Y18.87958
G01 X13.76229 Y18.86937
G01 X13.81881 Y18.78827
G01 X13.82173 Y18.03894
G01 X13.85767 Y17.93234
G01 X13.92125 Y17.86937
G01 X14.02823 Y17.83473
G01 X14.09059 Y17.83473
G01 X14.19602 Y17.86909
G01 X14.25780 Y17.93153
G01 X14.29298 Y18.03869
G01 X14.29516 Y18.79147
G01 X14.38063 Y18.88057
G01 X14.49356 Y18.84440
G01 X14.51370 Y18.80018
G01 X14.52150 Y18.00176
G01 X14.45813 Y17.81359
G01 X14.32948 Y17.67996
G01 X14.11767 Y17.60567
G01 X13.99178 Y17.60643
G01 X13.80395 Y17.66864
G01 X13.65803 Y17.81326
G01 X13.59199 Y18.01999
G01 X13.61198 Y18.01999
G01 X13.67733 Y17.81972
G01 X13.81873 Y17.68405
G01 X13.99496 Y17.62617
G01 X14.11767 Y17.62566
G01 X14.31528 Y17.69404
G01 X14.43887 Y17.82015
G01 X14.50176 Y18.00491
G01 X14.49371 Y18.79998
G01 X14.46902 Y18.83650
G01 X14.38193 Y18.85987
G01 X14.31477 Y18.78756
G01 X14.31325 Y18.03539
G01 X14.27532 Y17.92078
G01 X14.20687 Y17.85159
G01 X14.09379 Y17.81474
G01 X14.02506 Y17.81474
G01 X13.91055 Y17.85185
G01 X13.84025 Y17.92144
G01 X13.80171 Y18.03564
G01 X13.80080 Y18.77869
G01 X13.76293 Y18.84562
G01 X13.68266 Y18.85967
G01 X13.65719 Y18.84760
G01 X13.61274 Y18.77679
G01 X13.61198 Y18.01999
G01 X13.63199 Y18.01999
G01 X13.69432 Y17.83026
G01 X13.82087 Y17.70498
G01 X13.99816 Y17.64593
G01 X14.12087 Y17.64593
G01 X14.30110 Y17.70811
G01 X14.42186 Y17.83066
G01 X14.48203 Y18.00803
G01 X14.47370 Y18.79975
G01 X14.46135 Y18.81801
G01 X14.39333 Y18.84255
G01 X14.33443 Y18.78362
G01 X14.33298 Y18.03216
G01 X14.29237 Y17.91029
G01 X14.21739 Y17.83460
G01 X14.09694 Y17.79498
G01 X14.02193 Y17.79498
G01 X13.90011 Y17.83478
G01 X13.82328 Y17.91082
G01 X13.78198 Y18.03239
G01 X13.78139 Y18.77384
G01 X13.74698 Y18.83234
G01 X13.67156 Y18.83371
G01 X13.63199 Y18.76899
G01 X13.63199 Y18.01999
G04 P0 ( dwell for no time -- G64 should not smooth over this point )
G00 Z1.00000 ( retract )

G00 X14.62399 Y17.37021 ( rapid move to begin. )
G01 F100.00000
( Mill infeed pass 1/1 )
G01 Z-0.02500
G04 P0 ( dwell for no time -- G64 should not smooth over this point )
G01 F200.00000
G01 X14.62399 Y17.37021
G01 X14.64893 Y17.29973
G01 X14.67713 Y17.27565
G01 X14.73900 Y17.25497
G01 X14.80999 Y17.28040
G01 X14.85211 Y17.34936
G01 X14.84461 Y17.65093
G01 X14.91804 Y17.60699
G01 X15.13214 Y17.61370
G01 X15.25485 Y17.67539
G01 X15.38515 Y17.81067
G01 X15.45035 Y18.00227
G01 X15.45165 Y18.13638
G01 X15.39399 Y18.31618
G01 X15.25465 Y18.46470
G01 X15.12719 Y18.52670
G01 X14.91749 Y18.53188
G01 X14.82574 Y18.48492
G01 X14.77857 Y18.52685
G01 X14.70855 Y18.52904
G01 X14.63278 Y18.46307
G01 X14.62399 Y17.37021
G01 X14.64398 Y17.37014
G01 X14.67182 Y17.30280
G01 X14.72368 Y17.27801
G01 X14.75429 Y17.27801
G01 X14.81317 Y17.31222
G01 X14.83293 Y17.35914
G01 X14.82455 Y17.68451
G01 X14.92091 Y17.62680
G01 X15.12305 Y17.63188
G01 X15.24322 Y17.69167
G01 X15.36633 Y17.81740
G01 X15.42970 Y17.99607
G01 X15.43232 Y18.12683
G01 X15.36534 Y18.32576
G01 X15.24306 Y18.44839
G01 X15.11014 Y18.51159
G01 X14.91754 Y18.51151
G01 X14.82109 Y18.45949
G01 X14.77535 Y18.50673
G01 X14.69572 Y18.50305
G01 X14.64817 Y18.44016
G01 X14.64398 Y17.37014
G01 X14.66399 Y17.37006
G01 X14.68899 Y17.31446
G01 X14.74665 Y17.29650
G01 X14.79132 Y17.31626
G01 X14.81233 Y17.35436
G01 X14.81390 Y17.70239
G01 X14.92714 Y17.64639
G01 X15.11820 Y17.65129
G01 X15.22892 Y17.70633
G01 X15.34550 Y17.82010
G01 X15.41035 Y18.00290
G01 X15.41210 Y18.13043
G01 X15.35594 Y18.30379
G01 X15.23146 Y18.43211
G01 X15.10128 Y18.49259
G01 X14.92221 Y18.49208
G01 X14.81048 Y18.43554
G01 X14.76770 Y18.48827
G01 X14.70380 Y18.48393
G01 X14.66816 Y18.44008
G01 X14.66399 Y17.37006
G04 P0 ( dwell for no time -- G64 should not smooth over this point )
G00 Z1.00000 ( retract )

G00 X14.81398 Y17.90059 ( rapid move to begin. )
G01 F100.00000
( Mill infeed pass 1/1 )
G01 Z-0.02500
G04 P0 ( dwell for no time -- G64 should not smooth over this point )
G01 F200.00000
G01 X14.81398 Y17.90059
G01 X14.81398 Y18.23856
G01 X14.88238 Y18.30905
G01 X14.95589 Y18.34397
G01 X15.07177 Y18.34397
G01 X15.14388 Y18.30900
G01 X15.22406 Y18.22881
G01 X15.26298 Y18.10727
G01 X15.26298 Y18.03168
G01 X15.22414 Y17.91034
G01 X15.14383 Y17.83082
G01 X15.07144 Y17.79498
G01 X14.95622 Y17.79498
G01 X14.88241 Y17.83079
G01 X14.81398 Y17.90059
G01 X14.83400 Y17.90877
G01 X14.89409 Y17.84702
G01 X14.96069 Y17.81448
G01 X15.06686 Y17.81446
G01 X15.13207 Y17.84730
G01 X15.20707 Y17.92078
G01 X15.24296 Y18.03480
G01 X15.24296 Y18.10414
G01 X15.20700 Y18.21839
G01 X15.13229 Y18.29271
G01 X15.06729 Y18.32446
G01 X14.96028 Y18.32444
G01 X14.89402 Y18.29279
G01 X14.83252 Y18.23104
G01 X14.83400 Y17.90877
G01 X14.85399 Y17.91692
G01 X14.90595 Y17.86350
G01 X14.96529 Y17.83447
G01 X15.06219 Y17.83447
G01 X15.12028 Y17.86378
G01 X15.18952 Y17.93155
G01 X15.22297 Y18.03793
G01 X15.22297 Y18.10102
G01 X15.18942 Y18.20767
G01 X15.12053 Y18.27618
G01 X15.06270 Y18.30447
G01 X14.96481 Y18.30445
G01 X14.90588 Y18.27628
G01 X14.85254 Y18.22294
G01 X14.85399 Y17.91692
G04 P0 ( dwell for no time -- G64 should not smooth over this point )
G00 Z1.00000 ( retract )

G00 X15.55370 Y18.01100 ( rapid move to begin. )
G01 F100.00000
( Mill infeed pass 1/1 )
G01 Z-0.02500
G04 P0 ( dwell for no time -- G64 should not smooth over this point )
G01 F200.00000
G01 X15.55370 Y18.01100
G01 X15.55452 Y18.13782
G01 X15.62330 Y18.33264
G01 X15.75116 Y18.46460
G01 X15.88264 Y18.52703
G01 X16.10692 Y18.52680
G01 X16.23610 Y18.46437
G01 X16.36836 Y18.32454
G01 X16.38131 Y18.25413
G01 X16.35078 Y18.18926
G01 X16.31708 Y18.17049
G01 X16.22327 Y18.16302
G01 X16.10166 Y18.27603
G01 X16.04293 Y18.30445
G01 X15.94558 Y18.30445
G01 X15.88571 Y18.27610
G01 X15.81908 Y18.20773
G01 X15.78271 Y18.10000
G01 X15.78271 Y18.03894
G01 X15.81898 Y17.93150
G01 X15.88578 Y17.86366
G01 X15.94606 Y17.83450
G01 X16.04245 Y17.83447
G01 X16.10224 Y17.86434
G01 X16.24608 Y17.98286
G01 X16.33580 Y17.95665
G01 X16.36562 Y17.93054
G01 X16.37400 Y17.84047
G01 X16.35693 Y17.79795
G01 X16.23625 Y17.67570
G01 X16.10755 Y17.61240
G01 X15.89894 Y17.60702
G01 X15.75104 Y17.67547
G01 X15.61886 Y17.81354
G01 X15.55370 Y18.01100
G01 X15.57369 Y18.01100
G01 X15.63806 Y17.82017
G01 X15.76877 Y17.68814
G01 X15.89897 Y17.62734
G01 X16.08142 Y17.62640
G01 X16.22457 Y17.69193
G01 X16.35111 Y17.82497
G01 X16.35253 Y17.90917
G01 X16.33529 Y17.93447
G01 X16.24243 Y17.96117
G01 X16.11360 Y17.84763
G01 X16.04707 Y17.81446
G01 X15.94151 Y17.81448
G01 X15.87397 Y17.84715
G01 X15.80151 Y17.92076
G01 X15.76270 Y18.03564
G01 X15.76270 Y18.10331
G01 X15.80161 Y18.21842
G01 X15.87390 Y18.29266
G01 X15.94111 Y18.32444
G01 X16.04748 Y18.32446
G01 X16.11311 Y18.29241
G01 X16.23089 Y18.18151
G01 X16.33412 Y18.20079
G01 X16.36287 Y18.26559
G01 X16.34878 Y18.31888
G01 X16.22444 Y18.44811
G01 X16.08119 Y18.51260
G01 X15.89935 Y18.51169
G01 X15.76912 Y18.45200
G01 X15.63793 Y18.31857
G01 X15.57369 Y18.12794
G01 X15.57369 Y18.01100
G01 X15.59371 Y18.01100
G01 X15.65510 Y17.83066
G01 X15.77430 Y17.70801
G01 X15.90339 Y17.64684
G01 X16.08142 Y17.64641
G01 X16.21286 Y17.70816
G01 X16.33077 Y17.82894
G01 X16.32434 Y17.91773
G01 X16.24956 Y17.94250
G01 X16.12495 Y17.83092
G01 X16.05160 Y17.79498
G01 X15.93707 Y17.79498
G01 X15.86231 Y17.83089
G01 X15.78449 Y17.91029
G01 X15.74296 Y18.03239
G01 X15.74296 Y18.10656
G01 X15.78454 Y18.22886
G01 X15.86226 Y18.30894
G01 X15.93674 Y18.34397
G01 X16.05193 Y18.34397
G01 X16.12472 Y18.30902
G01 X16.23851 Y18.20000
G01 X16.32020 Y18.21514
G01 X16.34293 Y18.26686
G01 X16.33148 Y18.30887
G01 X16.20969 Y18.43368
G01 X16.08558 Y18.49210
G01 X15.90798 Y18.49264
G01 X15.77441 Y18.43203
G01 X15.65315 Y18.30419
G01 X15.59396 Y18.13125
G01 X15.59371 Y18.01100
G04 P0 ( dwell for no time -- G64 should not smooth over this point )
G00 Z1.00000 ( retract )

G00 X16.48370 Y18.01100 ( rapid move to begin. )
G01 F100.00000
( Mill infeed pass 1/1 )
G01 Z-0.02500
G04 P0 ( dwell for no time -- G64 should not smooth over this point )
G01 F200.00000
G01 X16.48370 Y18.01100
G01 X16.48451 Y18.13782
G01 X16.55330 Y18.33264
G01 X16.68098 Y18.46447
G01 X16.82810 Y18.53198
G01 X17.02020 Y18.53191
G01 X17.16465 Y18.46470
G01 X17.30044 Y18.32479
G01 X17.36158 Y18.13686
G01 X17.36158 Y18.00209
G01 X17.29541 Y17.80595
G01 X17.16508 Y17.67557
G01 X17.03356 Y17.61156
G01 X16.82866 Y17.60691
G01 X16.68086 Y17.67560
G01 X16.54885 Y17.81354
G01 X16.48370 Y18.01100
G01 X16.50369 Y18.01100
G01 X16.57346 Y17.81324
G01 X16.69251 Y17.69185
G01 X16.81934 Y17.63031
G01 X17.03305 Y17.63188
G01 X17.15337 Y17.69180
G01 X17.28489 Y17.82883
G01 X17.34181 Y18.00524
G01 X17.34232 Y18.12746
G01 X17.28108 Y18.31844
G01 X17.15307 Y18.44839
G01 X17.01128 Y18.51258
G01 X16.82815 Y18.51166
G01 X16.69889 Y18.45187
G01 X16.56793 Y18.31857
G01 X16.50369 Y18.12794
G01 X16.50369 Y18.01100
G01 X16.52371 Y18.01100
G01 X16.58510 Y17.83066
G01 X16.70420 Y17.70808
G01 X16.83712 Y17.64639
G01 X17.02820 Y17.65129
G01 X17.14166 Y17.70801
G01 X17.26587 Y17.83503
G01 X17.32208 Y18.00836
G01 X17.32231 Y18.12746
G01 X17.26401 Y18.30803
G01 X17.13851 Y18.43384
G01 X17.01570 Y18.49208
G01 X16.83686 Y18.49261
G01 X16.70427 Y18.43196
G01 X16.58314 Y18.30419
G01 X16.52396 Y18.13125
G01 X16.52371 Y18.01100
G04 P0 ( dwell for no time -- G64 should not smooth over this point )
G00 Z1.00000 ( retract )

G00 X16.67296 Y18.03239 ( rapid move to begin. )
G01 F100.00000
( Mill infeed pass 1/1 )
G01 Z-0.02500
G04 P0 ( dwell for no time -- G64 should not smooth over this point )
G01 F200.00000
G01 X16.67296 Y18.03239
G01 X16.67296 Y18.10656
G01 X16.71454 Y18.22886
G01 X16.79239 Y18.30905
G01 X16.86587 Y18.34397
G01 X16.98177 Y18.34397
G01 X17.05388 Y18.30900
G01 X17.13407 Y18.22881
G01 X17.17298 Y18.10727
G01 X17.17298 Y18.03168
G01 X17.13414 Y17.91034
G01 X17.05383 Y17.83082
G01 X16.98144 Y17.79498
G01 X16.86620 Y17.79498
G01 X16.79241 Y17.83079
G01 X16.71448 Y17.91029
G01 X16.67296 Y18.03239
G01 X16.69297 Y18.03567
G01 X16.73150 Y17.92076
G01 X16.80410 Y17.84702
G01 X16.87067 Y17.81448
G01 X16.97687 Y17.81446
G01 X17.04207 Y17.84730
G01 X17.11707 Y17.92078
G01 X17.15297 Y18.03480
G01 X17.15297 Y18.10414
G01 X17.11700 Y18.21839
G01 X17.04230 Y18.29271
G01 X16.97730 Y18.32446
G01 X16.87026 Y18.32444
G01 X16.80402 Y18.29279
G01 X16.73160 Y18.21842
G01 X16.69269 Y18.10331
G01 X16.69297 Y18.03567
G01 X16.71296 Y18.03899
G01 X16.71271 Y18.10000
G01 X16.74908 Y18.20773
G01 X16.81586 Y18.27628
G01 X16.87478 Y18.30445
G01 X16.97270 Y18.30447
G01 X17.03054 Y18.27618
G01 X17.09942 Y18.20767
G01 X17.13298 Y18.10102
G01 X17.13298 Y18.03793
G01 X17.09952 Y17.93155
G01 X17.03044 Y17.86358
G01 X16.97219 Y17.83447
G01 X16.87527 Y17.83447
G01 X16.81596 Y17.86350
G01 X16.74898 Y17.93150
G01 X16.71296 Y18.03899
G04 P0 ( dwell for no time -- G64 should not smooth over this point )
G00 Z1.00000 ( retract )

G00 X17.46297 Y18.41819 ( rapid move to begin. )
G01 F100.00000
( Mill infeed pass 1/1 )
G01 Z-0.02500
G04 P0 ( dwell for no time -- G64 should not smooth over this point )
G01 F200.00000
G01 X17.46297 Y18.41819
G01 X17.50755 Y18.50955
G01 X17.58870 Y18.53292
G01 X17.65703 Y18.49942
G01 X17.67788 Y18.47011
G01 X17.80928 Y18.53201
G01 X18.00171 Y18.53183
G01 X18.16587 Y18.44633
G01 X18.24397 Y18.21799
G01 X18.24397 Y17.71999
G01 X18.20054 Y17.63046
G01 X18.16541 Y17.61453
G01 X18.08497 Y17.61372
G01 X18.01855 Y17.68898
G01 X18.01400 Y18.19960
G01 X17.98616 Y18.28995
G01 X17.95370 Y18.30447
G01 X17.85555 Y18.30445
G01 X17.79546 Y18.27598
G01 X17.69145 Y18.17156
G01 X17.68179 Y17.67590
G01 X17.59541 Y17.60641
G01 X17.48553 Y17.65177
G01 X17.47224 Y17.68865
G01 X17.46297 Y18.41819
G01 X17.48296 Y18.41844
G01 X17.52083 Y18.49459
G01 X17.58870 Y18.51291
G01 X17.65144 Y18.47834
G01 X17.66091 Y18.43168
G01 X17.81799 Y18.51265
G01 X18.00166 Y18.51146
G01 X18.15073 Y18.43328
G01 X18.22345 Y18.22444
G01 X18.22398 Y17.71999
G01 X18.19045 Y17.64887
G01 X18.16345 Y17.63445
G01 X18.08906 Y17.63389
G01 X18.03917 Y17.69155
G01 X18.03399 Y18.20280
G01 X18.00252 Y18.30425
G01 X17.95830 Y18.32446
G01 X17.85108 Y18.32444
G01 X17.78370 Y18.29254
G01 X17.67148 Y18.17973
G01 X17.66886 Y17.69391
G01 X17.59650 Y17.62680
G01 X17.50407 Y17.66102
G01 X17.49223 Y17.68891
G01 X17.48296 Y18.41844
G01 X17.50298 Y18.41870
G01 X17.53412 Y18.47966
G01 X17.59261 Y18.49254
G01 X17.63480 Y18.46615
G01 X17.64885 Y18.39680
G01 X17.68769 Y18.43396
G01 X17.81364 Y18.49218
G01 X18.00138 Y18.49038
G01 X18.13556 Y18.42022
G01 X18.20397 Y18.21799
G01 X18.20397 Y17.71999
G01 X18.17222 Y17.65878
G01 X18.10211 Y17.65002
G01 X18.05555 Y17.70468
G01 X18.05398 Y18.20602
G01 X18.01758 Y18.31740
G01 X17.96277 Y18.34397
G01 X17.84672 Y18.34397
G01 X17.77212 Y18.30884
G01 X17.65296 Y18.18733
G01 X17.65152 Y17.70531
G01 X17.58479 Y17.64641
G01 X17.51225 Y17.68916
G01 X17.50298 Y18.41870
G04 P0 ( dwell for no time -- G64 should not smooth over this point )
G00 Z1.00000 ( retract )

G00 X18.34892 Y18.43874 ( rapid move to begin. )
G01 F100.00000
( Mill infeed pass 1/1 )
G01 Z-0.02500
G04 P0 ( dwell for no time -- G64 should not smooth over this point )
G01 F200.00000
G01 X18.34892 Y18.43874
G01 X18.35426 Y18.37374
G01 X18.65883 Y17.66455
G01 X18.71532 Y17.61359
G01 X18.80249 Y17.61352
G01 X18.86465 Y17.67463
G01 X19.16465 Y18.37361
G01 X19.16576 Y18.46162
G01 X19.09081 Y18.52865
G01 X19.01631 Y18.52576
G01 X18.96655 Y18.48362
G01 X18.75903 Y18.01169
G01 X18.75908 Y17.98154
G01 X18.75903 Y18.01169
G01 X18.54933 Y18.49088
G01 X18.45573 Y18.53386
G01 X18.35571 Y18.46711
G01 X18.34892 Y18.43874
G01 X18.36894 Y18.43897
G01 X18.38032 Y18.46739
G01 X18.45692 Y18.51390
G01 X18.53760 Y18.47377
G01 X18.75903 Y17.96102
G01 X18.75906 Y17.93051
G01 X18.75903 Y17.96102
G01 X18.97544 Y18.46330
G01 X19.02373 Y18.50719
G01 X19.08118 Y18.50950
G01 X19.14720 Y18.45421
G01 X19.14628 Y18.38149
G01 X18.84628 Y17.68250
G01 X18.77976 Y17.62906
G01 X18.72291 Y17.63209
G01 X18.67163 Y17.68263
G01 X18.37265 Y18.38161
G01 X18.36894 Y18.43897
G01 X18.38893 Y18.43920
G01 X18.45459 Y18.49340
G01 X18.52147 Y18.46190
G01 X18.75903 Y17.91032
G01 X18.99193 Y18.45197
G01 X19.03114 Y18.48862
G01 X19.08093 Y18.48951
G01 X19.12863 Y18.44679
G01 X19.12789 Y18.38939
G01 X18.82789 Y17.69040
G01 X18.77976 Y17.64908
G01 X18.73051 Y17.65060
G01 X18.69002 Y17.69048
G01 X18.39104 Y18.38946
G01 X18.38893 Y18.43920
G04 P0 ( dwell for no time -- G64 should not smooth over this point )
G00 Z1.00000 ( retract )

G00 X19.27465 Y18.01151 ( rapid move to begin. )
G01 F100.00000
( Mill infeed pass 1/1 )
G01 Z-0.02500
G04 P0 ( dwell for no time -- G64 should not smooth over this point )
G01 F200.00000
G01 X19.27465 Y18.01151
G01 X19.27582 Y18.13940
G01 X19.34237 Y18.33274
G01 X19.47209 Y18.46455
G01 X19.60808 Y18.52992
G01 X19.81273 Y18.53127
G01 X19.93835 Y18.47531
G01 X20.03635 Y18.37897
G01 X20.09977 Y18.24847
G01 X20.10000 Y18.08982
G01 X20.02271 Y18.00961
G01 X19.51143 Y18.01166
G01 X19.53957 Y17.93003
G01 X19.60678 Y17.86345
G01 X19.66477 Y17.83447
G01 X19.76190 Y17.83450
G01 X19.82289 Y17.86406
G01 X19.95575 Y17.97943
G01 X20.07219 Y17.94926
G01 X20.10396 Y17.87112
G01 X20.07838 Y17.79851
G01 X19.95697 Y17.67552
G01 X19.82593 Y17.61210
G01 X19.61725 Y17.60699
G01 X19.47193 Y17.67554
G01 X19.33772 Y17.81382
G01 X19.27465 Y18.01151
G01 X19.29464 Y18.01146
G01 X19.36269 Y17.81303
G01 X19.48359 Y17.69178
G01 X19.60793 Y17.63049
G01 X19.82121 Y17.63153
G01 X19.94531 Y17.69175
G01 X20.06535 Y17.81654
G01 X20.08311 Y17.87872
G01 X20.04935 Y17.94273
G01 X19.95232 Y17.95761
G01 X19.83432 Y17.84763
G01 X19.76645 Y17.81448
G01 X19.66010 Y17.81446
G01 X19.59495 Y17.84697
G01 X19.52157 Y17.91974
G01 X19.48563 Y18.03165
G01 X19.99977 Y18.02502
G01 X20.02799 Y18.03673
G01 X20.08217 Y18.10054
G01 X20.08146 Y18.23963
G01 X20.01996 Y18.36752
G01 X19.93647 Y18.45342
G01 X19.80848 Y18.51174
G01 X19.62566 Y18.51258
G01 X19.48971 Y18.45179
G01 X19.35692 Y18.31852
G01 X19.29502 Y18.12982
G01 X19.29464 Y18.01146
G01 X19.31466 Y18.01138
G01 X19.37407 Y17.83074
G01 X19.49525 Y17.70803
G01 X19.62588 Y17.64644
G01 X19.81651 Y17.65096
G01 X19.93368 Y17.70801
G01 X20.04679 Y17.82401
G01 X20.06396 Y17.87072
G01 X20.03841 Y17.92599
G01 X19.95987 Y17.93910
G01 X19.84590 Y17.83102
G01 X19.77089 Y17.79498
G01 X19.65553 Y17.79498
G01 X19.58329 Y17.83074
G01 X19.50419 Y17.90983
G01 X19.46975 Y18.04402
G01 X20.01384 Y18.05088
G01 X20.06254 Y18.10437
G01 X20.06198 Y18.23511
G01 X20.00358 Y18.35604
G01 X19.92172 Y18.43894
G01 X19.80422 Y18.49218
G01 X19.62568 Y18.49259
G01 X19.49535 Y18.43198
G01 X19.37206 Y18.30397
G01 X19.31529 Y18.13292
G01 X19.31466 Y18.01138
G04 P0 ( dwell for no time -- G64 should not smooth over this point )
G00 Z1.00000 ( retract )

G00 X19.51997 Y18.21397 ( rapid move to begin. )
G01 F100.00000
( Mill infeed pass 1/1 )
G01 Z-0.02500
G04 P0 ( dwell for no time -- G64 should not smooth over this point )
G01 F200.00000
G01 X19.51997 Y18.21397
G01 X19.89975 Y18.20359
G01 X19.83013 Y18.29503
G01 X19.76685 Y18.32444
G01 X19.65967 Y18.32446
G01 X19.59484 Y18.29284
G01 X19.49238 Y18.19396
G01 X19.91397 Y18.19396
G01 X19.84333 Y18.31004
G01 X19.77122 Y18.34397
G01 X19.65520 Y18.34397
G01 X19.58324 Y18.30910
G01 X19.49551 Y18.20351
G01 X19.66426 Y18.30447
G01 X19.76238 Y18.30445
G01 X19.81638 Y18.27938
G01 X19.86330 Y18.22360
G01 X19.56515 Y18.23396
G04 P0 ( dwell for no time -- G64 should not smooth over this point )
G00 Z1.00000 ( retract )

G00 X20.20399 Y17.72032 ( rapid move to begin. )
G01 F100.00000
( Mill infeed pass 1/1 )
G01 Z-0.02500
G04 P0 ( dwell for no time -- G64 should not smooth over this point )
G01 F200.00000
G01 X20.20399 Y17.72032
G01 X20.23447 Y17.64212
G01 X20.29604 Y17.60956
G01 X20.34194 Y17.60956
G01 X20.40518 Y17.64418
G01 X20.43294 Y17.70910
G01 X20.43371 Y18.09993
G01 X20.47010 Y18.20773
G01 X20.53719 Y18.27658
G01 X20.59583 Y18.30511
G01 X20.75184 Y18.31331
G01 X20.79172 Y18.33160
G01 X20.83127 Y18.43851
G01 X20.76967 Y18.52136
G01 X20.54737 Y18.53201
G01 X20.41676 Y18.46818
G01 X20.38407 Y18.51184
G01 X20.30630 Y18.53287
G01 X20.21648 Y18.47046
G01 X20.20399 Y17.72032
G01 X20.22398 Y17.72022
G01 X20.25182 Y17.65281
G01 X20.31900 Y17.62497
G01 X20.38473 Y17.65144
G01 X20.41171 Y17.69947
G01 X20.41372 Y18.10326
G01 X20.45260 Y18.21842
G01 X20.52530 Y18.29304
G01 X20.59073 Y18.32484
G01 X20.77165 Y18.34059
G01 X20.81189 Y18.43127
G01 X20.76995 Y18.49515
G01 X20.73962 Y18.50978
G01 X20.54712 Y18.51164
G01 X20.40800 Y18.43861
G01 X20.38326 Y18.48878
G01 X20.30434 Y18.51273
G01 X20.23668 Y18.46467
G01 X20.22398 Y17.72022
G01 X20.24399 Y17.72010
G01 X20.26899 Y17.66447
G01 X20.31900 Y17.64499
G01 X20.37132 Y17.66627
G01 X20.39233 Y17.70437
G01 X20.39398 Y18.10653
G01 X20.43553 Y18.22886
G01 X20.51359 Y18.30925
G01 X20.58572 Y18.34423
G01 X20.75684 Y18.35505
G01 X20.79190 Y18.43048
G01 X20.73932 Y18.48977
G01 X20.55138 Y18.49210
G01 X20.42812 Y18.43361
G01 X20.39334 Y18.40011
G01 X20.39230 Y18.43467
G01 X20.36368 Y18.47699
G01 X20.30244 Y18.49205
G01 X20.25243 Y18.45235
G01 X20.24399 Y17.72010
G04 P0 ( dwell for no time -- G64 should not smooth over this point )
G00 Z1.00000 ( retract )

G00 X20.93431 Y18.41413 ( rapid move to begin. )
G01 F100.00000
( Mill infeed pass 1/1 )
G01 Z-0.02500
G04 P0 ( dwell for no time -- G64 should not smooth over this point )
G01 F200.00000
G01 X20.93431 Y18.41413
G01 X20.94290 Y18.46566
G01 X20.99314 Y18.51936
G01 X21.08859 Y18.52667
G01 X21.09418 Y18.81308
G01 X21.16982 Y18.88034
G01 X21.26568 Y18.86183
G01 X21.31074 Y18.79154
G01 X21.30747 Y18.52838
G01 X21.43185 Y18.52827
G01 X21.50998 Y18.44483
G01 X21.50305 Y18.37227
G01 X21.45268 Y18.31847
G01 X21.30731 Y18.31100
G01 X21.31272 Y17.93795
G01 X21.34135 Y17.84989
G01 X21.37505 Y17.83440
G01 X21.47919 Y17.83069
G01 X21.53711 Y17.79317
G01 X21.56281 Y17.70572
G01 X21.51394 Y17.62510
G01 X21.32743 Y17.60696
G01 X21.15527 Y17.70305
G01 X21.08453 Y17.90011
G01 X21.08867 Y18.31001
G01 X21.00378 Y18.31522
G01 X20.93596 Y18.39309
G01 X20.93431 Y18.41413
G01 X20.95420 Y18.41214
G01 X20.96573 Y18.37994
G01 X21.02174 Y18.32815
G01 X21.10853 Y18.32962
G01 X21.10427 Y17.90341
G01 X21.17064 Y17.71585
G01 X21.33010 Y17.62678
G01 X21.50249 Y17.64148
G01 X21.54249 Y17.70338
G01 X21.51879 Y17.78426
G01 X21.46964 Y17.81268
G01 X21.37028 Y17.81441
G01 X21.32507 Y17.83564
G01 X21.29271 Y17.93462
G01 X21.28760 Y18.33000
G01 X21.43480 Y18.33140
G01 X21.48496 Y18.38080
G01 X21.49162 Y18.43460
G01 X21.42415 Y18.50981
G01 X21.28737 Y18.50831
G01 X21.29113 Y18.78761
G01 X21.25075 Y18.84796
G01 X21.17193 Y18.85987
G01 X21.11079 Y18.80196
G01 X21.10823 Y18.50790
G01 X21.00439 Y18.50285
G01 X20.96098 Y18.45713
G01 X20.95420 Y18.41214
G01 X20.97412 Y18.41019
G01 X21.02949 Y18.34659
G01 X21.12301 Y18.34415
G01 X21.12398 Y17.90668
G01 X21.18598 Y17.72866
G01 X21.32911 Y17.64745
G01 X21.49101 Y17.65787
G01 X21.52270 Y17.70630
G01 X21.50332 Y17.77156
G01 X21.46467 Y17.79330
G01 X21.36561 Y17.79492
G01 X21.31003 Y17.82246
G01 X21.27297 Y17.93137
G01 X21.27297 Y18.34445
G01 X21.42692 Y18.34976
G01 X21.46688 Y18.38936
G01 X21.47178 Y18.43213
G01 X21.41643 Y18.49137
G01 X21.27292 Y18.49383
G01 X21.27193 Y18.77978
G01 X21.23965 Y18.83135
G01 X21.17960 Y18.84140
G01 X21.12558 Y18.78740
G01 X21.12304 Y18.49327
G01 X21.01564 Y18.48631
G01 X20.97907 Y18.44857
G01 X20.97412 Y18.41019
G04 P0 ( dwell for no time -- G64 should not smooth over this point )
G00 Z1.00000 ( retract )

G00 X21.66467 Y18.01154 ( rapid move to begin. )
G01 F100.00000
( Mill infeed pass 1/1 )
G01 Z-0.02500
G04 P0 ( dwell for no time -- G64 should not smooth over this point )
G01 F200.00000
G01 X21.66467 Y18.01154
G01 X21.66583 Y18.13940
G01 X21.73236 Y18.33272
G01 X21.86207 Y18.46455
G01 X21.99807 Y18.52992
G01 X22.20274 Y18.53127
G01 X22.32834 Y18.47531
G01 X22.42634 Y18.37900
G01 X22.48978 Y18.24849
G01 X22.49001 Y18.08982
G01 X22.41272 Y18.00961
G01 X21.90144 Y18.01166
G01 X21.92956 Y17.93000
G01 X21.99677 Y17.86345
G01 X22.05476 Y17.83447
G01 X22.15191 Y17.83450
G01 X22.21275 Y17.86427
G01 X22.34579 Y17.97943
G01 X22.46220 Y17.94926
G01 X22.49375 Y17.87582
G01 X22.46837 Y17.79848
G01 X22.34696 Y17.67552
G01 X22.21595 Y17.61210
G01 X22.00724 Y17.60699
G01 X21.86192 Y17.67554
G01 X21.72771 Y17.81382
G01 X21.66467 Y18.01154
G01 X21.68466 Y18.01146
G01 X21.75268 Y17.81303
G01 X21.87358 Y17.69178
G01 X21.99791 Y17.63049
G01 X22.21125 Y17.63153
G01 X22.33530 Y17.69175
G01 X22.45537 Y17.81651
G01 X22.47312 Y17.87869
G01 X22.43937 Y17.94273
G01 X22.34236 Y17.95764
G01 X22.22430 Y17.84763
G01 X22.15646 Y17.81448
G01 X22.05009 Y17.81446
G01 X21.98493 Y17.84697
G01 X21.91155 Y17.91974
G01 X21.87564 Y18.03165
G01 X22.38978 Y18.02502
G01 X22.41800 Y18.03673
G01 X22.47218 Y18.10054
G01 X22.47147 Y18.23965
G01 X22.40993 Y18.36752
G01 X22.32646 Y18.45342
G01 X22.19850 Y18.51174
G01 X22.01564 Y18.51258
G01 X21.87970 Y18.45179
G01 X21.74691 Y18.31852
G01 X21.68504 Y18.12982
G01 X21.68466 Y18.01146
G01 X21.70467 Y18.01141
G01 X21.76406 Y17.83074
G01 X21.88524 Y17.70803
G01 X22.01587 Y17.64644
G01 X22.20652 Y17.65096
G01 X22.32364 Y17.70801
G01 X22.43680 Y17.82398
G01 X22.45397 Y17.87072
G01 X22.42842 Y17.92599
G01 X22.34988 Y17.93910
G01 X22.23589 Y17.83102
G01 X22.16091 Y17.79498
G01 X22.04551 Y17.79498
G01 X21.97328 Y17.83074
G01 X21.89418 Y17.90983
G01 X21.85974 Y18.04402
G01 X22.40386 Y18.05088
G01 X22.45255 Y18.10437
G01 X22.45199 Y18.23513
G01 X22.39354 Y18.35604
G01 X22.31171 Y18.43894
G01 X22.19423 Y18.49218
G01 X22.01567 Y18.49259
G01 X21.88534 Y18.43198
G01 X21.76205 Y18.30397
G01 X21.70531 Y18.13292
G01 X21.70467 Y18.01141
G04 P0 ( dwell for no time -- G64 should not smooth over this point )
G00 Z1.00000 ( retract )

G00 X21.90995 Y18.21397 ( rapid move to begin. )
G01 F100.00000
( Mill infeed pass 1/1 )
G01 Z-0.02500
G04 P0 ( dwell for no time -- G64 should not smooth over this point )
G01 F200.00000
G01 X21.90995 Y18.21397
G01 X22.28973 Y18.20359
G01 X22.22011 Y18.29503
G01 X22.15687 Y18.32444
G01 X22.04965 Y18.32446
G01 X21.98483 Y18.29284
G01 X21.88237 Y18.19396
G01 X22.30398 Y18.19396
G01 X22.23332 Y18.31004
G01 X22.16124 Y18.34397
G01 X22.04518 Y18.34397
G01 X21.97322 Y18.30910
G01 X21.88549 Y18.20351
G01 X22.05425 Y18.30447
G01 X22.15240 Y18.30445
G01 X22.20637 Y18.27938
G01 X22.25329 Y18.22360
G01 X21.95514 Y18.23396
G04 P0 ( dwell for no time -- G64 should not smooth over this point )
G00 Z1.00000 ( retract )

G00 X22.59398 Y17.72032 ( rapid move to begin. )
G01 F100.00000
( Mill infeed pass 1/1 )
G01 Z-0.02500
G04 P0 ( dwell for no time -- G64 should not smooth over this point )
G01 F200.00000
G01 X22.59398 Y17.72032
G01 X22.62446 Y17.64212
G01 X22.68603 Y17.60956
G01 X22.73192 Y17.60956
G01 X22.79517 Y17.64418
G01 X22.82293 Y17.70910
G01 X22.82372 Y18.10097
G01 X22.85753 Y18.20767
G01 X22.92644 Y18.27618
G01 X22.98582 Y18.30511
G01 X23.14185 Y18.31331
G01 X23.18173 Y18.33160
G01 X23.22128 Y18.43851
G01 X23.15968 Y18.52136
G01 X22.93736 Y18.53201
G01 X22.80548 Y18.46769
G01 X22.76570 Y18.51867
G01 X22.68321 Y18.52959
G01 X22.60833 Y18.47341
G01 X22.59398 Y17.72032
G01 X22.61397 Y17.72022
G01 X22.64180 Y17.65281
G01 X22.70899 Y17.62497
G01 X22.77472 Y17.65144
G01 X22.80170 Y17.69947
G01 X22.80373 Y18.10412
G01 X22.83995 Y18.21839
G01 X22.91468 Y18.29271
G01 X22.98072 Y18.32484
G01 X23.16167 Y18.34059
G01 X23.20190 Y18.43127
G01 X23.15996 Y18.49515
G01 X23.12964 Y18.50978
G01 X22.93710 Y18.51164
G01 X22.79842 Y18.43914
G01 X22.76009 Y18.49901
G01 X22.68478 Y18.50966
G01 X22.62494 Y18.46228
G01 X22.61397 Y17.72022
G01 X22.63398 Y17.72010
G01 X22.65897 Y17.66447
G01 X22.70899 Y17.64499
G01 X22.76131 Y17.66627
G01 X22.78232 Y17.70437
G01 X22.78397 Y18.10724
G01 X22.82288 Y18.22881
G01 X22.90307 Y18.30900
G01 X22.97571 Y18.34423
G01 X23.14686 Y18.35505
G01 X23.18191 Y18.43048
G01 X23.12933 Y18.48977
G01 X22.94137 Y18.49210
G01 X22.81846 Y18.43384
G01 X22.78333 Y18.40082
G01 X22.78135 Y18.43744
G01 X22.74582 Y18.48370
G01 X22.68288 Y18.48913
G01 X22.64155 Y18.45116
G01 X22.63398 Y17.72010
G04 P0 ( dwell for no time -- G64 should not smooth over this point )
G00 Z1.00000 ( retract )

G00 X18.21397 Y15.43415 ( rapid move to begin. )
G01 F100.00000
( Mill infeed pass 1/1 )
G01 Z-0.02500
G04 P0 ( dwell for no time -- G64 should not smooth over this point )
G01 F200.00000
G01 X18.21397 Y15.43415
G01 X18.22733 Y16.52566
G01 X18.28923 Y16.55797
G01 X18.97079 Y16.54870
G01 X18.98900 Y16.53635
G01 X19.01354 Y16.46833
G01 X18.95464 Y16.40943
G01 X18.36396 Y16.40801
G01 X18.36396 Y16.05792
G01 X18.70358 Y16.05632
G01 X18.74168 Y16.03531
G01 X18.76297 Y15.98299
G01 X18.74168 Y15.93064
G01 X18.70358 Y15.90964
G01 X18.36396 Y15.90803
G01 X18.36396 Y15.50895
G01 X18.95527 Y15.50740
G01 X19.00993 Y15.46084
G01 X19.00117 Y15.39074
G01 X18.93970 Y15.35899
G01 X18.25814 Y15.36826
G01 X18.21397 Y15.43415
G01 X18.19396 Y15.43432
G01 X18.21143 Y16.53778
G01 X18.28951 Y16.57799
G01 X18.97107 Y16.56871
G01 X19.00384 Y16.55086
G01 X19.03391 Y16.47225
G01 X19.02220 Y16.44395
G01 X18.95855 Y16.38980
G01 X18.37813 Y16.39386
G01 X18.37816 Y16.07209
G01 X18.70849 Y16.07570
G01 X18.75652 Y16.04873
G01 X18.78298 Y15.98299
G01 X18.75652 Y15.91723
G01 X18.70849 Y15.89025
G01 X18.37816 Y15.89386
G01 X18.37813 Y15.52310
G01 X18.95982 Y15.52688
G01 X19.02906 Y15.46663
G01 X19.01661 Y15.37804
G01 X18.93942 Y15.33897
G01 X18.25787 Y15.34824
G01 X18.22792 Y15.36234
G01 X18.19396 Y15.43432
G01 X18.17397 Y15.43450
G01 X18.19190 Y16.54461
G01 X18.28979 Y16.59798
G01 X18.97135 Y16.58870
G01 X19.00821 Y16.57539
G01 X19.05355 Y16.46554
G01 X19.03635 Y16.42983
G01 X18.97371 Y16.37362
G01 X18.39817 Y16.37382
G01 X18.39820 Y16.09211
G01 X18.71804 Y16.09371
G01 X18.77133 Y16.06216
G01 X18.80297 Y15.98299
G01 X18.77133 Y15.90379
G01 X18.71804 Y15.87225
G01 X18.39820 Y15.87385
G01 X18.39817 Y15.54311
G01 X18.97097 Y15.54441
G01 X19.04623 Y15.47799
G01 X19.03559 Y15.37009
G01 X18.93914 Y15.31898
G01 X18.25759 Y15.32825
G01 X18.21133 Y15.35106
G01 X18.17397 Y15.43450
G04 P0 ( dwell for no time -- G64 should not smooth over this point )
G00 Z1.00000 ( retract )

G00 X17.23399 Y15.43415 ( rapid move to begin. )
G01 F100.00000
( Mill infeed pass 1/1 )
G01 Z-0.02500
G04 P0 ( dwell for no time -- G64 should not smooth over this point )
G01 F200.00000
G01 X17.23399 Y15.43415
G01 X17.24735 Y16.52566
G01 X17.30925 Y16.55797
G01 X17.98979 Y16.54870
G01 X18.00801 Y16.53635
G01 X18.03254 Y16.46833
G01 X17.97364 Y16.40943
G01 X17.38398 Y16.40801
G01 X17.38398 Y16.05792
G01 X17.72358 Y16.05632
G01 X17.76168 Y16.03531
G01 X17.78296 Y15.98299
G01 X17.76168 Y15.93064
G01 X17.72358 Y15.90964
G01 X17.38398 Y15.90803
G01 X17.38398 Y15.50895
G01 X17.97427 Y15.50740
G01 X18.02894 Y15.46084
G01 X18.02017 Y15.39074
G01 X17.95870 Y15.35899
G01 X17.27816 Y15.36826
G01 X17.23399 Y15.43415
G01 X17.21398 Y15.43432
G01 X17.23145 Y16.53778
G01 X17.30953 Y16.57799
G01 X17.99007 Y16.56871
G01 X18.02284 Y16.55086
G01 X18.05291 Y16.47225
G01 X18.04120 Y16.44395
G01 X17.97755 Y16.38980
G01 X17.39815 Y16.39386
G01 X17.39818 Y16.07209
G01 X17.72848 Y16.07570
G01 X17.77651 Y16.04873
G01 X17.80298 Y15.98299
G01 X17.77651 Y15.91723
G01 X17.72848 Y15.89025
G01 X17.39818 Y15.89386
G01 X17.39815 Y15.52310
G01 X17.97882 Y15.52688
G01 X18.04806 Y15.46663
G01 X18.03562 Y15.37804
G01 X17.95842 Y15.33897
G01 X17.27788 Y15.34824
G01 X17.24794 Y15.36234
G01 X17.21398 Y15.43432
G01 X17.19399 Y15.43450
G01 X17.21192 Y16.54461
G01 X17.30981 Y16.59798
G01 X17.99035 Y16.58870
G01 X18.02721 Y16.57539
G01 X18.07255 Y16.46554
G01 X18.05535 Y16.42983
G01 X17.99271 Y16.37362
G01 X17.41819 Y16.37382
G01 X17.41822 Y16.09211
G01 X17.73803 Y16.09371
G01 X17.79132 Y16.06216
G01 X17.82297 Y15.98299
G01 X17.79132 Y15.90379
G01 X17.73803 Y15.87225
G01 X17.41822 Y15.87385
G01 X17.41819 Y15.54311
G01 X17.98997 Y15.54441
G01 X18.06523 Y15.47799
G01 X18.05459 Y15.37009
G01 X17.95815 Y15.31898
G01 X17.27760 Y15.32825
G01 X17.23135 Y15.35106
G01 X17.19399 Y15.43450
G04 P0 ( dwell for no time -- G64 should not smooth over this point )
G00 Z1.00000 ( retract )

G00 X16.80613 Y15.62396 ( rapid move to begin. )
G01 F100.00000
( Mill infeed pass 1/1 )
G01 Z-0.02500
G04 P0 ( dwell for no time -- G64 should not smooth over this point )
G01 F200.00000
G01 X16.80613 Y15.62396
G01 X16.82393 Y15.68256
G01 X16.88606 Y15.74514
G01 X16.92490 Y15.75784
G01 X16.96803 Y15.74639
G01 X17.03397 Y15.68355
G01 X17.05396 Y15.63257
G01 X17.03346 Y15.58182
G01 X16.96318 Y15.51845
G01 X16.92363 Y15.50928
G01 X16.87666 Y15.52950
G01 X16.80613 Y15.62396
G01 X16.78621 Y15.62576
G01 X16.80425 Y15.68840
G01 X16.87557 Y15.76219
G01 X16.92261 Y15.77771
G01 X16.97798 Y15.76371
G01 X17.05045 Y15.69485
G01 X17.07397 Y15.63247
G01 X17.05383 Y15.57753
G01 X16.98502 Y15.50849
G01 X16.93813 Y15.49051
G01 X16.86462 Y15.51352
G01 X16.78621 Y15.62576
G01 X16.76650 Y15.62947
G01 X16.77407 Y15.59216
G01 X16.84888 Y15.50059
G01 X16.93356 Y15.46933
G01 X16.99129 Y15.48797
G01 X17.05810 Y15.54951
G01 X17.09381 Y15.63717
G01 X17.06696 Y15.70618
G01 X16.99950 Y15.77242
G01 X16.92035 Y15.79760
G01 X16.86109 Y15.77651
G01 X16.79757 Y15.71319
G01 X16.76650 Y15.62947
G04 P0 ( dwell for no time -- G64 should not smooth over this point )
G00 Z1.00000 ( retract )

G00 X15.96287 Y15.89551 ( rapid move to begin. )
G01 F100.00000
( Mill infeed pass 1/1 )
G01 Z-0.02500
G04 P0 ( dwell for no time -- G64 should not smooth over this point )
G01 F200.00000
G01 X15.96287 Y15.89551
G01 X15.96287 Y16.02233
G01 X16.00684 Y16.23829
G01 X16.07133 Y16.33737
G01 X16.16661 Y16.36823
G01 X16.22866 Y16.36798
G01 X16.32680 Y16.33707
G01 X16.39112 Y16.23829
G01 X16.43498 Y16.02233
G01 X16.43498 Y15.89554
G01 X16.39107 Y15.67758
G01 X16.32703 Y15.57918
G01 X16.22901 Y15.54898
G01 X16.16625 Y15.54873
G01 X16.07113 Y15.57890
G01 X16.00689 Y15.67756
G01 X15.96287 Y15.89551
G01 X15.94288 Y15.89351
G01 X15.94288 Y16.02437
G01 X15.98802 Y16.24608
G01 X16.05845 Y16.35414
G01 X16.16336 Y16.38822
G01 X16.23186 Y16.38797
G01 X16.33966 Y16.35391
G01 X16.40994 Y16.24608
G01 X16.45497 Y16.02434
G01 X16.45497 Y15.89353
G01 X16.40989 Y15.66978
G01 X16.33986 Y15.56229
G01 X16.23214 Y15.52899
G01 X16.16305 Y15.52874
G01 X16.05828 Y15.56204
G01 X15.98807 Y15.66978
G01 X15.94288 Y15.89351
G01 X15.92297 Y15.89150
G01 X15.96958 Y15.66214
G01 X16.04613 Y15.54614
G01 X16.15993 Y15.50898
G01 X16.23526 Y15.50898
G01 X16.35193 Y15.54634
G01 X16.42838 Y15.66216
G01 X16.47499 Y15.89150
G01 X16.47499 Y16.02637
G01 X16.42840 Y16.25373
G01 X16.35180 Y16.36981
G01 X16.23503 Y16.40798
G01 X16.16016 Y16.40798
G01 X16.04629 Y16.37001
G01 X15.96955 Y16.25375
G01 X15.92297 Y16.02637
G01 X15.92297 Y15.89150
G04 P0 ( dwell for no time -- G64 should not smooth over this point )
G00 Z1.00000 ( retract )

G00 X15.77408 Y15.87301 ( rapid move to begin. )
G01 F100.00000
( Mill infeed pass 1/1 )
G01 Z-0.02500
G04 P0 ( dwell for no time -- G64 should not smooth over this point )
G01 F200.00000
G01 X15.77408 Y15.87301
G01 X15.77451 Y16.04911
G01 X15.82858 Y16.30811
G01 X15.93737 Y16.47684
G01 X15.97433 Y16.50415
G01 X16.13948 Y16.55726
G01 X16.26767 Y16.55492
G01 X16.44860 Y16.48967
G01 X16.56826 Y16.31174
G01 X16.62386 Y16.04502
G01 X16.62348 Y15.86897
G01 X16.56940 Y15.60791
G01 X16.46051 Y15.43905
G01 X16.42277 Y15.41152
G01 X16.25515 Y15.35965
G01 X16.12729 Y15.36201
G01 X15.94934 Y15.42630
G01 X15.82968 Y15.60428
G01 X15.77408 Y15.87301
G01 X15.75409 Y15.87301
G01 X15.75492 Y16.05320
G01 X15.80900 Y16.31220
G01 X15.92769 Y16.49500
G01 X15.96808 Y16.52315
G01 X16.13981 Y16.57727
G01 X16.27126 Y16.57461
G01 X16.45922 Y16.50661
G01 X16.58670 Y16.31944
G01 X16.64387 Y16.04502
G01 X16.64306 Y15.86491
G01 X16.58898 Y15.60384
G01 X16.47004 Y15.42081
G01 X16.42879 Y15.39247
G01 X16.25482 Y15.33963
G01 X16.12371 Y15.34235
G01 X15.93872 Y15.40933
G01 X15.81121 Y15.59658
G01 X15.75409 Y15.87301
G01 X15.73407 Y15.87303
G01 X15.79277 Y15.58888
G01 X15.93087 Y15.39074
G01 X16.12010 Y15.32267
G01 X16.25449 Y15.31964
G01 X16.43483 Y15.37339
G01 X16.48977 Y15.41177
G01 X16.60857 Y15.59978
G01 X16.66264 Y15.86084
G01 X16.66386 Y16.04502
G01 X16.60516 Y16.32716
G01 X16.48210 Y16.51339
G01 X16.27486 Y16.59429
G01 X16.14014 Y16.59726
G01 X15.96183 Y16.54215
G01 X15.91553 Y16.51085
G01 X15.78942 Y16.31629
G01 X15.73537 Y16.05729
G01 X15.73407 Y15.87303
G04 P0 ( dwell for no time -- G64 should not smooth over this point )
G00 Z1.00000 ( retract )

G00 X15.34512 Y15.62396 ( rapid move to begin. )
G01 F100.00000
( Mill infeed pass 1/1 )
G01 Z-0.02500
G04 P0 ( dwell for no time -- G64 should not smooth over this point )
G01 F200.00000
G01 X15.34512 Y15.62396
G01 X15.36293 Y15.68256
G01 X15.42505 Y15.74514
G01 X15.46387 Y15.75784
G01 X15.50699 Y15.74639
G01 X15.57298 Y15.68355
G01 X15.59297 Y15.63257
G01 X15.57245 Y15.58182
G01 X15.50214 Y15.51842
G01 X15.46262 Y15.50928
G01 X15.41566 Y15.52950
G01 X15.34512 Y15.62396
G01 X15.32521 Y15.62576
G01 X15.34324 Y15.68840
G01 X15.41456 Y15.76219
G01 X15.46160 Y15.77771
G01 X15.51698 Y15.76371
G01 X15.58947 Y15.69488
G01 X15.61299 Y15.63247
G01 X15.59285 Y15.57753
G01 X15.52401 Y15.50847
G01 X15.47710 Y15.49051
G01 X15.40362 Y15.51352
G01 X15.32521 Y15.62576
G01 X15.30550 Y15.62947
G01 X15.31307 Y15.59216
G01 X15.38787 Y15.50059
G01 X15.47255 Y15.46933
G01 X15.53026 Y15.48794
G01 X15.59709 Y15.54951
G01 X15.63283 Y15.63717
G01 X15.60595 Y15.70621
G01 X15.53846 Y15.77242
G01 X15.45932 Y15.79760
G01 X15.40009 Y15.77651
G01 X15.33656 Y15.71319
G01 X15.30550 Y15.62947
G04 P0 ( dwell for no time -- G64 should not smooth over this point )
G00 Z1.00000 ( retract )

G00 X14.76316 Y16.28012 ( rapid move to begin. )
G01 F100.00000
( Mill infeed pass 1/1 )
G01 Z-0.02500
G04 P0 ( dwell for no time -- G64 should not smooth over this point )
G01 F200.00000
G01 X14.76316 Y16.28012
G01 X14.79115 Y16.34156
G01 X14.89450 Y16.39551
G01 X15.03915 Y16.53867
G01 X15.08914 Y16.55797
G01 X15.14454 Y16.53293
G01 X15.16397 Y16.48299
G01 X15.16397 Y15.43399
G01 X15.14202 Y15.38093
G01 X15.09663 Y15.36051
G01 X15.03593 Y15.38093
G01 X15.01398 Y15.43399
G01 X15.01398 Y16.30326
G01 X14.98012 Y16.27148
G01 X14.85287 Y16.20999
G01 X14.78980 Y16.22551
G01 X14.76316 Y16.28012
G01 X14.74319 Y16.28136
G01 X14.77822 Y16.35683
G01 X14.88259 Y16.41187
G01 X15.02808 Y16.55533
G01 X15.08919 Y16.57799
G01 X15.16120 Y16.54403
G01 X15.18398 Y16.48299
G01 X15.18398 Y15.43399
G01 X15.15614 Y15.36681
G01 X15.10428 Y15.34202
G01 X15.02785 Y15.36183
G01 X14.99473 Y15.42617
G01 X15.00324 Y16.27120
G01 X14.85305 Y16.18998
G01 X14.77753 Y16.20971
G01 X14.74319 Y16.28136
G01 X14.72323 Y16.28261
G01 X14.76039 Y16.36742
G01 X14.87067 Y16.42823
G01 X15.01703 Y16.57199
G01 X15.10092 Y16.59681
G01 X15.17784 Y16.55513
G01 X15.20397 Y16.48299
G01 X15.20397 Y15.43399
G01 X15.17349 Y15.35612
G01 X15.11192 Y15.32356
G01 X15.07728 Y15.32013
G01 X15.01873 Y15.34393
G01 X14.97512 Y15.42229
G01 X14.98337 Y16.23877
G01 X14.87959 Y16.17634
G01 X14.83963 Y16.17143
G01 X14.76120 Y16.19737
G01 X14.72323 Y16.28261
G04 P0 ( dwell for no time -- G64 should not smooth over this point )
G00 Z1.00000 ( retract )

G00 X12.96397 Y15.43415 ( rapid move to begin. )
G01 F100.00000
( Mill infeed pass 1/1 )
G01 Z-0.02500
G04 P0 ( dwell for no time -- G64 should not smooth over this point )
G01 F200.00000
G01 X12.96397 Y15.43415
G01 X12.97512 Y16.52200
G01 X13.03898 Y16.55797
G01 X13.48899 Y16.55797
G01 X13.68155 Y16.49427
G01 X13.74977 Y16.42787
G01 X13.80687 Y16.31182
G01 X13.81109 Y16.16724
G01 X13.75020 Y16.04166
G01 X13.68909 Y15.97867
G01 X13.52018 Y15.91764
G01 X13.80133 Y15.47413
G01 X13.80126 Y15.39424
G01 X13.74985 Y15.35995
G01 X13.68416 Y15.38175
G01 X13.34873 Y15.90798
G01 X13.11393 Y15.90798
G01 X13.11238 Y15.41868
G01 X13.07012 Y15.36592
G01 X13.01792 Y15.36315
G01 X12.96397 Y15.43415
G01 X12.94396 Y15.43432
G01 X12.95699 Y16.53046
G01 X13.03898 Y16.57799
G01 X13.48899 Y16.57799
G01 X13.69544 Y16.50864
G01 X13.76595 Y16.43966
G01 X13.82628 Y16.31664
G01 X13.83065 Y16.16303
G01 X13.76659 Y16.03021
G01 X13.69994 Y15.96188
G01 X13.53954 Y15.91085
G01 X13.81822 Y15.48485
G01 X13.81568 Y15.37931
G01 X13.75231 Y15.34009
G01 X13.67014 Y15.36747
G01 X13.33910 Y15.89043
G01 X13.12808 Y15.89381
G01 X13.13291 Y15.42317
G01 X13.09095 Y15.35779
G01 X13.06705 Y15.34380
G01 X13.00261 Y15.34621
G01 X12.94396 Y15.43432
G01 X12.92397 Y15.43450
G01 X12.94190 Y16.54461
G01 X13.02920 Y16.59719
G01 X13.48899 Y16.59798
G01 X13.70238 Y16.52884
G01 X13.78211 Y16.45144
G01 X13.84126 Y16.33354
G01 X13.85102 Y16.16358
G01 X13.78299 Y16.01873
G01 X13.72143 Y15.95383
G01 X13.57009 Y15.90026
G01 X13.84040 Y15.48505
G01 X13.84294 Y15.40090
G01 X13.82965 Y15.36468
G01 X13.74949 Y15.31982
G01 X13.65376 Y15.35566
G01 X13.32811 Y15.87042
G01 X13.14805 Y15.87380
G01 X13.15292 Y15.42312
G01 X13.10639 Y15.34509
G01 X13.07055 Y15.32409
G01 X12.98963 Y15.33026
G01 X12.92397 Y15.43450
G04 P0 ( dwell for no time -- G64 should not smooth over this point )
G00 Z1.00000 ( retract )

G00 X13.11396 Y16.05797 ( rapid move to begin. )
G01 F100.00000
( Mill infeed pass 1/1 )
G01 Z-0.02500
G04 P0 ( dwell for no time -- G64 should not smooth over this point )
G01 F200.00000
G01 X13.11396 Y16.05797
G01 X13.11396 Y16.40798
G01 X13.47680 Y16.40798
G01 X13.59882 Y16.36729
G01 X13.66298 Y16.26574
G01 X13.66298 Y16.20151
G01 X13.59790 Y16.09925
G01 X13.47657 Y16.05797
G01 X13.11396 Y16.05797
G01 X13.13397 Y16.07799
G01 X13.12811 Y16.39384
G01 X13.47360 Y16.38822
G01 X13.58841 Y16.35022
G01 X13.64347 Y16.26127
G01 X13.64350 Y16.20608
G01 X13.58726 Y16.11616
G01 X13.47332 Y16.07771
G01 X13.13397 Y16.07799
G01 X13.15396 Y16.09798
G01 X13.46999 Y16.09772
G01 X13.57682 Y16.13305
G01 X13.62371 Y16.21065
G01 X13.62369 Y16.25675
G01 X13.57825 Y16.33328
G01 X13.47035 Y16.36823
G01 X13.14812 Y16.37382
G01 X13.15396 Y16.09798
G04 P0 ( dwell for no time -- G64 should not smooth over this point )
G00 Z1.00000 ( retract )

G00 X11.88498 Y17.72015 ( rapid move to begin. )
G01 F100.00000
( Mill infeed pass 1/1 )
G01 Z-0.02500
G04 P0 ( dwell for no time -- G64 should not smooth over this point )
G01 F200.00000
G01 X11.88498 Y17.72015
G01 X11.89834 Y18.81166
G01 X11.96024 Y18.84397
G01 X12.63778 Y18.83470
G01 X12.68091 Y18.75825
G01 X12.61772 Y18.69502
G01 X12.03497 Y18.69401
G01 X12.03497 Y18.34392
G01 X12.37459 Y18.34232
G01 X12.41269 Y18.32131
G01 X12.43398 Y18.26899
G01 X12.41269 Y18.21664
G01 X12.37459 Y18.19564
G01 X12.03494 Y18.19403
G01 X12.03393 Y17.70920
G01 X11.97906 Y17.64926
G01 X11.91998 Y17.65662
G01 X11.88498 Y17.72015
G01 X11.86496 Y17.72032
G01 X11.88244 Y18.82378
G01 X11.96052 Y18.86399
G01 X12.63806 Y18.85471
G01 X12.67083 Y18.83686
G01 X12.70090 Y18.75825
G01 X12.68919 Y18.72995
G01 X12.62554 Y18.67580
G01 X12.04914 Y18.67986
G01 X12.04917 Y18.35809
G01 X12.37949 Y18.36170
G01 X12.42752 Y18.33473
G01 X12.45399 Y18.26899
G01 X12.42752 Y18.20323
G01 X12.37949 Y18.17626
G01 X12.04914 Y18.17984
G01 X12.05287 Y17.70011
G01 X12.00639 Y17.63826
G01 X11.97711 Y17.62937
G01 X11.90403 Y17.64334
G01 X11.86496 Y17.72032
G01 X11.84497 Y17.72050
G01 X11.86291 Y18.83061
G01 X11.96080 Y18.88398
G01 X12.63834 Y18.87470
G01 X12.67520 Y18.86139
G01 X12.72054 Y18.75154
G01 X12.70334 Y18.71583
G01 X12.64071 Y18.65962
G01 X12.06918 Y18.65982
G01 X12.06921 Y18.37811
G01 X12.38904 Y18.37971
G01 X12.44855 Y18.33998
G01 X12.47284 Y18.25728
G01 X12.44233 Y18.18979
G01 X12.37959 Y18.15586
G01 X12.06921 Y18.15977
G01 X12.06611 Y17.67966
G01 X12.00398 Y17.61372
G01 X11.91388 Y17.61629
G01 X11.88180 Y17.63772
G01 X11.84497 Y17.72050
G04 P0 ( dwell for no time -- G64 should not smooth over this point )
G00 Z1.00000 ( retract )

G00 X10.85399 Y18.76881 ( rapid move to begin. )
G01 F100.00000
( Mill infeed pass 1/1 )
G01 Z-0.02500
G04 P0 ( dwell for no time -- G64 should not smooth over this point )
G01 F200.00000
G01 X10.85399 Y18.76881
G01 X10.86667 Y17.67824
G01 X10.94363 Y17.64641
G01 X11.00253 Y17.70531
G01 X11.00396 Y18.19398
G01 X11.55501 Y18.19398
G01 X11.55656 Y17.70468
G01 X11.59951 Y17.65152
G01 X11.66250 Y17.65434
G01 X11.70497 Y17.72015
G01 X11.69230 Y18.81072
G01 X11.61533 Y18.84255
G01 X11.55643 Y18.78365
G01 X11.55501 Y18.34397
G01 X11.00396 Y18.34397
G01 X11.00294 Y18.77976
G01 X10.94808 Y18.83970
G01 X10.88899 Y18.83234
G01 X10.85399 Y18.76881
G01 X10.83398 Y18.76863
G01 X10.84325 Y17.68908
G01 X10.85506 Y17.66107
G01 X10.94752 Y17.62680
G01 X11.01988 Y17.69391
G01 X11.01815 Y18.17976
G01 X11.54086 Y18.17981
G01 X11.54017 Y17.69155
G01 X11.59006 Y17.63389
G01 X11.66446 Y17.63445
G01 X11.69146 Y17.64887
G01 X11.72499 Y17.72032
G01 X11.70888 Y18.82190
G01 X11.61145 Y18.86216
G01 X11.53908 Y18.79505
G01 X11.54081 Y18.35820
G01 X11.01810 Y18.35814
G01 X11.01879 Y18.79744
G01 X10.96890 Y18.85507
G01 X10.89451 Y18.85451
G01 X10.86751 Y18.84008
G01 X10.83398 Y18.76863
G01 X10.81399 Y18.76846
G01 X10.85742 Y18.85850
G01 X10.94416 Y18.87950
G01 X10.98960 Y18.86490
G01 X11.04203 Y18.79007
G01 X11.03812 Y18.37821
G01 X11.52079 Y18.37821
G01 X11.52062 Y18.80272
G01 X11.57683 Y18.86536
G01 X11.61254 Y18.88255
G01 X11.72247 Y18.83711
G01 X11.73570 Y18.80005
G01 X11.74498 Y17.72050
G01 X11.70814 Y17.63772
G01 X11.67606 Y17.61629
G01 X11.58597 Y17.61372
G01 X11.52384 Y17.67966
G01 X11.52085 Y18.15977
G01 X11.03817 Y18.15975
G01 X11.03835 Y17.68624
G01 X10.95633 Y17.60839
G01 X10.84338 Y17.64458
G01 X10.82326 Y17.68891
G01 X10.81399 Y18.76846
G01 X10.66182 Y18.84034
G01 X10.66466 Y17.27842
G01 X10.68955 Y17.20912
G01 X10.73784 Y17.15144
G01 X10.85796 Y17.10280
G01 X23.15628 Y17.10199
G01 X23.25356 Y17.12358
G01 X23.31307 Y17.16485
G01 X23.35491 Y17.22533
G01 X23.37396 Y17.29871
G01 X23.37099 Y18.86287
G01 X23.31320 Y18.97399
G01 X23.25234 Y19.01611
G01 X23.17889 Y19.03597
G01 X10.87904 Y19.03704
G01 X10.80070 Y19.02395
G01 X10.73807 Y18.98735
G01 X10.68056 Y18.91313
G01 X10.66182 Y18.84034
G01 X10.64180 Y18.84290
G01 X10.64467 Y17.27491
G01 X10.67193 Y17.19902
G01 X10.72450 Y17.13623
G01 X10.77419 Y17.10478
G01 X10.85529 Y17.08279
G01 X23.15852 Y17.08197
G01 X23.26174 Y17.10493
G01 X23.32745 Y17.15048
G01 X23.37335 Y17.21682
G01 X23.39395 Y17.29612
G01 X23.39098 Y18.86589
G01 X23.37360 Y18.92215
G01 X23.32753 Y18.98839
G01 X23.26093 Y19.03447
G01 X23.18158 Y19.05598
G01 X10.87734 Y19.05703
G01 X10.79377 Y19.04306
G01 X10.72461 Y19.00264
G01 X10.66222 Y18.92213
G01 X10.64180 Y18.84290
G01 X10.62196 Y18.84542
G01 X10.64429 Y18.93097
G01 X10.71142 Y19.01768
G01 X10.78691 Y19.06185
G01 X10.87566 Y19.07696
G01 X23.18427 Y19.07597
G01 X23.26941 Y19.05261
G01 X23.34165 Y19.00257
G01 X23.39179 Y18.93107
G01 X23.41097 Y18.86894
G01 X23.41396 Y17.29355
G01 X23.39151 Y17.20846
G01 X23.34160 Y17.13633
G01 X23.26979 Y17.08662
G01 X23.16075 Y17.06198
G01 X10.85265 Y17.06297
G01 X10.76614 Y17.08647
G01 X10.71132 Y17.12119
G01 X10.65458 Y17.18906
G01 X10.62499 Y17.27146
G01 X10.62196 Y18.84542
G04 P0 ( dwell for no time -- G64 should not smooth over this point )
G00 Z1.00000 ( retract )

G00 X4.95599 Y24.19699 ( rapid move to begin. )
G01 F100.00000
( Mill infeed pass 1/1 )
G01 Z-0.02500
G04 P0 ( dwell for no time -- G64 should not smooth over this point )
G01 F200.00000
G01 X4.95599 Y24.19699
G01 X4.95004 Y24.33837
G01 X5.90323 Y24.32377
G01 X5.97989 Y24.28079
G01 X6.03173 Y24.20563
G01 X6.05083 Y23.87312
G01 X5.90318 Y23.87314
G01 X5.90808 Y24.14741
G01 X5.86950 Y24.19336
G01 X4.95599 Y24.19699
G01 X4.93597 Y24.17698
G01 X4.93005 Y24.35856
G01 X5.90854 Y24.34371
G01 X5.99370 Y24.29598
G01 X6.05063 Y24.21348
G01 X6.07082 Y23.85313
G01 X5.88316 Y23.85313
G01 X5.88898 Y24.13700
G01 X5.85680 Y24.17622
G01 X4.93597 Y24.17698
G01 X4.91598 Y24.15699
G01 X5.85289 Y24.15661
G01 X5.86899 Y24.13700
G01 X5.86899 Y23.83898
G01 X6.08497 Y23.83898
G01 X6.08497 Y24.13515
G01 X6.06909 Y24.22115
G01 X6.00717 Y24.31076
G01 X5.91367 Y24.36303
G01 X4.91598 Y24.37276
G01 X4.91598 Y24.15699
G04 P0 ( dwell for no time -- G64 should not smooth over this point )
G00 Z1.00000 ( retract )

G00 X4.95599 Y22.41597 ( rapid move to begin. )
G01 F100.00000
( Mill infeed pass 1/1 )
G01 Z-0.02500
G04 P0 ( dwell for no time -- G64 should not smooth over this point )
G01 F200.00000
G01 X4.95599 Y22.41597
G01 X4.95014 Y22.55880
G01 X5.86950 Y22.55661
G01 X5.90808 Y22.60256
G01 X5.90318 Y22.87581
G01 X6.05032 Y22.87592
G01 X6.04153 Y22.57805
G01 X6.00432 Y22.49486
G01 X5.93566 Y22.43761
G01 X5.84199 Y22.41597
G01 X4.95599 Y22.41597
G01 X4.93597 Y22.39596
G01 X5.84433 Y22.39596
G01 X5.94486 Y22.41922
G01 X6.02068 Y22.48247
G01 X6.06150 Y22.57366
G01 X6.07054 Y22.89591
G01 X5.88314 Y22.89583
G01 X5.88898 Y22.61300
G01 X5.85680 Y22.57376
G01 X4.93016 Y22.57881
G01 X4.93597 Y22.39596
G01 X4.91598 Y22.37597
G01 X5.84666 Y22.37597
G01 X5.95380 Y22.40134
G01 X6.03663 Y22.47038
G01 X6.08103 Y22.56936
G01 X6.08474 Y22.90998
G01 X5.86899 Y22.90998
G01 X5.86899 Y22.61300
G01 X5.85289 Y22.59337
G01 X4.91598 Y22.59298
G01 X4.91598 Y22.37597
G04 P0 ( dwell for no time -- G64 should not smooth over this point )
G00 Z1.00000 ( retract )

G00 X1.51297 Y24.49199 ( rapid move to begin. )
G01 F100.00000
( Mill infeed pass 1/1 )
G01 Z-0.02500
G04 P0 ( dwell for no time -- G64 should not smooth over this point )
G01 F200.00000
G01 X1.51297 Y24.49199
G01 X1.51297 Y47.90800
G01 X1.53316 Y47.97523
G01 X1.58490 Y48.01968
G01 X46.25997 Y48.02997
G01 X46.35159 Y47.98862
G01 X46.38199 Y47.90800
G01 X46.38199 Y46.12799
G01 X78.52508 Y46.12669
G01 X78.59811 Y46.09710
G01 X78.63499 Y46.03497
G01 X78.63999 Y28.43199
G01 X78.61004 Y28.35183
G01 X78.53527 Y28.31126
G01 X47.34612 Y28.31136
G01 X47.29436 Y28.33270
G01 X45.76035 Y29.42871
G01 X45.70998 Y29.51197
G01 X45.70897 Y39.77997
G01 X45.73884 Y39.86006
G01 X45.81262 Y39.90070
G01 X46.42296 Y39.90194
G01 X46.42296 Y42.15292
G01 X45.17475 Y42.14900
G01 X45.09413 Y42.11784
G01 X45.01710 Y42.04080
G01 X44.98583 Y41.95988
G01 X44.97729 Y41.75177
G01 X44.91186 Y41.67507
G01 X44.57486 Y41.65322
G01 X44.51534 Y41.62617
G01 X44.42202 Y41.53730
G01 X44.37105 Y41.51540
G01 X43.78964 Y41.51296
G01 X43.69553 Y41.49760
G01 X43.57806 Y41.44852
G01 X43.47618 Y41.37087
G01 X41.49810 Y39.39183
G01 X41.41200 Y39.35597
G01 X35.26299 Y39.35597
G01 X35.19883 Y39.37418
G01 X35.15278 Y39.42577
G01 X35.14097 Y41.14786
G01 X35.16182 Y41.21601
G01 X35.22552 Y41.26409
G01 X35.52570 Y41.26999
G01 X35.58956 Y41.25152
G01 X35.64229 Y41.18213
G01 X35.65069 Y41.06389
G01 X35.69532 Y40.96437
G01 X35.77815 Y40.89539
G01 X35.88623 Y40.87001
G01 X37.34823 Y40.87994
G01 X37.42567 Y40.91820
G01 X37.48366 Y40.98266
G01 X37.51526 Y41.06348
G01 X37.52465 Y41.18218
G01 X37.57261 Y41.24885
G01 X37.78653 Y41.27956
G01 X37.90802 Y41.32007
G01 X38.01330 Y41.39152
G01 X38.16103 Y41.53470
G01 X38.21599 Y41.55599
G01 X38.29557 Y41.55546
G01 X38.35920 Y41.52305
G01 X38.51998 Y41.29640
G01 X38.73750 Y41.10349
G01 X38.95069 Y40.98952
G01 X39.13600 Y40.93267
G01 X39.37677 Y40.90710
G01 X39.66288 Y40.94349
G01 X39.93133 Y41.05167
G01 X40.12805 Y41.19033
G01 X40.22975 Y41.29203
G01 X40.34390 Y41.44751
G01 X40.43146 Y41.61969
G01 X40.47659 Y41.75701
G01 X40.50405 Y41.89930
G01 X40.51192 Y42.09211
G01 X40.48734 Y42.28296
G01 X40.44825 Y42.42170
G01 X40.31797 Y42.68030
G01 X40.23008 Y42.79454
G01 X40.09038 Y42.92734
G01 X39.93095 Y43.03559
G01 X39.80049 Y43.09840
G01 X39.66313 Y43.14352
G01 X39.47329 Y43.17598
G01 X39.27946 Y43.17598
G01 X39.13644 Y43.15444
G01 X38.95028 Y43.09729
G01 X38.82038 Y43.03480
G01 X38.58698 Y42.86145
G01 X38.32902 Y42.54212
G01 X37.88724 Y42.52109
G01 X37.61968 Y42.41100
G01 X37.53441 Y42.44527
G01 X37.42768 Y42.59391
G01 X37.30317 Y42.64298
G01 X35.86278 Y42.64298
G01 X35.77853 Y42.61890
G01 X35.69537 Y42.54959
G01 X35.65069 Y42.44908
G01 X35.64229 Y42.33084
G01 X35.58956 Y42.26140
G01 X35.52598 Y42.24298
G01 X35.26098 Y42.24298
G01 X35.16578 Y42.28799
G01 X35.12552 Y42.41883
G01 X35.07983 Y42.49437
G01 X35.00947 Y42.54809
G01 X34.94767 Y42.56897
G01 X33.43622 Y42.57298
G01 X33.31151 Y42.53823
G01 X33.23447 Y42.46117
G01 X33.19997 Y42.35772
G01 X33.19797 Y39.47796
G01 X33.16810 Y39.39788
G01 X33.09431 Y39.35726
G01 X29.72500 Y39.35597
G01 X29.63572 Y39.41431
G01 X29.59571 Y39.55198
G01 X29.54319 Y39.62203
G01 X29.46859 Y39.66900
G01 X29.38119 Y39.68497
G01 X27.86831 Y39.68096
G01 X27.80750 Y39.66011
G01 X27.73709 Y39.60636
G01 X27.69158 Y39.53113
G01 X27.66011 Y39.41419
G01 X27.61086 Y39.36819
G01 X27.55526 Y39.35500
G01 X27.27111 Y39.36814
G01 X27.21987 Y39.41744
G01 X27.19033 Y39.53113
G01 X27.14505 Y39.60601
G01 X27.05508 Y39.66907
G01 X26.96720 Y39.68497
G01 X25.45529 Y39.68096
G01 X25.39349 Y39.66008
G01 X25.32313 Y39.60636
G01 X25.27761 Y39.53113
G01 X25.24637 Y39.41452
G01 X25.15694 Y39.35597
G01 X24.67794 Y39.35698
G01 X24.54713 Y39.38096
G01 X23.52461 Y39.38124
G01 X23.44975 Y39.42300
G01 X23.42128 Y39.49851
G01 X23.42097 Y40.11398
G01 X23.43284 Y40.16730
G01 X23.47782 Y40.21777
G01 X23.54195 Y40.23598
G01 X24.56971 Y40.23697
G01 X24.67324 Y40.27146
G01 X24.74858 Y40.34591
G01 X24.78498 Y40.45134
G01 X24.78597 Y41.02216
G01 X24.76999 Y41.10859
G01 X24.72420 Y41.18187
G01 X24.63413 Y41.24405
G01 X24.54716 Y41.25998
G01 X23.55107 Y41.25998
G01 X23.43657 Y41.23598
G01 X23.06558 Y41.22508
G01 X22.94488 Y41.18388
G01 X22.83876 Y41.11347
G01 X22.54574 Y40.81548
G01 X22.46151 Y40.64611
G01 X22.44498 Y40.51870
G01 X22.44498 Y39.12427
G01 X22.46151 Y38.99585
G01 X22.49484 Y38.90723
G01 X22.56647 Y38.80179
G01 X22.86474 Y38.50349
G01 X22.97066 Y38.43225
G01 X23.12308 Y38.38592
G01 X23.41625 Y38.38198
G01 X23.55092 Y38.35597
G01 X24.54706 Y38.35597
G01 X24.68302 Y38.38198
G01 X25.16098 Y38.38058
G01 X25.24622 Y38.32265
G01 X25.28622 Y38.18594
G01 X25.33875 Y38.11498
G01 X25.41338 Y38.06890
G01 X25.50090 Y38.05198
G01 X26.99016 Y38.05297
G01 X27.07484 Y38.07718
G01 X27.14477 Y38.13052
G01 X27.19033 Y38.20677
G01 X27.21990 Y38.31955
G01 X27.27116 Y38.36880
G01 X27.57400 Y38.38076
G01 X27.65056 Y38.33651
G01 X27.70014 Y38.18571
G01 X27.78693 Y38.08871
G01 X27.89252 Y38.05287
G01 X28.07301 Y38.04731
G01 X28.15012 Y37.98135
G01 X28.15942 Y35.67127
G01 X28.12513 Y35.60584
G01 X27.61815 Y35.09784
G01 X27.56999 Y35.06825
G01 X27.27123 Y35.07510
G01 X27.21987 Y35.12443
G01 X27.19033 Y35.23815
G01 X27.14507 Y35.31297
G01 X27.05404 Y35.37614
G01 X26.96707 Y35.39298
G01 X25.45435 Y35.38801
G01 X25.39354 Y35.36710
G01 X25.32313 Y35.31338
G01 X25.27761 Y35.23815
G01 X25.24612 Y35.12118
G01 X25.19684 Y35.07521
G01 X25.14198 Y35.06197
G01 X24.68198 Y35.06197
G01 X24.54701 Y35.08798
G01 X23.50914 Y35.09235
G01 X23.44808 Y35.13228
G01 X23.42097 Y35.20899
G01 X23.42097 Y35.82199
G01 X23.45976 Y35.91069
G01 X23.54195 Y35.94297
G01 X24.57015 Y35.94399
G01 X24.65343 Y35.96804
G01 X24.73799 Y36.03771
G01 X24.77662 Y36.11500
G01 X24.78597 Y36.18135
G01 X24.78498 Y36.75120
G01 X24.73723 Y36.87386
G01 X24.65384 Y36.94256
G01 X24.54665 Y36.96796
G01 X23.55092 Y36.96796
G01 X23.41625 Y36.94198
G01 X23.12280 Y36.93802
G01 X23.00073 Y36.90436
G01 X22.89034 Y36.84101
G01 X22.52753 Y36.47127
G01 X22.47206 Y36.35750
G01 X22.44699 Y36.23301
G01 X22.44998 Y34.74036
G01 X22.47190 Y34.64876
G01 X22.52758 Y34.53457
G01 X22.83987 Y34.21044
G01 X22.94589 Y34.14005
G01 X23.06560 Y34.09888
G01 X23.43558 Y34.08798
G01 X23.52750 Y34.06497
G01 X24.54713 Y34.06398
G01 X24.68201 Y34.08897
G01 X25.16062 Y34.08765
G01 X25.21012 Y34.06860
G01 X25.24739 Y34.02883
G01 X25.28622 Y33.89299
G01 X25.33875 Y33.82293
G01 X25.41345 Y33.77589
G01 X25.50090 Y33.75898
G01 X26.96707 Y33.75898
G01 X27.05503 Y33.77602
G01 X27.15869 Y33.85494
G01 X27.19021 Y33.91333
G01 X27.22010 Y34.02799
G01 X27.28729 Y34.08298
G01 X27.81489 Y34.08994
G01 X27.94045 Y34.11506
G01 X28.05320 Y34.17145
G01 X28.99071 Y35.09403
G01 X29.08360 Y35.22364
G01 X29.13298 Y35.40863
G01 X29.13826 Y37.96235
G01 X29.16551 Y38.01178
G01 X29.21924 Y38.04642
G01 X29.42533 Y38.05681
G01 X29.52652 Y38.10134
G01 X29.59584 Y38.18640
G01 X29.63427 Y38.32028
G01 X29.70554 Y38.37647
G01 X41.72706 Y38.38797
G01 X41.87936 Y38.43326
G01 X41.98520 Y38.50448
G01 X44.00356 Y40.51906
G01 X44.07303 Y40.54098
G01 X44.37105 Y40.53956
G01 X44.42207 Y40.51759
G01 X44.51539 Y40.42775
G01 X44.57483 Y40.40072
G01 X44.91184 Y40.37989
G01 X44.97732 Y40.30301
G01 X44.98291 Y40.11670
G01 X44.99942 Y40.05068
G01 X45.09606 Y39.91985
G01 X45.10897 Y39.86498
G01 X45.11298 Y29.29988
G01 X45.14613 Y29.21789
G01 X45.20734 Y29.15198
G01 X47.10901 Y27.75739
G01 X47.20815 Y27.71398
G01 X80.42099 Y27.70994
G01 X80.50163 Y27.67959
G01 X80.54298 Y27.58800
G01 X80.54298 Y25.76598
G01 X80.53099 Y25.71249
G01 X80.48822 Y25.66417
G01 X80.42099 Y25.64398
G01 X78.85371 Y25.64297
G01 X78.76950 Y25.61957
G01 X78.71553 Y25.58300
G01 X78.62277 Y25.42971
G01 X78.54705 Y25.38808
G01 X78.36603 Y25.40497
G01 X77.43397 Y25.40497
G01 X77.43397 Y25.17299
G01 X78.36699 Y25.17299
G01 X78.38546 Y25.16065
G01 X78.38363 Y23.61787
G01 X77.43397 Y23.60898
G01 X77.43397 Y23.37597
G01 X78.26399 Y23.37597
G01 X78.34357 Y23.34564
G01 X78.38551 Y23.25831
G01 X78.38599 Y22.98699
G01 X78.36470 Y22.91965
G01 X78.31307 Y22.87525
G01 X74.30492 Y22.86497
G01 X74.16299 Y22.83797
G01 X69.45657 Y22.83797
G01 X69.22812 Y22.82407
G01 X68.92716 Y22.77739
G01 X68.63226 Y22.69697
G01 X68.34827 Y22.58575
G01 X68.07819 Y22.44475
G01 X67.82503 Y22.27498
G01 X67.59168 Y22.07838
G01 X67.38119 Y21.85796
G01 X67.19566 Y21.61590
G01 X66.96910 Y21.21839
G01 X66.83214 Y20.86307
G01 X66.74474 Y20.49174
G01 X66.70897 Y20.11201
G01 X66.70697 Y7.34097
G01 X66.64271 Y7.05271
G01 X66.51073 Y6.79972
G01 X66.41850 Y6.68540
G01 X66.27192 Y6.55261
G01 X66.02391 Y6.41062
G01 X65.83786 Y6.35286
G01 X65.64296 Y6.32797
G01 X60.93497 Y6.33096
G01 X60.65361 Y6.39345
G01 X60.39674 Y6.52624
G01 X60.21059 Y6.68850
G01 X60.04534 Y6.92573
G01 X59.95819 Y7.15093
G01 X59.92197 Y7.38799
G01 X59.92197 Y20.09098
G01 X59.87625 Y20.54633
G01 X59.75608 Y20.98715
G01 X59.56644 Y21.40421
G01 X59.31227 Y21.78349
G01 X58.99949 Y22.11709
G01 X58.63602 Y22.39517
G01 X58.30267 Y22.57874
G01 X57.87358 Y22.73665
G01 X57.42451 Y22.82407
G01 X57.11946 Y22.83997
G01 X43.68799 Y22.83797
G01 X43.60788 Y22.86784
G01 X43.56726 Y22.94160
G01 X43.56597 Y23.37307
G01 X43.54816 Y23.46591
G01 X43.47575 Y23.56707
G01 X43.35652 Y23.62298
G01 X38.49057 Y23.62697
G01 X38.36130 Y23.59301
G01 X38.26892 Y23.50065
G01 X38.23497 Y23.37238
G01 X38.23497 Y20.32911
G01 X38.25859 Y20.21963
G01 X38.32511 Y20.13366
G01 X38.42303 Y20.08240
G01 X38.57398 Y20.06231
G01 X38.62346 Y20.01831
G01 X38.64197 Y19.96695
G01 X38.63862 Y15.78718
G01 X38.59879 Y15.72615
G01 X38.52102 Y15.69798
G01 X36.31147 Y15.69396
G01 X36.22915 Y15.66437
G01 X36.16250 Y15.60793
G01 X36.11805 Y15.53201
G01 X36.10297 Y15.44426
G01 X36.10297 Y12.25511
G01 X36.12646 Y12.14708
G01 X36.21081 Y12.04696
G01 X36.33548 Y12.00197
G01 X38.51000 Y12.00098
G01 X38.59051 Y11.97170
G01 X38.63197 Y11.87962
G01 X38.59742 Y11.73527
G01 X38.52717 Y11.58066
G01 X38.42613 Y11.44216
G01 X38.33209 Y11.35036
G01 X38.19013 Y11.25572
G01 X38.07291 Y11.20357
G01 X37.91190 Y11.16258
G01 X7.89296 Y11.15397
G01 X7.75105 Y11.18097
G01 X3.77697 Y11.18198
G01 X3.70448 Y11.21836
G01 X3.67098 Y11.28798
G01 X3.67098 Y11.58498
G01 X3.71184 Y11.66207
G01 X3.79099 Y11.69197
G01 X4.62096 Y11.69197
G01 X4.62096 Y11.92498
G01 X3.67235 Y11.93387
G01 X3.67052 Y13.47665
G01 X3.68898 Y13.48899
G01 X4.62096 Y13.48899
G01 X4.62096 Y13.72097
G01 X3.68992 Y13.72097
G01 X3.50897 Y13.70408
G01 X3.43323 Y13.74464
G01 X3.38218 Y13.84784
G01 X3.34047 Y13.89585
G01 X3.22424 Y13.95399
G01 X1.63494 Y13.95798
G01 X1.56773 Y13.97817
G01 X1.52198 Y14.03694
G01 X1.51426 Y22.27424
G01 X1.55483 Y22.34904
G01 X1.63504 Y22.37899
G01 X2.71698 Y22.37602
G01 X2.71698 Y22.59298
G01 X1.78500 Y22.59298
G01 X1.76498 Y22.61300
G01 X1.76836 Y24.14810
G01 X2.71698 Y24.15699
G01 X2.71698 Y24.37294
G01 X1.61665 Y24.37225
G01 X1.54540 Y24.41038
G01 X1.51297 Y24.49199
G01 X1.49298 Y24.49199
G01 X1.49298 Y47.90800
G01 X1.51055 Y47.97416
G01 X1.59196 Y48.04097
G01 X46.25997 Y48.04996
G01 X46.36622 Y48.00226
G01 X46.40198 Y47.90800
G01 X46.39614 Y46.14214
G01 X78.53217 Y46.14539
G01 X78.61225 Y46.11125
G01 X78.65498 Y46.03497
G01 X78.65998 Y28.43199
G01 X78.62513 Y28.33869
G01 X78.53854 Y28.29153
G01 X47.34226 Y28.29173
G01 X47.28272 Y28.31642
G01 X45.74872 Y29.41243
G01 X45.68999 Y29.51197
G01 X45.68898 Y39.77997
G01 X45.72370 Y39.87314
G01 X45.80927 Y39.92041
G01 X46.40881 Y39.91606
G01 X46.40884 Y42.13874
G01 X45.17844 Y42.12934
G01 X45.10503 Y42.10107
G01 X45.03386 Y42.02990
G01 X45.00544 Y41.95584
G01 X44.99660 Y41.74659
G01 X44.92075 Y41.65716
G01 X44.57968 Y41.63379
G01 X44.52657 Y41.60961
G01 X44.43307 Y41.52063
G01 X44.37514 Y41.49582
G01 X43.79129 Y41.49305
G01 X43.70102 Y41.47837
G01 X43.58807 Y41.43120
G01 X43.48934 Y41.35584
G01 X41.51225 Y39.37769
G01 X41.41200 Y39.33598
G01 X35.26299 Y39.33598
G01 X35.18968 Y39.35640
G01 X35.13558 Y39.41556
G01 X35.12098 Y41.14776
G01 X35.14666 Y41.22907
G01 X35.21709 Y41.28223
G01 X35.52542 Y41.28998
G01 X35.59916 Y41.26907
G01 X35.65892 Y41.19450
