( pcb2gcode 3.0.1 )
( Software-independent Gcode )

G94 ( Inches per minute feed rate. )
G20 ( Units == INCHES. )

G90 ( Absolute coordinates. )
G00 S12000 ( RPM spindle speed. )
G64 P0.00040 ( set maximum deviation from commanded toolpath )
G01 F360.00000 ( Feedrate. )


G00 Z1.00000 (Retract to tool change height)
T1
M5      (Spindle stop.)
G04 P1.00000 (Wait for spindle to stop)
(MSG, Change tool bit to mill diameter 0.00000in)
M6      (Tool change.)
M0      (Temporary machine stop.)
M3 ( Spindle on clockwise. )
G04 P1.00000 (Wait for spindle to get up to speed)
( Piece #1, position [0;0] )

G04 P0 ( dwell for no time -- G64 should not smooth over this point )
G00 Z0.08000 ( retract )

G00 X0.46503 Y0.44860 ( rapid move to begin. )
G01 F180.00000
( Mill infeed pass 1/1 )
G01 Z-0.04000
G04 P0 ( dwell for no time -- G64 should not smooth over this point )
G01 F360.00000
G01 X0.46503 Y0.44860
G01 X0.46505 Y0.45180
G01 X0.46542 Y0.45539
G01 X0.46615 Y0.45891
G01 X0.46725 Y0.46235
G01 X0.46852 Y0.46529
G01 X0.47004 Y0.46810
G01 X0.47207 Y0.47109
G01 X0.47438 Y0.47385
G01 X0.47667 Y0.47609
G01 X0.47948 Y0.47835
G01 X0.48215 Y0.48011
G01 X0.48534 Y0.48178
G01 X0.48831 Y0.48299
G01 X0.49138 Y0.48392
G01 X0.49491 Y0.48463
G01 X0.49810 Y0.48495
G01 X0.50170 Y0.48496
G01 X0.50529 Y0.48460
G01 X0.50843 Y0.48397
G01 X0.51188 Y0.48292
G01 X0.51484 Y0.48170
G01 X0.51802 Y0.48001
G01 X0.52068 Y0.47823
G01 X0.52318 Y0.47622
G01 X0.52575 Y0.47370
G01 X0.52805 Y0.47093
G01 X0.52985 Y0.46827
G01 X0.53140 Y0.46547
G01 X0.53282 Y0.46216
G01 X0.53390 Y0.45872
G01 X0.53455 Y0.45558
G01 X0.53494 Y0.45200
G01 X0.53496 Y0.44840
G01 X0.53461 Y0.44481
G01 X0.53399 Y0.44167
G01 X0.53309 Y0.43860
G01 X0.53174 Y0.43525
G01 X0.53006 Y0.43207
G01 X0.52805 Y0.42907
G01 X0.52575 Y0.42630
G01 X0.52348 Y0.42404
G01 X0.52101 Y0.42201
G01 X0.51802 Y0.41999
G01 X0.51484 Y0.41830
G01 X0.51188 Y0.41708
G01 X0.50843 Y0.41603
G01 X0.50529 Y0.41540
G01 X0.50170 Y0.41504
G01 X0.49810 Y0.41505
G01 X0.49491 Y0.41537
G01 X0.49138 Y0.41608
G01 X0.48794 Y0.41714
G01 X0.48462 Y0.41856
G01 X0.48181 Y0.42010
G01 X0.47883 Y0.42213
G01 X0.47608 Y0.42445
G01 X0.47384 Y0.42674
G01 X0.47183 Y0.42923
G01 X0.46984 Y0.43224
G01 X0.46817 Y0.43544
G01 X0.46697 Y0.43841
G01 X0.46605 Y0.44147
G01 X0.46536 Y0.44501
G01 X0.46503 Y0.44860
G04 P0 ( dwell for no time -- G64 should not smooth over this point )
G00 Z0.08000 ( retract )

G00 X0.56503 Y0.44860 ( rapid move to begin. )
G01 F180.00000
( Mill infeed pass 1/1 )
G01 Z-0.04000
G04 P0 ( dwell for no time -- G64 should not smooth over this point )
G01 F360.00000
G01 X0.56503 Y0.44860
G01 X0.56505 Y0.45180
G01 X0.56542 Y0.45539
G01 X0.56615 Y0.45891
G01 X0.56725 Y0.46235
G01 X0.56851 Y0.46529
G01 X0.57005 Y0.46810
G01 X0.57207 Y0.47109
G01 X0.57438 Y0.47385
G01 X0.57667 Y0.47609
G01 X0.57948 Y0.47835
G01 X0.58215 Y0.48011
G01 X0.58534 Y0.48178
G01 X0.58831 Y0.48299
G01 X0.59138 Y0.48392
G01 X0.59491 Y0.48463
G01 X0.59810 Y0.48495
G01 X0.60170 Y0.48496
G01 X0.60529 Y0.48460
G01 X0.60843 Y0.48397
G01 X0.61188 Y0.48292
G01 X0.61484 Y0.48170
G01 X0.61802 Y0.48001
G01 X0.62069 Y0.47823
G01 X0.62318 Y0.47622
G01 X0.62575 Y0.47370
G01 X0.62805 Y0.47093
G01 X0.62985 Y0.46827
G01 X0.63140 Y0.46547
G01 X0.63282 Y0.46216
G01 X0.63390 Y0.45872
G01 X0.63455 Y0.45558
G01 X0.63494 Y0.45200
G01 X0.63496 Y0.44840
G01 X0.63461 Y0.44481
G01 X0.63399 Y0.44167
G01 X0.63309 Y0.43860
G01 X0.63174 Y0.43525
G01 X0.63006 Y0.43207
G01 X0.62805 Y0.42907
G01 X0.62575 Y0.42630
G01 X0.62348 Y0.42404
G01 X0.62101 Y0.42201
G01 X0.61802 Y0.41999
G01 X0.61484 Y0.41830
G01 X0.61188 Y0.41708
G01 X0.60843 Y0.41603
G01 X0.60529 Y0.41540
G01 X0.60170 Y0.41504
G01 X0.59810 Y0.41505
G01 X0.59491 Y0.41537
G01 X0.59138 Y0.41608
G01 X0.58793 Y0.41714
G01 X0.58462 Y0.41856
G01 X0.58181 Y0.42010
G01 X0.57883 Y0.42213
G01 X0.57608 Y0.42445
G01 X0.57384 Y0.42674
G01 X0.57183 Y0.42923
G01 X0.56984 Y0.43224
G01 X0.56817 Y0.43544
G01 X0.56698 Y0.43841
G01 X0.56605 Y0.44147
G01 X0.56536 Y0.44501
G01 X0.56503 Y0.44860
G04 P0 ( dwell for no time -- G64 should not smooth over this point )
G00 Z0.08000 ( retract )

G00 X0.66503 Y0.44860 ( rapid move to begin. )
G01 F180.00000
( Mill infeed pass 1/1 )
G01 Z-0.04000
G04 P0 ( dwell for no time -- G64 should not smooth over this point )
G01 F360.00000
G01 X0.66503 Y0.44860
G01 X0.66536 Y0.44501
G01 X0.66605 Y0.44147
G01 X0.66697 Y0.43841
G01 X0.66817 Y0.43544
G01 X0.66984 Y0.43224
G01 X0.67183 Y0.42923
G01 X0.67384 Y0.42674
G01 X0.67608 Y0.42445
G01 X0.67883 Y0.42213
G01 X0.68181 Y0.42010
G01 X0.68462 Y0.41856
G01 X0.68793 Y0.41714
G01 X0.69138 Y0.41608
G01 X0.69491 Y0.41537
G01 X0.69810 Y0.41505
G01 X0.70170 Y0.41504
G01 X0.70529 Y0.41540
G01 X0.70843 Y0.41603
G01 X0.71188 Y0.41708
G01 X0.71484 Y0.41830
G01 X0.71802 Y0.41999
G01 X0.72101 Y0.42201
G01 X0.72348 Y0.42404
G01 X0.72575 Y0.42630
G01 X0.72805 Y0.42907
G01 X0.73006 Y0.43207
G01 X0.73174 Y0.43525
G01 X0.73309 Y0.43860
G01 X0.73399 Y0.44167
G01 X0.73461 Y0.44481
G01 X0.73496 Y0.44840
G01 X0.73494 Y0.45200
G01 X0.73455 Y0.45558
G01 X0.73390 Y0.45872
G01 X0.73282 Y0.46216
G01 X0.73140 Y0.46547
G01 X0.72985 Y0.46827
G01 X0.72805 Y0.47093
G01 X0.72575 Y0.47370
G01 X0.72318 Y0.47622
G01 X0.72069 Y0.47823
G01 X0.71802 Y0.48001
G01 X0.71484 Y0.48170
G01 X0.71188 Y0.48292
G01 X0.70843 Y0.48397
G01 X0.70529 Y0.48460
G01 X0.70170 Y0.48496
G01 X0.69810 Y0.48495
G01 X0.69491 Y0.48463
G01 X0.69138 Y0.48392
G01 X0.68831 Y0.48299
G01 X0.68534 Y0.48178
G01 X0.68215 Y0.48011
G01 X0.67948 Y0.47835
G01 X0.67667 Y0.47609
G01 X0.67438 Y0.47385
G01 X0.67207 Y0.47109
G01 X0.67005 Y0.46810
G01 X0.66851 Y0.46529
G01 X0.66725 Y0.46235
G01 X0.66615 Y0.45891
G01 X0.66542 Y0.45539
G01 X0.66505 Y0.45180
G01 X0.66503 Y0.44860
G04 P0 ( dwell for no time -- G64 should not smooth over this point )
G00 Z0.08000 ( retract )

G00 X0.63031 Y0.51496 ( rapid move to begin. )
G01 F180.00000
( Mill infeed pass 1/1 )
G01 Z-0.04000
G04 P0 ( dwell for no time -- G64 should not smooth over this point )
G01 F360.00000
G01 X0.63031 Y0.51496
G01 X0.66968 Y0.51496
G01 X0.66968 Y0.63307
G01 X0.63031 Y0.63307
G01 X0.63031 Y0.51496
G04 P0 ( dwell for no time -- G64 should not smooth over this point )
G00 Z0.08000 ( retract )

G00 X0.41503 Y0.59860 ( rapid move to begin. )
G01 F180.00000
( Mill infeed pass 1/1 )
G01 Z-0.04000
G04 P0 ( dwell for no time -- G64 should not smooth over this point )
G01 F360.00000
G01 X0.41503 Y0.59860
G01 X0.41536 Y0.59501
G01 X0.41605 Y0.59147
G01 X0.41697 Y0.58841
G01 X0.41817 Y0.58544
G01 X0.41984 Y0.58224
G01 X0.42183 Y0.57923
G01 X0.42384 Y0.57674
G01 X0.42608 Y0.57445
G01 X0.42883 Y0.57213
G01 X0.43181 Y0.57010
G01 X0.43462 Y0.56856
G01 X0.43794 Y0.56715
G01 X0.44138 Y0.56608
G01 X0.44491 Y0.56537
G01 X0.44810 Y0.56505
G01 X0.45170 Y0.56504
G01 X0.45529 Y0.56540
G01 X0.45843 Y0.56603
G01 X0.46188 Y0.56708
G01 X0.46484 Y0.56830
G01 X0.46802 Y0.56999
G01 X0.47101 Y0.57200
G01 X0.47348 Y0.57404
G01 X0.47575 Y0.57630
G01 X0.47805 Y0.57907
G01 X0.48006 Y0.58207
G01 X0.48174 Y0.58525
G01 X0.48309 Y0.58859
G01 X0.48399 Y0.59167
G01 X0.48461 Y0.59481
G01 X0.48496 Y0.59840
G01 X0.48494 Y0.60200
G01 X0.48455 Y0.60558
G01 X0.48390 Y0.60872
G01 X0.48282 Y0.61216
G01 X0.48140 Y0.61547
G01 X0.47985 Y0.61827
G01 X0.47805 Y0.62093
G01 X0.47575 Y0.62370
G01 X0.47318 Y0.62622
G01 X0.47069 Y0.62823
G01 X0.46802 Y0.63001
G01 X0.46484 Y0.63170
G01 X0.46188 Y0.63292
G01 X0.45843 Y0.63397
G01 X0.45529 Y0.63460
G01 X0.45170 Y0.63496
G01 X0.44810 Y0.63495
G01 X0.44491 Y0.63463
G01 X0.44138 Y0.63392
G01 X0.43831 Y0.63299
G01 X0.43534 Y0.63178
G01 X0.43215 Y0.63011
G01 X0.42948 Y0.62835
G01 X0.42667 Y0.62609
G01 X0.42438 Y0.62385
G01 X0.42207 Y0.62109
G01 X0.42005 Y0.61810
G01 X0.41852 Y0.61529
G01 X0.41725 Y0.61235
G01 X0.41615 Y0.60891
G01 X0.41542 Y0.60539
G01 X0.41505 Y0.60180
G01 X0.41503 Y0.59860
G04 P0 ( dwell for no time -- G64 should not smooth over this point )
G00 Z0.08000 ( retract )

G00 X0.41503 Y0.69860 ( rapid move to begin. )
G01 F180.00000
( Mill infeed pass 1/1 )
G01 Z-0.04000
G04 P0 ( dwell for no time -- G64 should not smooth over this point )
G01 F360.00000
G01 X0.41503 Y0.69860
G01 X0.41536 Y0.69501
G01 X0.41605 Y0.69147
G01 X0.41697 Y0.68841
G01 X0.41817 Y0.68544
G01 X0.41984 Y0.68224
G01 X0.42183 Y0.67923
G01 X0.42384 Y0.67674
G01 X0.42608 Y0.67445
G01 X0.42883 Y0.67213
G01 X0.43181 Y0.67010
G01 X0.43462 Y0.66856
G01 X0.43794 Y0.66714
G01 X0.44138 Y0.66608
G01 X0.44491 Y0.66537
G01 X0.44810 Y0.66505
G01 X0.45170 Y0.66504
G01 X0.45529 Y0.66540
G01 X0.45843 Y0.66603
G01 X0.46188 Y0.66708
G01 X0.46484 Y0.66830
G01 X0.46802 Y0.66999
G01 X0.47101 Y0.67200
G01 X0.47348 Y0.67404
G01 X0.47575 Y0.67630
G01 X0.47805 Y0.67907
G01 X0.48006 Y0.68207
G01 X0.48174 Y0.68525
G01 X0.48309 Y0.68859
G01 X0.48399 Y0.69167
G01 X0.48461 Y0.69481
G01 X0.48496 Y0.69840
G01 X0.48494 Y0.70200
G01 X0.48455 Y0.70558
G01 X0.48390 Y0.70872
G01 X0.48282 Y0.71216
G01 X0.48140 Y0.71547
G01 X0.47985 Y0.71827
G01 X0.47805 Y0.72093
G01 X0.47575 Y0.72370
G01 X0.47318 Y0.72622
G01 X0.47069 Y0.72823
G01 X0.46802 Y0.73001
G01 X0.46484 Y0.73170
G01 X0.46188 Y0.73292
G01 X0.45843 Y0.73397
G01 X0.45529 Y0.73460
G01 X0.45170 Y0.73496
G01 X0.44810 Y0.73495
G01 X0.44491 Y0.73463
G01 X0.44138 Y0.73392
G01 X0.43831 Y0.73299
G01 X0.43534 Y0.73178
G01 X0.43215 Y0.73011
G01 X0.42948 Y0.72835
G01 X0.42667 Y0.72609
G01 X0.42438 Y0.72385
G01 X0.42207 Y0.72109
G01 X0.42005 Y0.71810
G01 X0.41852 Y0.71529
G01 X0.41725 Y0.71235
G01 X0.41615 Y0.70891
G01 X0.41542 Y0.70539
G01 X0.41505 Y0.70180
G01 X0.41503 Y0.69860
G04 P0 ( dwell for no time -- G64 should not smooth over this point )
G00 Z0.08000 ( retract )

G00 X0.41501 Y0.79940 ( rapid move to begin. )
G01 F180.00000
( Mill infeed pass 1/1 )
G01 Z-0.04000
G04 P0 ( dwell for no time -- G64 should not smooth over this point )
G01 F360.00000
G01 X0.41501 Y0.79940
G01 X0.41525 Y0.79580
G01 X0.41587 Y0.79225
G01 X0.41672 Y0.78917
G01 X0.41785 Y0.78617
G01 X0.41944 Y0.78294
G01 X0.42113 Y0.78021
G01 X0.42332 Y0.77735
G01 X0.42579 Y0.77472
G01 X0.42851 Y0.77237
G01 X0.43147 Y0.77031
G01 X0.43426 Y0.76874
G01 X0.43719 Y0.76743
G01 X0.44060 Y0.76628
G01 X0.44372 Y0.76557
G01 X0.44730 Y0.76510
G01 X0.45090 Y0.76501
G01 X0.45410 Y0.76524
G01 X0.45765 Y0.76584
G01 X0.46112 Y0.76681
G01 X0.46411 Y0.76797
G01 X0.46733 Y0.76959
G01 X0.47036 Y0.77153
G01 X0.47288 Y0.77351
G01 X0.47520 Y0.77572
G01 X0.47757 Y0.77844
G01 X0.47964 Y0.78138
G01 X0.48122 Y0.78417
G01 X0.48268 Y0.78747
G01 X0.48369 Y0.79051
G01 X0.48441 Y0.79363
G01 X0.48489 Y0.79720
G01 X0.48499 Y0.80080
G01 X0.48477 Y0.80400
G01 X0.48418 Y0.80755
G01 X0.48322 Y0.81102
G01 X0.48207 Y0.81402
G01 X0.48046 Y0.81724
G01 X0.47876 Y0.81995
G01 X0.47655 Y0.82280
G01 X0.47407 Y0.82541
G01 X0.47164 Y0.82751
G01 X0.46870 Y0.82959
G01 X0.46592 Y0.83117
G01 X0.46263 Y0.83264
G01 X0.45959 Y0.83366
G01 X0.45608 Y0.83447
G01 X0.45290 Y0.83488
G01 X0.44930 Y0.83499
G01 X0.44610 Y0.83478
G01 X0.44255 Y0.83420
G01 X0.43907 Y0.83325
G01 X0.43571 Y0.83195
G01 X0.43285 Y0.83051
G01 X0.43013 Y0.82881
G01 X0.42727 Y0.82662
G01 X0.42466 Y0.82414
G01 X0.42256 Y0.82172
G01 X0.42047 Y0.81878
G01 X0.41887 Y0.81600
G01 X0.41739 Y0.81272
G01 X0.41626 Y0.80930
G01 X0.41548 Y0.80578
G01 X0.41510 Y0.80260
G01 X0.41501 Y0.79940
G04 P0 ( dwell for no time -- G64 should not smooth over this point )
G00 Z0.08000 ( retract )

G00 X0.20457 Y0.95339 ( rapid move to begin. )
G01 F180.00000
( Mill infeed pass 1/1 )
G01 Z-0.04000
G04 P0 ( dwell for no time -- G64 should not smooth over this point )
G01 F360.00000
G01 X0.20457 Y0.95339
G01 X0.20457 Y1.01638
G01 X0.27543 Y1.01638
G01 X0.27543 Y0.95339
G01 X0.20457 Y0.95339
G04 P0 ( dwell for no time -- G64 should not smooth over this point )
G00 Z0.08000 ( retract )

G00 X0.06451 Y1.07100 ( rapid move to begin. )
G01 F180.00000
( Mill infeed pass 1/1 )
G01 Z-0.04000
G04 P0 ( dwell for no time -- G64 should not smooth over this point )
G01 F360.00000
G01 X0.06451 Y1.07100
G01 X0.13549 Y1.07100
G01 X0.13549 Y1.13400
G01 X0.06451 Y1.13400
G01 X0.06451 Y1.07100
G04 P0 ( dwell for no time -- G64 should not smooth over this point )
G00 Z0.08000 ( retract )

G00 X0.06451 Y0.94600 ( rapid move to begin. )
G01 F180.00000
( Mill infeed pass 1/1 )
G01 Z-0.04000
G04 P0 ( dwell for no time -- G64 should not smooth over this point )
G01 F360.00000
G01 X0.06451 Y0.94600
G01 X0.13549 Y0.94600
G01 X0.13549 Y1.00900
G01 X0.06451 Y1.00900
G01 X0.06451 Y0.94600
G04 P0 ( dwell for no time -- G64 should not smooth over this point )
G00 Z0.08000 ( retract )

G00 X0.20457 Y1.06362 ( rapid move to begin. )
G01 F180.00000
( Mill infeed pass 1/1 )
G01 Z-0.04000
G04 P0 ( dwell for no time -- G64 should not smooth over this point )
G01 F360.00000
G01 X0.20457 Y1.06362
G01 X0.27543 Y1.06362
G01 X0.27543 Y1.12661
G01 X0.20457 Y1.12661
G01 X0.20457 Y1.06362
G04 P0 ( dwell for no time -- G64 should not smooth over this point )
G00 Z0.08000 ( retract )

G00 X0.32350 Y0.96450 ( rapid move to begin. )
G01 F180.00000
( Mill infeed pass 1/1 )
G01 Z-0.04000
G04 P0 ( dwell for no time -- G64 should not smooth over this point )
G01 F360.00000
G01 X0.32350 Y0.96450
G01 X0.38450 Y0.96450
G01 X0.38450 Y0.98550
G01 X0.32350 Y0.98550
G01 X0.32350 Y0.96450
G04 P0 ( dwell for no time -- G64 should not smooth over this point )
G00 Z0.08000 ( retract )

G00 X0.32350 Y1.01450 ( rapid move to begin. )
G01 F180.00000
( Mill infeed pass 1/1 )
G01 Z-0.04000
G04 P0 ( dwell for no time -- G64 should not smooth over this point )
G01 F360.00000
G01 X0.32350 Y1.01450
G01 X0.38450 Y1.01450
G01 X0.38450 Y1.03550
G01 X0.32350 Y1.03550
G01 X0.32350 Y1.01450
G04 P0 ( dwell for no time -- G64 should not smooth over this point )
G00 Z0.08000 ( retract )

G00 X0.32350 Y1.06450 ( rapid move to begin. )
G01 F180.00000
( Mill infeed pass 1/1 )
G01 Z-0.04000
G04 P0 ( dwell for no time -- G64 should not smooth over this point )
G01 F360.00000
G01 X0.32350 Y1.06450
G01 X0.38450 Y1.06450
G01 X0.38450 Y1.08550
G01 X0.32350 Y1.08550
G01 X0.32350 Y1.06450
G04 P0 ( dwell for no time -- G64 should not smooth over this point )
G00 Z0.08000 ( retract )

G00 X0.32350 Y1.11450 ( rapid move to begin. )
G01 F180.00000
( Mill infeed pass 1/1 )
G01 Z-0.04000
G04 P0 ( dwell for no time -- G64 should not smooth over this point )
G01 F360.00000
G01 X0.32350 Y1.11450
G01 X0.38450 Y1.11450
G01 X0.38450 Y1.13550
G01 X0.32350 Y1.13550
G01 X0.32350 Y1.11450
G04 P0 ( dwell for no time -- G64 should not smooth over this point )
G00 Z0.08000 ( retract )

G00 X0.41339 Y1.16457 ( rapid move to begin. )
G01 F180.00000
( Mill infeed pass 1/1 )
G01 Z-0.04000
G04 P0 ( dwell for no time -- G64 should not smooth over this point )
G01 F360.00000
G01 X0.41339 Y1.16457
G01 X0.47638 Y1.16457
G01 X0.47638 Y1.23543
G01 X0.41339 Y1.23543
G01 X0.41339 Y1.16457
G04 P0 ( dwell for no time -- G64 should not smooth over this point )
G00 Z0.08000 ( retract )

G00 X0.52362 Y1.16457 ( rapid move to begin. )
G01 F180.00000
( Mill infeed pass 1/1 )
G01 Z-0.04000
G04 P0 ( dwell for no time -- G64 should not smooth over this point )
G01 F360.00000
G01 X0.52362 Y1.16457
G01 X0.58661 Y1.16457
G01 X0.58661 Y1.23543
G01 X0.52362 Y1.23543
G01 X0.52362 Y1.16457
G04 P0 ( dwell for no time -- G64 should not smooth over this point )
G00 Z0.08000 ( retract )

G00 X0.61550 Y1.11450 ( rapid move to begin. )
G01 F180.00000
( Mill infeed pass 1/1 )
G01 Z-0.04000
G04 P0 ( dwell for no time -- G64 should not smooth over this point )
G01 F360.00000
G01 X0.61550 Y1.11450
G01 X0.67650 Y1.11450
G01 X0.67650 Y1.13550
G01 X0.61550 Y1.13550
G01 X0.61550 Y1.11450
G04 P0 ( dwell for no time -- G64 should not smooth over this point )
G00 Z0.08000 ( retract )

G00 X0.61550 Y1.06450 ( rapid move to begin. )
G01 F180.00000
( Mill infeed pass 1/1 )
G01 Z-0.04000
G04 P0 ( dwell for no time -- G64 should not smooth over this point )
G01 F360.00000
G01 X0.61550 Y1.06450
G01 X0.67650 Y1.06450
G01 X0.67650 Y1.08550
G01 X0.61550 Y1.08550
G01 X0.61550 Y1.06450
G04 P0 ( dwell for no time -- G64 should not smooth over this point )
G00 Z0.08000 ( retract )

G00 X0.61550 Y1.01450 ( rapid move to begin. )
G01 F180.00000
( Mill infeed pass 1/1 )
G01 Z-0.04000
G04 P0 ( dwell for no time -- G64 should not smooth over this point )
G01 F360.00000
G01 X0.61550 Y1.01450
G01 X0.67650 Y1.01450
G01 X0.67650 Y1.03550
G01 X0.61550 Y1.03550
G01 X0.61550 Y1.01450
G04 P0 ( dwell for no time -- G64 should not smooth over this point )
G00 Z0.08000 ( retract )

G00 X0.61550 Y0.96450 ( rapid move to begin. )
G01 F180.00000
( Mill infeed pass 1/1 )
G01 Z-0.04000
G04 P0 ( dwell for no time -- G64 should not smooth over this point )
G01 F360.00000
G01 X0.61550 Y0.96450
G01 X0.67650 Y0.96450
G01 X0.67650 Y0.98550
G01 X0.61550 Y0.98550
G01 X0.61550 Y0.96450
G04 P0 ( dwell for no time -- G64 should not smooth over this point )
G00 Z0.08000 ( retract )

G00 X0.63031 Y0.76299 ( rapid move to begin. )
G01 F180.00000
( Mill infeed pass 1/1 )
G01 Z-0.04000
G04 P0 ( dwell for no time -- G64 should not smooth over this point )
G01 F360.00000
G01 X0.63031 Y0.76299
G01 X0.66968 Y0.76299
G01 X0.66968 Y0.88110
G01 X0.63031 Y0.88110
G01 X0.63031 Y0.76299
G04 P0 ( dwell for no time -- G64 should not smooth over this point )
G00 Z0.08000 ( retract )

G00 X0.80680 Y0.69840 ( rapid move to begin. )
G01 F180.00000
( Mill infeed pass 1/1 )
G01 Z-0.04000
G04 P0 ( dwell for no time -- G64 should not smooth over this point )
G01 F360.00000
G01 X0.80680 Y0.69840
G01 X0.80711 Y0.69481
G01 X0.80783 Y0.69088
G01 X0.80893 Y0.68703
G01 X0.81042 Y0.68332
G01 X0.81226 Y0.67977
G01 X0.81446 Y0.67642
G01 X0.81671 Y0.67361
G01 X0.81949 Y0.67074
G01 X0.82255 Y0.66816
G01 X0.82585 Y0.66590
G01 X0.82900 Y0.66416
G01 X0.83267 Y0.66257
G01 X0.83648 Y0.66134
G01 X0.84040 Y0.66051
G01 X0.84437 Y0.66007
G01 X0.84797 Y0.66002
G01 X0.85196 Y0.66034
G01 X0.85589 Y0.66105
G01 X0.85974 Y0.66216
G01 X0.86309 Y0.66348
G01 X0.86666 Y0.66529
G01 X0.87002 Y0.66745
G01 X0.87316 Y0.66994
G01 X0.87603 Y0.67272
G01 X0.87861 Y0.67578
G01 X0.88087 Y0.67908
G01 X0.88279 Y0.68259
G01 X0.88434 Y0.68628
G01 X0.88553 Y0.69010
G01 X0.88632 Y0.69402
G01 X0.88670 Y0.69760
G01 X0.88675 Y0.70120
G01 X0.88643 Y0.70519
G01 X0.88572 Y0.70912
G01 X0.88461 Y0.71297
G01 X0.88329 Y0.71632
G01 X0.88148 Y0.71988
G01 X0.87932 Y0.72325
G01 X0.87683 Y0.72639
G01 X0.87405 Y0.72926
G01 X0.87099 Y0.73184
G01 X0.86769 Y0.73410
G01 X0.86454 Y0.73584
G01 X0.86087 Y0.73743
G01 X0.85706 Y0.73865
G01 X0.85315 Y0.73949
G01 X0.84917 Y0.73993
G01 X0.84557 Y0.73998
G01 X0.84158 Y0.73966
G01 X0.83765 Y0.73894
G01 X0.83380 Y0.73784
G01 X0.83009 Y0.73635
G01 X0.82654 Y0.73451
G01 X0.82320 Y0.73231
G01 X0.82008 Y0.72980
G01 X0.81724 Y0.72698
G01 X0.81469 Y0.72390
G01 X0.81268 Y0.72092
G01 X0.81076 Y0.71741
G01 X0.80920 Y0.71372
G01 X0.80802 Y0.70990
G01 X0.80722 Y0.70598
G01 X0.80684 Y0.70240
G01 X0.80680 Y0.69840
G04 P0 ( dwell for no time -- G64 should not smooth over this point )
G00 Z0.08000 ( retract )

G00 X0.88662 Y0.97379 ( rapid move to begin. )
G01 F180.00000
( Mill infeed pass 1/1 )
G01 Z-0.04000
G04 P0 ( dwell for no time -- G64 should not smooth over this point )
G01 F360.00000
G01 X0.88662 Y0.97379
G01 X0.88662 Y0.97739
G01 X0.88699 Y0.98098
G01 X0.88763 Y0.98412
G01 X0.88855 Y0.98718
G01 X0.88992 Y0.99052
G01 X0.89162 Y0.99369
G01 X0.89340 Y0.99636
G01 X0.89542 Y0.99884
G01 X0.89795 Y1.00141
G01 X0.90073 Y1.00370
G01 X0.90338 Y1.00549
G01 X0.90619 Y1.00703
G01 X0.90951 Y1.00845
G01 X0.91295 Y1.00951
G01 X0.91609 Y1.01016
G01 X0.91967 Y1.01054
G01 X0.92328 Y1.01055
G01 X0.92686 Y1.01019
G01 X0.93000 Y1.00956
G01 X0.93345 Y1.00851
G01 X0.93677 Y1.00712
G01 X0.93959 Y1.00560
G01 X0.94258 Y1.00358
G01 X0.94505 Y1.00155
G01 X0.94760 Y0.99899
G01 X0.94987 Y0.99620
G01 X0.95163 Y0.99352
G01 X0.95332 Y0.99034
G01 X0.95453 Y0.98737
G01 X0.95547 Y0.98431
G01 X0.95619 Y0.98078
G01 X0.95654 Y0.97719
G01 X0.95654 Y0.97399
G01 X0.95619 Y0.97040
G01 X0.95557 Y0.96726
G01 X0.95453 Y0.96381
G01 X0.95332 Y0.96084
G01 X0.95183 Y0.95800
G01 X0.94987 Y0.95498
G01 X0.94760 Y0.95218
G01 X0.94505 Y0.94963
G01 X0.94258 Y0.94760
G01 X0.93959 Y0.94558
G01 X0.93677 Y0.94406
G01 X0.93345 Y0.94267
G01 X0.93000 Y0.94162
G01 X0.92686 Y0.94099
G01 X0.92328 Y0.94063
G01 X0.92007 Y0.94062
G01 X0.91688 Y0.94091
G01 X0.91334 Y0.94157
G01 X0.90989 Y0.94260
G01 X0.90692 Y0.94381
G01 X0.90407 Y0.94528
G01 X0.90105 Y0.94724
G01 X0.89824 Y0.94950
G01 X0.89568 Y0.95204
G01 X0.89340 Y0.95482
G01 X0.89162 Y0.95749
G01 X0.88992 Y0.96066
G01 X0.88855 Y0.96400
G01 X0.88753 Y0.96745
G01 X0.88693 Y0.97060
G01 X0.88662 Y0.97379
G04 P0 ( dwell for no time -- G64 should not smooth over this point )
G00 Z0.08000 ( retract )

G00 X0.98501 Y0.97499 ( rapid move to begin. )
G01 F180.00000
( Mill infeed pass 1/1 )
G01 Z-0.04000
G04 P0 ( dwell for no time -- G64 should not smooth over this point )
G01 F360.00000
G01 X0.98501 Y0.97499
G01 X0.98510 Y0.97819
G01 X0.98548 Y0.98137
G01 X0.98626 Y0.98489
G01 X0.98739 Y0.98831
G01 X0.98887 Y0.99160
G01 X0.99047 Y0.99437
G01 X0.99255 Y0.99731
G01 X0.99493 Y1.00002
G01 X0.99727 Y1.00221
G01 X1.00013 Y1.00440
G01 X1.00285 Y1.00610
G01 X1.00571 Y1.00754
G01 X1.00907 Y1.00884
G01 X1.01255 Y1.00979
G01 X1.01570 Y1.01032
G01 X1.01930 Y1.01058
G01 X1.02290 Y1.01047
G01 X1.02647 Y1.00999
G01 X1.02959 Y1.00925
G01 X1.03300 Y1.00809
G01 X1.03592 Y1.00676
G01 X1.03870 Y1.00518
G01 X1.04164 Y1.00310
G01 X1.04407 Y1.00100
G01 X1.04655 Y0.99839
G01 X1.04876 Y0.99554
G01 X1.05046 Y0.99283
G01 X1.05207 Y0.98961
G01 X1.05322 Y0.98662
G01 X1.05418 Y0.98314
G01 X1.05477 Y0.97959
G01 X1.05499 Y0.97639
G01 X1.05489 Y0.97279
G01 X1.05441 Y0.96922
G01 X1.05369 Y0.96610
G01 X1.05268 Y0.96306
G01 X1.05122 Y0.95976
G01 X1.04942 Y0.95664
G01 X1.04757 Y0.95403
G01 X1.04520 Y0.95131
G01 X1.04288 Y0.94910
G01 X1.04036 Y0.94712
G01 X1.03733 Y0.94518
G01 X1.03411 Y0.94356
G01 X1.03112 Y0.94240
G01 X1.02765 Y0.94144
G01 X1.02409 Y0.94083
G01 X1.02090 Y0.94060
G01 X1.01730 Y0.94069
G01 X1.01372 Y0.94116
G01 X1.01060 Y0.94188
G01 X1.00718 Y0.94302
G01 X1.00426 Y0.94433
G01 X1.00113 Y0.94611
G01 X0.99852 Y0.94796
G01 X0.99579 Y0.95032
G01 X0.99332 Y0.95294
G01 X0.99113 Y0.95580
G01 X0.98944 Y0.95852
G01 X0.98801 Y0.96139
G01 X0.98672 Y0.96476
G01 X0.98587 Y0.96784
G01 X0.98525 Y0.97139
G01 X0.98501 Y0.97499
G04 P0 ( dwell for no time -- G64 should not smooth over this point )
G00 Z0.08000 ( retract )

G00 X1.08344 Y0.97459 ( rapid move to begin. )
G01 F180.00000
( Mill infeed pass 1/1 )
G01 Z-0.04000
G04 P0 ( dwell for no time -- G64 should not smooth over this point )
G01 F360.00000
G01 X1.08344 Y0.97459
G01 X1.08349 Y0.97779
G01 X1.08384 Y0.98098
G01 X1.08458 Y0.98450
G01 X1.08553 Y0.98756
G01 X1.08694 Y0.99088
G01 X1.08847 Y0.99369
G01 X1.09049 Y0.99668
G01 X1.09281 Y0.99944
G01 X1.09539 Y1.00195
G01 X1.09790 Y1.00394
G01 X1.10092 Y1.00590
G01 X1.10413 Y1.00754
G01 X1.10712 Y1.00871
G01 X1.11019 Y1.00961
G01 X1.11373 Y1.01027
G01 X1.11732 Y1.01057
G01 X1.12093 Y1.01050
G01 X1.12411 Y1.01013
G01 X1.12763 Y1.00936
G01 X1.13068 Y1.00838
G01 X1.13398 Y1.00694
G01 X1.13712 Y1.00518
G01 X1.13975 Y1.00334
G01 X1.14220 Y1.00128
G01 X1.14471 Y0.99869
G01 X1.14672 Y0.99620
G01 X1.14868 Y0.99318
G01 X1.15033 Y0.98997
G01 X1.15152 Y0.98699
G01 X1.15251 Y0.98353
G01 X1.15309 Y0.98038
G01 X1.15340 Y0.97679
G01 X1.15334 Y0.97319
G01 X1.15298 Y0.97001
G01 X1.15222 Y0.96648
G01 X1.15110 Y0.96306
G01 X1.14964 Y0.95976
G01 X1.14785 Y0.95664
G01 X1.14599 Y0.95403
G01 X1.14363 Y0.95131
G01 X1.14130 Y0.94910
G01 X1.13879 Y0.94712
G01 X1.13575 Y0.94518
G01 X1.13290 Y0.94372
G01 X1.12955 Y0.94240
G01 X1.12646 Y0.94153
G01 X1.12292 Y0.94088
G01 X1.11933 Y0.94060
G01 X1.11612 Y0.94067
G01 X1.11294 Y0.94102
G01 X1.10941 Y0.94177
G01 X1.10636 Y0.94273
G01 X1.10305 Y0.94415
G01 X1.10024 Y0.94569
G01 X1.09726 Y0.94772
G01 X1.09450 Y0.95004
G01 X1.09200 Y0.95264
G01 X1.09001 Y0.95515
G01 X1.08806 Y0.95818
G01 X1.08643 Y0.96139
G01 X1.08527 Y0.96437
G01 X1.08429 Y0.96784
G01 X1.08373 Y0.97100
G01 X1.08344 Y0.97459
G04 P0 ( dwell for no time -- G64 should not smooth over this point )
G00 Z0.08000 ( retract )

G00 X1.25216 Y1.03386 ( rapid move to begin. )
G01 F180.00000
( Mill infeed pass 1/1 )
G01 Z-0.04000
G04 P0 ( dwell for no time -- G64 should not smooth over this point )
G01 F360.00000
G01 X1.25216 Y1.03386
G01 X1.25216 Y1.08898
G01 X1.32106 Y1.08898
G01 X1.32106 Y1.03386
G01 X1.25216 Y1.03386
G04 P0 ( dwell for no time -- G64 should not smooth over this point )
G00 Z0.08000 ( retract )

G00 X1.25216 Y1.21102 ( rapid move to begin. )
G01 F180.00000
( Mill infeed pass 1/1 )
G01 Z-0.04000
G04 P0 ( dwell for no time -- G64 should not smooth over this point )
G01 F360.00000
G01 X1.25216 Y1.21102
G01 X1.25216 Y1.26614
G01 X1.32106 Y1.26614
G01 X1.32106 Y1.21102
G01 X1.25216 Y1.21102
G04 P0 ( dwell for no time -- G64 should not smooth over this point )
G00 Z0.08000 ( retract )

G00 X1.57894 Y1.21102 ( rapid move to begin. )
G01 F180.00000
( Mill infeed pass 1/1 )
G01 Z-0.04000
G04 P0 ( dwell for no time -- G64 should not smooth over this point )
G01 F360.00000
G01 X1.57894 Y1.21102
G01 X1.64783 Y1.21102
G01 X1.64783 Y1.26614
G01 X1.57894 Y1.26614
G01 X1.57894 Y1.21102
G04 P0 ( dwell for no time -- G64 should not smooth over this point )
G00 Z0.08000 ( retract )

G00 X1.57894 Y1.03386 ( rapid move to begin. )
G01 F180.00000
( Mill infeed pass 1/1 )
G01 Z-0.04000
G04 P0 ( dwell for no time -- G64 should not smooth over this point )
G01 F360.00000
G01 X1.57894 Y1.03386
G01 X1.64783 Y1.03386
G01 X1.64783 Y1.08898
G01 X1.57894 Y1.08898
G01 X1.57894 Y1.03386
G04 P0 ( dwell for no time -- G64 should not smooth over this point )
G00 Z0.08000 ( retract )

G00 X1.46500 Y0.79940 ( rapid move to begin. )
G01 F180.00000
( Mill infeed pass 1/1 )
G01 Z-0.04000
G04 P0 ( dwell for no time -- G64 should not smooth over this point )
G01 F360.00000
G01 X1.46500 Y0.79940
G01 X1.46510 Y0.80260
G01 X1.46548 Y0.80578
G01 X1.46626 Y0.80930
G01 X1.46739 Y0.81272
G01 X1.46887 Y0.81600
G01 X1.47047 Y0.81878
G01 X1.47256 Y0.82172
G01 X1.47466 Y0.82414
G01 X1.47727 Y0.82662
G01 X1.48013 Y0.82881
G01 X1.48285 Y0.83051
G01 X1.48571 Y0.83195
G01 X1.48907 Y0.83325
G01 X1.49255 Y0.83420
G01 X1.49610 Y0.83478
G01 X1.49930 Y0.83499
G01 X1.50290 Y0.83488
G01 X1.50608 Y0.83447
G01 X1.50959 Y0.83366
G01 X1.51263 Y0.83264
G01 X1.51592 Y0.83117
G01 X1.51870 Y0.82959
G01 X1.52164 Y0.82751
G01 X1.52407 Y0.82541
G01 X1.52655 Y0.82280
G01 X1.52876 Y0.81995
G01 X1.53046 Y0.81724
G01 X1.53207 Y0.81402
G01 X1.53322 Y0.81102
G01 X1.53418 Y0.80755
G01 X1.53477 Y0.80400
G01 X1.53499 Y0.80080
G01 X1.53489 Y0.79720
G01 X1.53441 Y0.79363
G01 X1.53369 Y0.79051
G01 X1.53268 Y0.78747
G01 X1.53122 Y0.78417
G01 X1.52964 Y0.78138
G01 X1.52757 Y0.77844
G01 X1.52520 Y0.77572
G01 X1.52288 Y0.77351
G01 X1.52036 Y0.77153
G01 X1.51733 Y0.76959
G01 X1.51411 Y0.76797
G01 X1.51112 Y0.76681
G01 X1.50765 Y0.76584
G01 X1.50410 Y0.76524
G01 X1.50090 Y0.76501
G01 X1.49730 Y0.76510
G01 X1.49372 Y0.76557
G01 X1.49060 Y0.76628
G01 X1.48719 Y0.76743
G01 X1.48426 Y0.76874
G01 X1.48147 Y0.77031
G01 X1.47852 Y0.77237
G01 X1.47579 Y0.77472
G01 X1.47332 Y0.77735
G01 X1.47113 Y0.78021
G01 X1.46944 Y0.78294
G01 X1.46785 Y0.78617
G01 X1.46672 Y0.78917
G01 X1.46587 Y0.79225
G01 X1.46525 Y0.79580
G01 X1.46500 Y0.79940
G04 P0 ( dwell for no time -- G64 should not smooth over this point )
G00 Z0.08000 ( retract )

G00 X1.56503 Y0.59860 ( rapid move to begin. )
G01 F180.00000
( Mill infeed pass 1/1 )
G01 Z-0.04000
G04 P0 ( dwell for no time -- G64 should not smooth over this point )
G01 F360.00000
G01 X1.56503 Y0.59860
G01 X1.56536 Y0.59501
G01 X1.56605 Y0.59147
G01 X1.56698 Y0.58841
G01 X1.56817 Y0.58544
G01 X1.56984 Y0.58224
G01 X1.57183 Y0.57923
G01 X1.57384 Y0.57674
G01 X1.57608 Y0.57445
G01 X1.57883 Y0.57213
G01 X1.58181 Y0.57010
G01 X1.58462 Y0.56856
G01 X1.58794 Y0.56715
G01 X1.59138 Y0.56608
G01 X1.59491 Y0.56537
G01 X1.59810 Y0.56505
G01 X1.60170 Y0.56504
G01 X1.60529 Y0.56540
G01 X1.60843 Y0.56603
G01 X1.61188 Y0.56708
G01 X1.61484 Y0.56830
G01 X1.61802 Y0.56999
G01 X1.62101 Y0.57200
G01 X1.62348 Y0.57404
G01 X1.62575 Y0.57630
G01 X1.62805 Y0.57907
G01 X1.63006 Y0.58207
G01 X1.63174 Y0.58525
G01 X1.63309 Y0.58859
G01 X1.63399 Y0.59167
G01 X1.63461 Y0.59481
G01 X1.63496 Y0.59840
G01 X1.63494 Y0.60200
G01 X1.63455 Y0.60558
G01 X1.63390 Y0.60872
G01 X1.63282 Y0.61216
G01 X1.63140 Y0.61547
G01 X1.62985 Y0.61827
G01 X1.62805 Y0.62093
G01 X1.62575 Y0.62370
G01 X1.62318 Y0.62622
G01 X1.62068 Y0.62823
G01 X1.61802 Y0.63001
G01 X1.61484 Y0.63170
G01 X1.61188 Y0.63292
G01 X1.60843 Y0.63397
G01 X1.60529 Y0.63460
G01 X1.60170 Y0.63496
G01 X1.59810 Y0.63495
G01 X1.59491 Y0.63463
G01 X1.59138 Y0.63392
G01 X1.58831 Y0.63299
G01 X1.58534 Y0.63178
G01 X1.58215 Y0.63011
G01 X1.57948 Y0.62835
G01 X1.57667 Y0.62609
G01 X1.57438 Y0.62385
G01 X1.57207 Y0.62109
G01 X1.57004 Y0.61810
G01 X1.56852 Y0.61529
G01 X1.56725 Y0.61235
G01 X1.56615 Y0.60891
G01 X1.56542 Y0.60539
G01 X1.56505 Y0.60180
G01 X1.56503 Y0.59860
G04 P0 ( dwell for no time -- G64 should not smooth over this point )
G00 Z0.08000 ( retract )

G00 X1.38100 Y0.46451 ( rapid move to begin. )
G01 F180.00000
( Mill infeed pass 1/1 )
G01 Z-0.04000
G04 P0 ( dwell for no time -- G64 should not smooth over this point )
G01 F360.00000
G01 X1.38100 Y0.46451
G01 X1.38100 Y0.53549
G01 X1.44400 Y0.53549
G01 X1.44400 Y0.46451
G01 X1.38100 Y0.46451
G04 P0 ( dwell for no time -- G64 should not smooth over this point )
G00 Z0.08000 ( retract )

G00 X1.41843 Y0.35757 ( rapid move to begin. )
G01 F180.00000
( Mill infeed pass 1/1 )
G01 Z-0.04000
G04 P0 ( dwell for no time -- G64 should not smooth over this point )
G01 F360.00000
G01 X1.41843 Y0.35757
G01 X1.41843 Y0.38243
G01 X1.43600 Y0.40000
G01 X1.46085 Y0.40000
G01 X1.47843 Y0.38243
G01 X1.47843 Y0.35757
G01 X1.46085 Y0.34000
G01 X1.43600 Y0.34000
G01 X1.41843 Y0.35757
G04 P0 ( dwell for no time -- G64 should not smooth over this point )
G00 Z0.08000 ( retract )

G00 X1.56451 Y0.33100 ( rapid move to begin. )
G01 F180.00000
( Mill infeed pass 1/1 )
G01 Z-0.04000
G04 P0 ( dwell for no time -- G64 should not smooth over this point )
G01 F360.00000
G01 X1.56451 Y0.33100
G01 X1.63549 Y0.33100
G01 X1.63549 Y0.39400
G01 X1.56451 Y0.39400
G01 X1.56451 Y0.33100
G04 P0 ( dwell for no time -- G64 should not smooth over this point )
G00 Z0.08000 ( retract )

G00 X1.56451 Y0.20600 ( rapid move to begin. )
G01 F180.00000
( Mill infeed pass 1/1 )
G01 Z-0.04000
G04 P0 ( dwell for no time -- G64 should not smooth over this point )
G01 F360.00000
G01 X1.56451 Y0.20600
G01 X1.63549 Y0.20600
G01 X1.63549 Y0.26900
G01 X1.56451 Y0.26900
G01 X1.56451 Y0.20600
G04 P0 ( dwell for no time -- G64 should not smooth over this point )
G00 Z0.08000 ( retract )

G00 X1.32000 Y0.35757 ( rapid move to begin. )
G01 F180.00000
( Mill infeed pass 1/1 )
G01 Z-0.04000
G04 P0 ( dwell for no time -- G64 should not smooth over this point )
G01 F360.00000
G01 X1.32000 Y0.35757
G01 X1.32000 Y0.38243
G01 X1.33757 Y0.40000
G01 X1.36243 Y0.40000
G01 X1.38000 Y0.38243
G01 X1.38000 Y0.35757
G01 X1.36243 Y0.34000
G01 X1.33757 Y0.34000
G01 X1.32000 Y0.35757
G04 P0 ( dwell for no time -- G64 should not smooth over this point )
G00 Z0.08000 ( retract )

G00 X1.22157 Y0.34000 ( rapid move to begin. )
G01 F180.00000
( Mill infeed pass 1/1 )
G01 Z-0.04000
G04 P0 ( dwell for no time -- G64 should not smooth over this point )
G01 F360.00000
G01 X1.22157 Y0.34000
G01 X1.22157 Y0.40000
G01 X1.28157 Y0.40000
G01 X1.28157 Y0.34000
G01 X1.22157 Y0.34000
G04 P0 ( dwell for no time -- G64 should not smooth over this point )
G00 Z0.08000 ( retract )

G00 X1.25600 Y0.46451 ( rapid move to begin. )
G01 F180.00000
( Mill infeed pass 1/1 )
G01 Z-0.04000
G04 P0 ( dwell for no time -- G64 should not smooth over this point )
G01 F360.00000
G01 X1.25600 Y0.46451
G01 X1.31900 Y0.46451
G01 X1.31900 Y0.53549
G01 X1.25600 Y0.53549
G01 X1.25600 Y0.46451
G04 P0 ( dwell for no time -- G64 should not smooth over this point )
G00 Z0.08000 ( retract )

G00 X1.36501 Y0.59940 ( rapid move to begin. )
G01 F180.00000
( Mill infeed pass 1/1 )
G01 Z-0.04000
G04 P0 ( dwell for no time -- G64 should not smooth over this point )
G01 F360.00000
G01 X1.36501 Y0.59940
G01 X1.36525 Y0.59580
G01 X1.36587 Y0.59225
G01 X1.36672 Y0.58917
G01 X1.36785 Y0.58617
G01 X1.36944 Y0.58293
G01 X1.37113 Y0.58021
G01 X1.37332 Y0.57735
G01 X1.37579 Y0.57473
G01 X1.37851 Y0.57237
G01 X1.38147 Y0.57031
G01 X1.38426 Y0.56874
G01 X1.38719 Y0.56743
G01 X1.39060 Y0.56629
G01 X1.39373 Y0.56557
G01 X1.39730 Y0.56510
G01 X1.40090 Y0.56501
G01 X1.40410 Y0.56524
G01 X1.40765 Y0.56585
G01 X1.41112 Y0.56681
G01 X1.41411 Y0.56797
G01 X1.41733 Y0.56959
G01 X1.42036 Y0.57153
G01 X1.42288 Y0.57351
G01 X1.42520 Y0.57571
G01 X1.42757 Y0.57844
G01 X1.42964 Y0.58138
G01 X1.43122 Y0.58417
G01 X1.43268 Y0.58747
G01 X1.43369 Y0.59051
G01 X1.43441 Y0.59363
G01 X1.43489 Y0.59720
G01 X1.43499 Y0.60080
G01 X1.43477 Y0.60400
G01 X1.43417 Y0.60755
G01 X1.43322 Y0.61102
G01 X1.43207 Y0.61401
G01 X1.43046 Y0.61724
G01 X1.42876 Y0.61995
G01 X1.42655 Y0.62280
G01 X1.42407 Y0.62541
G01 X1.42164 Y0.62751
G01 X1.41870 Y0.62958
G01 X1.41592 Y0.63117
G01 X1.41263 Y0.63264
G01 X1.40959 Y0.63366
G01 X1.40608 Y0.63447
G01 X1.40290 Y0.63488
G01 X1.39930 Y0.63499
G01 X1.39610 Y0.63478
G01 X1.39255 Y0.63420
G01 X1.38907 Y0.63325
G01 X1.38571 Y0.63195
G01 X1.38285 Y0.63051
G01 X1.38013 Y0.62881
G01 X1.37727 Y0.62662
G01 X1.37466 Y0.62414
G01 X1.37255 Y0.62172
G01 X1.37047 Y0.61878
G01 X1.36887 Y0.61601
G01 X1.36739 Y0.61272
G01 X1.36626 Y0.60930
G01 X1.36548 Y0.60578
G01 X1.36510 Y0.60260
G01 X1.36501 Y0.59940
G04 P0 ( dwell for no time -- G64 should not smooth over this point )
G00 Z0.08000 ( retract )

G00 X1.15325 Y0.69880 ( rapid move to begin. )
G01 F180.00000
( Mill infeed pass 1/1 )
G01 Z-0.04000
G04 P0 ( dwell for no time -- G64 should not smooth over this point )
G01 F360.00000
G01 X1.15325 Y0.69880
G01 X1.15330 Y0.70240
G01 X1.15368 Y0.70598
G01 X1.15447 Y0.70990
G01 X1.15566 Y0.71372
G01 X1.15721 Y0.71741
G01 X1.15913 Y0.72092
G01 X1.16139 Y0.72422
G01 X1.16397 Y0.72728
G01 X1.16684 Y0.73006
G01 X1.16998 Y0.73255
G01 X1.17334 Y0.73471
G01 X1.17691 Y0.73652
G01 X1.18026 Y0.73784
G01 X1.18410 Y0.73894
G01 X1.18804 Y0.73966
G01 X1.19203 Y0.73998
G01 X1.19563 Y0.73993
G01 X1.19960 Y0.73949
G01 X1.20352 Y0.73865
G01 X1.20733 Y0.73743
G01 X1.21099 Y0.73584
G01 X1.21415 Y0.73410
G01 X1.21745 Y0.73184
G01 X1.22050 Y0.72926
G01 X1.22329 Y0.72639
G01 X1.22554 Y0.72358
G01 X1.22774 Y0.72023
G01 X1.22958 Y0.71668
G01 X1.23107 Y0.71297
G01 X1.23217 Y0.70912
G01 X1.23289 Y0.70519
G01 X1.23320 Y0.70160
G01 X1.23316 Y0.69760
G01 X1.23278 Y0.69402
G01 X1.23198 Y0.69010
G01 X1.23080 Y0.68628
G01 X1.22924 Y0.68259
G01 X1.22732 Y0.67908
G01 X1.22530 Y0.67610
G01 X1.22276 Y0.67302
G01 X1.21991 Y0.67020
G01 X1.21680 Y0.66769
G01 X1.21346 Y0.66549
G01 X1.20991 Y0.66365
G01 X1.20620 Y0.66216
G01 X1.20235 Y0.66105
G01 X1.19842 Y0.66034
G01 X1.19443 Y0.66002
G01 X1.19083 Y0.66007
G01 X1.18685 Y0.66051
G01 X1.18294 Y0.66134
G01 X1.17913 Y0.66257
G01 X1.17546 Y0.66416
G01 X1.17231 Y0.66590
G01 X1.16901 Y0.66816
G01 X1.16595 Y0.67074
G01 X1.16317 Y0.67361
G01 X1.16068 Y0.67675
G01 X1.15852 Y0.68012
G01 X1.15671 Y0.68368
G01 X1.15539 Y0.68703
G01 X1.15428 Y0.69088
G01 X1.15357 Y0.69481
G01 X1.15325 Y0.69880
( Piece #2, position [1;0] )

G04 P0 ( dwell for no time -- G64 should not smooth over this point )
G00 Z0.08000 ( retract )

G00 X2.05075 Y0.44860 ( rapid move to begin. )
G01 F180.00000
( Mill infeed pass 1/1 )
G01 Z-0.04000
G04 P0 ( dwell for no time -- G64 should not smooth over this point )
G01 F360.00000
G01 X2.05075 Y0.44860
G01 X2.05077 Y0.45180
G01 X2.05114 Y0.45539
G01 X2.05188 Y0.45891
G01 X2.05298 Y0.46235
G01 X2.05424 Y0.46529
G01 X2.05577 Y0.46810
G01 X2.05779 Y0.47109
G01 X2.06011 Y0.47385
G01 X2.06240 Y0.47609
G01 X2.06520 Y0.47835
G01 X2.06788 Y0.48011
G01 X2.07107 Y0.48178
G01 X2.07404 Y0.48299
G01 X2.07710 Y0.48392
G01 X2.08064 Y0.48463
G01 X2.08382 Y0.48495
G01 X2.08743 Y0.48496
G01 X2.09101 Y0.48460
G01 X2.09415 Y0.48397
G01 X2.09760 Y0.48292
G01 X2.10056 Y0.48170
G01 X2.10374 Y0.48001
G01 X2.10641 Y0.47823
G01 X2.10891 Y0.47622
G01 X2.11148 Y0.47370
G01 X2.11378 Y0.47093
G01 X2.11558 Y0.46827
G01 X2.11712 Y0.46547
G01 X2.11855 Y0.46216
G01 X2.11962 Y0.45872
G01 X2.12028 Y0.45558
G01 X2.12067 Y0.45200
G01 X2.12069 Y0.44840
G01 X2.12034 Y0.44481
G01 X2.11972 Y0.44167
G01 X2.11882 Y0.43860
G01 X2.11747 Y0.43525
G01 X2.11578 Y0.43207
G01 X2.11378 Y0.42907
G01 X2.11148 Y0.42630
G01 X2.10921 Y0.42404
G01 X2.10673 Y0.42201
G01 X2.10374 Y0.41999
G01 X2.10056 Y0.41830
G01 X2.09760 Y0.41708
G01 X2.09415 Y0.41603
G01 X2.09101 Y0.41540
G01 X2.08743 Y0.41504
G01 X2.08382 Y0.41505
G01 X2.08064 Y0.41537
G01 X2.07710 Y0.41608
G01 X2.07366 Y0.41714
G01 X2.07035 Y0.41856
G01 X2.06754 Y0.42010
G01 X2.06456 Y0.42213
G01 X2.06180 Y0.42445
G01 X2.05957 Y0.42674
G01 X2.05755 Y0.42923
G01 X2.05557 Y0.43224
G01 X2.05390 Y0.43544
G01 X2.05270 Y0.43841
G01 X2.05178 Y0.44147
G01 X2.05108 Y0.44501
G01 X2.05075 Y0.44860
G04 P0 ( dwell for no time -- G64 should not smooth over this point )
G00 Z0.08000 ( retract )

G00 X2.15075 Y0.44860 ( rapid move to begin. )
G01 F180.00000
( Mill infeed pass 1/1 )
G01 Z-0.04000
G04 P0 ( dwell for no time -- G64 should not smooth over this point )
G01 F360.00000
G01 X2.15075 Y0.44860
G01 X2.15077 Y0.45180
G01 X2.15114 Y0.45539
G01 X2.15188 Y0.45891
G01 X2.15298 Y0.46235
G01 X2.15424 Y0.46529
G01 X2.15577 Y0.46810
G01 X2.15779 Y0.47109
G01 X2.16011 Y0.47385
G01 X2.16240 Y0.47609
G01 X2.16520 Y0.47835
G01 X2.16788 Y0.48011
G01 X2.17107 Y0.48178
G01 X2.17404 Y0.48299
G01 X2.17710 Y0.48392
G01 X2.18064 Y0.48463
G01 X2.18382 Y0.48495
G01 X2.18743 Y0.48496
G01 X2.19101 Y0.48460
G01 X2.19415 Y0.48397
G01 X2.19760 Y0.48292
G01 X2.20056 Y0.48170
G01 X2.20374 Y0.48001
G01 X2.20641 Y0.47823
G01 X2.20891 Y0.47622
G01 X2.21148 Y0.47370
G01 X2.21378 Y0.47093
G01 X2.21558 Y0.46827
G01 X2.21712 Y0.46547
G01 X2.21855 Y0.46216
G01 X2.21962 Y0.45872
G01 X2.22028 Y0.45558
G01 X2.22067 Y0.45200
G01 X2.22069 Y0.44840
G01 X2.22034 Y0.44481
G01 X2.21972 Y0.44167
G01 X2.21882 Y0.43860
G01 X2.21747 Y0.43525
G01 X2.21578 Y0.43207
G01 X2.21378 Y0.42907
G01 X2.21148 Y0.42630
G01 X2.20921 Y0.42404
G01 X2.20673 Y0.42201
G01 X2.20374 Y0.41999
G01 X2.20056 Y0.41830
G01 X2.19760 Y0.41708
G01 X2.19415 Y0.41603
G01 X2.19101 Y0.41540
G01 X2.18743 Y0.41504
G01 X2.18382 Y0.41505
G01 X2.18064 Y0.41537
G01 X2.17710 Y0.41608
G01 X2.17366 Y0.41714
G01 X2.17035 Y0.41856
G01 X2.16754 Y0.42010
G01 X2.16456 Y0.42213
G01 X2.16180 Y0.42445
G01 X2.15957 Y0.42674
G01 X2.15755 Y0.42923
G01 X2.15557 Y0.43224
G01 X2.15390 Y0.43544
G01 X2.15270 Y0.43841
G01 X2.15178 Y0.44147
G01 X2.15108 Y0.44501
G01 X2.15075 Y0.44860
G04 P0 ( dwell for no time -- G64 should not smooth over this point )
G00 Z0.08000 ( retract )

G00 X2.25075 Y0.44860 ( rapid move to begin. )
G01 F180.00000
( Mill infeed pass 1/1 )
G01 Z-0.04000
G04 P0 ( dwell for no time -- G64 should not smooth over this point )
G01 F360.00000
G01 X2.25075 Y0.44860
G01 X2.25108 Y0.44501
G01 X2.25178 Y0.44147
G01 X2.25270 Y0.43841
G01 X2.25390 Y0.43544
G01 X2.25557 Y0.43224
G01 X2.25755 Y0.42923
G01 X2.25957 Y0.42674
G01 X2.26180 Y0.42445
G01 X2.26456 Y0.42213
G01 X2.26754 Y0.42010
G01 X2.27035 Y0.41856
G01 X2.27366 Y0.41714
G01 X2.27710 Y0.41608
G01 X2.28064 Y0.41537
G01 X2.28382 Y0.41505
G01 X2.28743 Y0.41504
G01 X2.29101 Y0.41540
G01 X2.29415 Y0.41603
G01 X2.29760 Y0.41708
G01 X2.30056 Y0.41830
G01 X2.30374 Y0.41999
G01 X2.30673 Y0.42201
G01 X2.30921 Y0.42404
G01 X2.31148 Y0.42630
G01 X2.31378 Y0.42907
G01 X2.31578 Y0.43207
G01 X2.31747 Y0.43525
G01 X2.31882 Y0.43860
G01 X2.31972 Y0.44167
G01 X2.32034 Y0.44481
G01 X2.32069 Y0.44840
G01 X2.32067 Y0.45200
G01 X2.32028 Y0.45558
G01 X2.31962 Y0.45872
G01 X2.31855 Y0.46216
G01 X2.31712 Y0.46547
G01 X2.31558 Y0.46827
G01 X2.31378 Y0.47093
G01 X2.31148 Y0.47370
G01 X2.30891 Y0.47622
G01 X2.30641 Y0.47823
G01 X2.30374 Y0.48001
G01 X2.30056 Y0.48170
G01 X2.29760 Y0.48292
G01 X2.29415 Y0.48397
G01 X2.29101 Y0.48460
G01 X2.28743 Y0.48496
G01 X2.28382 Y0.48495
G01 X2.28064 Y0.48463
G01 X2.27710 Y0.48392
G01 X2.27404 Y0.48299
G01 X2.27107 Y0.48178
G01 X2.26788 Y0.48011
G01 X2.26520 Y0.47835
G01 X2.26240 Y0.47609
G01 X2.26011 Y0.47385
G01 X2.25779 Y0.47109
G01 X2.25577 Y0.46810
G01 X2.25424 Y0.46529
G01 X2.25298 Y0.46235
G01 X2.25188 Y0.45891
G01 X2.25114 Y0.45539
G01 X2.25077 Y0.45180
G01 X2.25075 Y0.44860
G04 P0 ( dwell for no time -- G64 should not smooth over this point )
G00 Z0.08000 ( retract )

G00 X2.21604 Y0.51496 ( rapid move to begin. )
G01 F180.00000
( Mill infeed pass 1/1 )
G01 Z-0.04000
G04 P0 ( dwell for no time -- G64 should not smooth over this point )
G01 F360.00000
G01 X2.21604 Y0.51496
G01 X2.25541 Y0.51496
G01 X2.25541 Y0.63307
G01 X2.21604 Y0.63307
G01 X2.21604 Y0.51496
G04 P0 ( dwell for no time -- G64 should not smooth over this point )
G00 Z0.08000 ( retract )

G00 X2.00075 Y0.59860 ( rapid move to begin. )
G01 F180.00000
( Mill infeed pass 1/1 )
G01 Z-0.04000
G04 P0 ( dwell for no time -- G64 should not smooth over this point )
G01 F360.00000
G01 X2.00075 Y0.59860
G01 X2.00108 Y0.59501
G01 X2.00178 Y0.59147
G01 X2.00270 Y0.58841
G01 X2.00390 Y0.58544
G01 X2.00557 Y0.58224
G01 X2.00755 Y0.57923
G01 X2.00957 Y0.57674
G01 X2.01180 Y0.57445
G01 X2.01456 Y0.57213
G01 X2.01754 Y0.57010
G01 X2.02035 Y0.56856
G01 X2.02366 Y0.56715
G01 X2.02710 Y0.56608
G01 X2.03064 Y0.56537
G01 X2.03382 Y0.56505
G01 X2.03743 Y0.56504
G01 X2.04101 Y0.56540
G01 X2.04415 Y0.56603
G01 X2.04760 Y0.56708
G01 X2.05056 Y0.56830
G01 X2.05374 Y0.56999
G01 X2.05673 Y0.57200
G01 X2.05921 Y0.57404
G01 X2.06148 Y0.57630
G01 X2.06378 Y0.57907
G01 X2.06578 Y0.58207
G01 X2.06747 Y0.58525
G01 X2.06882 Y0.58859
G01 X2.06972 Y0.59167
G01 X2.07034 Y0.59481
G01 X2.07069 Y0.59840
G01 X2.07067 Y0.60200
G01 X2.07028 Y0.60558
G01 X2.06962 Y0.60872
G01 X2.06855 Y0.61216
G01 X2.06712 Y0.61547
G01 X2.06558 Y0.61827
G01 X2.06378 Y0.62093
G01 X2.06148 Y0.62370
G01 X2.05891 Y0.62622
G01 X2.05641 Y0.62823
G01 X2.05374 Y0.63001
G01 X2.05056 Y0.63170
G01 X2.04760 Y0.63292
G01 X2.04415 Y0.63397
G01 X2.04101 Y0.63460
G01 X2.03743 Y0.63496
G01 X2.03382 Y0.63495
G01 X2.03064 Y0.63463
G01 X2.02710 Y0.63392
G01 X2.02404 Y0.63299
G01 X2.02107 Y0.63178
G01 X2.01788 Y0.63011
G01 X2.01520 Y0.62835
G01 X2.01240 Y0.62609
G01 X2.01011 Y0.62385
G01 X2.00779 Y0.62109
G01 X2.00577 Y0.61810
G01 X2.00424 Y0.61529
G01 X2.00298 Y0.61235
G01 X2.00188 Y0.60891
G01 X2.00114 Y0.60539
G01 X2.00077 Y0.60180
G01 X2.00075 Y0.59860
G04 P0 ( dwell for no time -- G64 should not smooth over this point )
G00 Z0.08000 ( retract )

G00 X2.00075 Y0.69860 ( rapid move to begin. )
G01 F180.00000
( Mill infeed pass 1/1 )
G01 Z-0.04000
G04 P0 ( dwell for no time -- G64 should not smooth over this point )
G01 F360.00000
G01 X2.00075 Y0.69860
G01 X2.00108 Y0.69501
G01 X2.00178 Y0.69147
G01 X2.00270 Y0.68841
G01 X2.00390 Y0.68544
G01 X2.00557 Y0.68224
G01 X2.00755 Y0.67923
G01 X2.00957 Y0.67674
G01 X2.01180 Y0.67445
G01 X2.01456 Y0.67213
G01 X2.01754 Y0.67010
G01 X2.02035 Y0.66856
G01 X2.02366 Y0.66714
G01 X2.02710 Y0.66608
G01 X2.03064 Y0.66537
G01 X2.03382 Y0.66505
G01 X2.03743 Y0.66504
G01 X2.04101 Y0.66540
G01 X2.04415 Y0.66603
G01 X2.04760 Y0.66708
G01 X2.05056 Y0.66830
G01 X2.05374 Y0.66999
G01 X2.05673 Y0.67200
G01 X2.05921 Y0.67404
G01 X2.06148 Y0.67630
G01 X2.06378 Y0.67907
G01 X2.06578 Y0.68207
G01 X2.06747 Y0.68525
G01 X2.06882 Y0.68859
G01 X2.06972 Y0.69167
G01 X2.07034 Y0.69481
G01 X2.07069 Y0.69840
G01 X2.07067 Y0.70200
G01 X2.07028 Y0.70558
G01 X2.06962 Y0.70872
G01 X2.06855 Y0.71216
G01 X2.06712 Y0.71547
G01 X2.06558 Y0.71827
G01 X2.06378 Y0.72093
G01 X2.06148 Y0.72370
G01 X2.05891 Y0.72622
G01 X2.05641 Y0.72823
G01 X2.05374 Y0.73001
G01 X2.05056 Y0.73170
G01 X2.04760 Y0.73292
G01 X2.04415 Y0.73397
G01 X2.04101 Y0.73460
G01 X2.03743 Y0.73496
G01 X2.03382 Y0.73495
G01 X2.03064 Y0.73463
G01 X2.02710 Y0.73392
G01 X2.02404 Y0.73299
G01 X2.02107 Y0.73178
G01 X2.01788 Y0.73011
G01 X2.01520 Y0.72835
G01 X2.01240 Y0.72609
G01 X2.01011 Y0.72385
G01 X2.00779 Y0.72109
G01 X2.00577 Y0.71810
G01 X2.00424 Y0.71529
G01 X2.00298 Y0.71235
G01 X2.00188 Y0.70891
G01 X2.00114 Y0.70539
G01 X2.00077 Y0.70180
G01 X2.00075 Y0.69860
G04 P0 ( dwell for no time -- G64 should not smooth over this point )
G00 Z0.08000 ( retract )

G00 X2.00073 Y0.79940 ( rapid move to begin. )
G01 F180.00000
( Mill infeed pass 1/1 )
G01 Z-0.04000
G04 P0 ( dwell for no time -- G64 should not smooth over this point )
G01 F360.00000
G01 X2.00073 Y0.79940
G01 X2.00098 Y0.79580
G01 X2.00159 Y0.79225
G01 X2.00245 Y0.78917
G01 X2.00358 Y0.78617
G01 X2.00517 Y0.78294
G01 X2.00686 Y0.78021
G01 X2.00904 Y0.77735
G01 X2.01151 Y0.77472
G01 X2.01424 Y0.77237
G01 X2.01720 Y0.77031
G01 X2.01999 Y0.76874
G01 X2.02291 Y0.76743
G01 X2.02633 Y0.76628
G01 X2.02945 Y0.76557
G01 X2.03302 Y0.76510
G01 X2.03663 Y0.76501
G01 X2.03982 Y0.76524
G01 X2.04337 Y0.76584
G01 X2.04685 Y0.76681
G01 X2.04983 Y0.76797
G01 X2.05305 Y0.76959
G01 X2.05609 Y0.77153
G01 X2.05860 Y0.77351
G01 X2.06093 Y0.77572
G01 X2.06329 Y0.77844
G01 X2.06537 Y0.78138
G01 X2.06694 Y0.78417
G01 X2.06840 Y0.78747
G01 X2.06941 Y0.79051
G01 X2.07014 Y0.79363
G01 X2.07061 Y0.79720
G01 X2.07072 Y0.80080
G01 X2.07050 Y0.80400
G01 X2.06990 Y0.80755
G01 X2.06894 Y0.81102
G01 X2.06780 Y0.81402
G01 X2.06619 Y0.81724
G01 X2.06448 Y0.81995
G01 X2.06228 Y0.82280
G01 X2.05979 Y0.82541
G01 X2.05737 Y0.82751
G01 X2.05443 Y0.82959
G01 X2.05164 Y0.83117
G01 X2.04835 Y0.83264
G01 X2.04532 Y0.83366
G01 X2.04180 Y0.83447
G01 X2.03863 Y0.83488
G01 X2.03503 Y0.83499
G01 X2.03183 Y0.83478
G01 X2.02827 Y0.83420
G01 X2.02480 Y0.83325
G01 X2.02144 Y0.83195
G01 X2.01857 Y0.83051
G01 X2.01586 Y0.82881
G01 X2.01300 Y0.82662
G01 X2.01038 Y0.82414
G01 X2.00828 Y0.82172
G01 X2.00619 Y0.81878
G01 X2.00460 Y0.81600
G01 X2.00312 Y0.81272
G01 X2.00198 Y0.80930
G01 X2.00121 Y0.80578
G01 X2.00082 Y0.80260
G01 X2.00073 Y0.79940
G04 P0 ( dwell for no time -- G64 should not smooth over this point )
G00 Z0.08000 ( retract )

G00 X1.79029 Y0.95339 ( rapid move to begin. )
G01 F180.00000
( Mill infeed pass 1/1 )
G01 Z-0.04000
G04 P0 ( dwell for no time -- G64 should not smooth over this point )
G01 F360.00000
G01 X1.79029 Y0.95339
G01 X1.79029 Y1.01638
G01 X1.86116 Y1.01638
G01 X1.86116 Y0.95339
G01 X1.79029 Y0.95339
G04 P0 ( dwell for no time -- G64 should not smooth over this point )
G00 Z0.08000 ( retract )

G00 X1.65023 Y1.07100 ( rapid move to begin. )
G01 F180.00000
( Mill infeed pass 1/1 )
G01 Z-0.04000
G04 P0 ( dwell for no time -- G64 should not smooth over this point )
G01 F360.00000
G01 X1.65023 Y1.07100
G01 X1.72122 Y1.07100
G01 X1.72122 Y1.13400
G01 X1.65023 Y1.13400
G01 X1.65023 Y1.07100
G04 P0 ( dwell for no time -- G64 should not smooth over this point )
G00 Z0.08000 ( retract )

G00 X1.65023 Y0.94600 ( rapid move to begin. )
G01 F180.00000
( Mill infeed pass 1/1 )
G01 Z-0.04000
G04 P0 ( dwell for no time -- G64 should not smooth over this point )
G01 F360.00000
G01 X1.65023 Y0.94600
G01 X1.72122 Y0.94600
G01 X1.72122 Y1.00900
G01 X1.65023 Y1.00900
G01 X1.65023 Y0.94600
G04 P0 ( dwell for no time -- G64 should not smooth over this point )
G00 Z0.08000 ( retract )

G00 X1.79029 Y1.06362 ( rapid move to begin. )
G01 F180.00000
( Mill infeed pass 1/1 )
G01 Z-0.04000
G04 P0 ( dwell for no time -- G64 should not smooth over this point )
G01 F360.00000
G01 X1.79029 Y1.06362
G01 X1.86116 Y1.06362
G01 X1.86116 Y1.12661
G01 X1.79029 Y1.12661
G01 X1.79029 Y1.06362
G04 P0 ( dwell for no time -- G64 should not smooth over this point )
G00 Z0.08000 ( retract )

G00 X1.90923 Y0.96450 ( rapid move to begin. )
G01 F180.00000
( Mill infeed pass 1/1 )
G01 Z-0.04000
G04 P0 ( dwell for no time -- G64 should not smooth over this point )
G01 F360.00000
G01 X1.90923 Y0.96450
G01 X1.97023 Y0.96450
G01 X1.97023 Y0.98550
G01 X1.90923 Y0.98550
G01 X1.90923 Y0.96450
G04 P0 ( dwell for no time -- G64 should not smooth over this point )
G00 Z0.08000 ( retract )

G00 X1.90923 Y1.01450 ( rapid move to begin. )
G01 F180.00000
( Mill infeed pass 1/1 )
G01 Z-0.04000
G04 P0 ( dwell for no time -- G64 should not smooth over this point )
G01 F360.00000
G01 X1.90923 Y1.01450
G01 X1.97023 Y1.01450
G01 X1.97023 Y1.03550
G01 X1.90923 Y1.03550
G01 X1.90923 Y1.01450
G04 P0 ( dwell for no time -- G64 should not smooth over this point )
G00 Z0.08000 ( retract )

G00 X1.90923 Y1.06450 ( rapid move to begin. )
G01 F180.00000
( Mill infeed pass 1/1 )
G01 Z-0.04000
G04 P0 ( dwell for no time -- G64 should not smooth over this point )
G01 F360.00000
G01 X1.90923 Y1.06450
G01 X1.97023 Y1.06450
G01 X1.97023 Y1.08550
G01 X1.90923 Y1.08550
G01 X1.90923 Y1.06450
G04 P0 ( dwell for no time -- G64 should not smooth over this point )
G00 Z0.08000 ( retract )

G00 X1.90923 Y1.11450 ( rapid move to begin. )
G01 F180.00000
( Mill infeed pass 1/1 )
G01 Z-0.04000
G04 P0 ( dwell for no time -- G64 should not smooth over this point )
G01 F360.00000
G01 X1.90923 Y1.11450
G01 X1.97023 Y1.11450
G01 X1.97023 Y1.13550
G01 X1.90923 Y1.13550
G01 X1.90923 Y1.11450
G04 P0 ( dwell for no time -- G64 should not smooth over this point )
G00 Z0.08000 ( retract )

G00 X1.99911 Y1.16457 ( rapid move to begin. )
G01 F180.00000
( Mill infeed pass 1/1 )
G01 Z-0.04000
G04 P0 ( dwell for no time -- G64 should not smooth over this point )
G01 F360.00000
G01 X1.99911 Y1.16457
G01 X2.06210 Y1.16457
G01 X2.06210 Y1.23543
G01 X1.99911 Y1.23543
G01 X1.99911 Y1.16457
G04 P0 ( dwell for no time -- G64 should not smooth over this point )
G00 Z0.08000 ( retract )

G00 X2.10935 Y1.16457 ( rapid move to begin. )
G01 F180.00000
( Mill infeed pass 1/1 )
G01 Z-0.04000
G04 P0 ( dwell for no time -- G64 should not smooth over this point )
G01 F360.00000
G01 X2.10935 Y1.16457
G01 X2.17234 Y1.16457
G01 X2.17234 Y1.23543
G01 X2.10935 Y1.23543
G01 X2.10935 Y1.16457
G04 P0 ( dwell for no time -- G64 should not smooth over this point )
G00 Z0.08000 ( retract )

G00 X2.20123 Y1.11450 ( rapid move to begin. )
G01 F180.00000
( Mill infeed pass 1/1 )
G01 Z-0.04000
G04 P0 ( dwell for no time -- G64 should not smooth over this point )
G01 F360.00000
G01 X2.20123 Y1.11450
G01 X2.26223 Y1.11450
G01 X2.26223 Y1.13550
G01 X2.20123 Y1.13550
G01 X2.20123 Y1.11450
G04 P0 ( dwell for no time -- G64 should not smooth over this point )
G00 Z0.08000 ( retract )

G00 X2.20123 Y1.06450 ( rapid move to begin. )
G01 F180.00000
( Mill infeed pass 1/1 )
G01 Z-0.04000
G04 P0 ( dwell for no time -- G64 should not smooth over this point )
G01 F360.00000
G01 X2.20123 Y1.06450
G01 X2.26223 Y1.06450
G01 X2.26223 Y1.08550
G01 X2.20123 Y1.08550
G01 X2.20123 Y1.06450
G04 P0 ( dwell for no time -- G64 should not smooth over this point )
G00 Z0.08000 ( retract )

G00 X2.20123 Y1.01450 ( rapid move to begin. )
G01 F180.00000
( Mill infeed pass 1/1 )
G01 Z-0.04000
G04 P0 ( dwell for no time -- G64 should not smooth over this point )
G01 F360.00000
G01 X2.20123 Y1.01450
G01 X2.26223 Y1.01450
G01 X2.26223 Y1.03550
G01 X2.20123 Y1.03550
G01 X2.20123 Y1.01450
G04 P0 ( dwell for no time -- G64 should not smooth over this point )
G00 Z0.08000 ( retract )

G00 X2.20123 Y0.96450 ( rapid move to begin. )
G01 F180.00000
( Mill infeed pass 1/1 )
G01 Z-0.04000
G04 P0 ( dwell for no time -- G64 should not smooth over this point )
G01 F360.00000
G01 X2.20123 Y0.96450
G01 X2.26223 Y0.96450
G01 X2.26223 Y0.98550
G01 X2.20123 Y0.98550
G01 X2.20123 Y0.96450
G04 P0 ( dwell for no time -- G64 should not smooth over this point )
G00 Z0.08000 ( retract )

G00 X2.21604 Y0.76299 ( rapid move to begin. )
G01 F180.00000
( Mill infeed pass 1/1 )
G01 Z-0.04000
G04 P0 ( dwell for no time -- G64 should not smooth over this point )
G01 F360.00000
G01 X2.21604 Y0.76299
G01 X2.25541 Y0.76299
G01 X2.25541 Y0.88110
G01 X2.21604 Y0.88110
G01 X2.21604 Y0.76299
G04 P0 ( dwell for no time -- G64 should not smooth over this point )
G00 Z0.08000 ( retract )

G00 X2.39253 Y0.69840 ( rapid move to begin. )
G01 F180.00000
( Mill infeed pass 1/1 )
G01 Z-0.04000
G04 P0 ( dwell for no time -- G64 should not smooth over this point )
G01 F360.00000
G01 X2.39253 Y0.69840
G01 X2.39284 Y0.69481
G01 X2.39355 Y0.69088
G01 X2.39466 Y0.68703
G01 X2.39614 Y0.68332
G01 X2.39799 Y0.67977
G01 X2.40018 Y0.67642
G01 X2.40244 Y0.67361
G01 X2.40522 Y0.67074
G01 X2.40828 Y0.66816
G01 X2.41158 Y0.66590
G01 X2.41473 Y0.66416
G01 X2.41840 Y0.66257
G01 X2.42221 Y0.66134
G01 X2.42612 Y0.66051
G01 X2.43010 Y0.66007
G01 X2.43370 Y0.66002
G01 X2.43769 Y0.66034
G01 X2.44162 Y0.66105
G01 X2.44547 Y0.66216
G01 X2.44882 Y0.66348
G01 X2.45238 Y0.66529
G01 X2.45575 Y0.66745
G01 X2.45888 Y0.66994
G01 X2.46175 Y0.67272
G01 X2.46433 Y0.67578
G01 X2.46659 Y0.67908
G01 X2.46851 Y0.68259
G01 X2.47007 Y0.68628
G01 X2.47125 Y0.69010
G01 X2.47205 Y0.69402
G01 X2.47243 Y0.69760
G01 X2.47248 Y0.70120
G01 X2.47216 Y0.70519
G01 X2.47144 Y0.70912
G01 X2.47034 Y0.71297
G01 X2.46902 Y0.71632
G01 X2.46721 Y0.71988
G01 X2.46505 Y0.72325
G01 X2.46256 Y0.72639
G01 X2.45977 Y0.72926
G01 X2.45672 Y0.73184
G01 X2.45341 Y0.73410
G01 X2.45026 Y0.73584
G01 X2.44660 Y0.73743
G01 X2.44279 Y0.73865
G01 X2.43887 Y0.73949
G01 X2.43490 Y0.73993
G01 X2.43130 Y0.73998
G01 X2.42731 Y0.73966
G01 X2.42337 Y0.73894
G01 X2.41953 Y0.73784
G01 X2.41581 Y0.73635
G01 X2.41227 Y0.73451
G01 X2.40892 Y0.73231
G01 X2.40581 Y0.72980
G01 X2.40297 Y0.72698
G01 X2.40042 Y0.72390
G01 X2.39840 Y0.72092
G01 X2.39648 Y0.71741
G01 X2.39493 Y0.71372
G01 X2.39374 Y0.70990
G01 X2.39295 Y0.70598
G01 X2.39257 Y0.70240
G01 X2.39253 Y0.69840
G04 P0 ( dwell for no time -- G64 should not smooth over this point )
G00 Z0.08000 ( retract )

G00 X2.47235 Y0.97379 ( rapid move to begin. )
G01 F180.00000
( Mill infeed pass 1/1 )
G01 Z-0.04000
G04 P0 ( dwell for no time -- G64 should not smooth over this point )
G01 F360.00000
G01 X2.47235 Y0.97379
G01 X2.47235 Y0.97739
G01 X2.47272 Y0.98098
G01 X2.47336 Y0.98412
G01 X2.47428 Y0.98718
G01 X2.47564 Y0.99052
G01 X2.47735 Y0.99369
G01 X2.47913 Y0.99636
G01 X2.48114 Y0.99884
G01 X2.48367 Y1.00141
G01 X2.48645 Y1.00370
G01 X2.48911 Y1.00549
G01 X2.49192 Y1.00703
G01 X2.49524 Y1.00845
G01 X2.49868 Y1.00951
G01 X2.50182 Y1.01016
G01 X2.50540 Y1.01054
G01 X2.50900 Y1.01055
G01 X2.51259 Y1.01019
G01 X2.51573 Y1.00956
G01 X2.51918 Y1.00851
G01 X2.52250 Y1.00712
G01 X2.52532 Y1.00560
G01 X2.52831 Y1.00358
G01 X2.53078 Y1.00155
G01 X2.53332 Y0.99899
G01 X2.53559 Y0.99620
G01 X2.53736 Y0.99352
G01 X2.53904 Y0.99034
G01 X2.54026 Y0.98737
G01 X2.54120 Y0.98431
G01 X2.54191 Y0.98078
G01 X2.54226 Y0.97719
G01 X2.54226 Y0.97399
G01 X2.54191 Y0.97040
G01 X2.54129 Y0.96726
G01 X2.54026 Y0.96381
G01 X2.53904 Y0.96084
G01 X2.53756 Y0.95800
G01 X2.53559 Y0.95498
G01 X2.53332 Y0.95218
G01 X2.53078 Y0.94963
G01 X2.52831 Y0.94760
G01 X2.52532 Y0.94558
G01 X2.52250 Y0.94406
G01 X2.51918 Y0.94267
G01 X2.51573 Y0.94162
G01 X2.51259 Y0.94099
G01 X2.50900 Y0.94063
G01 X2.50580 Y0.94062
G01 X2.50261 Y0.94091
G01 X2.49907 Y0.94157
G01 X2.49561 Y0.94260
G01 X2.49265 Y0.94381
G01 X2.48980 Y0.94528
G01 X2.48678 Y0.94724
G01 X2.48397 Y0.94950
G01 X2.48141 Y0.95204
G01 X2.47913 Y0.95482
G01 X2.47735 Y0.95749
G01 X2.47564 Y0.96066
G01 X2.47428 Y0.96400
G01 X2.47326 Y0.96745
G01 X2.47266 Y0.97060
G01 X2.47235 Y0.97379
G04 P0 ( dwell for no time -- G64 should not smooth over this point )
G00 Z0.08000 ( retract )

G00 X2.57073 Y0.97499 ( rapid move to begin. )
G01 F180.00000
( Mill infeed pass 1/1 )
G01 Z-0.04000
G04 P0 ( dwell for no time -- G64 should not smooth over this point )
G01 F360.00000
G01 X2.57073 Y0.97499
G01 X2.57082 Y0.97819
G01 X2.57121 Y0.98137
G01 X2.57198 Y0.98489
G01 X2.57312 Y0.98831
G01 X2.57460 Y0.99160
G01 X2.57619 Y0.99437
G01 X2.57828 Y0.99731
G01 X2.58066 Y1.00002
G01 X2.58300 Y1.00221
G01 X2.58586 Y1.00440
G01 X2.58857 Y1.00610
G01 X2.59144 Y1.00754
G01 X2.59480 Y1.00884
G01 X2.59827 Y1.00979
G01 X2.60143 Y1.01032
G01 X2.60503 Y1.01058
G01 X2.60863 Y1.01047
G01 X2.61220 Y1.00999
G01 X2.61532 Y1.00925
G01 X2.61873 Y1.00809
G01 X2.62164 Y1.00676
G01 X2.62443 Y1.00518
G01 X2.62737 Y1.00310
G01 X2.62979 Y1.00100
G01 X2.63228 Y0.99839
G01 X2.63448 Y0.99554
G01 X2.63619 Y0.99283
G01 X2.63780 Y0.98961
G01 X2.63894 Y0.98662
G01 X2.63990 Y0.98314
G01 X2.64050 Y0.97959
G01 X2.64072 Y0.97639
G01 X2.64061 Y0.97279
G01 X2.64014 Y0.96922
G01 X2.63941 Y0.96610
G01 X2.63840 Y0.96306
G01 X2.63694 Y0.95976
G01 X2.63515 Y0.95664
G01 X2.63329 Y0.95403
G01 X2.63093 Y0.95131
G01 X2.62860 Y0.94910
G01 X2.62609 Y0.94712
G01 X2.62305 Y0.94518
G01 X2.61983 Y0.94356
G01 X2.61684 Y0.94240
G01 X2.61337 Y0.94144
G01 X2.60982 Y0.94083
G01 X2.60663 Y0.94060
G01 X2.60302 Y0.94069
G01 X2.59945 Y0.94116
G01 X2.59633 Y0.94188
G01 X2.59291 Y0.94302
G01 X2.58999 Y0.94433
G01 X2.58686 Y0.94611
G01 X2.58424 Y0.94796
G01 X2.58151 Y0.95032
G01 X2.57904 Y0.95294
G01 X2.57686 Y0.95580
G01 X2.57517 Y0.95852
G01 X2.57374 Y0.96139
G01 X2.57245 Y0.96476
G01 X2.57159 Y0.96784
G01 X2.57098 Y0.97139
G01 X2.57073 Y0.97499
G04 P0 ( dwell for no time -- G64 should not smooth over this point )
G00 Z0.08000 ( retract )

G00 X2.66917 Y0.97459 ( rapid move to begin. )
G01 F180.00000
( Mill infeed pass 1/1 )
G01 Z-0.04000
G04 P0 ( dwell for no time -- G64 should not smooth over this point )
G01 F360.00000
G01 X2.66917 Y0.97459
G01 X2.66922 Y0.97779
G01 X2.66957 Y0.98098
G01 X2.67031 Y0.98450
G01 X2.67126 Y0.98756
G01 X2.67267 Y0.99088
G01 X2.67420 Y0.99369
G01 X2.67622 Y0.99668
G01 X2.67853 Y0.99944
G01 X2.68112 Y1.00195
G01 X2.68363 Y1.00394
G01 X2.68665 Y1.00590
G01 X2.68986 Y1.00754
G01 X2.69284 Y1.00871
G01 X2.69592 Y1.00961
G01 X2.69946 Y1.01027
G01 X2.70305 Y1.01057
G01 X2.70665 Y1.01050
G01 X2.70983 Y1.01013
G01 X2.71335 Y1.00936
G01 X2.71640 Y1.00838
G01 X2.71971 Y1.00694
G01 X2.72285 Y1.00518
G01 X2.72548 Y1.00334
G01 X2.72793 Y1.00128
G01 X2.73044 Y0.99869
G01 X2.73244 Y0.99620
G01 X2.73441 Y0.99318
G01 X2.73606 Y0.98997
G01 X2.73724 Y0.98699
G01 X2.73824 Y0.98353
G01 X2.73882 Y0.98038
G01 X2.73913 Y0.97679
G01 X2.73907 Y0.97319
G01 X2.73870 Y0.97001
G01 X2.73795 Y0.96648
G01 X2.73683 Y0.96306
G01 X2.73537 Y0.95976
G01 X2.73358 Y0.95664
G01 X2.73172 Y0.95403
G01 X2.72936 Y0.95131
G01 X2.72703 Y0.94910
G01 X2.72451 Y0.94712
G01 X2.72148 Y0.94518
G01 X2.71862 Y0.94372
G01 X2.71527 Y0.94240
G01 X2.71219 Y0.94153
G01 X2.70865 Y0.94088
G01 X2.70505 Y0.94060
G01 X2.70185 Y0.94067
G01 X2.69867 Y0.94102
G01 X2.69514 Y0.94177
G01 X2.69209 Y0.94273
G01 X2.68877 Y0.94415
G01 X2.68596 Y0.94569
G01 X2.68298 Y0.94772
G01 X2.68023 Y0.95004
G01 X2.67773 Y0.95264
G01 X2.67574 Y0.95515
G01 X2.67379 Y0.95818
G01 X2.67216 Y0.96139
G01 X2.67100 Y0.96437
G01 X2.67002 Y0.96784
G01 X2.66945 Y0.97100
G01 X2.66917 Y0.97459
G04 P0 ( dwell for no time -- G64 should not smooth over this point )
G00 Z0.08000 ( retract )

G00 X2.83789 Y1.03386 ( rapid move to begin. )
G01 F180.00000
( Mill infeed pass 1/1 )
G01 Z-0.04000
G04 P0 ( dwell for no time -- G64 should not smooth over this point )
G01 F360.00000
G01 X2.83789 Y1.03386
G01 X2.83789 Y1.08898
G01 X2.90679 Y1.08898
G01 X2.90679 Y1.03386
G01 X2.83789 Y1.03386
G04 P0 ( dwell for no time -- G64 should not smooth over this point )
G00 Z0.08000 ( retract )

G00 X2.83789 Y1.21102 ( rapid move to begin. )
G01 F180.00000
( Mill infeed pass 1/1 )
G01 Z-0.04000
G04 P0 ( dwell for no time -- G64 should not smooth over this point )
G01 F360.00000
G01 X2.83789 Y1.21102
G01 X2.83789 Y1.26614
G01 X2.90679 Y1.26614
G01 X2.90679 Y1.21102
G01 X2.83789 Y1.21102
G04 P0 ( dwell for no time -- G64 should not smooth over this point )
G00 Z0.08000 ( retract )

G00 X3.16466 Y1.21102 ( rapid move to begin. )
G01 F180.00000
( Mill infeed pass 1/1 )
G01 Z-0.04000
G04 P0 ( dwell for no time -- G64 should not smooth over this point )
G01 F360.00000
G01 X3.16466 Y1.21102
G01 X3.23356 Y1.21102
G01 X3.23356 Y1.26614
G01 X3.16466 Y1.26614
G01 X3.16466 Y1.21102
G04 P0 ( dwell for no time -- G64 should not smooth over this point )
G00 Z0.08000 ( retract )

G00 X3.16466 Y1.03386 ( rapid move to begin. )
G01 F180.00000
( Mill infeed pass 1/1 )
G01 Z-0.04000
G04 P0 ( dwell for no time -- G64 should not smooth over this point )
G01 F360.00000
G01 X3.16466 Y1.03386
G01 X3.23356 Y1.03386
G01 X3.23356 Y1.08898
G01 X3.16466 Y1.08898
G01 X3.16466 Y1.03386
G04 P0 ( dwell for no time -- G64 should not smooth over this point )
G00 Z0.08000 ( retract )

G00 X3.05073 Y0.79940 ( rapid move to begin. )
G01 F180.00000
( Mill infeed pass 1/1 )
G01 Z-0.04000
G04 P0 ( dwell for no time -- G64 should not smooth over this point )
G01 F360.00000
G01 X3.05073 Y0.79940
G01 X3.05082 Y0.80260
G01 X3.05121 Y0.80578
G01 X3.05198 Y0.80930
G01 X3.05312 Y0.81272
G01 X3.05460 Y0.81600
G01 X3.05619 Y0.81878
G01 X3.05828 Y0.82172
G01 X3.06038 Y0.82414
G01 X3.06300 Y0.82662
G01 X3.06586 Y0.82881
G01 X3.06857 Y0.83051
G01 X3.07144 Y0.83195
G01 X3.07480 Y0.83325
G01 X3.07827 Y0.83420
G01 X3.08183 Y0.83478
G01 X3.08503 Y0.83499
G01 X3.08863 Y0.83488
G01 X3.09180 Y0.83447
G01 X3.09532 Y0.83366
G01 X3.09835 Y0.83264
G01 X3.10164 Y0.83117
G01 X3.10443 Y0.82959
G01 X3.10737 Y0.82751
G01 X3.10979 Y0.82541
G01 X3.11228 Y0.82280
G01 X3.11448 Y0.81995
G01 X3.11619 Y0.81724
G01 X3.11780 Y0.81402
G01 X3.11894 Y0.81102
G01 X3.11990 Y0.80755
G01 X3.12050 Y0.80400
G01 X3.12072 Y0.80080
G01 X3.12061 Y0.79720
G01 X3.12014 Y0.79363
G01 X3.11941 Y0.79051
G01 X3.11840 Y0.78747
G01 X3.11694 Y0.78417
G01 X3.11537 Y0.78138
G01 X3.11329 Y0.77844
G01 X3.11093 Y0.77572
G01 X3.10860 Y0.77351
G01 X3.10609 Y0.77153
G01 X3.10305 Y0.76959
G01 X3.09983 Y0.76797
G01 X3.09685 Y0.76681
G01 X3.09337 Y0.76584
G01 X3.08982 Y0.76524
G01 X3.08663 Y0.76501
G01 X3.08302 Y0.76510
G01 X3.07945 Y0.76557
G01 X3.07633 Y0.76628
G01 X3.07291 Y0.76743
G01 X3.06999 Y0.76874
G01 X3.06720 Y0.77031
G01 X3.06424 Y0.77237
G01 X3.06151 Y0.77472
G01 X3.05904 Y0.77735
G01 X3.05686 Y0.78021
G01 X3.05517 Y0.78294
G01 X3.05358 Y0.78617
G01 X3.05245 Y0.78917
G01 X3.05159 Y0.79225
G01 X3.05098 Y0.79580
G01 X3.05073 Y0.79940
G04 P0 ( dwell for no time -- G64 should not smooth over this point )
G00 Z0.08000 ( retract )

G00 X3.15075 Y0.59860 ( rapid move to begin. )
G01 F180.00000
( Mill infeed pass 1/1 )
G01 Z-0.04000
G04 P0 ( dwell for no time -- G64 should not smooth over this point )
G01 F360.00000
G01 X3.15075 Y0.59860
G01 X3.15108 Y0.59501
G01 X3.15178 Y0.59147
G01 X3.15270 Y0.58841
G01 X3.15390 Y0.58544
G01 X3.15557 Y0.58224
G01 X3.15755 Y0.57923
G01 X3.15957 Y0.57674
G01 X3.16180 Y0.57445
G01 X3.16456 Y0.57213
G01 X3.16754 Y0.57010
G01 X3.17035 Y0.56856
G01 X3.17366 Y0.56715
G01 X3.17710 Y0.56608
G01 X3.18064 Y0.56537
G01 X3.18382 Y0.56505
G01 X3.18743 Y0.56504
G01 X3.19101 Y0.56540
G01 X3.19415 Y0.56603
G01 X3.19760 Y0.56708
G01 X3.20056 Y0.56830
G01 X3.20374 Y0.56999
G01 X3.20673 Y0.57200
G01 X3.20921 Y0.57404
G01 X3.21148 Y0.57630
G01 X3.21378 Y0.57907
G01 X3.21578 Y0.58207
G01 X3.21747 Y0.58525
G01 X3.21882 Y0.58859
G01 X3.21972 Y0.59167
G01 X3.22034 Y0.59481
G01 X3.22069 Y0.59840
G01 X3.22067 Y0.60200
G01 X3.22028 Y0.60558
G01 X3.21962 Y0.60872
G01 X3.21855 Y0.61216
G01 X3.21712 Y0.61547
G01 X3.21558 Y0.61827
G01 X3.21378 Y0.62093
G01 X3.21148 Y0.62370
G01 X3.20891 Y0.62622
G01 X3.20641 Y0.62823
G01 X3.20374 Y0.63001
G01 X3.20056 Y0.63170
G01 X3.19760 Y0.63292
G01 X3.19415 Y0.63397
G01 X3.19101 Y0.63460
G01 X3.18743 Y0.63496
G01 X3.18382 Y0.63495
G01 X3.18064 Y0.63463
G01 X3.17710 Y0.63392
G01 X3.17404 Y0.63299
G01 X3.17107 Y0.63178
G01 X3.16788 Y0.63011
G01 X3.16520 Y0.62835
G01 X3.16240 Y0.62609
G01 X3.16011 Y0.62385
G01 X3.15779 Y0.62109
G01 X3.15577 Y0.61810
G01 X3.15424 Y0.61529
G01 X3.15298 Y0.61235
G01 X3.15188 Y0.60891
G01 X3.15114 Y0.60539
G01 X3.15077 Y0.60180
G01 X3.15075 Y0.59860
G04 P0 ( dwell for no time -- G64 should not smooth over this point )
G00 Z0.08000 ( retract )

G00 X2.96673 Y0.46451 ( rapid move to begin. )
G01 F180.00000
( Mill infeed pass 1/1 )
G01 Z-0.04000
G04 P0 ( dwell for no time -- G64 should not smooth over this point )
G01 F360.00000
G01 X2.96673 Y0.46451
G01 X2.96673 Y0.53549
G01 X3.02972 Y0.53549
G01 X3.02972 Y0.46451
G01 X2.96673 Y0.46451
G04 P0 ( dwell for no time -- G64 should not smooth over this point )
G00 Z0.08000 ( retract )

G00 X3.00415 Y0.35757 ( rapid move to begin. )
G01 F180.00000
( Mill infeed pass 1/1 )
G01 Z-0.04000
G04 P0 ( dwell for no time -- G64 should not smooth over this point )
G01 F360.00000
G01 X3.00415 Y0.35757
G01 X3.00415 Y0.38243
G01 X3.02172 Y0.40000
G01 X3.04658 Y0.40000
G01 X3.06415 Y0.38243
G01 X3.06415 Y0.35757
G01 X3.04658 Y0.34000
G01 X3.02172 Y0.34000
G01 X3.00415 Y0.35757
G04 P0 ( dwell for no time -- G64 should not smooth over this point )
G00 Z0.08000 ( retract )

G00 X3.15023 Y0.33100 ( rapid move to begin. )
G01 F180.00000
( Mill infeed pass 1/1 )
G01 Z-0.04000
G04 P0 ( dwell for no time -- G64 should not smooth over this point )
G01 F360.00000
G01 X3.15023 Y0.33100
G01 X3.22122 Y0.33100
G01 X3.22122 Y0.39400
G01 X3.15023 Y0.39400
G01 X3.15023 Y0.33100
G04 P0 ( dwell for no time -- G64 should not smooth over this point )
G00 Z0.08000 ( retract )

G00 X3.15023 Y0.20600 ( rapid move to begin. )
G01 F180.00000
( Mill infeed pass 1/1 )
G01 Z-0.04000
G04 P0 ( dwell for no time -- G64 should not smooth over this point )
G01 F360.00000
G01 X3.15023 Y0.20600
G01 X3.22122 Y0.20600
G01 X3.22122 Y0.26900
G01 X3.15023 Y0.26900
G01 X3.15023 Y0.20600
G04 P0 ( dwell for no time -- G64 should not smooth over this point )
G00 Z0.08000 ( retract )

G00 X2.90573 Y0.35757 ( rapid move to begin. )
G01 F180.00000
( Mill infeed pass 1/1 )
G01 Z-0.04000
G04 P0 ( dwell for no time -- G64 should not smooth over this point )
G01 F360.00000
G01 X2.90573 Y0.35757
G01 X2.90573 Y0.38243
G01 X2.92330 Y0.40000
G01 X2.94815 Y0.40000
G01 X2.96573 Y0.38243
G01 X2.96573 Y0.35757
G01 X2.94815 Y0.34000
G01 X2.92330 Y0.34000
G01 X2.90573 Y0.35757
G04 P0 ( dwell for no time -- G64 should not smooth over this point )
G00 Z0.08000 ( retract )

G00 X2.80730 Y0.34000 ( rapid move to begin. )
G01 F180.00000
( Mill infeed pass 1/1 )
G01 Z-0.04000
G04 P0 ( dwell for no time -- G64 should not smooth over this point )
G01 F360.00000
G01 X2.80730 Y0.34000
G01 X2.80730 Y0.40000
G01 X2.86730 Y0.40000
G01 X2.86730 Y0.34000
G01 X2.80730 Y0.34000
G04 P0 ( dwell for no time -- G64 should not smooth over this point )
G00 Z0.08000 ( retract )

G00 X2.84173 Y0.46451 ( rapid move to begin. )
G01 F180.00000
( Mill infeed pass 1/1 )
G01 Z-0.04000
G04 P0 ( dwell for no time -- G64 should not smooth over this point )
G01 F360.00000
G01 X2.84173 Y0.46451
G01 X2.90472 Y0.46451
G01 X2.90472 Y0.53549
G01 X2.84173 Y0.53549
G01 X2.84173 Y0.46451
G04 P0 ( dwell for no time -- G64 should not smooth over this point )
G00 Z0.08000 ( retract )

G00 X2.95073 Y0.59940 ( rapid move to begin. )
G01 F180.00000
( Mill infeed pass 1/1 )
G01 Z-0.04000
G04 P0 ( dwell for no time -- G64 should not smooth over this point )
G01 F360.00000
G01 X2.95073 Y0.59940
G01 X2.95098 Y0.59580
G01 X2.95159 Y0.59225
G01 X2.95245 Y0.58917
G01 X2.95358 Y0.58617
G01 X2.95517 Y0.58293
G01 X2.95686 Y0.58021
G01 X2.95904 Y0.57735
G01 X2.96151 Y0.57473
G01 X2.96424 Y0.57237
G01 X2.96720 Y0.57031
G01 X2.96999 Y0.56874
G01 X2.97291 Y0.56743
G01 X2.97633 Y0.56629
G01 X2.97945 Y0.56557
G01 X2.98302 Y0.56510
G01 X2.98663 Y0.56501
G01 X2.98982 Y0.56524
G01 X2.99337 Y0.56585
G01 X2.99685 Y0.56681
G01 X2.99983 Y0.56797
G01 X3.00305 Y0.56959
G01 X3.00609 Y0.57153
G01 X3.00860 Y0.57351
G01 X3.01093 Y0.57571
G01 X3.01329 Y0.57844
G01 X3.01537 Y0.58138
G01 X3.01694 Y0.58417
G01 X3.01840 Y0.58747
G01 X3.01941 Y0.59051
G01 X3.02014 Y0.59363
G01 X3.02061 Y0.59720
G01 X3.02072 Y0.60080
G01 X3.02050 Y0.60400
G01 X3.01990 Y0.60755
G01 X3.01894 Y0.61102
G01 X3.01780 Y0.61401
G01 X3.01619 Y0.61724
G01 X3.01448 Y0.61995
G01 X3.01228 Y0.62280
G01 X3.00979 Y0.62541
G01 X3.00737 Y0.62751
G01 X3.00443 Y0.62958
G01 X3.00164 Y0.63117
G01 X2.99835 Y0.63264
G01 X2.99532 Y0.63366
G01 X2.99180 Y0.63447
G01 X2.98863 Y0.63488
G01 X2.98503 Y0.63499
G01 X2.98183 Y0.63478
G01 X2.97827 Y0.63420
G01 X2.97480 Y0.63325
G01 X2.97144 Y0.63195
G01 X2.96857 Y0.63051
G01 X2.96586 Y0.62881
G01 X2.96300 Y0.62662
G01 X2.96038 Y0.62414
G01 X2.95828 Y0.62172
G01 X2.95619 Y0.61878
G01 X2.95460 Y0.61601
G01 X2.95312 Y0.61272
G01 X2.95198 Y0.60930
G01 X2.95121 Y0.60578
G01 X2.95082 Y0.60260
G01 X2.95073 Y0.59940
G04 P0 ( dwell for no time -- G64 should not smooth over this point )
G00 Z0.08000 ( retract )

G00 X2.73897 Y0.69880 ( rapid move to begin. )
G01 F180.00000
( Mill infeed pass 1/1 )
G01 Z-0.04000
G04 P0 ( dwell for no time -- G64 should not smooth over this point )
G01 F360.00000
G01 X2.73897 Y0.69880
G01 X2.73903 Y0.70240
G01 X2.73940 Y0.70598
G01 X2.74020 Y0.70990
G01 X2.74138 Y0.71372
G01 X2.74294 Y0.71741
G01 X2.74486 Y0.72092
G01 X2.74712 Y0.72422
G01 X2.74970 Y0.72728
G01 X2.75257 Y0.73006
G01 X2.75570 Y0.73255
G01 X2.75907 Y0.73471
G01 X2.76264 Y0.73652
G01 X2.76599 Y0.73784
G01 X2.76983 Y0.73894
G01 X2.77377 Y0.73966
G01 X2.77775 Y0.73998
G01 X2.78135 Y0.73993
G01 X2.78533 Y0.73949
G01 X2.78924 Y0.73865
G01 X2.79305 Y0.73743
G01 X2.79672 Y0.73584
G01 X2.79987 Y0.73410
G01 X2.80317 Y0.73184
G01 X2.80623 Y0.72926
G01 X2.80902 Y0.72639
G01 X2.81127 Y0.72358
G01 X2.81346 Y0.72023
G01 X2.81531 Y0.71668
G01 X2.81679 Y0.71297
G01 X2.81790 Y0.70912
G01 X2.81862 Y0.70519
G01 X2.81892 Y0.70160
G01 X2.81888 Y0.69760
G01 X2.81850 Y0.69402
G01 X2.81771 Y0.69010
G01 X2.81653 Y0.68628
G01 X2.81497 Y0.68259
G01 X2.81305 Y0.67908
G01 X2.81103 Y0.67610
G01 X2.80848 Y0.67302
G01 X2.80564 Y0.67020
G01 X2.80253 Y0.66769
G01 X2.79918 Y0.66549
G01 X2.79564 Y0.66365
G01 X2.79192 Y0.66216
G01 X2.78808 Y0.66105
G01 X2.78414 Y0.66034
G01 X2.78015 Y0.66002
G01 X2.77655 Y0.66007
G01 X2.77258 Y0.66051
G01 X2.76867 Y0.66134
G01 X2.76486 Y0.66257
G01 X2.76119 Y0.66416
G01 X2.75804 Y0.66590
G01 X2.75474 Y0.66816
G01 X2.75168 Y0.67074
G01 X2.74889 Y0.67361
G01 X2.74641 Y0.67675
G01 X2.74425 Y0.68012
G01 X2.74243 Y0.68368
G01 X2.74111 Y0.68703
G01 X2.74001 Y0.69088
G01 X2.73929 Y0.69481
G01 X2.73897 Y0.69880
( Piece #3, position [0;1] )

G04 P0 ( dwell for no time -- G64 should not smooth over this point )
G00 Z0.08000 ( retract )

G00 X2.05075 Y1.51114 ( rapid move to begin. )
G01 F180.00000
( Mill infeed pass 1/1 )
G01 Z-0.04000
G04 P0 ( dwell for no time -- G64 should not smooth over this point )
G01 F360.00000
G01 X2.05075 Y1.51114
G01 X2.05077 Y1.51434
G01 X2.05114 Y1.51792
G01 X2.05188 Y1.52145
G01 X2.05298 Y1.52488
G01 X2.05424 Y1.52783
G01 X2.05577 Y1.53064
G01 X2.05779 Y1.53362
G01 X2.06011 Y1.53638
G01 X2.06240 Y1.53863
G01 X2.06520 Y1.54089
G01 X2.06788 Y1.54265
G01 X2.07107 Y1.54432
G01 X2.07404 Y1.54553
G01 X2.07710 Y1.54646
G01 X2.08064 Y1.54717
G01 X2.08382 Y1.54749
G01 X2.08743 Y1.54750
G01 X2.09101 Y1.54714
G01 X2.09415 Y1.54651
G01 X2.09760 Y1.54546
G01 X2.10056 Y1.54424
G01 X2.10374 Y1.54254
G01 X2.10641 Y1.54077
G01 X2.10891 Y1.53876
G01 X2.11148 Y1.53624
G01 X2.11378 Y1.53346
G01 X2.11558 Y1.53081
G01 X2.11712 Y1.52801
G01 X2.11855 Y1.52470
G01 X2.11962 Y1.52126
G01 X2.12028 Y1.51812
G01 X2.12067 Y1.51454
G01 X2.12069 Y1.51094
G01 X2.12034 Y1.50735
G01 X2.11972 Y1.50421
G01 X2.11882 Y1.50113
G01 X2.11747 Y1.49779
G01 X2.11578 Y1.49461
G01 X2.11378 Y1.49161
G01 X2.11148 Y1.48884
G01 X2.10921 Y1.48658
G01 X2.10673 Y1.48454
G01 X2.10374 Y1.48253
G01 X2.10056 Y1.48084
G01 X2.09760 Y1.47961
G01 X2.09415 Y1.47857
G01 X2.09101 Y1.47794
G01 X2.08743 Y1.47758
G01 X2.08382 Y1.47759
G01 X2.08064 Y1.47791
G01 X2.07710 Y1.47862
G01 X2.07366 Y1.47968
G01 X2.07035 Y1.48110
G01 X2.06754 Y1.48263
G01 X2.06456 Y1.48466
G01 X2.06180 Y1.48699
G01 X2.05957 Y1.48928
G01 X2.05755 Y1.49177
G01 X2.05557 Y1.49478
G01 X2.05390 Y1.49797
G01 X2.05270 Y1.50094
G01 X2.05178 Y1.50401
G01 X2.05108 Y1.50755
G01 X2.05075 Y1.51114
G04 P0 ( dwell for no time -- G64 should not smooth over this point )
G00 Z0.08000 ( retract )

G00 X2.15075 Y1.51114 ( rapid move to begin. )
G01 F180.00000
( Mill infeed pass 1/1 )
G01 Z-0.04000
G04 P0 ( dwell for no time -- G64 should not smooth over this point )
G01 F360.00000
G01 X2.15075 Y1.51114
G01 X2.15077 Y1.51434
G01 X2.15114 Y1.51792
G01 X2.15188 Y1.52145
G01 X2.15298 Y1.52488
G01 X2.15424 Y1.52783
G01 X2.15577 Y1.53064
G01 X2.15779 Y1.53362
G01 X2.16011 Y1.53638
G01 X2.16240 Y1.53863
G01 X2.16520 Y1.54089
G01 X2.16788 Y1.54265
G01 X2.17107 Y1.54432
G01 X2.17404 Y1.54553
G01 X2.17710 Y1.54646
G01 X2.18064 Y1.54717
G01 X2.18382 Y1.54749
G01 X2.18743 Y1.54750
G01 X2.19101 Y1.54714
G01 X2.19415 Y1.54651
G01 X2.19760 Y1.54546
G01 X2.20056 Y1.54424
G01 X2.20374 Y1.54254
G01 X2.20641 Y1.54077
G01 X2.20891 Y1.53876
G01 X2.21148 Y1.53624
G01 X2.21378 Y1.53346
G01 X2.21558 Y1.53081
G01 X2.21712 Y1.52801
G01 X2.21855 Y1.52470
G01 X2.21962 Y1.52126
G01 X2.22028 Y1.51812
G01 X2.22067 Y1.51454
G01 X2.22069 Y1.51094
G01 X2.22034 Y1.50735
G01 X2.21972 Y1.50421
G01 X2.21882 Y1.50113
G01 X2.21747 Y1.49779
G01 X2.21578 Y1.49461
G01 X2.21378 Y1.49161
G01 X2.21148 Y1.48884
G01 X2.20921 Y1.48658
G01 X2.20673 Y1.48454
G01 X2.20374 Y1.48253
G01 X2.20056 Y1.48084
G01 X2.19760 Y1.47961
G01 X2.19415 Y1.47857
G01 X2.19101 Y1.47794
G01 X2.18743 Y1.47758
G01 X2.18382 Y1.47759
G01 X2.18064 Y1.47791
G01 X2.17710 Y1.47862
G01 X2.17366 Y1.47968
G01 X2.17035 Y1.48110
G01 X2.16754 Y1.48263
G01 X2.16456 Y1.48466
G01 X2.16180 Y1.48699
G01 X2.15957 Y1.48928
G01 X2.15755 Y1.49177
G01 X2.15557 Y1.49478
G01 X2.15390 Y1.49797
G01 X2.15270 Y1.50094
G01 X2.15178 Y1.50401
G01 X2.15108 Y1.50755
G01 X2.15075 Y1.51114
G04 P0 ( dwell for no time -- G64 should not smooth over this point )
G00 Z0.08000 ( retract )

G00 X2.25075 Y1.51114 ( rapid move to begin. )
G01 F180.00000
( Mill infeed pass 1/1 )
G01 Z-0.04000
G04 P0 ( dwell for no time -- G64 should not smooth over this point )
G01 F360.00000
G01 X2.25075 Y1.51114
G01 X2.25108 Y1.50755
G01 X2.25178 Y1.50401
G01 X2.25270 Y1.50094
G01 X2.25390 Y1.49797
G01 X2.25557 Y1.49478
G01 X2.25755 Y1.49177
G01 X2.25957 Y1.48928
G01 X2.26180 Y1.48699
G01 X2.26456 Y1.48466
G01 X2.26754 Y1.48263
G01 X2.27035 Y1.48110
G01 X2.27366 Y1.47968
G01 X2.27710 Y1.47862
G01 X2.28064 Y1.47791
G01 X2.28382 Y1.47759
G01 X2.28743 Y1.47758
G01 X2.29101 Y1.47794
G01 X2.29415 Y1.47857
G01 X2.29760 Y1.47961
G01 X2.30056 Y1.48084
G01 X2.30374 Y1.48253
G01 X2.30673 Y1.48454
G01 X2.30921 Y1.48658
G01 X2.31148 Y1.48884
G01 X2.31378 Y1.49161
G01 X2.31578 Y1.49461
G01 X2.31747 Y1.49779
G01 X2.31882 Y1.50113
G01 X2.31972 Y1.50421
G01 X2.32034 Y1.50735
G01 X2.32069 Y1.51094
G01 X2.32067 Y1.51454
G01 X2.32028 Y1.51812
G01 X2.31962 Y1.52126
G01 X2.31855 Y1.52470
G01 X2.31712 Y1.52801
G01 X2.31558 Y1.53081
G01 X2.31378 Y1.53346
G01 X2.31148 Y1.53624
G01 X2.30891 Y1.53876
G01 X2.30641 Y1.54077
G01 X2.30374 Y1.54254
G01 X2.30056 Y1.54424
G01 X2.29760 Y1.54546
G01 X2.29415 Y1.54651
G01 X2.29101 Y1.54714
G01 X2.28743 Y1.54750
G01 X2.28382 Y1.54749
G01 X2.28064 Y1.54717
G01 X2.27710 Y1.54646
G01 X2.27404 Y1.54553
G01 X2.27107 Y1.54432
G01 X2.26788 Y1.54265
G01 X2.26520 Y1.54089
G01 X2.26240 Y1.53863
G01 X2.26011 Y1.53638
G01 X2.25779 Y1.53362
G01 X2.25577 Y1.53064
G01 X2.25424 Y1.52783
G01 X2.25298 Y1.52488
G01 X2.25188 Y1.52145
G01 X2.25114 Y1.51792
G01 X2.25077 Y1.51434
G01 X2.25075 Y1.51114
G04 P0 ( dwell for no time -- G64 should not smooth over this point )
G00 Z0.08000 ( retract )

G00 X2.21604 Y1.57750 ( rapid move to begin. )
G01 F180.00000
( Mill infeed pass 1/1 )
G01 Z-0.04000
G04 P0 ( dwell for no time -- G64 should not smooth over this point )
G01 F360.00000
G01 X2.21604 Y1.57750
G01 X2.25541 Y1.57750
G01 X2.25541 Y1.69561
G01 X2.21604 Y1.69561
G01 X2.21604 Y1.57750
G04 P0 ( dwell for no time -- G64 should not smooth over this point )
G00 Z0.08000 ( retract )

G00 X2.00075 Y1.66114 ( rapid move to begin. )
G01 F180.00000
( Mill infeed pass 1/1 )
G01 Z-0.04000
G04 P0 ( dwell for no time -- G64 should not smooth over this point )
G01 F360.00000
G01 X2.00075 Y1.66114
G01 X2.00108 Y1.65755
G01 X2.00178 Y1.65401
G01 X2.00270 Y1.65094
G01 X2.00390 Y1.64797
G01 X2.00557 Y1.64478
G01 X2.00755 Y1.64177
G01 X2.00957 Y1.63928
G01 X2.01180 Y1.63699
G01 X2.01456 Y1.63466
G01 X2.01754 Y1.63263
G01 X2.02035 Y1.63110
G01 X2.02366 Y1.62968
G01 X2.02710 Y1.62862
G01 X2.03064 Y1.62791
G01 X2.03382 Y1.62759
G01 X2.03743 Y1.62758
G01 X2.04101 Y1.62794
G01 X2.04415 Y1.62857
G01 X2.04760 Y1.62961
G01 X2.05056 Y1.63084
G01 X2.05374 Y1.63253
G01 X2.05673 Y1.63454
G01 X2.05921 Y1.63658
G01 X2.06148 Y1.63884
G01 X2.06378 Y1.64161
G01 X2.06578 Y1.64461
G01 X2.06747 Y1.64779
G01 X2.06882 Y1.65113
G01 X2.06972 Y1.65421
G01 X2.07034 Y1.65735
G01 X2.07069 Y1.66094
G01 X2.07067 Y1.66454
G01 X2.07028 Y1.66812
G01 X2.06962 Y1.67126
G01 X2.06855 Y1.67470
G01 X2.06712 Y1.67801
G01 X2.06558 Y1.68081
G01 X2.06378 Y1.68346
G01 X2.06148 Y1.68624
G01 X2.05891 Y1.68876
G01 X2.05641 Y1.69077
G01 X2.05374 Y1.69254
G01 X2.05056 Y1.69424
G01 X2.04760 Y1.69546
G01 X2.04415 Y1.69651
G01 X2.04101 Y1.69714
G01 X2.03743 Y1.69750
G01 X2.03382 Y1.69749
G01 X2.03064 Y1.69717
G01 X2.02710 Y1.69646
G01 X2.02404 Y1.69553
G01 X2.02107 Y1.69432
G01 X2.01788 Y1.69265
G01 X2.01520 Y1.69089
G01 X2.01240 Y1.68863
G01 X2.01011 Y1.68638
G01 X2.00779 Y1.68362
G01 X2.00577 Y1.68064
G01 X2.00424 Y1.67783
G01 X2.00298 Y1.67488
G01 X2.00188 Y1.67145
G01 X2.00114 Y1.66792
G01 X2.00077 Y1.66434
G01 X2.00075 Y1.66114
G04 P0 ( dwell for no time -- G64 should not smooth over this point )
G00 Z0.08000 ( retract )

G00 X2.00075 Y1.76114 ( rapid move to begin. )
G01 F180.00000
( Mill infeed pass 1/1 )
G01 Z-0.04000
G04 P0 ( dwell for no time -- G64 should not smooth over this point )
G01 F360.00000
G01 X2.00075 Y1.76114
G01 X2.00108 Y1.75755
G01 X2.00178 Y1.75401
G01 X2.00270 Y1.75094
G01 X2.00390 Y1.74797
G01 X2.00557 Y1.74478
G01 X2.00755 Y1.74177
G01 X2.00957 Y1.73928
G01 X2.01180 Y1.73699
G01 X2.01456 Y1.73466
G01 X2.01754 Y1.73263
G01 X2.02035 Y1.73110
G01 X2.02366 Y1.72968
G01 X2.02710 Y1.72862
G01 X2.03064 Y1.72791
G01 X2.03382 Y1.72759
G01 X2.03743 Y1.72758
G01 X2.04101 Y1.72794
G01 X2.04415 Y1.72857
G01 X2.04760 Y1.72961
G01 X2.05056 Y1.73084
G01 X2.05374 Y1.73253
G01 X2.05673 Y1.73454
G01 X2.05921 Y1.73658
G01 X2.06148 Y1.73884
G01 X2.06378 Y1.74161
G01 X2.06578 Y1.74461
G01 X2.06747 Y1.74779
G01 X2.06882 Y1.75113
G01 X2.06972 Y1.75421
G01 X2.07034 Y1.75735
G01 X2.07069 Y1.76094
G01 X2.07067 Y1.76454
G01 X2.07028 Y1.76812
G01 X2.06962 Y1.77126
G01 X2.06855 Y1.77470
G01 X2.06712 Y1.77801
G01 X2.06558 Y1.78081
G01 X2.06378 Y1.78346
G01 X2.06148 Y1.78624
G01 X2.05891 Y1.78876
G01 X2.05641 Y1.79077
G01 X2.05374 Y1.79254
G01 X2.05056 Y1.79424
G01 X2.04760 Y1.79546
G01 X2.04415 Y1.79651
G01 X2.04101 Y1.79714
G01 X2.03743 Y1.79750
G01 X2.03382 Y1.79749
G01 X2.03064 Y1.79717
G01 X2.02710 Y1.79646
G01 X2.02404 Y1.79553
G01 X2.02107 Y1.79432
G01 X2.01788 Y1.79265
G01 X2.01520 Y1.79089
G01 X2.01240 Y1.78863
G01 X2.01011 Y1.78638
G01 X2.00779 Y1.78362
G01 X2.00577 Y1.78064
G01 X2.00424 Y1.77783
G01 X2.00298 Y1.77488
G01 X2.00188 Y1.77145
G01 X2.00114 Y1.76792
G01 X2.00077 Y1.76434
G01 X2.00075 Y1.76114
G04 P0 ( dwell for no time -- G64 should not smooth over this point )
G00 Z0.08000 ( retract )

G00 X2.00073 Y1.86194 ( rapid move to begin. )
G01 F180.00000
( Mill infeed pass 1/1 )
G01 Z-0.04000
G04 P0 ( dwell for no time -- G64 should not smooth over this point )
G01 F360.00000
G01 X2.00073 Y1.86194
G01 X2.00098 Y1.85834
G01 X2.00159 Y1.85479
G01 X2.00245 Y1.85170
G01 X2.00358 Y1.84870
G01 X2.00517 Y1.84547
G01 X2.00686 Y1.84275
G01 X2.00904 Y1.83989
G01 X2.01151 Y1.83726
G01 X2.01424 Y1.83491
G01 X2.01720 Y1.83284
G01 X2.01999 Y1.83127
G01 X2.02291 Y1.82997
G01 X2.02633 Y1.82882
G01 X2.02945 Y1.82810
G01 X2.03302 Y1.82764
G01 X2.03663 Y1.82755
G01 X2.03982 Y1.82778
G01 X2.04337 Y1.82838
G01 X2.04685 Y1.82935
G01 X2.04983 Y1.83051
G01 X2.05305 Y1.83213
G01 X2.05609 Y1.83407
G01 X2.05860 Y1.83605
G01 X2.06093 Y1.83825
G01 X2.06329 Y1.84097
G01 X2.06537 Y1.84392
G01 X2.06694 Y1.84671
G01 X2.06840 Y1.85000
G01 X2.06941 Y1.85304
G01 X2.07014 Y1.85616
G01 X2.07061 Y1.85974
G01 X2.07072 Y1.86334
G01 X2.07050 Y1.86653
G01 X2.06990 Y1.87009
G01 X2.06894 Y1.87356
G01 X2.06780 Y1.87655
G01 X2.06619 Y1.87978
G01 X2.06448 Y1.88249
G01 X2.06228 Y1.88534
G01 X2.05979 Y1.88795
G01 X2.05737 Y1.89004
G01 X2.05443 Y1.89212
G01 X2.05164 Y1.89371
G01 X2.04835 Y1.89518
G01 X2.04532 Y1.89620
G01 X2.04180 Y1.89701
G01 X2.03863 Y1.89742
G01 X2.03503 Y1.89753
G01 X2.03183 Y1.89732
G01 X2.02827 Y1.89673
G01 X2.02480 Y1.89579
G01 X2.02144 Y1.89449
G01 X2.01857 Y1.89305
G01 X2.01586 Y1.89135
G01 X2.01300 Y1.88915
G01 X2.01038 Y1.88668
G01 X2.00828 Y1.88426
G01 X2.00619 Y1.88132
G01 X2.00460 Y1.87854
G01 X2.00312 Y1.87526
G01 X2.00198 Y1.87184
G01 X2.00121 Y1.86832
G01 X2.00082 Y1.86514
G01 X2.00073 Y1.86194
G04 P0 ( dwell for no time -- G64 should not smooth over this point )
G00 Z0.08000 ( retract )

G00 X1.79029 Y2.01592 ( rapid move to begin. )
G01 F180.00000
( Mill infeed pass 1/1 )
G01 Z-0.04000
G04 P0 ( dwell for no time -- G64 should not smooth over this point )
G01 F360.00000
G01 X1.79029 Y2.01592
G01 X1.79029 Y2.07891
G01 X1.86116 Y2.07891
G01 X1.86116 Y2.01592
G01 X1.79029 Y2.01592
G04 P0 ( dwell for no time -- G64 should not smooth over this point )
G00 Z0.08000 ( retract )

G00 X1.65023 Y2.13354 ( rapid move to begin. )
G01 F180.00000
( Mill infeed pass 1/1 )
G01 Z-0.04000
G04 P0 ( dwell for no time -- G64 should not smooth over this point )
G01 F360.00000
G01 X1.65023 Y2.13354
G01 X1.72122 Y2.13354
G01 X1.72122 Y2.19653
G01 X1.65023 Y2.19653
G01 X1.65023 Y2.13354
G04 P0 ( dwell for no time -- G64 should not smooth over this point )
G00 Z0.08000 ( retract )

G00 X1.65023 Y2.00854 ( rapid move to begin. )
G01 F180.00000
( Mill infeed pass 1/1 )
G01 Z-0.04000
G04 P0 ( dwell for no time -- G64 should not smooth over this point )
G01 F360.00000
G01 X1.65023 Y2.00854
G01 X1.72122 Y2.00854
G01 X1.72122 Y2.07153
G01 X1.65023 Y2.07153
G01 X1.65023 Y2.00854
G04 P0 ( dwell for no time -- G64 should not smooth over this point )
G00 Z0.08000 ( retract )

G00 X1.79029 Y2.12616 ( rapid move to begin. )
G01 F180.00000
( Mill infeed pass 1/1 )
G01 Z-0.04000
G04 P0 ( dwell for no time -- G64 should not smooth over this point )
G01 F360.00000
G01 X1.79029 Y2.12616
G01 X1.86116 Y2.12616
G01 X1.86116 Y2.18915
G01 X1.79029 Y2.18915
G01 X1.79029 Y2.12616
G04 P0 ( dwell for no time -- G64 should not smooth over this point )
G00 Z0.08000 ( retract )

G00 X1.90923 Y2.02704 ( rapid move to begin. )
G01 F180.00000
( Mill infeed pass 1/1 )
G01 Z-0.04000
G04 P0 ( dwell for no time -- G64 should not smooth over this point )
G01 F360.00000
G01 X1.90923 Y2.02704
G01 X1.97023 Y2.02704
G01 X1.97023 Y2.04804
G01 X1.90923 Y2.04804
G01 X1.90923 Y2.02704
G04 P0 ( dwell for no time -- G64 should not smooth over this point )
G00 Z0.08000 ( retract )

G00 X1.90923 Y2.07704 ( rapid move to begin. )
G01 F180.00000
( Mill infeed pass 1/1 )
G01 Z-0.04000
G04 P0 ( dwell for no time -- G64 should not smooth over this point )
G01 F360.00000
G01 X1.90923 Y2.07704
G01 X1.97023 Y2.07704
G01 X1.97023 Y2.09804
G01 X1.90923 Y2.09804
G01 X1.90923 Y2.07704
G04 P0 ( dwell for no time -- G64 should not smooth over this point )
G00 Z0.08000 ( retract )

G00 X1.90923 Y2.12704 ( rapid move to begin. )
G01 F180.00000
( Mill infeed pass 1/1 )
G01 Z-0.04000
G04 P0 ( dwell for no time -- G64 should not smooth over this point )
G01 F360.00000
G01 X1.90923 Y2.12704
G01 X1.97023 Y2.12704
G01 X1.97023 Y2.14804
G01 X1.90923 Y2.14804
G01 X1.90923 Y2.12704
G04 P0 ( dwell for no time -- G64 should not smooth over this point )
G00 Z0.08000 ( retract )

G00 X1.90923 Y2.17704 ( rapid move to begin. )
G01 F180.00000
( Mill infeed pass 1/1 )
G01 Z-0.04000
G04 P0 ( dwell for no time -- G64 should not smooth over this point )
G01 F360.00000
G01 X1.90923 Y2.17704
G01 X1.97023 Y2.17704
G01 X1.97023 Y2.19804
G01 X1.90923 Y2.19804
G01 X1.90923 Y2.17704
G04 P0 ( dwell for no time -- G64 should not smooth over this point )
G00 Z0.08000 ( retract )

G00 X1.99911 Y2.22710 ( rapid move to begin. )
G01 F180.00000
( Mill infeed pass 1/1 )
G01 Z-0.04000
G04 P0 ( dwell for no time -- G64 should not smooth over this point )
G01 F360.00000
G01 X1.99911 Y2.22710
G01 X2.06210 Y2.22710
G01 X2.06210 Y2.29797
G01 X1.99911 Y2.29797
G01 X1.99911 Y2.22710
G04 P0 ( dwell for no time -- G64 should not smooth over this point )
G00 Z0.08000 ( retract )

G00 X2.10935 Y2.22710 ( rapid move to begin. )
G01 F180.00000
( Mill infeed pass 1/1 )
G01 Z-0.04000
G04 P0 ( dwell for no time -- G64 should not smooth over this point )
G01 F360.00000
G01 X2.10935 Y2.22710
G01 X2.17234 Y2.22710
G01 X2.17234 Y2.29797
G01 X2.10935 Y2.29797
G01 X2.10935 Y2.22710
G04 P0 ( dwell for no time -- G64 should not smooth over this point )
G00 Z0.08000 ( retract )

G00 X2.20123 Y2.17704 ( rapid move to begin. )
G01 F180.00000
( Mill infeed pass 1/1 )
G01 Z-0.04000
G04 P0 ( dwell for no time -- G64 should not smooth over this point )
G01 F360.00000
G01 X2.20123 Y2.17704
G01 X2.26223 Y2.17704
G01 X2.26223 Y2.19804
G01 X2.20123 Y2.19804
G01 X2.20123 Y2.17704
G04 P0 ( dwell for no time -- G64 should not smooth over this point )
G00 Z0.08000 ( retract )

G00 X2.20123 Y2.12704 ( rapid move to begin. )
G01 F180.00000
( Mill infeed pass 1/1 )
G01 Z-0.04000
G04 P0 ( dwell for no time -- G64 should not smooth over this point )
G01 F360.00000
G01 X2.20123 Y2.12704
G01 X2.26223 Y2.12704
G01 X2.26223 Y2.14804
G01 X2.20123 Y2.14804
G01 X2.20123 Y2.12704
G04 P0 ( dwell for no time -- G64 should not smooth over this point )
G00 Z0.08000 ( retract )

G00 X2.20123 Y2.07704 ( rapid move to begin. )
G01 F180.00000
( Mill infeed pass 1/1 )
G01 Z-0.04000
G04 P0 ( dwell for no time -- G64 should not smooth over this point )
G01 F360.00000
G01 X2.20123 Y2.07704
G01 X2.26223 Y2.07704
G01 X2.26223 Y2.09804
G01 X2.20123 Y2.09804
G01 X2.20123 Y2.07704
G04 P0 ( dwell for no time -- G64 should not smooth over this point )
G00 Z0.08000 ( retract )

G00 X2.20123 Y2.02704 ( rapid move to begin. )
G01 F180.00000
( Mill infeed pass 1/1 )
G01 Z-0.04000
G04 P0 ( dwell for no time -- G64 should not smooth over this point )
G01 F360.00000
G01 X2.20123 Y2.02704
G01 X2.26223 Y2.02704
G01 X2.26223 Y2.04804
G01 X2.20123 Y2.04804
G01 X2.20123 Y2.02704
G04 P0 ( dwell for no time -- G64 should not smooth over this point )
G00 Z0.08000 ( retract )

G00 X2.21604 Y1.82553 ( rapid move to begin. )
G01 F180.00000
( Mill infeed pass 1/1 )
G01 Z-0.04000
G04 P0 ( dwell for no time -- G64 should not smooth over this point )
G01 F360.00000
G01 X2.21604 Y1.82553
G01 X2.25541 Y1.82553
G01 X2.25541 Y1.94364
G01 X2.21604 Y1.94364
G01 X2.21604 Y1.82553
G04 P0 ( dwell for no time -- G64 should not smooth over this point )
G00 Z0.08000 ( retract )

G00 X2.39253 Y1.76094 ( rapid move to begin. )
G01 F180.00000
( Mill infeed pass 1/1 )
G01 Z-0.04000
G04 P0 ( dwell for no time -- G64 should not smooth over this point )
G01 F360.00000
G01 X2.39253 Y1.76094
G01 X2.39284 Y1.75735
G01 X2.39355 Y1.75341
G01 X2.39466 Y1.74957
G01 X2.39614 Y1.74585
G01 X2.39799 Y1.74231
G01 X2.40018 Y1.73896
G01 X2.40244 Y1.73615
G01 X2.40522 Y1.73328
G01 X2.40828 Y1.73070
G01 X2.41158 Y1.72844
G01 X2.41473 Y1.72670
G01 X2.41840 Y1.72510
G01 X2.42221 Y1.72388
G01 X2.42612 Y1.72305
G01 X2.43010 Y1.72261
G01 X2.43370 Y1.72256
G01 X2.43769 Y1.72287
G01 X2.44162 Y1.72359
G01 X2.44547 Y1.72470
G01 X2.44882 Y1.72602
G01 X2.45238 Y1.72783
G01 X2.45575 Y1.72999
G01 X2.45888 Y1.73247
G01 X2.46175 Y1.73526
G01 X2.46433 Y1.73832
G01 X2.46659 Y1.74162
G01 X2.46851 Y1.74513
G01 X2.47007 Y1.74881
G01 X2.47125 Y1.75264
G01 X2.47205 Y1.75656
G01 X2.47243 Y1.76014
G01 X2.47248 Y1.76374
G01 X2.47216 Y1.76772
G01 X2.47144 Y1.77166
G01 X2.47034 Y1.77551
G01 X2.46902 Y1.77886
G01 X2.46721 Y1.78242
G01 X2.46505 Y1.78579
G01 X2.46256 Y1.78892
G01 X2.45977 Y1.79179
G01 X2.45672 Y1.79437
G01 X2.45341 Y1.79663
G01 X2.45026 Y1.79837
G01 X2.44660 Y1.79997
G01 X2.44279 Y1.80119
G01 X2.43887 Y1.80203
G01 X2.43490 Y1.80246
G01 X2.43130 Y1.80252
G01 X2.42731 Y1.80220
G01 X2.42337 Y1.80148
G01 X2.41953 Y1.80038
G01 X2.41581 Y1.79889
G01 X2.41227 Y1.79704
G01 X2.40892 Y1.79485
G01 X2.40581 Y1.79233
G01 X2.40297 Y1.78952
G01 X2.40042 Y1.78644
G01 X2.39840 Y1.78345
G01 X2.39648 Y1.77994
G01 X2.39493 Y1.77626
G01 X2.39374 Y1.77244
G01 X2.39295 Y1.76852
G01 X2.39257 Y1.76494
G01 X2.39253 Y1.76094
G04 P0 ( dwell for no time -- G64 should not smooth over this point )
G00 Z0.08000 ( retract )

G00 X2.47235 Y2.03633 ( rapid move to begin. )
G01 F180.00000
( Mill infeed pass 1/1 )
G01 Z-0.04000
G04 P0 ( dwell for no time -- G64 should not smooth over this point )
G01 F360.00000
G01 X2.47235 Y2.03633
G01 X2.47235 Y2.03993
G01 X2.47272 Y2.04351
G01 X2.47336 Y2.04665
G01 X2.47428 Y2.04972
G01 X2.47564 Y2.05306
G01 X2.47735 Y2.05623
G01 X2.47913 Y2.05889
G01 X2.48114 Y2.06138
G01 X2.48367 Y2.06395
G01 X2.48645 Y2.06624
G01 X2.48911 Y2.06803
G01 X2.49192 Y2.06957
G01 X2.49524 Y2.07098
G01 X2.49868 Y2.07205
G01 X2.50182 Y2.07269
G01 X2.50540 Y2.07307
G01 X2.50900 Y2.07309
G01 X2.51259 Y2.07273
G01 X2.51573 Y2.07210
G01 X2.51918 Y2.07105
G01 X2.52250 Y2.06966
G01 X2.52532 Y2.06813
G01 X2.52831 Y2.06612
G01 X2.53078 Y2.06408
G01 X2.53332 Y2.06153
G01 X2.53559 Y2.05873
G01 X2.53736 Y2.05606
G01 X2.53904 Y2.05287
G01 X2.54026 Y2.04991
G01 X2.54120 Y2.04685
G01 X2.54191 Y2.04332
G01 X2.54226 Y2.03973
G01 X2.54226 Y2.03653
G01 X2.54191 Y2.03294
G01 X2.54129 Y2.02980
G01 X2.54026 Y2.02635
G01 X2.53904 Y2.02338
G01 X2.53756 Y2.02054
G01 X2.53559 Y2.01752
G01 X2.53332 Y2.01472
G01 X2.53078 Y2.01217
G01 X2.52831 Y2.01013
G01 X2.52532 Y2.00812
G01 X2.52250 Y2.00660
G01 X2.51918 Y2.00520
G01 X2.51573 Y2.00416
G01 X2.51259 Y2.00353
G01 X2.50900 Y2.00317
G01 X2.50580 Y2.00316
G01 X2.50261 Y2.00344
G01 X2.49907 Y2.00411
G01 X2.49561 Y2.00514
G01 X2.49265 Y2.00634
G01 X2.48980 Y2.00782
G01 X2.48678 Y2.00978
G01 X2.48397 Y2.01204
G01 X2.48141 Y2.01457
G01 X2.47913 Y2.01736
G01 X2.47735 Y2.02002
G01 X2.47564 Y2.02320
G01 X2.47428 Y2.02653
G01 X2.47326 Y2.02999
G01 X2.47266 Y2.03314
G01 X2.47235 Y2.03633
G04 P0 ( dwell for no time -- G64 should not smooth over this point )
G00 Z0.08000 ( retract )

G00 X2.57073 Y2.03753 ( rapid move to begin. )
G01 F180.00000
( Mill infeed pass 1/1 )
G01 Z-0.04000
G04 P0 ( dwell for no time -- G64 should not smooth over this point )
G01 F360.00000
G01 X2.57073 Y2.03753
G01 X2.57082 Y2.04073
G01 X2.57121 Y2.04391
G01 X2.57198 Y2.04743
G01 X2.57312 Y2.05085
G01 X2.57460 Y2.05413
G01 X2.57619 Y2.05691
G01 X2.57828 Y2.05985
G01 X2.58066 Y2.06256
G01 X2.58300 Y2.06475
G01 X2.58586 Y2.06694
G01 X2.58857 Y2.06864
G01 X2.59144 Y2.07008
G01 X2.59480 Y2.07138
G01 X2.59827 Y2.07232
G01 X2.60143 Y2.07286
G01 X2.60503 Y2.07312
G01 X2.60863 Y2.07301
G01 X2.61220 Y2.07252
G01 X2.61532 Y2.07179
G01 X2.61873 Y2.07062
G01 X2.62164 Y2.06930
G01 X2.62443 Y2.06771
G01 X2.62737 Y2.06563
G01 X2.62979 Y2.06354
G01 X2.63228 Y2.06093
G01 X2.63448 Y2.05808
G01 X2.63619 Y2.05537
G01 X2.63780 Y2.05214
G01 X2.63894 Y2.04915
G01 X2.63990 Y2.04568
G01 X2.64050 Y2.04212
G01 X2.64072 Y2.03893
G01 X2.64061 Y2.03533
G01 X2.64014 Y2.03175
G01 X2.63941 Y2.02863
G01 X2.63840 Y2.02559
G01 X2.63694 Y2.02230
G01 X2.63515 Y2.01917
G01 X2.63329 Y2.01656
G01 X2.63093 Y2.01384
G01 X2.62860 Y2.01164
G01 X2.62609 Y2.00966
G01 X2.62305 Y2.00772
G01 X2.61983 Y2.00610
G01 X2.61684 Y2.00494
G01 X2.61337 Y2.00397
G01 X2.60982 Y2.00337
G01 X2.60663 Y2.00314
G01 X2.60302 Y2.00323
G01 X2.59945 Y2.00369
G01 X2.59633 Y2.00441
G01 X2.59291 Y2.00556
G01 X2.58999 Y2.00687
G01 X2.58686 Y2.00865
G01 X2.58424 Y2.01050
G01 X2.58151 Y2.01285
G01 X2.57904 Y2.01548
G01 X2.57686 Y2.01834
G01 X2.57517 Y2.02106
G01 X2.57374 Y2.02393
G01 X2.57245 Y2.02729
G01 X2.57159 Y2.03038
G01 X2.57098 Y2.03393
G01 X2.57073 Y2.03753
G04 P0 ( dwell for no time -- G64 should not smooth over this point )
G00 Z0.08000 ( retract )

G00 X2.66917 Y2.03713 ( rapid move to begin. )
G01 F180.00000
( Mill infeed pass 1/1 )
G01 Z-0.04000
G04 P0 ( dwell for no time -- G64 should not smooth over this point )
G01 F360.00000
G01 X2.66917 Y2.03713
G01 X2.66922 Y2.04033
G01 X2.66957 Y2.04351
G01 X2.67031 Y2.04704
G01 X2.67126 Y2.05010
G01 X2.67267 Y2.05342
G01 X2.67420 Y2.05623
G01 X2.67622 Y2.05922
G01 X2.67853 Y2.06198
G01 X2.68112 Y2.06448
G01 X2.68363 Y2.06648
G01 X2.68665 Y2.06844
G01 X2.68986 Y2.07008
G01 X2.69284 Y2.07125
G01 X2.69592 Y2.07215
G01 X2.69946 Y2.07281
G01 X2.70305 Y2.07311
G01 X2.70665 Y2.07304
G01 X2.70983 Y2.07266
G01 X2.71335 Y2.07190
G01 X2.71640 Y2.07091
G01 X2.71971 Y2.06948
G01 X2.72285 Y2.06771
G01 X2.72548 Y2.06588
G01 X2.72793 Y2.06381
G01 X2.73044 Y2.06123
G01 X2.73244 Y2.05873
G01 X2.73441 Y2.05571
G01 X2.73606 Y2.05251
G01 X2.73724 Y2.04953
G01 X2.73824 Y2.04607
G01 X2.73882 Y2.04292
G01 X2.73913 Y2.03933
G01 X2.73907 Y2.03573
G01 X2.73870 Y2.03254
G01 X2.73795 Y2.02902
G01 X2.73683 Y2.02559
G01 X2.73537 Y2.02230
G01 X2.73358 Y2.01917
G01 X2.73172 Y2.01656
G01 X2.72936 Y2.01384
G01 X2.72703 Y2.01164
G01 X2.72451 Y2.00966
G01 X2.72148 Y2.00772
G01 X2.71862 Y2.00626
G01 X2.71527 Y2.00494
G01 X2.71219 Y2.00406
G01 X2.70865 Y2.00342
G01 X2.70505 Y2.00314
G01 X2.70185 Y2.00320
G01 X2.69867 Y2.00356
G01 X2.69514 Y2.00431
G01 X2.69209 Y2.00527
G01 X2.68877 Y2.00669
G01 X2.68596 Y2.00823
G01 X2.68298 Y2.01025
G01 X2.68023 Y2.01258
G01 X2.67773 Y2.01517
G01 X2.67574 Y2.01768
G01 X2.67379 Y2.02071
G01 X2.67216 Y2.02393
G01 X2.67100 Y2.02691
G01 X2.67002 Y2.03038
G01 X2.66945 Y2.03353
G01 X2.66917 Y2.03713
G04 P0 ( dwell for no time -- G64 should not smooth over this point )
G00 Z0.08000 ( retract )

G00 X2.83789 Y2.09640 ( rapid move to begin. )
G01 F180.00000
( Mill infeed pass 1/1 )
G01 Z-0.04000
G04 P0 ( dwell for no time -- G64 should not smooth over this point )
G01 F360.00000
G01 X2.83789 Y2.09640
G01 X2.83789 Y2.15151
G01 X2.90679 Y2.15151
G01 X2.90679 Y2.09640
G01 X2.83789 Y2.09640
G04 P0 ( dwell for no time -- G64 should not smooth over this point )
G00 Z0.08000 ( retract )

G00 X2.83789 Y2.27356 ( rapid move to begin. )
G01 F180.00000
( Mill infeed pass 1/1 )
G01 Z-0.04000
G04 P0 ( dwell for no time -- G64 should not smooth over this point )
G01 F360.00000
G01 X2.83789 Y2.27356
G01 X2.83789 Y2.32868
G01 X2.90679 Y2.32868
G01 X2.90679 Y2.27356
G01 X2.83789 Y2.27356
G04 P0 ( dwell for no time -- G64 should not smooth over this point )
G00 Z0.08000 ( retract )

G00 X3.16466 Y2.27356 ( rapid move to begin. )
G01 F180.00000
( Mill infeed pass 1/1 )
G01 Z-0.04000
G04 P0 ( dwell for no time -- G64 should not smooth over this point )
G01 F360.00000
G01 X3.16466 Y2.27356
G01 X3.23356 Y2.27356
G01 X3.23356 Y2.32868
G01 X3.16466 Y2.32868
G01 X3.16466 Y2.27356
G04 P0 ( dwell for no time -- G64 should not smooth over this point )
G00 Z0.08000 ( retract )

G00 X3.16466 Y2.09640 ( rapid move to begin. )
G01 F180.00000
( Mill infeed pass 1/1 )
G01 Z-0.04000
G04 P0 ( dwell for no time -- G64 should not smooth over this point )
G01 F360.00000
G01 X3.16466 Y2.09640
G01 X3.23356 Y2.09640
G01 X3.23356 Y2.15151
G01 X3.16466 Y2.15151
G01 X3.16466 Y2.09640
G04 P0 ( dwell for no time -- G64 should not smooth over this point )
G00 Z0.08000 ( retract )

G00 X3.05073 Y1.86194 ( rapid move to begin. )
G01 F180.00000
( Mill infeed pass 1/1 )
G01 Z-0.04000
G04 P0 ( dwell for no time -- G64 should not smooth over this point )
G01 F360.00000
G01 X3.05073 Y1.86194
G01 X3.05082 Y1.86514
G01 X3.05121 Y1.86832
G01 X3.05198 Y1.87184
G01 X3.05312 Y1.87526
G01 X3.05460 Y1.87854
G01 X3.05619 Y1.88132
G01 X3.05828 Y1.88426
G01 X3.06038 Y1.88668
G01 X3.06300 Y1.88915
G01 X3.06586 Y1.89135
G01 X3.06857 Y1.89305
G01 X3.07144 Y1.89449
G01 X3.07480 Y1.89579
G01 X3.07827 Y1.89673
G01 X3.08183 Y1.89732
G01 X3.08503 Y1.89753
G01 X3.08863 Y1.89742
G01 X3.09180 Y1.89701
G01 X3.09532 Y1.89620
G01 X3.09835 Y1.89518
G01 X3.10164 Y1.89371
G01 X3.10443 Y1.89212
G01 X3.10737 Y1.89004
G01 X3.10979 Y1.88795
G01 X3.11228 Y1.88534
G01 X3.11448 Y1.88249
G01 X3.11619 Y1.87978
G01 X3.11780 Y1.87655
G01 X3.11894 Y1.87356
G01 X3.11990 Y1.87009
G01 X3.12050 Y1.86653
G01 X3.12072 Y1.86334
G01 X3.12061 Y1.85974
G01 X3.12014 Y1.85616
G01 X3.11941 Y1.85304
G01 X3.11840 Y1.85000
G01 X3.11694 Y1.84671
G01 X3.11537 Y1.84392
G01 X3.11329 Y1.84097
G01 X3.11093 Y1.83825
G01 X3.10860 Y1.83605
G01 X3.10609 Y1.83407
G01 X3.10305 Y1.83213
G01 X3.09983 Y1.83051
G01 X3.09685 Y1.82935
G01 X3.09337 Y1.82838
G01 X3.08982 Y1.82778
G01 X3.08663 Y1.82755
G01 X3.08302 Y1.82764
G01 X3.07945 Y1.82810
G01 X3.07633 Y1.82882
G01 X3.07291 Y1.82997
G01 X3.06999 Y1.83127
G01 X3.06720 Y1.83284
G01 X3.06424 Y1.83491
G01 X3.06151 Y1.83726
G01 X3.05904 Y1.83989
G01 X3.05686 Y1.84275
G01 X3.05517 Y1.84547
G01 X3.05358 Y1.84870
G01 X3.05245 Y1.85170
G01 X3.05159 Y1.85479
G01 X3.05098 Y1.85834
G01 X3.05073 Y1.86194
G04 P0 ( dwell for no time -- G64 should not smooth over this point )
G00 Z0.08000 ( retract )

G00 X3.15075 Y1.66114 ( rapid move to begin. )
G01 F180.00000
( Mill infeed pass 1/1 )
G01 Z-0.04000
G04 P0 ( dwell for no time -- G64 should not smooth over this point )
G01 F360.00000
G01 X3.15075 Y1.66114
G01 X3.15108 Y1.65755
G01 X3.15178 Y1.65401
G01 X3.15270 Y1.65094
G01 X3.15390 Y1.64797
G01 X3.15557 Y1.64478
G01 X3.15755 Y1.64177
G01 X3.15957 Y1.63928
G01 X3.16180 Y1.63699
G01 X3.16456 Y1.63466
G01 X3.16754 Y1.63263
G01 X3.17035 Y1.63110
G01 X3.17366 Y1.62968
G01 X3.17710 Y1.62862
G01 X3.18064 Y1.62791
G01 X3.18382 Y1.62759
G01 X3.18743 Y1.62758
G01 X3.19101 Y1.62794
G01 X3.19415 Y1.62857
G01 X3.19760 Y1.62961
G01 X3.20056 Y1.63084
G01 X3.20374 Y1.63253
G01 X3.20673 Y1.63454
G01 X3.20921 Y1.63658
G01 X3.21148 Y1.63884
G01 X3.21378 Y1.64161
G01 X3.21578 Y1.64461
G01 X3.21747 Y1.64779
G01 X3.21882 Y1.65113
G01 X3.21972 Y1.65421
G01 X3.22034 Y1.65735
G01 X3.22069 Y1.66094
G01 X3.22067 Y1.66454
G01 X3.22028 Y1.66812
G01 X3.21962 Y1.67126
G01 X3.21855 Y1.67470
G01 X3.21712 Y1.67801
G01 X3.21558 Y1.68081
G01 X3.21378 Y1.68346
G01 X3.21148 Y1.68624
G01 X3.20891 Y1.68876
G01 X3.20641 Y1.69077
G01 X3.20374 Y1.69254
G01 X3.20056 Y1.69424
G01 X3.19760 Y1.69546
G01 X3.19415 Y1.69651
G01 X3.19101 Y1.69714
G01 X3.18743 Y1.69750
G01 X3.18382 Y1.69749
G01 X3.18064 Y1.69717
G01 X3.17710 Y1.69646
G01 X3.17404 Y1.69553
G01 X3.17107 Y1.69432
G01 X3.16788 Y1.69265
G01 X3.16520 Y1.69089
G01 X3.16240 Y1.68863
G01 X3.16011 Y1.68638
G01 X3.15779 Y1.68362
G01 X3.15577 Y1.68064
G01 X3.15424 Y1.67783
G01 X3.15298 Y1.67488
G01 X3.15188 Y1.67145
G01 X3.15114 Y1.66792
G01 X3.15077 Y1.66434
G01 X3.15075 Y1.66114
G04 P0 ( dwell for no time -- G64 should not smooth over this point )
G00 Z0.08000 ( retract )

G00 X2.96673 Y1.52704 ( rapid move to begin. )
G01 F180.00000
( Mill infeed pass 1/1 )
G01 Z-0.04000
G04 P0 ( dwell for no time -- G64 should not smooth over this point )
G01 F360.00000
G01 X2.96673 Y1.52704
G01 X2.96673 Y1.59803
G01 X3.02972 Y1.59803
G01 X3.02972 Y1.52704
G01 X2.96673 Y1.52704
G04 P0 ( dwell for no time -- G64 should not smooth over this point )
G00 Z0.08000 ( retract )

G00 X3.00415 Y1.42011 ( rapid move to begin. )
G01 F180.00000
( Mill infeed pass 1/1 )
G01 Z-0.04000
G04 P0 ( dwell for no time -- G64 should not smooth over this point )
G01 F360.00000
G01 X3.00415 Y1.42011
G01 X3.00415 Y1.44496
G01 X3.02172 Y1.46254
G01 X3.04658 Y1.46254
G01 X3.06415 Y1.44496
G01 X3.06415 Y1.42011
G01 X3.04658 Y1.40254
G01 X3.02172 Y1.40254
G01 X3.00415 Y1.42011
G04 P0 ( dwell for no time -- G64 should not smooth over this point )
G00 Z0.08000 ( retract )

G00 X3.15023 Y1.39354 ( rapid move to begin. )
G01 F180.00000
( Mill infeed pass 1/1 )
G01 Z-0.04000
G04 P0 ( dwell for no time -- G64 should not smooth over this point )
G01 F360.00000
G01 X3.15023 Y1.39354
G01 X3.22122 Y1.39354
G01 X3.22122 Y1.45653
G01 X3.15023 Y1.45653
G01 X3.15023 Y1.39354
G04 P0 ( dwell for no time -- G64 should not smooth over this point )
G00 Z0.08000 ( retract )

G00 X3.15023 Y1.26854 ( rapid move to begin. )
G01 F180.00000
( Mill infeed pass 1/1 )
G01 Z-0.04000
