( pcb2gcode 3.0.3 )
( Software-independent Gcode )

G94 ( Inches per minute feed rate. )
G20 ( Units == INCHES. )

G90 ( Absolute coordinates. )
G00 S800 ( RPM spindle speed. )
G01 F11.81102 ( Feedrate. )


G00 Z0.78740 (Retract to tool change height)
T1
M5      (Spindle stop.)
G04 P1.00000 (Wait for spindle to stop)
(MSG, Change tool bit to mill diameter 0.02362in)
M6      (Tool change.)
M0      (Temporary machine stop.)
M3 ( Spindle on clockwise. )
G04 P1.00000 (Wait for spindle to get up to speed)
G04 P0 ( dwell for no time -- G64 should not smooth over this point )
G00 Z0.03937 ( retract )

G00 X0.81279 Y-0.60442 ( rapid move to begin. )
G01 F5.90551
( Mill infeed pass 1/1 )
G01 Z-0.01024
G04 P0 ( dwell for no time -- G64 should not smooth over this point )
G01 F11.81102
G01 X0.81279 Y-0.60442
G01 X0.81316 Y-0.60565
G01 X0.81527 Y-0.61050
G01 X0.81870 Y-0.61592
G01 X0.81870 Y-0.68676
G01 X0.81510 Y-0.69035
G01 X0.65437 Y-0.69035
G01 X0.64968 Y-0.68614
G01 X0.64469 Y-0.68276
G01 X0.63889 Y-0.67990
G01 X0.63314 Y-0.67801
G01 X0.62682 Y-0.67685
G01 X0.62080 Y-0.67659
G01 X0.61447 Y-0.67718
G01 X0.60984 Y-0.67821
G01 X0.60406 Y-0.68022
G01 X0.59921 Y-0.68264
G01 X0.59469 Y-0.68562
G01 X0.59109 Y-0.68865
G01 X0.58711 Y-0.69283
G01 X0.58409 Y-0.69689
G01 X0.58052 Y-0.70341
G01 X0.57868 Y-0.70821
G01 X0.57735 Y-0.71350
G01 X0.57667 Y-0.71887
G01 X0.57664 Y-0.72429
G01 X0.57725 Y-0.72967
G01 X0.57851 Y-0.73494
G01 X0.58038 Y-0.74002
G01 X0.58286 Y-0.74487
G01 X0.58620 Y-0.74976
G01 X0.59015 Y-0.75417
G01 X0.59429 Y-0.75777
G01 X0.59921 Y-0.76106
G01 X0.60455 Y-0.76369
G01 X0.61020 Y-0.76560
G01 X0.61604 Y-0.76675
G01 X0.62195 Y-0.76712
G01 X0.62739 Y-0.76679
G01 X0.63202 Y-0.76595
G01 X0.63847 Y-0.76395
G01 X0.64257 Y-0.76210
G01 X0.64702 Y-0.75949
G01 X0.65133 Y-0.75621
G01 X0.65432 Y-0.75335
G01 X0.82902 Y-0.75333
G01 X0.83328 Y-0.75291
G01 X0.83630 Y-0.75227
G01 X0.83924 Y-0.75131
G01 X0.84351 Y-0.74934
G01 X0.84678 Y-0.74724
G01 X0.85015 Y-0.74439
G01 X0.87427 Y-0.72009
G01 X0.87620 Y-0.71757
G01 X0.87784 Y-0.71486
G01 X0.87949 Y-0.71132
G01 X0.88091 Y-0.70674
G01 X0.88154 Y-0.70285
G01 X0.88169 Y-0.69980
G01 X0.88169 Y-0.61590
G01 X0.88290 Y-0.61424
G01 X0.88455 Y-0.61153
G01 X0.88613 Y-0.60838
G01 X0.88767 Y-0.60438
G01 X0.88851 Y-0.60134
G01 X0.88927 Y-0.59712
G01 X0.88954 Y-0.59364
G01 X0.88951 Y-0.59020
G01 X0.88917 Y-0.58676
G01 X0.88780 Y-0.58066
G01 X0.88547 Y-0.57485
G01 X0.88379 Y-0.57180
G01 X0.88208 Y-0.56923
G01 X0.87896 Y-0.56546
G01 X0.87462 Y-0.56144
G01 X0.87038 Y-0.55852
G01 X0.86575 Y-0.55615
G01 X0.86121 Y-0.55455
G01 X0.85533 Y-0.55329
G01 X0.85020 Y-0.55295
G01 X0.84506 Y-0.55329
G01 X0.84001 Y-0.55429
G01 X0.83513 Y-0.55595
G01 X0.83051 Y-0.55823
G01 X0.82623 Y-0.56109
G01 X0.82209 Y-0.56476
G01 X0.81896 Y-0.56836
G01 X0.81610 Y-0.57264
G01 X0.81397 Y-0.57692
G01 X0.81281 Y-0.58022
G01 X0.81279 Y-0.60452
G01 X0.81191 Y-0.60704
G01 X0.81041 Y-0.61032
G01 X0.80838 Y-0.61381
G01 X0.80598 Y-0.61709
G01 X0.80238 Y-0.62097
G01 X0.79965 Y-0.62333
G01 X0.79633 Y-0.62566
G01 X0.79278 Y-0.62764
G01 X0.78899 Y-0.62927
G01 X0.78387 Y-0.63077
G01 X0.77911 Y-0.63150
G01 X0.77740 Y-0.63162
G01 X0.77168 Y-0.63150
G01 X0.76687 Y-0.63076
G01 X0.76143 Y-0.62913
G01 X0.75667 Y-0.62696
G01 X0.75177 Y-0.62382
G01 X0.66713 Y-0.62382
G01 X0.66713 Y-0.65531
G01 X0.66695 Y-0.65732
G01 X0.66657 Y-0.65889
G01 X0.66598 Y-0.66039
G01 X0.66519 Y-0.66179
G01 X0.66422 Y-0.66308
G01 X0.66213 Y-0.66496
G01 X0.66075 Y-0.66580
G01 X0.65927 Y-0.66644
G01 X0.65732 Y-0.66695
G01 X0.65531 Y-0.66713
G01 X0.58718 Y-0.66706
G01 X0.58520 Y-0.66669
G01 X0.58368 Y-0.66615
G01 X0.58191 Y-0.66519
G01 X0.58062 Y-0.66422
G01 X0.57922 Y-0.66277
G01 X0.57809 Y-0.66110
G01 X0.57726 Y-0.65927
G01 X0.57682 Y-0.65772
G01 X0.57657 Y-0.65531
G01 X0.57664 Y-0.58718
G01 X0.57701 Y-0.58520
G01 X0.57755 Y-0.58368
G01 X0.57829 Y-0.58225
G01 X0.57922 Y-0.58093
G01 X0.58032 Y-0.57975
G01 X0.58157 Y-0.57874
G01 X0.58331 Y-0.57772
G01 X0.58481 Y-0.57713
G01 X0.58678 Y-0.57668
G01 X0.58839 Y-0.57657
G01 X0.62411 Y-0.57657
G01 X0.62639 Y-0.57314
G01 X0.62912 Y-0.57007
G01 X0.63023 Y-0.56899
G01 X0.63376 Y-0.56621
G01 X0.63777 Y-0.56392
G01 X0.64159 Y-0.56241
G01 X0.64306 Y-0.56195
G01 X0.64741 Y-0.56108
G01 X0.65138 Y-0.56083
G01 X0.75182 Y-0.56083
G01 X0.75343 Y-0.55965
G01 X0.75641 Y-0.55783
G01 X0.75998 Y-0.55609
G01 X0.76334 Y-0.55485
G01 X0.76670 Y-0.55392
G01 X0.76975 Y-0.55337
G01 X0.77453 Y-0.55298
G01 X0.77982 Y-0.55321
G01 X0.78585 Y-0.55439
G01 X0.79116 Y-0.55627
G01 X0.79508 Y-0.55823
G01 X0.79907 Y-0.56087
G01 X0.80363 Y-0.56489
G01 X0.80731 Y-0.56927
G01 X0.81042 Y-0.57435
G01 X0.81192 Y-0.57763
G01 X0.81281 Y-0.58022

G04 P0 ( dwell for no time -- G64 should not smooth over this point )
G00 Z0.787402 ( retract )

M5 ( Spindle off. )
G04 P1.000000
M9 ( Coolant off. )
M2 ( Program end. )

