( pcb2gcode 2.5.0 )
( Software-independent Gcode )

G94 ( Inches per minute feed rate. )
G20 ( Units == INCHES. )

G90 ( Absolute coordinates. )
G00 S12000 ( RPM spindle speed. )
G64 P0.00040 ( set maximum deviation from commanded toolpath )
G01 F360.00000 ( Feedrate. )


G00 Z1.00000 (Retract to tool change height)
T1
M5      (Spindle stop.)
G04 P1.00000 (Wait for spindle to stop)
(MSG, Change tool bit to mill diameter 0.00000in)
M6      (Tool change.)
M0      (Temporary machine stop.)
M3 ( Spindle on clockwise. )
G04 P1.00000 (Wait for spindle to get up to speed)
G04 P0 ( dwell for no time -- G64 should not smooth over this point )
G00 Z0.08000 ( retract )

G00 X-0.05000 Y-0.99510 ( rapid move to begin. )
G01 F180.00000
( Mill infeed pass 1/1 )
G01 Z-0.04000
G04 P0 ( dwell for no time -- G64 should not smooth over this point )
G01 F360.00000
G01 X-0.05000 Y-0.99510
G01 X-0.00492 Y-0.99508
G01 X-0.00490 Y-0.94959
G01 X-0.00477 Y-0.94879
G01 X-0.00433 Y-0.94766
G01 X-0.00333 Y-0.94638
G01 X-0.00198 Y-0.94549
G01 X-0.00081 Y-0.94515
G01 X0.00000 Y-0.94508
G01 X0.00081 Y-0.94515
G01 X0.00198 Y-0.94549
G01 X0.00333 Y-0.94638
G01 X0.00433 Y-0.94766
G01 X0.00477 Y-0.94879
G01 X0.00490 Y-0.94959
G01 X0.00492 Y-0.99508
G01 X0.05041 Y-0.99510
G01 X0.05121 Y-0.99523
G01 X0.05234 Y-0.99567
G01 X0.05302 Y-0.99612
G01 X0.05388 Y-0.99698
G01 X0.05433 Y-0.99766
G01 X0.05477 Y-0.99879
G01 X0.05490 Y-1.00041
G01 X0.05477 Y-1.00121
G01 X0.05433 Y-1.00234
G01 X0.05333 Y-1.00362
G01 X0.05198 Y-1.00451
G01 X0.05041 Y-1.00490
G01 X0.00492 Y-1.00492
G01 X0.00490 Y-1.05000
G01 X-0.00490 Y-1.05000
G01 X-0.00492 Y-1.00492
G01 X-0.05000 Y-1.00490
G01 X-0.05000 Y-0.99510
G01 X0.16301 Y-0.40714
G01 X0.16336 Y-0.41235
G01 X0.16439 Y-0.41746
G01 X0.16608 Y-0.42239
G01 X0.16783 Y-0.42601
G01 X0.17016 Y-0.42976
G01 X0.17289 Y-0.43323
G01 X0.17570 Y-0.43610
G01 X0.17879 Y-0.43866
G01 X0.18246 Y-0.44110
G01 X0.18639 Y-0.44312
G01 X0.19014 Y-0.44456
G01 X0.19440 Y-0.44570
G01 X0.19837 Y-0.44631
G01 X0.20278 Y-0.44651
G01 X0.20679 Y-0.44627
G01 X0.21075 Y-0.44561
G01 X0.21462 Y-0.44456
G01 X0.21837 Y-0.44312
G01 X0.22230 Y-0.44110
G01 X0.22629 Y-0.43842
G01 X0.22993 Y-0.43527
G01 X0.35349 Y-0.31171
G01 X0.35349 Y-0.57381
G01 X0.35378 Y-0.57862
G01 X0.35439 Y-0.58218
G01 X0.35531 Y-0.58567
G01 X0.35656 Y-0.58906
G01 X0.35792 Y-0.59197
G01 X0.35974 Y-0.59510
G01 X0.36158 Y-0.59772
G01 X0.36390 Y-0.60049
G01 X0.36618 Y-0.60276
G01 X0.36894 Y-0.60509
G01 X0.37157 Y-0.60693
G01 X0.37434 Y-0.60855
G01 X0.37761 Y-0.61011
G01 X0.38100 Y-0.61135
G01 X0.38449 Y-0.61228
G01 X0.38765 Y-0.61284
G01 X0.39125 Y-0.61315
G01 X0.39526 Y-0.61311
G01 X0.39886 Y-0.61272
G01 X0.40240 Y-0.61201
G01 X0.40624 Y-0.61084
G01 X0.40994 Y-0.60928
G01 X0.41346 Y-0.60736
G01 X0.41677 Y-0.60509
G01 X0.41954 Y-0.60276
G01 X0.42208 Y-0.60019
G01 X0.42461 Y-0.59708
G01 X0.42682 Y-0.59373
G01 X0.42867 Y-0.59017
G01 X0.43015 Y-0.58643
G01 X0.43115 Y-0.58296
G01 X0.43188 Y-0.57902
G01 X0.43219 Y-0.57542
G01 X0.43221 Y-0.07261
G01 X0.43183 Y-0.06821
G01 X0.43095 Y-0.06388
G01 X0.42960 Y-0.05968
G01 X0.42760 Y-0.05530
G01 X0.42531 Y-0.05152
G01 X0.42261 Y-0.04803
G01 X0.41924 Y-0.04459
G01 X0.41580 Y-0.04182
G01 X0.41208 Y-0.03945
G01 X0.40811 Y-0.03751
G01 X0.40395 Y-0.03604
G01 X0.39925 Y-0.03496
G01 X0.39486 Y-0.03449
G01 X0.39045 Y-0.03451
G01 X0.38606 Y-0.03503
G01 X0.38177 Y-0.03604
G01 X0.37761 Y-0.03751
G01 X0.37364 Y-0.03945
G01 X0.36991 Y-0.04182
G01 X0.36647 Y-0.04459
G01 X0.36337 Y-0.04773
G01 X0.36063 Y-0.05119
G01 X0.35830 Y-0.05494
G01 X0.35641 Y-0.05893
G01 X0.35520 Y-0.06233
G01 X0.35430 Y-0.06583
G01 X0.35373 Y-0.06940
G01 X0.35350 Y-0.07301
G01 X0.35349 Y-0.20036
G01 X0.34950 Y-0.20435
G01 X0.23363 Y-0.04987
G01 X0.23158 Y-0.04740
G01 X0.22962 Y-0.04539
G01 X0.22752 Y-0.04351
G01 X0.22530 Y-0.04180
G01 X0.22086 Y-0.03905
G01 X0.21610 Y-0.03691
G01 X0.21110 Y-0.03542
G01 X0.20834 Y-0.03490
G01 X0.20555 Y-0.03457
G01 X0.20034 Y-0.03449
G01 X0.19516 Y-0.03511
G01 X0.19010 Y-0.03640
G01 X0.18527 Y-0.03836
G01 X0.18278 Y-0.03967
G01 X0.18039 Y-0.04115
G01 X0.17627 Y-0.04434
G01 X0.17260 Y-0.04806
G01 X0.16946 Y-0.05222
G01 X0.16689 Y-0.05676
G01 X0.16495 Y-0.06160
G01 X0.16367 Y-0.06666
G01 X0.16325 Y-0.06944
G01 X0.16304 Y-0.07224
G01 X0.16304 Y-0.07545
G01 X0.16331 Y-0.07865
G01 X0.16383 Y-0.08182
G01 X0.16461 Y-0.08494
G01 X0.16565 Y-0.08798
G01 X0.16692 Y-0.09093
G01 X0.16823 Y-0.09341
G01 X0.16995 Y-0.09613
G01 X0.29325 Y-0.26059
G01 X0.17454 Y-0.37931
G01 X0.17135 Y-0.38291
G01 X0.16842 Y-0.38723
G01 X0.16608 Y-0.39189
G01 X0.16439 Y-0.39682
G01 X0.16336 Y-0.40194
G01 X0.16301 Y-0.40714
G04 P0 ( dwell for no time -- G64 should not smooth over this point )
G00 Z0.08000 ( retract )

G00 X0.56781 Y-0.38516 ( rapid move to begin. )
G01 F180.00000
( Mill infeed pass 1/1 )
G01 Z-0.04000
G04 P0 ( dwell for no time -- G64 should not smooth over this point )
G01 F360.00000
G01 X0.56781 Y-0.38516
G01 X0.56792 Y-0.37994
G01 X0.56863 Y-0.37518
G01 X0.57004 Y-0.37016
G01 X0.57193 Y-0.36573
G01 X0.57456 Y-0.36123
G01 X0.57751 Y-0.35742
G01 X0.58089 Y-0.35399
G01 X0.58500 Y-0.35078
G01 X0.58915 Y-0.34832
G01 X0.59393 Y-0.34625
G01 X0.59700 Y-0.34529
G01 X0.59974 Y-0.34467
G01 X0.60291 Y-0.34419
G01 X0.60612 Y-0.34398
G01 X0.60933 Y-0.34403
G01 X0.61253 Y-0.34433
G01 X0.61569 Y-0.34490
G01 X0.61879 Y-0.34573
G01 X0.62145 Y-0.34666
G01 X0.62439 Y-0.34794
G01 X0.66405 Y-0.36777
G01 X0.74071 Y-0.36777
G01 X0.77430 Y-0.35098
G01 X0.78907 Y-0.33620
G01 X0.80587 Y-0.30261
G01 X0.80587 Y-0.17834
G01 X0.78907 Y-0.14475
G01 X0.77430 Y-0.12998
G01 X0.74070 Y-0.11318
G01 X0.66405 Y-0.11318
G01 X0.62439 Y-0.13301
G01 X0.62107 Y-0.13444
G01 X0.61764 Y-0.13557
G01 X0.61451 Y-0.13630
G01 X0.61093 Y-0.13681
G01 X0.60773 Y-0.13699
G01 X0.60411 Y-0.13687
G01 X0.60093 Y-0.13650
G01 X0.59739 Y-0.13576
G01 X0.59393 Y-0.13471
G01 X0.59095 Y-0.13351
G01 X0.58738 Y-0.13167
G01 X0.58369 Y-0.12925
G01 X0.58030 Y-0.12642
G01 X0.57725 Y-0.12324
G01 X0.57479 Y-0.12006
G01 X0.57248 Y-0.11630
G01 X0.57061 Y-0.11230
G01 X0.56920 Y-0.10812
G01 X0.56826 Y-0.10380
G01 X0.56783 Y-0.09981
G01 X0.56783 Y-0.09540
G01 X0.56833 Y-0.09101
G01 X0.56932 Y-0.08671
G01 X0.57062 Y-0.08291
G01 X0.57250 Y-0.07891
G01 X0.57481 Y-0.07515
G01 X0.57753 Y-0.07167
G01 X0.58092 Y-0.06825
G01 X0.58470 Y-0.06527
G01 X0.58882 Y-0.06277
G01 X0.63899 Y-0.03774
G01 X0.64240 Y-0.03643
G01 X0.64591 Y-0.03545
G01 X0.64950 Y-0.03479
G01 X0.65314 Y-0.03447
G01 X0.75040 Y-0.03444
G01 X0.75405 Y-0.03465
G01 X0.75726 Y-0.03512
G01 X0.76236 Y-0.03643
G01 X0.76688 Y-0.03824
G01 X0.81558 Y-0.06259
G01 X0.81999 Y-0.06523
G01 X0.82252 Y-0.06713
G01 X0.82489 Y-0.06923
G01 X0.84927 Y-0.09359
G01 X0.85217 Y-0.09683
G01 X0.85448 Y-0.10004
G01 X0.85664 Y-0.10382
G01 X0.88098 Y-0.15254
G01 X0.88222 Y-0.15554
G01 X0.88320 Y-0.15863
G01 X0.88393 Y-0.16179
G01 X0.88440 Y-0.16500
G01 X0.88461 Y-0.16905
G01 X0.88461 Y-0.31190
G01 X0.88450 Y-0.31474
G01 X0.88420 Y-0.31756
G01 X0.88369 Y-0.32036
G01 X0.88286 Y-0.32349
G01 X0.88193 Y-0.32618
G01 X0.88081 Y-0.32878
G01 X0.85646 Y-0.37748
G01 X0.85382 Y-0.38190
G01 X0.85192 Y-0.38443
G01 X0.84982 Y-0.38680
G01 X0.82546 Y-0.41117
G01 X0.82252 Y-0.41383
G01 X0.81900 Y-0.41639
G01 X0.81522 Y-0.41855
G01 X0.76651 Y-0.44288
G01 X0.76351 Y-0.44412
G01 X0.76042 Y-0.44511
G01 X0.75726 Y-0.44584
G01 X0.75405 Y-0.44630
G01 X0.75000 Y-0.44651
G01 X0.65476 Y-0.44651
G01 X0.65071 Y-0.44630
G01 X0.64710 Y-0.44576
G01 X0.64240 Y-0.44452
G01 X0.63788 Y-0.44271
G01 X0.58918 Y-0.41837
G01 X0.58672 Y-0.41700
G01 X0.58437 Y-0.41545
G01 X0.58183 Y-0.41349
G01 X0.57974 Y-0.41161
G01 X0.57650 Y-0.40805
G01 X0.57350 Y-0.40378
G01 X0.57125 Y-0.39952
G01 X0.56955 Y-0.39502
G01 X0.56833 Y-0.38995
G01 X0.56781 Y-0.38516
G04 P0 ( dwell for no time -- G64 should not smooth over this point )
G00 Z0.08000 ( retract )

G00 X1.09889 Y-0.12195 ( rapid move to begin. )
G01 F180.00000
( Mill infeed pass 1/1 )
G01 Z-0.04000
G04 P0 ( dwell for no time -- G64 should not smooth over this point )
G01 F360.00000
G01 X1.09889 Y-0.12195
G01 X1.09889 Y-0.22579
G01 X1.10269 Y-0.22517
G01 X1.10674 Y-0.22492
G01 X1.21690 Y-0.22492
G01 X1.24446 Y-0.21113
G01 X1.25825 Y-0.18356
G01 X1.25825 Y-0.15453
G01 X1.24446 Y-0.12696
G01 X1.21690 Y-0.11318
G01 X1.11644 Y-0.11318
G01 X1.09889 Y-0.12195
G04 P0 ( dwell for no time -- G64 should not smooth over this point )
G00 Z0.08000 ( retract )

G00 X1.44872 Y-0.16905 ( rapid move to begin. )
G01 F180.00000
( Mill infeed pass 1/1 )
G01 Z-0.04000
G04 P0 ( dwell for no time -- G64 should not smooth over this point )
G01 F360.00000
G01 X1.44872 Y-0.16905
G01 X1.44873 Y-0.24129
G01 X1.44893 Y-0.24453
G01 X1.44933 Y-0.24734
G01 X1.45002 Y-0.25051
G01 X1.45084 Y-0.25322
G01 X1.45270 Y-0.25772
G01 X1.47669 Y-0.30570
G01 X1.47822 Y-0.30848
G01 X1.47974 Y-0.31079
G01 X1.48166 Y-0.31331
G01 X1.48379 Y-0.31566
G01 X1.50846 Y-0.34031
G01 X1.51249 Y-0.34370
G01 X1.51689 Y-0.34648
G01 X1.50625 Y-0.35723
G01 X1.50378 Y-0.36032
G01 X1.50162 Y-0.36364
G01 X1.47651 Y-0.41371
G01 X1.47521 Y-0.41668
G01 X1.47416 Y-0.41975
G01 X1.47300 Y-0.42489
G01 X1.47255 Y-0.42974
G01 X1.47253 Y-0.47857
G01 X1.47264 Y-0.48141
G01 X1.47294 Y-0.48423
G01 X1.47345 Y-0.48703
G01 X1.47428 Y-0.49016
G01 X1.47536 Y-0.49322
G01 X1.47651 Y-0.49582
G01 X1.50086 Y-0.54450
G01 X1.50245 Y-0.54724
G01 X1.50401 Y-0.54953
G01 X1.50760 Y-0.55375
G01 X1.53225 Y-0.57839
G01 X1.53493 Y-0.58074
G01 X1.53781 Y-0.58284
G01 X1.54191 Y-0.58521
G01 X1.58953 Y-0.60902
G01 X1.59363 Y-0.61079
G01 X1.59672 Y-0.61178
G01 X1.59988 Y-0.61251
G01 X1.60309 Y-0.61297
G01 X1.60674 Y-0.61318
G01 X1.77381 Y-0.61318
G01 X1.77822 Y-0.61293
G01 X1.78100 Y-0.61252
G01 X1.78643 Y-0.61110
G01 X1.79161 Y-0.60893
G01 X1.79407 Y-0.60757
G01 X1.79835 Y-0.60459
G01 X1.80221 Y-0.60108
G01 X1.80408 Y-0.59898
G01 X1.80580 Y-0.59676
G01 X1.80855 Y-0.59232
G01 X1.80979 Y-0.58980
G01 X1.81083 Y-0.58719
G01 X1.81191 Y-0.58374
G01 X1.81259 Y-0.58060
G01 X1.81305 Y-0.57702
G01 X1.81318 Y-0.57381
G01 X1.81317 Y-0.07301
G01 X1.81288 Y-0.06900
G01 X1.81228 Y-0.06544
G01 X1.81123 Y-0.06157
G01 X1.80979 Y-0.05782
G01 X1.80817 Y-0.05459
G01 X1.80603 Y-0.05119
G01 X1.80356 Y-0.04803
G01 X1.80078 Y-0.04513
G01 X1.79835 Y-0.04303
G01 X1.79543 Y-0.04091
G01 X1.79232 Y-0.03907
G01 X1.78906 Y-0.03751
G01 X1.78567 Y-0.03627
G01 X1.78218 Y-0.03534
G01 X1.77901 Y-0.03479
G01 X1.77541 Y-0.03447
G01 X1.58293 Y-0.03444
G01 X1.58009 Y-0.03457
G01 X1.57727 Y-0.03491
G01 X1.57448 Y-0.03545
G01 X1.57136 Y-0.03631
G01 X1.56868 Y-0.03727
G01 X1.56609 Y-0.03842
G01 X1.51740 Y-0.06277
G01 X1.51466 Y-0.06435
G01 X1.51237 Y-0.06591
G01 X1.50990 Y-0.06789
G01 X1.50788 Y-0.06978
G01 X1.48351 Y-0.09416
G01 X1.48116 Y-0.09683
G01 X1.47907 Y-0.09971
G01 X1.47669 Y-0.10382
G01 X1.45288 Y-0.15144
G01 X1.45111 Y-0.15554
G01 X1.45002 Y-0.15902
G01 X1.44933 Y-0.16219
G01 X1.44889 Y-0.16540
G01 X1.44872 Y-0.16905
G04 P0 ( dwell for no time -- G64 should not smooth over this point )
G00 Z0.08000 ( retract )

G00 X1.52747 Y-0.17834 ( rapid move to begin. )
G01 F180.00000
( Mill infeed pass 1/1 )
G01 Z-0.04000
G04 P0 ( dwell for no time -- G64 should not smooth over this point )
G01 F360.00000
G01 X1.52747 Y-0.17834
G01 X1.54426 Y-0.14475
G01 X1.55903 Y-0.12998
G01 X1.59263 Y-0.11318
G01 X1.73444 Y-0.11318
G01 X1.73444 Y-0.29634
G01 X1.61353 Y-0.29634
G01 X1.55698 Y-0.27750
G01 X1.54426 Y-0.26477
G01 X1.52747 Y-0.23118
G01 X1.52747 Y-0.17834
G01 X1.63820 Y-0.19940
G01 X1.63857 Y-0.19702
G01 X1.63941 Y-0.19477
G01 X1.64068 Y-0.19274
G01 X1.64235 Y-0.19100
G01 X1.64433 Y-0.18964
G01 X1.64616 Y-0.18883
G01 X1.64850 Y-0.18829
G01 X1.65090 Y-0.18822
G01 X1.65327 Y-0.18865
G01 X1.65514 Y-0.18937
G01 X1.65718 Y-0.19063
G01 X1.65893 Y-0.19227
G01 X1.66011 Y-0.19389
G01 X1.66114 Y-0.19607
G01 X1.66170 Y-0.19840
G01 X1.66180 Y-0.20040
G01 X1.66148 Y-0.20278
G01 X1.66068 Y-0.20505
G01 X1.65944 Y-0.20710
G01 X1.65780 Y-0.20887
G01 X1.65585 Y-0.21026
G01 X1.65403 Y-0.21110
G01 X1.65170 Y-0.21169
G01 X1.64930 Y-0.21179
G01 X1.64732 Y-0.21150
G01 X1.64504 Y-0.21072
G01 X1.64298 Y-0.20950
G01 X1.64120 Y-0.20788
G01 X1.63979 Y-0.20593
G01 X1.63893 Y-0.20412
G01 X1.63833 Y-0.20180
G01 X1.63820 Y-0.19940
G04 P0 ( dwell for no time -- G64 should not smooth over this point )
G00 Z0.08000 ( retract )

G00 X1.91660 Y-0.46325 ( rapid move to begin. )
G01 F180.00000
( Mill infeed pass 1/1 )
G01 Z-0.04000
G04 P0 ( dwell for no time -- G64 should not smooth over this point )
G01 F360.00000
G01 X1.91660 Y-0.46325
G01 X1.91708 Y-0.46520
G01 X1.91817 Y-0.46688
G01 X1.91908 Y-0.46767
G01 X1.92013 Y-0.46827
G01 X1.92208 Y-0.46874
G01 X1.92408 Y-0.46854
G01 X1.92589 Y-0.46768
G01 X1.92681 Y-0.46689
G01 X1.92754 Y-0.46593
G01 X1.92806 Y-0.46484
G01 X1.93656 Y-0.44104
G01 X1.94506 Y-0.46484
G01 X1.94604 Y-0.46659
G01 X1.94690 Y-0.46744
G01 X1.94827 Y-0.46827
G01 X1.94982 Y-0.46870
G01 X1.95143 Y-0.46870
G01 X1.95298 Y-0.46827
G01 X1.95435 Y-0.46743
G01 X1.95520 Y-0.46657
G01 X1.95604 Y-0.46520
G01 X1.95651 Y-0.46325
G01 X1.95630 Y-0.46125
G01 X1.94287 Y-0.42360
G01 X1.94721 Y-0.41274
G01 X1.94849 Y-0.41146
G01 X1.95326 Y-0.40908
G01 X1.95428 Y-0.40843
G01 X1.95539 Y-0.40727
G01 X1.95628 Y-0.40547
G01 X1.95650 Y-0.40429
G01 X1.95648 Y-0.40308
G01 X1.95607 Y-0.40152
G01 X1.95549 Y-0.40046
G01 X1.95441 Y-0.39927
G01 X1.95341 Y-0.39859
G01 X1.95229 Y-0.39814
G01 X1.95111 Y-0.39791
G01 X1.94990 Y-0.39794
G01 X1.94834 Y-0.39835
G01 X1.94170 Y-0.40171
G01 X1.93801 Y-0.40525
G01 X1.93686 Y-0.40686
G01 X1.93100 Y-0.42150
G01 X1.91681 Y-0.46125
G01 X1.91660 Y-0.46325
G04 P0 ( dwell for no time -- G64 should not smooth over this point )
G00 Z0.08000 ( retract )

G00 X1.89509 Y-0.49959 ( rapid move to begin. )
G01 F180.00000
( Mill infeed pass 1/1 )
G01 Z-0.04000
G04 P0 ( dwell for no time -- G64 should not smooth over this point )
G01 F360.00000
G01 X1.89509 Y-0.49959
G01 X1.89523 Y-0.49879
G01 X1.89567 Y-0.49766
G01 X1.89667 Y-0.49638
G01 X1.89802 Y-0.49549
G01 X1.89959 Y-0.49510
G01 X1.95000 Y-0.49508
G01 X1.95081 Y-0.49515
G01 X1.95198 Y-0.49549
G01 X1.95362 Y-0.49667
G01 X1.95451 Y-0.49802
G01 X1.95485 Y-0.49919
G01 X1.95492 Y-0.50000
G01 X1.95485 Y-0.50081
G01 X1.95451 Y-0.50198
G01 X1.95362 Y-0.50333
G01 X1.95234 Y-0.50433
G01 X1.95121 Y-0.50477
G01 X1.95041 Y-0.50490
G01 X1.90000 Y-0.50492
G01 X1.89919 Y-0.50486
G01 X1.89802 Y-0.50451
G01 X1.89698 Y-0.50388
G01 X1.89638 Y-0.50333
G01 X1.89567 Y-0.50234
G01 X1.89535 Y-0.50160
G01 X1.89515 Y-0.50081
G01 X1.89509 Y-0.49959
G04 P0 ( dwell for no time -- G64 should not smooth over this point )
G00 Z0.08000 ( retract )

G00 X1.84999 Y-0.43452 ( rapid move to begin. )
G01 F180.00000
( Mill infeed pass 1/1 )
G01 Z-0.04000
G04 P0 ( dwell for no time -- G64 should not smooth over this point )
G01 F360.00000
G01 X1.84999 Y-0.43452
G01 X1.84976 Y-0.43483
G01 X1.84915 Y-0.43674
G01 X1.84911 Y-0.45482
G01 X1.84915 Y-0.45361
G01 X1.84976 Y-0.45170
G01 X1.85097 Y-0.45010
G01 X1.85265 Y-0.44900
G01 X1.85460 Y-0.44852
G01 X1.90000 Y-0.44851
G01 X1.90120 Y-0.44864
G01 X1.90235 Y-0.44900
G01 X1.90403 Y-0.45010
G01 X1.90482 Y-0.45101
G01 X1.90542 Y-0.45206
G01 X1.90578 Y-0.45322
G01 X1.90590 Y-0.45442
G01 X1.90556 Y-0.45639
G01 X1.90458 Y-0.45814
G01 X1.90307 Y-0.45946
G01 X1.90198 Y-0.45998
G01 X1.90080 Y-0.46027
G01 X1.85501 Y-0.46032
G01 X1.85380 Y-0.46020
G01 X1.85265 Y-0.45983
G01 X1.85160 Y-0.45924
G01 X1.85042 Y-0.45814
G01 X1.84976 Y-0.45713
G01 X1.84932 Y-0.45601
G01 X1.84911 Y-0.45482
G01 X1.84911 Y-0.43795
G01 X1.84999 Y-0.43452
G01 X1.85097 Y-0.43323
G01 X1.85265 Y-0.43213
G01 X1.85460 Y-0.43165
G01 X1.90000 Y-0.43164
G01 X1.90120 Y-0.43176
G01 X1.90235 Y-0.43213
G01 X1.90341 Y-0.43272
G01 X1.90431 Y-0.43351
G01 X1.90542 Y-0.43519
G01 X1.90578 Y-0.43634
G01 X1.90590 Y-0.43754
G01 X1.90556 Y-0.43952
G01 X1.90458 Y-0.44127
G01 X1.90307 Y-0.44259
G01 X1.90198 Y-0.44311
G01 X1.90080 Y-0.44339
G01 X1.85501 Y-0.44345
G01 X1.85380 Y-0.44332
G01 X1.85265 Y-0.44296
G01 X1.85160 Y-0.44237
G01 X1.85042 Y-0.44127
G01 X1.84976 Y-0.44026
G01 X1.84932 Y-0.43914
G01 X1.84911 Y-0.43795
G01 X1.87863 Y-0.32309
G01 X1.87868 Y-0.36326
G01 X1.87897 Y-0.36444
G01 X1.87949 Y-0.36553
G01 X1.88081 Y-0.36704
G01 X1.88255 Y-0.36802
G01 X1.88453 Y-0.36836
G01 X1.88573 Y-0.36824
G01 X1.88688 Y-0.36787
G01 X1.88794 Y-0.36728
G01 X1.88885 Y-0.36649
G01 X1.88995 Y-0.36481
G01 X1.89031 Y-0.36366
G01 X1.89044 Y-0.36246
G01 X1.89038 Y-0.32228
G01 X1.88995 Y-0.32074
G01 X1.88885 Y-0.31906
G01 X1.88725 Y-0.31785
G01 X1.88534 Y-0.31724
G01 X1.88413 Y-0.31720
G01 X1.88294 Y-0.31740
G01 X1.88182 Y-0.31785
G01 X1.88081 Y-0.31851
G01 X1.87971 Y-0.31968
G01 X1.87912 Y-0.32074
G01 X1.87875 Y-0.32189
G01 X1.87582 Y-0.37953
G01 X1.87590 Y-0.37833
G01 X1.87639 Y-0.37679
G01 X1.87702 Y-0.37576
G01 X1.88081 Y-0.37194
G01 X1.88200 Y-0.37119
G01 X1.88313 Y-0.37078
G01 X1.88433 Y-0.37062
G01 X1.88554 Y-0.37070
G01 X1.88688 Y-0.37110
G01 X1.88810 Y-0.37181
G01 X1.89205 Y-0.37576
G01 X1.89268 Y-0.37679
G01 X1.89316 Y-0.37833
G01 X1.89322 Y-0.37994
G01 X1.89297 Y-0.38112
G01 X1.89249 Y-0.38223
G01 X1.89180 Y-0.38321
G01 X1.88810 Y-0.38685
G01 X1.88707 Y-0.38748
G01 X1.88593 Y-0.38788
G01 X1.88473 Y-0.38805
G01 X1.88358 Y-0.38797
G01 X1.88237 Y-0.38764
G01 X1.88096 Y-0.38685
G01 X1.87702 Y-0.38290
G01 X1.87639 Y-0.38187
G01 X1.87598 Y-0.38073
G01 X1.87582 Y-0.37953
G04 P0 ( dwell for no time -- G64 should not smooth over this point )
G00 Z0.08000 ( retract )

G00 X1.96018 Y-0.32610 ( rapid move to begin. )
G01 F180.00000
( Mill infeed pass 1/1 )
G01 Z-0.04000
G04 P0 ( dwell for no time -- G64 should not smooth over this point )
G01 F360.00000
G01 X1.96018 Y-0.32610
G01 X1.96035 Y-0.32730
G01 X1.96075 Y-0.32844
G01 X1.96138 Y-0.32947
G01 X1.96532 Y-0.33341
G01 X1.96670 Y-0.33419
G01 X1.96789 Y-0.33453
G01 X1.96903 Y-0.33462
G01 X1.97021 Y-0.33447
G01 X1.97134 Y-0.33409
G01 X1.97237 Y-0.33349
G01 X1.97616 Y-0.32978
G01 X1.97686 Y-0.32879
G01 X1.97734 Y-0.32769
G01 X1.97761 Y-0.32610
G01 X1.97753 Y-0.32490
G01 X1.97704 Y-0.32336
G01 X1.97641 Y-0.32233
G01 X1.97246 Y-0.31838
G01 X1.97125 Y-0.31767
G01 X1.96990 Y-0.31727
G01 X1.96870 Y-0.31719
G01 X1.96750 Y-0.31735
G01 X1.96636 Y-0.31776
G01 X1.96517 Y-0.31851
G01 X1.96138 Y-0.32233
G01 X1.96075 Y-0.32336
G01 X1.96026 Y-0.32490
G01 X1.96018 Y-0.32610
G04 P0 ( dwell for no time -- G64 should not smooth over this point )
G00 Z0.08000 ( retract )

G00 X1.90394 Y-0.34840 ( rapid move to begin. )
G01 F180.00000
( Mill infeed pass 1/1 )
G01 Z-0.04000
G04 P0 ( dwell for no time -- G64 should not smooth over this point )
G01 F360.00000
G01 X1.90394 Y-0.34840
G01 X1.90405 Y-0.34956
G01 X1.90440 Y-0.35068
G01 X1.90798 Y-0.35763
G01 X1.91217 Y-0.36173
G01 X1.91845 Y-0.36493
G01 X1.91954 Y-0.36535
G01 X1.92109 Y-0.36555
G01 X1.93515 Y-0.36555
G01 X1.93652 Y-0.36539
G01 X1.93543 Y-0.37624
G01 X1.91225 Y-0.37625
G01 X1.91030 Y-0.37673
G01 X1.90893 Y-0.37756
G01 X1.90783 Y-0.37874
G01 X1.90724 Y-0.37979
G01 X1.90680 Y-0.38134
G01 X1.90680 Y-0.38295
G01 X1.90724 Y-0.38450
G01 X1.90783 Y-0.38555
G01 X1.90893 Y-0.38672
G01 X1.90994 Y-0.38739
G01 X1.91106 Y-0.38783
G01 X1.91265 Y-0.38805
G01 X1.94117 Y-0.38804
G01 X1.94271 Y-0.38772
G01 X1.94412 Y-0.38701
G01 X1.94502 Y-0.38625
G01 X1.94596 Y-0.38498
G01 X1.94642 Y-0.38389
G01 X1.94665 Y-0.38273
G01 X1.94946 Y-0.35461
G01 X1.94946 Y-0.35340
G01 X1.94921 Y-0.35222
G01 X1.94829 Y-0.35045
G01 X1.94715 Y-0.34931
G01 X1.94575 Y-0.34853
G01 X1.94419 Y-0.34815
G01 X1.94298 Y-0.34815
G01 X1.94180 Y-0.34840
G01 X1.94069 Y-0.34888
G01 X1.93971 Y-0.34957
G01 X1.93728 Y-0.35198
G01 X1.93376 Y-0.35374
G01 X1.92248 Y-0.35374
G01 X1.91896 Y-0.35198
G01 X1.91751 Y-0.35052
G01 X1.91575 Y-0.34700
G01 X1.91575 Y-0.33573
G01 X1.91751 Y-0.33221
G01 X1.91896 Y-0.33075
G01 X1.92248 Y-0.32899
G01 X1.93376 Y-0.32899
G01 X1.93728 Y-0.33075
G01 X1.94035 Y-0.33365
G01 X1.94142 Y-0.33421
G01 X1.94258 Y-0.33453
G01 X1.94379 Y-0.33462
G01 X1.94537 Y-0.33434
G01 X1.94648 Y-0.33386
G01 X1.94776 Y-0.33289
G01 X1.94874 Y-0.33161
G01 X1.94932 Y-0.33011
G01 X1.94949 Y-0.32851
G01 X1.94922 Y-0.32693
G01 X1.94874 Y-0.32582
G01 X1.94804 Y-0.32483
G01 X1.94495 Y-0.32173
G01 X1.94375 Y-0.32080
G01 X1.93744 Y-0.31764
G01 X1.93593 Y-0.31724
G01 X1.92031 Y-0.31724
G01 X1.91845 Y-0.31781
G01 X1.91217 Y-0.32100
G01 X1.90848 Y-0.32454
G01 X1.90737 Y-0.32607
G01 X1.90440 Y-0.33205
G01 X1.90399 Y-0.33356
G01 X1.90394 Y-0.34840
G04 P0 ( dwell for no time -- G64 should not smooth over this point )
G00 Z0.08000 ( retract )

G00 X1.82520 Y-0.32309 ( rapid move to begin. )
G01 F180.00000
( Mill infeed pass 1/1 )
G01 Z-0.04000
G04 P0 ( dwell for no time -- G64 should not smooth over this point )
G01 F360.00000
G01 X1.82520 Y-0.32309
G01 X1.82542 Y-0.32149
G01 X1.82606 Y-0.32002
G01 X1.82707 Y-0.31877
G01 X1.82838 Y-0.31785
G01 X1.82990 Y-0.31731
G01 X1.83150 Y-0.31720
G01 X1.83308 Y-0.31752
G01 X1.83451 Y-0.31826
G01 X1.83568 Y-0.31936
G01 X1.83634 Y-0.32037
G01 X1.83679 Y-0.32149
G01 X1.83701 Y-0.32309
G01 X1.83701 Y-0.35263
G01 X1.83831 Y-0.35525
G01 X1.84093 Y-0.35655
G01 X1.84658 Y-0.35655
G01 X1.85010 Y-0.35479
G01 X1.85051 Y-0.35439
G01 X1.85051 Y-0.32309
G01 X1.85085 Y-0.32111
G01 X1.85159 Y-0.31968
G01 X1.85238 Y-0.31877
G01 X1.85334 Y-0.31804
G01 X1.85482 Y-0.31740
G01 X1.85641 Y-0.31718
G01 X1.85800 Y-0.31740
G01 X1.85948 Y-0.31804
G01 X1.86044 Y-0.31877
G01 X1.86123 Y-0.31968
G01 X1.86183 Y-0.32074
G01 X1.86219 Y-0.32189
G01 X1.86232 Y-0.32309
G01 X1.86232 Y-0.36246
G01 X1.86210 Y-0.36405
G01 X1.86146 Y-0.36553
G01 X1.86073 Y-0.36649
G01 X1.85982 Y-0.36728
G01 X1.85876 Y-0.36787
G01 X1.85722 Y-0.36831
G01 X1.85601 Y-0.36835
G01 X1.85482 Y-0.36814
G01 X1.85369 Y-0.36770
G01 X1.85244 Y-0.36683
G01 X1.85026 Y-0.36790
G01 X1.84875 Y-0.36831
G01 X1.83915 Y-0.36835
G01 X1.83725 Y-0.36790
G01 X1.83055 Y-0.36450
G01 X1.82959 Y-0.36367
G01 X1.82883 Y-0.36266
G01 X1.82566 Y-0.35631
G01 X1.82525 Y-0.35480
G01 X1.82520 Y-0.32309
G04 P0 ( dwell for no time -- G64 should not smooth over this point )
G00 Z0.08000 ( retract )

G00 X1.63820 Y-0.44940 ( rapid move to begin. )
G01 F180.00000
( Mill infeed pass 1/1 )
G01 Z-0.04000
G04 P0 ( dwell for no time -- G64 should not smooth over this point )
G01 F360.00000
G01 X1.63820 Y-0.44940
G01 X1.63833 Y-0.45180
G01 X1.63893 Y-0.45412
G01 X1.63979 Y-0.45593
G01 X1.64120 Y-0.45788
G01 X1.64298 Y-0.45950
G01 X1.64504 Y-0.46072
G01 X1.64732 Y-0.46150
G01 X1.64930 Y-0.46179
G01 X1.65170 Y-0.46169
G01 X1.65403 Y-0.46110
G01 X1.65585 Y-0.46026
G01 X1.65780 Y-0.45887
G01 X1.65944 Y-0.45710
G01 X1.66068 Y-0.45505
G01 X1.66148 Y-0.45278
G01 X1.66180 Y-0.45040
G01 X1.66170 Y-0.44840
G01 X1.66114 Y-0.44607
G01 X1.66011 Y-0.44389
G01 X1.65893 Y-0.44227
G01 X1.65718 Y-0.44063
G01 X1.65514 Y-0.43937
G01 X1.65327 Y-0.43865
G01 X1.65090 Y-0.43822
G01 X1.64850 Y-0.43829
G01 X1.64616 Y-0.43883
G01 X1.64433 Y-0.43964
G01 X1.64235 Y-0.44100
G01 X1.64068 Y-0.44274
G01 X1.63941 Y-0.44477
G01 X1.63857 Y-0.44702
G01 X1.63820 Y-0.44940
G01 X1.55127 Y-0.44025
G01 X1.55127 Y-0.46928
G01 X1.56807 Y-0.50287
G01 X1.58284 Y-0.51764
G01 X1.61644 Y-0.53444
G01 X1.73444 Y-0.53444
G01 X1.73444 Y-0.37509
G01 X1.61644 Y-0.37509
G01 X1.58284 Y-0.39188
G01 X1.56807 Y-0.40665
G01 X1.55127 Y-0.44025
G04 P0 ( dwell for no time -- G64 should not smooth over this point )
G00 Z0.08000 ( retract )

G00 X1.01660 Y-1.00462 ( rapid move to begin. )
G01 F180.00000
( Mill infeed pass 1/1 )
G01 Z-0.04000
G04 P0 ( dwell for no time -- G64 should not smooth over this point )
G01 F360.00000
G01 X1.01660 Y-1.00462
G01 X1.01665 Y-1.00341
G01 X1.01725 Y-1.00150
G01 X1.01847 Y-0.99990
G01 X1.02014 Y-0.99880
G01 X1.02209 Y-0.99833
G01 X1.06749 Y-0.99831
G01 X1.06869 Y-0.99844
G01 X1.06984 Y-0.99880
G01 X1.07152 Y-0.99990
G01 X1.07231 Y-1.00081
G01 X1.07291 Y-1.00187
G01 X1.07327 Y-1.00302
G01 X1.07340 Y-1.00422
G01 X1.07306 Y-1.00619
G01 X1.07207 Y-1.00794
G01 X1.07056 Y-1.00926
G01 X1.06947 Y-1.00978
G01 X1.06829 Y-1.01007
G01 X1.02250 Y-1.01012
G01 X1.02130 Y-1.01000
G01 X1.02014 Y-1.00963
G01 X1.01909 Y-1.00904
G01 X1.01792 Y-1.00794
G01 X1.01725 Y-1.00693
G01 X1.01681 Y-1.00581
G01 X1.01660 Y-1.00462
G01 X1.01665 Y-0.98654
G01 X1.01725 Y-0.98463
G01 X1.01847 Y-0.98303
G01 X1.02014 Y-0.98193
G01 X1.02209 Y-0.98145
G01 X1.06749 Y-0.98144
G01 X1.06869 Y-0.98157
G01 X1.06984 Y-0.98193
G01 X1.07152 Y-0.98303
G01 X1.07231 Y-0.98394
G01 X1.07291 Y-0.98499
G01 X1.07327 Y-0.98615
G01 X1.07340 Y-0.98735
G01 X1.07306 Y-0.98932
G01 X1.07207 Y-0.99107
G01 X1.07056 Y-0.99239
G01 X1.06947 Y-0.99291
G01 X1.06829 Y-0.99320
G01 X1.02250 Y-0.99325
G01 X1.02130 Y-0.99313
G01 X1.02014 Y-0.99276
G01 X1.01909 Y-0.99217
G01 X1.01792 Y-0.99107
G01 X1.01725 Y-0.99006
G01 X1.01681 Y-0.98894
G01 X1.01660 Y-0.98775
G01 X1.02015 Y-0.33571
G01 X0.99508 Y-0.90000
G01 X0.99514 Y-0.89919
G01 X0.99549 Y-0.89802
G01 X0.99612 Y-0.89698
G01 X0.99667 Y-0.89638
G01 X0.99766 Y-0.89567
G01 X0.99919 Y-0.89515
G01 X1.00040 Y-0.89510
G01 X1.00121 Y-0.89523
G01 X1.00234 Y-0.89567
G01 X1.00362 Y-0.89667
G01 X1.00450 Y-0.89802
G01 X1.00490 Y-0.89959
G01 X1.00492 Y-0.95000
G01 X1.00485 Y-0.95081
G01 X1.00450 Y-0.95198
G01 X1.00388 Y-0.95302
G01 X1.00333 Y-0.95362
G01 X1.00198 Y-0.95451
G01 X1.00081 Y-0.95486
G01 X1.00000 Y-0.95492
G01 X0.99919 Y-0.95486
G01 X0.99802 Y-0.95451
G01 X0.99667 Y-0.95362
G01 X0.99567 Y-0.95234
G01 X0.99523 Y-0.95121
G01 X0.99509 Y-0.95041
G01 X0.99508 Y-0.90000
G01 X1.02015 Y-0.33571
G01 X1.08412 Y-0.97399
G01 X1.08415 Y-0.97238
G01 X1.08461 Y-0.97084
G01 X1.08547 Y-0.96948
G01 X1.08634 Y-0.96864
G01 X1.08736 Y-0.96800
G01 X1.08928 Y-0.96742
G01 X1.09129 Y-0.96753
G01 X1.09243 Y-0.96791
G01 X1.09347 Y-0.96852
G01 X1.09463 Y-0.96964
G01 X1.10546 Y-0.98341
G01 X1.11628 Y-0.96964
G01 X1.11743 Y-0.96852
G01 X1.11848 Y-0.96791
G01 X1.11962 Y-0.96753
G01 X1.12163 Y-0.96742
G01 X1.12355 Y-0.96800
G01 X1.12517 Y-0.96918
G01 X1.12612 Y-0.97048
G01 X1.12676 Y-0.97238
G01 X1.12678 Y-0.97399
G01 X1.12621 Y-0.97591
G01 X1.12556 Y-0.97693
G01 X1.11296 Y-0.99297
G01 X1.12556 Y-1.00900
G01 X1.12621 Y-1.01003
G01 X1.12672 Y-1.01155
G01 X1.12681 Y-1.01316
G04 P0 ( dwell for no time -- G64 should not smooth over this point )
G00 Z0.08000 ( retract )

G00 X1.12681 Y-1.01316 ( rapid move to begin. )
G01 F180.00000
( Mill infeed pass 1/1 )
G01 Z-0.04000
G04 P0 ( dwell for no time -- G64 should not smooth over this point )
G01 F360.00000
G01 X1.12681 Y-1.01316
G01 X1.12645 Y-1.01473
G01 X1.12544 Y-1.01646
G01 X1.12390 Y-1.01775
G01 X1.12280 Y-1.01825
G01 X1.12163 Y-1.01852
G01 X1.12042 Y-1.01854
G01 X1.11923 Y-1.01831
G01 X1.11743 Y-1.01742
G01 X1.11628 Y-1.01630
G01 X1.10546 Y-1.00253
G01 X1.09463 Y-1.01630
G01 X1.09347 Y-1.01742
G01 X1.09168 Y-1.01831
G01 X1.08969 Y-1.01855
G01 X1.08773 Y-1.01811
G01 X1.08634 Y-1.01730
G01 X1.08499 Y-1.01581
G01 X1.08423 Y-1.01395
G01 X1.08412 Y-1.01195
G01 X1.08470 Y-1.01003
G01 X1.08534 Y-1.00900
G01 X1.09794 Y-0.99297
G01 X1.08534 Y-0.97693
G01 X1.08470 Y-0.97591
G01 X1.08412 Y-0.97399
G01 X1.02015 Y-0.33571
G01 X1.02016 Y-0.07301
G01 X1.02032 Y-0.07020
G01 X1.02067 Y-0.06741
G01 X1.02133 Y-0.06427
G01 X1.02210 Y-0.06157
G01 X1.02307 Y-0.05893
G01 X1.02423 Y-0.05637
G01 X1.02577 Y-0.05355
G01 X1.02730 Y-0.05119
G01 X1.02977 Y-0.04803
G01 X1.03284 Y-0.04486
G01 X1.03625 Y-0.04205
G01 X1.03995 Y-0.03965
G01 X1.04353 Y-0.03783
G01 X1.04766 Y-0.03627
G01 X1.05194 Y-0.03518
G01 X1.05631 Y-0.03457
G01 X1.05992 Y-0.03444
G01 X1.06313 Y-0.03461
G01 X1.06671 Y-0.03510
G01 X1.07023 Y-0.03592
G01 X1.07366 Y-0.03707
G01 X1.07661 Y-0.03834
G01 X1.07978 Y-0.04005
G01 X1.08272 Y-0.04200
G01 X1.09063 Y-0.03807
G01 X1.09478 Y-0.03643
G01 X1.09988 Y-0.03512
G01 X1.10511 Y-0.03449
G01 X1.22619 Y-0.03444
G01 X1.22903 Y-0.03454
G01 X1.23305 Y-0.03504
G01 X1.23661 Y-0.03585
G01 X1.24008 Y-0.03697
G01 X1.24343 Y-0.03842
G01 X1.29249 Y-0.06296
G01 X1.29525 Y-0.06460
G01 X1.29756 Y-0.06622
G01 X1.30004 Y-0.06826
G01 X1.30235 Y-0.07050
G01 X1.30569 Y-0.07452
G01 X1.30847 Y-0.07894
G01 X1.33336 Y-0.12873
G01 X1.33500 Y-0.13288
G01 X1.33607 Y-0.13679
G01 X1.33674 Y-0.14079
G01 X1.33699 Y-0.14483
G01 X1.33698 Y-0.19367
G01 X1.33658 Y-0.19852
G01 X1.33569 Y-0.20289
G01 X1.33446 Y-0.20675
G01 X1.33283 Y-0.21047
G01 X1.30884 Y-0.25844
G01 X1.30704 Y-0.26158
G01 X1.30472 Y-0.26486
G01 X1.30207 Y-0.26789
G01 X1.29913 Y-0.27063
G01 X1.29592 Y-0.27305
G01 X1.29249 Y-0.27514
G01 X1.24307 Y-0.29986
G01 X1.23894 Y-0.30154
G01 X1.23425 Y-0.30282
G01 X1.23064 Y-0.30340
G01 X1.22660 Y-0.30365
G01 X1.11644 Y-0.30366
G01 X1.09889 Y-0.31243
G01 X1.09889 Y-0.32642
G01 X1.11268 Y-0.35399
G01 X1.14024 Y-0.36777
G01 X1.21690 Y-0.36777
G01 X1.25656 Y-0.34794
G01 X1.25950 Y-0.34666
G01 X1.26254 Y-0.34561
G01 X1.26565 Y-0.34482
G01 X1.26882 Y-0.34428
G01 X1.27202 Y-0.34401
G01 X1.27523 Y-0.34399
G01 X1.27843 Y-0.34424
G01 X1.28161 Y-0.34474
G01 X1.28472 Y-0.34551
G01 X1.28777 Y-0.34652
G01 X1.29216 Y-0.34850
G01 X1.29595 Y-0.35078
G01 X1.29945 Y-0.35346
G01 X1.30264 Y-0.35652
G01 X1.30546 Y-0.35992
G01 X1.30788 Y-0.36361
G01 X1.30987 Y-0.36755
G01 X1.31141 Y-0.37168
G01 X1.31256 Y-0.37636
G01 X1.31309 Y-0.38074
G01 X1.31314 Y-0.38516
G01 X1.31269 Y-0.38955
G01 X1.31174 Y-0.39387
G01 X1.31033 Y-0.39805
G01 X1.30845 Y-0.40204
G01 X1.30614 Y-0.40580
G01 X1.30315 Y-0.40958
G01 X1.29973 Y-0.41297
G01 X1.29592 Y-0.41591
G01 X1.29213 Y-0.41818
G01 X1.24196 Y-0.44322
G01 X1.23855 Y-0.44452
G01 X1.23504 Y-0.44551
G01 X1.23145 Y-0.44616
G01 X1.22781 Y-0.44648
G01 X1.13055 Y-0.44651
G01 X1.12690 Y-0.44630
G01 X1.12369 Y-0.44584
G01 X1.11898 Y-0.44465
G01 X1.11407 Y-0.44271
G01 X1.06537 Y-0.41837
G01 X1.06089 Y-0.41568
G01 X1.05710 Y-0.41269
G01 X1.05371 Y-0.40926
G01 X1.05076 Y-0.40545
G01 X1.04849 Y-0.40166
G01 X1.02361 Y-0.35186
G01 X1.02241 Y-0.34884
G01 X1.02145 Y-0.34574
G01 X1.02076 Y-0.34258
G01 X1.02032 Y-0.33936
G01 X1.02015 Y-0.33571
G01 X0.95755 Y-0.97369
G01 X0.95776 Y-0.97169
G01 X0.95862 Y-0.96988
G01 X0.95971 Y-0.96871
G01 X0.96109 Y-0.96787
G01 X0.96304 Y-0.96739
G01 X0.99719 Y-0.96738
G01 X0.99916 Y-0.96772
G01 X1.00059 Y-0.96846
G01 X1.00177 Y-0.96956
G01 X1.00260 Y-0.97093
G01 X1.00297 Y-0.97208
G01 X1.00308 Y-0.97369
G01 X1.00275 Y-0.97526
G01 X1.00201 Y-0.97669
G01 X1.00122 Y-0.97760
G01 X0.99954 Y-0.97870
G01 X0.99799 Y-0.97914
G01 X0.98622 Y-0.97919
G01 X0.98622 Y-1.01527
G01 X0.98766 Y-1.01384
G01 X0.98859 Y-1.01318
G01 X0.99455 Y-1.01018
G01 X0.99607 Y-1.00967
G01 X0.99767 Y-1.00958
G01 X0.99886 Y-1.00980
G01 X0.99998 Y-1.01026
G01 X1.00098 Y-1.01094
G01 X1.00206 Y-1.01213
G01 X1.00264 Y-1.01319
G01 X1.00305 Y-1.01475
G01 X1.00307 Y-1.01595
G01 X1.00285 Y-1.01714
G01 X1.00219 Y-1.01861
G01 X1.00116 Y-1.01984
G01 X0.99983 Y-1.02075
G01 X0.99506 Y-1.02313
G01 X0.99053 Y-1.02767
G01 X0.98523 Y-1.03561
G01 X0.98415 Y-1.03683
G01 X0.98314 Y-1.03752
G01 X0.98162 Y-1.03810
G01 X0.98000 Y-1.03824
G01 X0.97880 Y-1.03805
G01 X0.97696 Y-1.03720
G01 X0.97576 Y-1.03610
G01 X0.97476 Y-1.03434
G01 X0.97442 Y-1.03275
G01 X0.97441 Y-0.97919
G01 X0.96304 Y-0.97918
G01 X0.96109 Y-0.97870
G01 X0.96004 Y-0.97811
G01 X0.95913 Y-0.97732
G01 X0.95803 Y-0.97564
G01 X0.95755 Y-0.97369
G01 X0.88820 Y-0.54940
G01 X0.88857 Y-0.54702
G01 X0.88941 Y-0.54477
G01 X0.89068 Y-0.54274
G01 X0.89235 Y-0.54100
G01 X0.89433 Y-0.53964
G01 X0.89616 Y-0.53883
G01 X0.89850 Y-0.53829
G01 X0.90090 Y-0.53822
G01 X0.90327 Y-0.53865
G01 X0.90514 Y-0.53936
G01 X0.90718 Y-0.54063
G01 X0.90893 Y-0.54227
G01 X0.91011 Y-0.54389
G01 X0.91114 Y-0.54607
G01 X0.91170 Y-0.54840
G01 X0.91180 Y-0.55040
G01 X0.91148 Y-0.55278
G01 X0.91068 Y-0.55505
G01 X0.90944 Y-0.55710
G01 X0.90780 Y-0.55887
G01 X0.90585 Y-0.56026
G01 X0.90403 Y-0.56110
G01 X0.90170 Y-0.56169
G01 X0.89930 Y-0.56179
G01 X0.89731 Y-0.56150
G01 X0.89504 Y-0.56072
G01 X0.89298 Y-0.55950
G01 X0.89120 Y-0.55788
G01 X0.88979 Y-0.55594
G01 X0.88893 Y-0.55412
G01 X0.88854 Y-0.55261
G01 X0.88820 Y-0.54940
G01 X0.87879 Y-0.97328
G01 X0.87885 Y-1.00500
G01 X0.87926 Y-1.00650
G01 X0.88243 Y-1.01285
G01 X0.88319 Y-1.01387
G01 X0.88415 Y-1.01469
G01 X0.89085 Y-1.01810
G01 X0.89275 Y-1.01855
G01 X0.90235 Y-1.01851
G01 X0.90386 Y-1.01810
G01 X0.90604 Y-1.01702
G01 X0.90729 Y-1.01790
G01 X0.90842 Y-1.01834
G01 X0.90961 Y-1.01855
G01 X0.91082 Y-1.01850
G01 X0.91236 Y-1.01807
G01 X0.91342 Y-1.01748
G01 X0.91433 Y-1.01668
G01 X0.91506 Y-1.01572
G01 X0.91570 Y-1.01425
G01 X0.91592 Y-1.01265
G01 X0.91592 Y-0.97328
G01 X0.91579 Y-0.97208
G01 X0.91543 Y-0.97093
G01 X0.91483 Y-0.96988
G01 X0.91404 Y-0.96897
G01 X0.91308 Y-0.96824
G01 X0.91160 Y-0.96760
G01 X0.91001 Y-0.96738
G01 X0.90842 Y-0.96760
G01 X0.90694 Y-0.96824
G01 X0.90598 Y-0.96897
G01 X0.90519 Y-0.96988
G01 X0.90445 Y-0.97131
G01 X0.90411 Y-0.97328
G01 X0.90411 Y-1.00458
G01 X0.90370 Y-1.00499
G01 X0.90018 Y-1.00675
G01 X0.89453 Y-1.00675
G01 X0.89192 Y-1.00544
G01 X0.89061 Y-1.00282
G01 X0.89061 Y-0.97328
G01 X0.89039 Y-0.97169
G01 X0.88994 Y-0.97057
G01 X0.88928 Y-0.96956
G01 X0.88811 Y-0.96846
G01 X0.88668 Y-0.96772
G01 X0.88510 Y-0.96739
G01 X0.88350 Y-0.96750
G01 X0.88198 Y-0.96804
G01 X0.88067 Y-0.96897
G01 X0.87965 Y-0.97022
G01 X0.87901 Y-0.97169
G01 X0.87879 Y-0.97328
G01 X0.88820 Y-0.54940
G01 X0.88833 Y-0.55180
G01 X0.88854 Y-0.55261
G01 X0.93223 Y-0.97328
G01 X0.93228 Y-1.01346
G01 X0.93257 Y-1.01463
G01 X0.93309 Y-1.01572
G01 X0.93441 Y-1.01723
G01 X0.93615 Y-1.01822
G01 X0.93813 Y-1.01856
G01 X0.93933 Y-1.01843
G01 X0.94048 Y-1.01807
G01 X0.94154 Y-1.01748
G01 X0.94245 Y-1.01668
G01 X0.94355 Y-1.01501
G01 X0.94391 Y-1.01385
G01 X0.94404 Y-1.01265
G01 X0.94398 Y-0.97248
G01 X0.94355 Y-0.97093
G01 X0.94245 Y-0.96925
G01 X0.94085 Y-0.96804
G01 X0.93894 Y-0.96744
G01 X0.93773 Y-0.96739
G01 X0.93654 Y-0.96760
G01 X0.93541 Y-0.96804
G01 X0.93441 Y-0.96871
G01 X0.93331 Y-0.96988
G01 X0.93271 Y-0.97093
G01 X0.93235 Y-0.97208
G01 X0.92942 Y-1.02973
G01 X0.92958 Y-1.03093
G01 X0.92999 Y-1.03206
G01 X0.93061 Y-1.03310
G01 X0.93455 Y-1.03704
G01 X0.93593 Y-1.03782
G01 X0.93713 Y-1.03816
G01 X0.93826 Y-1.03824
G01 X0.93945 Y-1.03810
G01 X0.94057 Y-1.03771
G01 X0.94160 Y-1.03712
G01 X0.94539 Y-1.03341
G01 X0.94609 Y-1.03242
G01 X0.94657 Y-1.03131
G01 X0.94682 Y-1.03013
G01 X0.94676 Y-1.02852
G01 X0.94628 Y-1.02699
G01 X0.94565 Y-1.02596
G01 X0.94170 Y-1.02201
G01 X0.94048 Y-1.02130
G01 X0.93914 Y-1.02090
G01 X0.93793 Y-1.02081
G01 X0.93673 Y-1.02098
G01 X0.93559 Y-1.02138
G01 X0.93441 Y-1.02213
G01 X0.93061 Y-1.02596
G01 X0.92999 Y-1.02699
G01 X0.92950 Y-1.02852
G01 X0.92942 Y-1.02973

G04 P0 ( dwell for no time -- G64 should not smooth over this point )
G00 Z1.000000 ( retract )

M5 ( Spindle off. )
G04 P1.000000
M9 ( Coolant off. )
M2 ( Program end. )

