( pcb2gcode 3.0.3 )
( Software-independent Gcode )

G94 ( Inches per minute feed rate. )
G20 ( Units == INCHES. )

G90 ( Absolute coordinates. )
G00 S10000 ( RPM spindle speed. )
G64 P0.00040 ( set maximum deviation from commanded toolpath )
G01 F100.00000 ( Feedrate. )


G00 Z1.00000 (Retract to tool change height)
T1
M5      (Spindle stop.)
G04 P1.00000 (Wait for spindle to stop)
(MSG, Change tool bit to cutter diameter 0.05906in)
M6      (Tool change.)
M0      (Temporary machine stop.)
M3 ( Spindle on clockwise. )
G04 P1.00000 (Wait for spindle to get up to speed)
G04 P0 ( dwell for no time -- G64 should not smooth over this point )
G00 Z0.08000 ( retract )

G00 X4.28345 Y-5.02932 ( rapid move to begin. )
G01 Z-0.00731 F50.00000 ( plunge. )
G04 P0 ( dwell for no time -- G64 should not smooth over this point )
G01 F100.00000
G00 Z0.08000
G01 X4.28345 Y-5.02714
G01 Z-0.00731 F50.00000
G01 F100.00000
G01 X4.28345 Y-4.97068
G01 X4.28654 Y-4.91213
G01 X4.29272 Y-4.85382
G01 X4.30197 Y-4.79592
G01 X4.31426 Y-4.73859
G01 X4.32957 Y-4.68199
G01 X4.34783 Y-4.62627
G01 X4.36901 Y-4.57159
G01 X4.39305 Y-4.51811
G01 X4.41988 Y-4.46597
G01 X4.44942 Y-4.41532
G01 X4.48159 Y-4.36630
G01 X4.51630 Y-4.31905
G01 X4.55346 Y-4.27369
G01 X4.59297 Y-4.23036
G01 X4.63470 Y-4.18918
G01 X4.67855 Y-4.15025
G01 X4.72439 Y-4.11369
G01 X4.77210 Y-4.07960
G01 X4.82154 Y-4.04808
G01 X4.87257 Y-4.01921
G01 X4.92506 Y-3.99308
G01 X4.97886 Y-3.96975
G01 X5.03381 Y-3.94929
G01 X5.08976 Y-3.93176
G01 X5.14656 Y-3.91721
G01 X5.20405 Y-3.90567
G01 X5.26207 Y-3.89719
G01 X5.32045 Y-3.89178
G01 X5.37904 Y-3.88946
G01 X5.43767 Y-3.89023
G01 X5.49618 Y-3.89410
G01 X5.55440 Y-3.90105
G01 X5.61217 Y-3.91106
G01 X5.66934 Y-3.92411
G01 X5.72573 Y-3.94015
G01 X5.78120 Y-3.95915
G01 X5.83559 Y-3.98106
G01 X5.88678 Y-4.00488
G00 Z0.08000
G01 X5.88875 Y-4.00580
G01 X5.94053 Y-4.03331
G01 X5.94240 Y-4.03443
G01 Z-0.00731 F50.00000
G01 F100.00000
G01 X5.99079 Y-4.06352
G01 X6.03938 Y-4.09633
G01 X6.08617 Y-4.13167
G01 X6.13103 Y-4.16942
G01 X6.17384 Y-4.20949
G01 X6.21447 Y-4.25177
G01 X6.25281 Y-4.29613
G01 X6.28876 Y-4.34245
G01 X6.32222 Y-4.39060
G01 X6.35309 Y-4.44045
G01 X6.38128 Y-4.49187
G01 X6.40672 Y-4.54469
G01 X6.42934 Y-4.59879
G01 X6.44907 Y-4.65401
G01 X6.46586 Y-4.71019
G01 X6.47966 Y-4.76717
G01 X6.49043 Y-4.82481
G01 X6.49815 Y-4.88293
G01 X6.50279 Y-4.94138
G01 X6.50434 Y-5.00000
G01 X6.50279 Y-5.05861
G01 X6.49815 Y-5.11706
G01 X6.49043 Y-5.17519
G01 X6.47966 Y-5.23283
G01 X6.46586 Y-5.28981
G01 X6.44907 Y-5.34599
G01 X6.42934 Y-5.40121
G01 X6.40672 Y-5.45530
G01 X6.38128 Y-5.50813
G01 X6.35309 Y-5.55954
G01 X6.32222 Y-5.60940
G01 X6.28876 Y-5.65755
G01 X6.25281 Y-5.70387
G01 X6.21447 Y-5.74823
G01 X6.17384 Y-5.79050
G01 X6.13103 Y-5.83057
G01 X6.08617 Y-5.86833
G01 X6.03938 Y-5.90367
G01 X5.99259 Y-5.93526
G00 Z0.08000
G01 X5.99079 Y-5.93648
G01 X5.94053 Y-5.96669
G01 X5.93861 Y-5.96771
G01 Z-0.00731 F50.00000
G01 F100.00000
G01 X5.88875 Y-5.99420
G01 X5.83559 Y-6.01894
G01 X5.78120 Y-6.04084
G01 X5.72573 Y-6.05984
G01 X5.66934 Y-6.07589
G01 X5.61217 Y-6.08894
G01 X5.55440 Y-6.09895
G01 X5.49618 Y-6.10590
G01 X5.43767 Y-6.10977
G01 X5.37904 Y-6.11054
G01 X5.32045 Y-6.10822
G01 X5.26207 Y-6.10281
G01 X5.20405 Y-6.09433
G01 X5.14656 Y-6.08279
G01 X5.08976 Y-6.06824
G01 X5.03381 Y-6.05071
G01 X4.97886 Y-6.03025
G01 X4.92506 Y-6.00692
G01 X4.87257 Y-5.98079
G01 X4.82154 Y-5.95192
G01 X4.77210 Y-5.92040
G01 X4.72439 Y-5.88631
G01 X4.67855 Y-5.84975
G01 X4.63470 Y-5.81082
G01 X4.59297 Y-5.76964
G01 X4.55346 Y-5.72630
G01 X4.51630 Y-5.68095
G01 X4.48159 Y-5.63369
G01 X4.44942 Y-5.58467
G01 X4.41988 Y-5.53402
G01 X4.39305 Y-5.48189
G01 X4.36901 Y-5.42841
G01 X4.34783 Y-5.37373
G01 X4.32957 Y-5.31801
G01 X4.31426 Y-5.26141
G01 X4.30197 Y-5.20408
G01 X4.29272 Y-5.14618
G01 X4.28677 Y-5.09004
G00 Z0.08000
G01 X4.28654 Y-5.08787
G01 X4.28345 Y-5.02932
G01 Z-0.01462 F50.00000 ( plunge. )
G04 P0 ( dwell for no time -- G64 should not smooth over this point )
G01 F100.00000
G00 Z0.08000
G01 X4.28345 Y-5.02714
G01 Z-0.01462 F50.00000
G01 F100.00000
G01 X4.28345 Y-4.97068
G01 X4.28654 Y-4.91213
G01 X4.29272 Y-4.85382
G01 X4.30197 Y-4.79592
G01 X4.31426 Y-4.73859
G01 X4.32957 Y-4.68199
G01 X4.34783 Y-4.62627
G01 X4.36901 Y-4.57159
G01 X4.39305 Y-4.51811
G01 X4.41988 Y-4.46597
G01 X4.44942 Y-4.41532
G01 X4.48159 Y-4.36630
G01 X4.51630 Y-4.31905
G01 X4.55346 Y-4.27369
G01 X4.59297 Y-4.23036
G01 X4.63470 Y-4.18918
G01 X4.67855 Y-4.15025
G01 X4.72439 Y-4.11369
G01 X4.77210 Y-4.07960
G01 X4.82154 Y-4.04808
G01 X4.87257 Y-4.01921
G01 X4.92506 Y-3.99308
G01 X4.97886 Y-3.96975
G01 X5.03381 Y-3.94929
G01 X5.08976 Y-3.93176
G01 X5.14656 Y-3.91721
G01 X5.20405 Y-3.90567
G01 X5.26207 Y-3.89719
G01 X5.32045 Y-3.89178
G01 X5.37904 Y-3.88946
G01 X5.43767 Y-3.89023
G01 X5.49618 Y-3.89410
G01 X5.55440 Y-3.90105
G01 X5.61217 Y-3.91106
G01 X5.66934 Y-3.92411
G01 X5.72573 Y-3.94015
G01 X5.78120 Y-3.95915
G01 X5.83559 Y-3.98106
G01 X5.88678 Y-4.00488
G00 Z0.08000
G01 X5.88875 Y-4.00580
G01 X5.94053 Y-4.03331
G01 X5.94240 Y-4.03443
G01 Z-0.01462 F50.00000
G01 F100.00000
G01 X5.99079 Y-4.06352
G01 X6.03938 Y-4.09633
G01 X6.08617 Y-4.13167
G01 X6.13103 Y-4.16942
G01 X6.17384 Y-4.20949
G01 X6.21447 Y-4.25177
G01 X6.25281 Y-4.29613
G01 X6.28876 Y-4.34245
G01 X6.32222 Y-4.39060
G01 X6.35309 Y-4.44045
G01 X6.38128 Y-4.49187
G01 X6.40672 Y-4.54469
G01 X6.42934 Y-4.59879
G01 X6.44907 Y-4.65401
G01 X6.46586 Y-4.71019
G01 X6.47966 Y-4.76717
G01 X6.49043 Y-4.82481
G01 X6.49815 Y-4.88293
G01 X6.50279 Y-4.94138
G01 X6.50434 Y-5.00000
G01 X6.50279 Y-5.05861
G01 X6.49815 Y-5.11706
G01 X6.49043 Y-5.17519
G01 X6.47966 Y-5.23283
G01 X6.46586 Y-5.28981
G01 X6.44907 Y-5.34599
G01 X6.42934 Y-5.40121
G01 X6.40672 Y-5.45530
G01 X6.38128 Y-5.50813
G01 X6.35309 Y-5.55954
G01 X6.32222 Y-5.60940
G01 X6.28876 Y-5.65755
G01 X6.25281 Y-5.70387
G01 X6.21447 Y-5.74823
G01 X6.17384 Y-5.79050
G01 X6.13103 Y-5.83057
G01 X6.08617 Y-5.86833
G01 X6.03938 Y-5.90367
G01 X5.99259 Y-5.93526
G00 Z0.08000
G01 X5.99079 Y-5.93648
G01 X5.94053 Y-5.96669
G01 X5.93861 Y-5.96771
G01 Z-0.01462 F50.00000
G01 F100.00000
G01 X5.88875 Y-5.99420
G01 X5.83559 Y-6.01894
G01 X5.78120 Y-6.04084
G01 X5.72573 Y-6.05984
G01 X5.66934 Y-6.07589
G01 X5.61217 Y-6.08894
G01 X5.55440 Y-6.09895
G01 X5.49618 Y-6.10590
G01 X5.43767 Y-6.10977
G01 X5.37904 Y-6.11054
G01 X5.32045 Y-6.10822
G01 X5.26207 Y-6.10281
G01 X5.20405 Y-6.09433
G01 X5.14656 Y-6.08279
G01 X5.08976 Y-6.06824
G01 X5.03381 Y-6.05071
G01 X4.97886 Y-6.03025
G01 X4.92506 Y-6.00692
G01 X4.87257 Y-5.98079
G01 X4.82154 Y-5.95192
G01 X4.77210 Y-5.92040
G01 X4.72439 Y-5.88631
G01 X4.67855 Y-5.84975
G01 X4.63470 Y-5.81082
G01 X4.59297 Y-5.76964
G01 X4.55346 Y-5.72630
G01 X4.51630 Y-5.68095
G01 X4.48159 Y-5.63369
G01 X4.44942 Y-5.58467
G01 X4.41988 Y-5.53402
G01 X4.39305 Y-5.48189
G01 X4.36901 Y-5.42841
G01 X4.34783 Y-5.37373
G01 X4.32957 Y-5.31801
G01 X4.31426 Y-5.26141
G01 X4.30197 Y-5.20408
G01 X4.29272 Y-5.14618
G01 X4.28677 Y-5.09004
G00 Z0.08000
G01 X4.28654 Y-5.08787
G01 X4.28345 Y-5.02932
G01 Z-0.02193 F50.00000 ( plunge. )
G04 P0 ( dwell for no time -- G64 should not smooth over this point )
G01 F100.00000
G00 Z0.08000
G01 X4.28345 Y-5.02714
G01 Z-0.02193 F50.00000
G01 F100.00000
G01 X4.28345 Y-4.97068
G01 X4.28654 Y-4.91213
G01 X4.29272 Y-4.85382
G01 X4.30197 Y-4.79592
G01 X4.31426 Y-4.73859
G01 X4.32957 Y-4.68199
G01 X4.34783 Y-4.62627
G01 X4.36901 Y-4.57159
G01 X4.39305 Y-4.51811
G01 X4.41988 Y-4.46597
G01 X4.44942 Y-4.41532
G01 X4.48159 Y-4.36630
G01 X4.51630 Y-4.31905
G01 X4.55346 Y-4.27369
G01 X4.59297 Y-4.23036
G01 X4.63470 Y-4.18918
G01 X4.67855 Y-4.15025
G01 X4.72439 Y-4.11369
G01 X4.77210 Y-4.07960
G01 X4.82154 Y-4.04808
G01 X4.87257 Y-4.01921
G01 X4.92506 Y-3.99308
G01 X4.97886 Y-3.96975
G01 X5.03381 Y-3.94929
G01 X5.08976 Y-3.93176
G01 X5.14656 Y-3.91721
G01 X5.20405 Y-3.90567
G01 X5.26207 Y-3.89719
G01 X5.32045 Y-3.89178
G01 X5.37904 Y-3.88946
G01 X5.43767 Y-3.89023
G01 X5.49618 Y-3.89410
G01 X5.55440 Y-3.90105
G01 X5.61217 Y-3.91106
G01 X5.66934 Y-3.92411
G01 X5.72573 Y-3.94015
G01 X5.78120 Y-3.95915
G01 X5.83559 Y-3.98106
G01 X5.88678 Y-4.00488
G00 Z0.08000
G01 X5.88875 Y-4.00580
G01 X5.94053 Y-4.03331
G01 X5.94240 Y-4.03443
G01 Z-0.02193 F50.00000
G01 F100.00000
G01 X5.99079 Y-4.06352
G01 X6.03938 Y-4.09633
G01 X6.08617 Y-4.13167
G01 X6.13103 Y-4.16942
G01 X6.17384 Y-4.20949
G01 X6.21447 Y-4.25177
G01 X6.25281 Y-4.29613
G01 X6.28876 Y-4.34245
G01 X6.32222 Y-4.39060
G01 X6.35309 Y-4.44045
G01 X6.38128 Y-4.49187
G01 X6.40672 Y-4.54469
G01 X6.42934 Y-4.59879
G01 X6.44907 Y-4.65401
G01 X6.46586 Y-4.71019
G01 X6.47966 Y-4.76717
G01 X6.49043 Y-4.82481
G01 X6.49815 Y-4.88293
G01 X6.50279 Y-4.94138
G01 X6.50434 Y-5.00000
G01 X6.50279 Y-5.05861
G01 X6.49815 Y-5.11706
G01 X6.49043 Y-5.17519
G01 X6.47966 Y-5.23283
G01 X6.46586 Y-5.28981
G01 X6.44907 Y-5.34599
G01 X6.42934 Y-5.40121
G01 X6.40672 Y-5.45530
G01 X6.38128 Y-5.50813
G01 X6.35309 Y-5.55954
G01 X6.32222 Y-5.60940
G01 X6.28876 Y-5.65755
G01 X6.25281 Y-5.70387
G01 X6.21447 Y-5.74823
G01 X6.17384 Y-5.79050
G01 X6.13103 Y-5.83057
G01 X6.08617 Y-5.86833
G01 X6.03938 Y-5.90367
G01 X5.99259 Y-5.93526
G00 Z0.08000
G01 X5.99079 Y-5.93648
G01 X5.94053 Y-5.96669
G01 X5.93861 Y-5.96771
G01 Z-0.02193 F50.00000
G01 F100.00000
G01 X5.88875 Y-5.99420
G01 X5.83559 Y-6.01894
G01 X5.78120 Y-6.04084
G01 X5.72573 Y-6.05984
G01 X5.66934 Y-6.07589
G01 X5.61217 Y-6.08894
G01 X5.55440 Y-6.09895
G01 X5.49618 Y-6.10590
G01 X5.43767 Y-6.10977
G01 X5.37904 Y-6.11054
G01 X5.32045 Y-6.10822
G01 X5.26207 Y-6.10281
G01 X5.20405 Y-6.09433
G01 X5.14656 Y-6.08279
G01 X5.08976 Y-6.06824
G01 X5.03381 Y-6.05071
G01 X4.97886 Y-6.03025
G01 X4.92506 Y-6.00692
G01 X4.87257 Y-5.98079
G01 X4.82154 Y-5.95192
G01 X4.77210 Y-5.92040
G01 X4.72439 Y-5.88631
G01 X4.67855 Y-5.84975
G01 X4.63470 Y-5.81082
G01 X4.59297 Y-5.76964
G01 X4.55346 Y-5.72630
G01 X4.51630 Y-5.68095
G01 X4.48159 Y-5.63369
G01 X4.44942 Y-5.58467
G01 X4.41988 Y-5.53402
G01 X4.39305 Y-5.48189
G01 X4.36901 Y-5.42841
G01 X4.34783 Y-5.37373
G01 X4.32957 Y-5.31801
G01 X4.31426 Y-5.26141
G01 X4.30197 Y-5.20408
G01 X4.29272 Y-5.14618
G01 X4.28677 Y-5.09004
G00 Z0.08000
G01 X4.28654 Y-5.08787
G01 X4.28345 Y-5.02932
G01 Z-0.02925 F50.00000 ( plunge. )
G04 P0 ( dwell for no time -- G64 should not smooth over this point )
G01 F100.00000
G00 Z0.08000
G01 X4.28345 Y-5.02714
G01 Z-0.02925 F50.00000
G01 F100.00000
G01 X4.28345 Y-4.97068
G01 X4.28654 Y-4.91213
G01 X4.29272 Y-4.85382
G01 X4.30197 Y-4.79592
G01 X4.31426 Y-4.73859
G01 X4.32957 Y-4.68199
G01 X4.34783 Y-4.62627
G01 X4.36901 Y-4.57159
G01 X4.39305 Y-4.51811
G01 X4.41988 Y-4.46597
G01 X4.44942 Y-4.41532
G01 X4.48159 Y-4.36630
G01 X4.51630 Y-4.31905
G01 X4.55346 Y-4.27369
G01 X4.59297 Y-4.23036
G01 X4.63470 Y-4.18918
G01 X4.67855 Y-4.15025
G01 X4.72439 Y-4.11369
G01 X4.77210 Y-4.07960
G01 X4.82154 Y-4.04808
G01 X4.87257 Y-4.01921
G01 X4.92506 Y-3.99308
G01 X4.97886 Y-3.96975
G01 X5.03381 Y-3.94929
G01 X5.08976 Y-3.93176
G01 X5.14656 Y-3.91721
G01 X5.20405 Y-3.90567
G01 X5.26207 Y-3.89719
G01 X5.32045 Y-3.89178
G01 X5.37904 Y-3.88946
G01 X5.43767 Y-3.89023
G01 X5.49618 Y-3.89410
G01 X5.55440 Y-3.90105
G01 X5.61217 Y-3.91106
G01 X5.66934 Y-3.92411
G01 X5.72573 Y-3.94015
G01 X5.78120 Y-3.95915
G01 X5.83559 Y-3.98106
G01 X5.88678 Y-4.00488
G00 Z0.08000
G01 X5.88875 Y-4.00580
G01 X5.94053 Y-4.03331
G01 X5.94240 Y-4.03443
G01 Z-0.02925 F50.00000
G01 F100.00000
G01 X5.99079 Y-4.06352
G01 X6.03938 Y-4.09633
G01 X6.08617 Y-4.13167
G01 X6.13103 Y-4.16942
G01 X6.17384 Y-4.20949
G01 X6.21447 Y-4.25177
G01 X6.25281 Y-4.29613
G01 X6.28876 Y-4.34245
G01 X6.32222 Y-4.39060
G01 X6.35309 Y-4.44045
G01 X6.38128 Y-4.49187
G01 X6.40672 Y-4.54469
G01 X6.42934 Y-4.59879
G01 X6.44907 Y-4.65401
G01 X6.46586 Y-4.71019
G01 X6.47966 Y-4.76717
G01 X6.49043 Y-4.82481
G01 X6.49815 Y-4.88293
G01 X6.50279 Y-4.94138
G01 X6.50434 Y-5.00000
G01 X6.50279 Y-5.05861
G01 X6.49815 Y-5.11706
G01 X6.49043 Y-5.17519
G01 X6.47966 Y-5.23283
G01 X6.46586 Y-5.28981
G01 X6.44907 Y-5.34599
G01 X6.42934 Y-5.40121
G01 X6.40672 Y-5.45530
G01 X6.38128 Y-5.50813
G01 X6.35309 Y-5.55954
G01 X6.32222 Y-5.60940
G01 X6.28876 Y-5.65755
G01 X6.25281 Y-5.70387
G01 X6.21447 Y-5.74823
G01 X6.17384 Y-5.79050
G01 X6.13103 Y-5.83057
G01 X6.08617 Y-5.86833
G01 X6.03938 Y-5.90367
G01 X5.99259 Y-5.93526
G00 Z0.08000
G01 X5.99079 Y-5.93648
G01 X5.94053 Y-5.96669
G01 X5.93861 Y-5.96771
G01 Z-0.02925 F50.00000
G01 F100.00000
G01 X5.88875 Y-5.99420
G01 X5.83559 Y-6.01894
G01 X5.78120 Y-6.04084
G01 X5.72573 Y-6.05984
G01 X5.66934 Y-6.07589
G01 X5.61217 Y-6.08894
G01 X5.55440 Y-6.09895
G01 X5.49618 Y-6.10590
G01 X5.43767 Y-6.10977
G01 X5.37904 Y-6.11054
G01 X5.32045 Y-6.10822
G01 X5.26207 Y-6.10281
G01 X5.20405 Y-6.09433
G01 X5.14656 Y-6.08279
G01 X5.08976 Y-6.06824
G01 X5.03381 Y-6.05071
G01 X4.97886 Y-6.03025
G01 X4.92506 Y-6.00692
G01 X4.87257 Y-5.98079
G01 X4.82154 Y-5.95192
G01 X4.77210 Y-5.92040
G01 X4.72439 Y-5.88631
G01 X4.67855 Y-5.84975
G01 X4.63470 Y-5.81082
G01 X4.59297 Y-5.76964
G01 X4.55346 Y-5.72630
G01 X4.51630 Y-5.68095
G01 X4.48159 Y-5.63369
G01 X4.44942 Y-5.58467
G01 X4.41988 Y-5.53402
G01 X4.39305 Y-5.48189
G01 X4.36901 Y-5.42841
G01 X4.34783 Y-5.37373
G01 X4.32957 Y-5.31801
G01 X4.31426 Y-5.26141
G01 X4.30197 Y-5.20408
G01 X4.29272 Y-5.14618
G01 X4.28677 Y-5.09004
G00 Z0.08000
G01 X4.28654 Y-5.08787
G01 X4.28345 Y-5.02932
G01 Z-0.03656 F50.00000 ( plunge. )
G04 P0 ( dwell for no time -- G64 should not smooth over this point )
G01 F100.00000
G00 Z0.08000
G01 X4.28345 Y-5.02714
G01 Z-0.03656 F50.00000
G01 F100.00000
G01 X4.28345 Y-4.97068
G01 X4.28654 Y-4.91213
G01 X4.29272 Y-4.85382
G01 X4.30197 Y-4.79592
G01 X4.31426 Y-4.73859
G01 X4.32957 Y-4.68199
G01 X4.34783 Y-4.62627
G01 X4.36901 Y-4.57159
G01 X4.39305 Y-4.51811
G01 X4.41988 Y-4.46597
G01 X4.44942 Y-4.41532
G01 X4.48159 Y-4.36630
G01 X4.51630 Y-4.31905
G01 X4.55346 Y-4.27369
G01 X4.59297 Y-4.23036
G01 X4.63470 Y-4.18918
G01 X4.67855 Y-4.15025
G01 X4.72439 Y-4.11369
G01 X4.77210 Y-4.07960
G01 X4.82154 Y-4.04808
G01 X4.87257 Y-4.01921
G01 X4.92506 Y-3.99308
G01 X4.97886 Y-3.96975
G01 X5.03381 Y-3.94929
G01 X5.08976 Y-3.93176
G01 X5.14656 Y-3.91721
G01 X5.20405 Y-3.90567
G01 X5.26207 Y-3.89719
G01 X5.32045 Y-3.89178
G01 X5.37904 Y-3.88946
G01 X5.43767 Y-3.89023
G01 X5.49618 Y-3.89410
G01 X5.55440 Y-3.90105
G01 X5.61217 Y-3.91106
G01 X5.66934 Y-3.92411
G01 X5.72573 Y-3.94015
G01 X5.78120 Y-3.95915
G01 X5.83559 Y-3.98106
G01 X5.88678 Y-4.00488
G00 Z0.08000
G01 X5.88875 Y-4.00580
G01 X5.94053 Y-4.03331
G01 X5.94240 Y-4.03443
G01 Z-0.03656 F50.00000
G01 F100.00000
G01 X5.99079 Y-4.06352
G01 X6.03938 Y-4.09633
G01 X6.08617 Y-4.13167
G01 X6.13103 Y-4.16942
G01 X6.17384 Y-4.20949
G01 X6.21447 Y-4.25177
G01 X6.25281 Y-4.29613
G01 X6.28876 Y-4.34245
G01 X6.32222 Y-4.39060
G01 X6.35309 Y-4.44045
G01 X6.38128 Y-4.49187
G01 X6.40672 Y-4.54469
G01 X6.42934 Y-4.59879
G01 X6.44907 Y-4.65401
G01 X6.46586 Y-4.71019
G01 X6.47966 Y-4.76717
G01 X6.49043 Y-4.82481
G01 X6.49815 Y-4.88293
G01 X6.50279 Y-4.94138
G01 X6.50434 Y-5.00000
G01 X6.50279 Y-5.05861
G01 X6.49815 Y-5.11706
G01 X6.49043 Y-5.17519
G01 X6.47966 Y-5.23283
G01 X6.46586 Y-5.28981
G01 X6.44907 Y-5.34599
G01 X6.42934 Y-5.40121
G01 X6.40672 Y-5.45530
G01 X6.38128 Y-5.50813
G01 X6.35309 Y-5.55954
G01 X6.32222 Y-5.60940
G01 X6.28876 Y-5.65755
G01 X6.25281 Y-5.70387
G01 X6.21447 Y-5.74823
G01 X6.17384 Y-5.79050
G01 X6.13103 Y-5.83057
G01 X6.08617 Y-5.86833
G01 X6.03938 Y-5.90367
G01 X5.99259 Y-5.93526
G00 Z0.08000
G01 X5.99079 Y-5.93648
G01 X5.94053 Y-5.96669
G01 X5.93861 Y-5.96771
G01 Z-0.03656 F50.00000
G01 F100.00000
G01 X5.88875 Y-5.99420
G01 X5.83559 Y-6.01894
G01 X5.78120 Y-6.04084
G01 X5.72573 Y-6.05984
G01 X5.66934 Y-6.07589
G01 X5.61217 Y-6.08894
G01 X5.55440 Y-6.09895
G01 X5.49618 Y-6.10590
G01 X5.43767 Y-6.10977
G01 X5.37904 Y-6.11054
G01 X5.32045 Y-6.10822
G01 X5.26207 Y-6.10281
G01 X5.20405 Y-6.09433
G01 X5.14656 Y-6.08279
G01 X5.08976 Y-6.06824
G01 X5.03381 Y-6.05071
G01 X4.97886 Y-6.03025
G01 X4.92506 Y-6.00692
G01 X4.87257 Y-5.98079
G01 X4.82154 Y-5.95192
G01 X4.77210 Y-5.92040
G01 X4.72439 Y-5.88631
G01 X4.67855 Y-5.84975
G01 X4.63470 Y-5.81082
G01 X4.59297 Y-5.76964
G01 X4.55346 Y-5.72630
G01 X4.51630 Y-5.68095
G01 X4.48159 Y-5.63369
G01 X4.44942 Y-5.58467
G01 X4.41988 Y-5.53402
G01 X4.39305 Y-5.48189
G01 X4.36901 Y-5.42841
G01 X4.34783 Y-5.37373
G01 X4.32957 Y-5.31801
G01 X4.31426 Y-5.26141
G01 X4.30197 Y-5.20408
G01 X4.29272 Y-5.14618
G01 X4.28677 Y-5.09004
G00 Z0.08000
G01 X4.28654 Y-5.08787
G01 X4.28345 Y-5.02932
G01 Z-0.04387 F50.00000 ( plunge. )
G04 P0 ( dwell for no time -- G64 should not smooth over this point )
G01 F100.00000
G00 Z0.08000
G01 X4.28345 Y-5.02714
G01 Z-0.04387 F50.00000
G01 F100.00000
G01 X4.28345 Y-4.97068
G01 X4.28654 Y-4.91213
G01 X4.29272 Y-4.85382
G01 X4.30197 Y-4.79592
G01 X4.31426 Y-4.73859
G01 X4.32957 Y-4.68199
G01 X4.34783 Y-4.62627
G01 X4.36901 Y-4.57159
G01 X4.39305 Y-4.51811
G01 X4.41988 Y-4.46597
G01 X4.44942 Y-4.41532
G01 X4.48159 Y-4.36630
G01 X4.51630 Y-4.31905
G01 X4.55346 Y-4.27369
G01 X4.59297 Y-4.23036
G01 X4.63470 Y-4.18918
G01 X4.67855 Y-4.15025
G01 X4.72439 Y-4.11369
G01 X4.77210 Y-4.07960
G01 X4.82154 Y-4.04808
G01 X4.87257 Y-4.01921
G01 X4.92506 Y-3.99308
G01 X4.97886 Y-3.96975
G01 X5.03381 Y-3.94929
G01 X5.08976 Y-3.93176
G01 X5.14656 Y-3.91721
G01 X5.20405 Y-3.90567
G01 X5.26207 Y-3.89719
G01 X5.32045 Y-3.89178
G01 X5.37904 Y-3.88946
G01 X5.43767 Y-3.89023
G01 X5.49618 Y-3.89410
G01 X5.55440 Y-3.90105
G01 X5.61217 Y-3.91106
G01 X5.66934 Y-3.92411
G01 X5.72573 Y-3.94015
G01 X5.78120 Y-3.95915
G01 X5.83559 Y-3.98106
G01 X5.88678 Y-4.00488
G00 Z0.08000
G01 X5.88875 Y-4.00580
G01 X5.94053 Y-4.03331
G01 X5.94240 Y-4.03443
G01 Z-0.04387 F50.00000
G01 F100.00000
G01 X5.99079 Y-4.06352
G01 X6.03938 Y-4.09633
G01 X6.08617 Y-4.13167
G01 X6.13103 Y-4.16942
G01 X6.17384 Y-4.20949
G01 X6.21447 Y-4.25177
G01 X6.25281 Y-4.29613
G01 X6.28876 Y-4.34245
G01 X6.32222 Y-4.39060
G01 X6.35309 Y-4.44045
G01 X6.38128 Y-4.49187
G01 X6.40672 Y-4.54469
G01 X6.42934 Y-4.59879
G01 X6.44907 Y-4.65401
G01 X6.46586 Y-4.71019
G01 X6.47966 Y-4.76717
G01 X6.49043 Y-4.82481
G01 X6.49815 Y-4.88293
G01 X6.50279 Y-4.94138
G01 X6.50434 Y-5.00000
G01 X6.50279 Y-5.05861
G01 X6.49815 Y-5.11706
G01 X6.49043 Y-5.17519
G01 X6.47966 Y-5.23283
G01 X6.46586 Y-5.28981
G01 X6.44907 Y-5.34599
G01 X6.42934 Y-5.40121
G01 X6.40672 Y-5.45530
G01 X6.38128 Y-5.50813
G01 X6.35309 Y-5.55954
G01 X6.32222 Y-5.60940
G01 X6.28876 Y-5.65755
G01 X6.25281 Y-5.70387
G01 X6.21447 Y-5.74823
G01 X6.17384 Y-5.79050
G01 X6.13103 Y-5.83057
G01 X6.08617 Y-5.86833
G01 X6.03938 Y-5.90367
G01 X5.99259 Y-5.93526
G00 Z0.08000
G01 X5.99079 Y-5.93648
G01 X5.94053 Y-5.96669
G01 X5.93861 Y-5.96771
G01 Z-0.04387 F50.00000
G01 F100.00000
G01 X5.88875 Y-5.99420
G01 X5.83559 Y-6.01894
G01 X5.78120 Y-6.04084
G01 X5.72573 Y-6.05984
G01 X5.66934 Y-6.07589
G01 X5.61217 Y-6.08894
G01 X5.55440 Y-6.09895
G01 X5.49618 Y-6.10590
G01 X5.43767 Y-6.10977
G01 X5.37904 Y-6.11054
G01 X5.32045 Y-6.10822
G01 X5.26207 Y-6.10281
G01 X5.20405 Y-6.09433
G01 X5.14656 Y-6.08279
G01 X5.08976 Y-6.06824
G01 X5.03381 Y-6.05071
G01 X4.97886 Y-6.03025
G01 X4.92506 Y-6.00692
G01 X4.87257 Y-5.98079
G01 X4.82154 Y-5.95192
G01 X4.77210 Y-5.92040
G01 X4.72439 Y-5.88631
G01 X4.67855 Y-5.84975
G01 X4.63470 Y-5.81082
G01 X4.59297 Y-5.76964
G01 X4.55346 Y-5.72630
G01 X4.51630 Y-5.68095
G01 X4.48159 Y-5.63369
G01 X4.44942 Y-5.58467
G01 X4.41988 Y-5.53402
G01 X4.39305 Y-5.48189
G01 X4.36901 Y-5.42841
G01 X4.34783 Y-5.37373
G01 X4.32957 Y-5.31801
G01 X4.31426 Y-5.26141
G01 X4.30197 Y-5.20408
G01 X4.29272 Y-5.14618
G01 X4.28677 Y-5.09004
G00 Z0.08000
G01 X4.28654 Y-5.08787
G01 X4.28345 Y-5.02932
G01 Z-0.05118 F50.00000 ( plunge. )
G04 P0 ( dwell for no time -- G64 should not smooth over this point )
G01 F100.00000
G00 Z0.08000
G01 X4.28345 Y-5.02714
G01 Z-0.05118 F50.00000
G01 F100.00000
G01 X4.28345 Y-4.97068
G01 X4.28654 Y-4.91213
G01 X4.29272 Y-4.85382
G01 X4.30197 Y-4.79592
G01 X4.31426 Y-4.73859
G01 X4.32957 Y-4.68199
G01 X4.34783 Y-4.62627
G01 X4.36901 Y-4.57159
G01 X4.39305 Y-4.51811
G01 X4.41988 Y-4.46597
G01 X4.44942 Y-4.41532
G01 X4.48159 Y-4.36630
G01 X4.51630 Y-4.31905
G01 X4.55346 Y-4.27369
G01 X4.59297 Y-4.23036
G01 X4.63470 Y-4.18918
G01 X4.67855 Y-4.15025
G01 X4.72439 Y-4.11369
G01 X4.77210 Y-4.07960
G01 X4.82154 Y-4.04808
G01 X4.87257 Y-4.01921
G01 X4.92506 Y-3.99308
G01 X4.97886 Y-3.96975
G01 X5.03381 Y-3.94929
G01 X5.08976 Y-3.93176
G01 X5.14656 Y-3.91721
G01 X5.20405 Y-3.90567
G01 X5.26207 Y-3.89719
G01 X5.32045 Y-3.89178
G01 X5.37904 Y-3.88946
G01 X5.43767 Y-3.89023
G01 X5.49618 Y-3.89410
G01 X5.55440 Y-3.90105
G01 X5.61217 Y-3.91106
G01 X5.66934 Y-3.92411
G01 X5.72573 Y-3.94015
G01 X5.78120 Y-3.95915
G01 X5.83559 Y-3.98106
G01 X5.88678 Y-4.00488
G00 Z0.08000
G01 X5.88875 Y-4.00580
G01 X5.94053 Y-4.03331
G01 X5.94240 Y-4.03443
G01 Z-0.05118 F50.00000
G01 F100.00000
G01 X5.99079 Y-4.06352
G01 X6.03938 Y-4.09633
G01 X6.08617 Y-4.13167
G01 X6.13103 Y-4.16942
G01 X6.17384 Y-4.20949
G01 X6.21447 Y-4.25177
G01 X6.25281 Y-4.29613
G01 X6.28876 Y-4.34245
G01 X6.32222 Y-4.39060
G01 X6.35309 Y-4.44045
G01 X6.38128 Y-4.49187
G01 X6.40672 Y-4.54469
G01 X6.42934 Y-4.59879
G01 X6.44907 Y-4.65401
G01 X6.46586 Y-4.71019
G01 X6.47966 Y-4.76717
G01 X6.49043 Y-4.82481
G01 X6.49815 Y-4.88293
G01 X6.50279 Y-4.94138
G01 X6.50434 Y-5.00000
G01 X6.50279 Y-5.05861
G01 X6.49815 Y-5.11706
G01 X6.49043 Y-5.17519
G01 X6.47966 Y-5.23283
G01 X6.46586 Y-5.28981
G01 X6.44907 Y-5.34599
G01 X6.42934 Y-5.40121
G01 X6.40672 Y-5.45530
G01 X6.38128 Y-5.50813
G01 X6.35309 Y-5.55954
G01 X6.32222 Y-5.60940
G01 X6.28876 Y-5.65755
G01 X6.25281 Y-5.70387
G01 X6.21447 Y-5.74823
G01 X6.17384 Y-5.79050
G01 X6.13103 Y-5.83057
G01 X6.08617 Y-5.86833
G01 X6.03938 Y-5.90367
G01 X5.99259 Y-5.93526
G00 Z0.08000
G01 X5.99079 Y-5.93648
G01 X5.94053 Y-5.96669
G01 X5.93861 Y-5.96771
G01 Z-0.05118 F50.00000
G01 F100.00000
G01 X5.88875 Y-5.99420
G01 X5.83559 Y-6.01894
G01 X5.78120 Y-6.04084
G01 X5.72573 Y-6.05984
G01 X5.66934 Y-6.07589
G01 X5.61217 Y-6.08894
G01 X5.55440 Y-6.09895
G01 X5.49618 Y-6.10590
G01 X5.43767 Y-6.10977
G01 X5.37904 Y-6.11054
G01 X5.32045 Y-6.10822
G01 X5.26207 Y-6.10281
G01 X5.20405 Y-6.09433
G01 X5.14656 Y-6.08279
G01 X5.08976 Y-6.06824
G01 X5.03381 Y-6.05071
G01 X4.97886 Y-6.03025
G01 X4.92506 Y-6.00692
G01 X4.87257 Y-5.98079
G01 X4.82154 Y-5.95192
G01 X4.77210 Y-5.92040
G01 X4.72439 Y-5.88631
G01 X4.67855 Y-5.84975
G01 X4.63470 Y-5.81082
G01 X4.59297 Y-5.76964
G01 X4.55346 Y-5.72630
G01 X4.51630 Y-5.68095
G01 X4.48159 Y-5.63369
G01 X4.44942 Y-5.58467
G01 X4.41988 Y-5.53402
G01 X4.39305 Y-5.48189
G01 X4.36901 Y-5.42841
G01 X4.34783 Y-5.37373
G01 X4.32957 Y-5.31801
G01 X4.31426 Y-5.26141
G01 X4.30197 Y-5.20408
G01 X4.29272 Y-5.14618
G01 X4.28677 Y-5.09004
G00 Z0.08000
G01 X4.28654 Y-5.08787
G01 X4.28345 Y-5.02932
G04 P0 ( dwell for no time -- G64 should not smooth over this point )
G00 Z0.08000 ( retract )

G00 X2.98919 Y-5.09404 ( rapid move to begin. )
G01 Z-0.00731 F50.00000 ( plunge. )
G04 P0 ( dwell for no time -- G64 should not smooth over this point )
G01 F100.00000
G01 X2.98919 Y-5.00560
G01 X2.99240 Y-4.91686
G01 X2.99338 Y-4.90346
G00 Z0.08000
G01 X2.99794 Y-4.84063
G01 Z-0.00731 F50.00000
G01 F100.00000
G01 X2.99891 Y-4.82723
G01 X3.00867 Y-4.73825
G01 X3.02153 Y-4.65039
G01 X3.03750 Y-4.56340
G01 X3.05692 Y-4.47565
G01 X3.07945 Y-4.38902
G01 X3.10479 Y-4.30429
G01 X3.13329 Y-4.22019
G01 X3.16521 Y-4.13618
G01 X3.19989 Y-4.05405
G01 X3.23722 Y-3.97387
G01 X3.27809 Y-3.89383
G01 X3.32168 Y-3.81565
G01 X3.36751 Y-3.74002
G01 X3.41625 Y-3.66579
G01 X3.46827 Y-3.59251
G01 X3.52272 Y-3.52146
G01 X3.57926 Y-3.45298
G01 X3.63800 Y-3.38686
G01 X3.69982 Y-3.32214
G01 X3.76424 Y-3.25947
G01 X3.82982 Y-3.20013
G01 X3.89778 Y-3.14298
G01 X3.96833 Y-3.08789
G01 X4.04114 Y-3.03520
G01 X4.11492 Y-2.98579
G01 X4.19014 Y-2.93927
G01 X4.26823 Y-2.89480
G01 X4.34726 Y-2.85354
G01 X4.42709 Y-2.81548
G01 X4.50956 Y-2.77976
G01 X4.59295 Y-2.74722
G01 X4.67678 Y-2.71795
G01 X4.76128 Y-2.69185
G01 X4.84805 Y-2.66844
G01 X4.93527 Y-2.64832
G01 X5.02211 Y-2.63156
G01 X5.10985 Y-2.61790
G01 X5.19874 Y-2.60734
G01 X5.28831 Y-2.60001
G01 X5.37666 Y-2.59600
G01 X5.46545 Y-2.59519
G01 X5.55529 Y-2.59762
G01 X5.64462 Y-2.60333
G01 X5.73297 Y-2.61219
G01 X5.82060 Y-2.62419
G01 X5.90913 Y-2.63961
G01 X5.99670 Y-2.65819
G01 X6.08284 Y-2.67975
G01 X6.16780 Y-2.70431
G01 X6.25283 Y-2.73226
G01 X6.33712 Y-2.76344
G01 X6.41924 Y-2.79724
G01 X6.49975 Y-2.83384
G01 X6.57984 Y-2.87381
G01 X6.65873 Y-2.91686
G01 X6.73508 Y-2.96219
G01 X6.80944 Y-3.01007
G01 X6.82062 Y-3.01785
G00 Z0.08000
G01 X6.87231 Y-3.05385
G01 Z-0.00731 F50.00000
G01 F100.00000
G01 X6.88348 Y-3.06163
G01 X6.95446 Y-3.11500
G01 X7.02317 Y-3.17068
G01 X7.09064 Y-3.22951
G01 X7.15616 Y-3.29101
G01 X7.21866 Y-3.35409
G01 X7.27859 Y-3.41913
G01 X7.33706 Y-3.48738
G01 X7.39277 Y-3.55744
G01 X7.44547 Y-3.62891
G01 X7.49536 Y-3.70194
G01 X7.54333 Y-3.77793
G01 X7.58830 Y-3.85533
G01 X7.62995 Y-3.93335
G01 X7.66890 Y-4.01315
G01 X7.70536 Y-4.09529
G01 X7.73866 Y-4.17837
G01 X7.76869 Y-4.26194
G01 X7.79556 Y-4.34620
G01 X7.81975 Y-4.43275
G01 X7.84067 Y-4.51979
G01 X7.85821 Y-4.60647
G01 X7.87267 Y-4.69408
G01 X7.88408 Y-4.78322
G01 X7.89215 Y-4.87201
G01 X7.89697 Y-4.96032
G01 X7.89861 Y-5.04982
G01 X7.89697 Y-5.13968
G01 X7.89215 Y-5.22798
G01 X7.88411 Y-5.31642
G01 X7.87273 Y-5.40556
G01 X7.85815 Y-5.49388
G01 X7.84052 Y-5.58091
G01 X7.81983 Y-5.66690
G01 X7.79567 Y-5.75346
G01 X7.76845 Y-5.83873
G01 X7.73854 Y-5.92196
G01 X7.70550 Y-6.00438
G01 X7.66921 Y-6.08621
G01 X7.62978 Y-6.16697
G01 X7.58813 Y-6.24499
G01 X7.54351 Y-6.32176
G01 X7.49556 Y-6.39777
G01 X7.44506 Y-6.47167
G01 X7.39234 Y-6.54312
G01 X7.33728 Y-6.61234
G01 X7.27883 Y-6.68061
G01 X7.21816 Y-6.74642
G01 X7.15591 Y-6.80924
G01 X7.09116 Y-6.87001
G01 X7.02372 Y-6.92886
G01 X6.95389 Y-6.98543
G01 X6.88291 Y-7.03879
G01 X6.81034 Y-7.08933
G01 X6.73508 Y-7.13780
G01 X6.65780 Y-7.18367
G01 X6.57984 Y-7.22619
G01 X6.50071 Y-7.26569
G01 X6.48848 Y-7.27126
G00 Z0.08000
G01 X6.43114 Y-7.29734
G01 Z-0.00731 F50.00000
G01 F100.00000
G01 X6.41891 Y-7.30290
G01 X6.33613 Y-7.33695
G01 X6.25283 Y-7.36774
G01 X6.16882 Y-7.39537
G01 X6.08284 Y-7.42025
G01 X5.99565 Y-7.44205
G01 X5.90913 Y-7.46039
G01 X5.82166 Y-7.47564
G01 X5.73297 Y-7.48781
G01 X5.64355 Y-7.49676
G01 X5.55529 Y-7.50237
G01 X5.46617 Y-7.50481
G01 X5.37630 Y-7.50398
G01 X5.28760 Y-7.49995
G01 X5.19945 Y-7.49273
G01 X5.11020 Y-7.48215
G01 X5.02176 Y-7.46838
G01 X4.93457 Y-7.45154
G01 X4.84840 Y-7.43164
G01 X4.76163 Y-7.40826
G01 X4.67611 Y-7.38182
G01 X4.59228 Y-7.35254
G01 X4.50956 Y-7.32024
G01 X4.42709 Y-7.28452
G01 X4.34726 Y-7.24646
G01 X4.26855 Y-7.20536
G01 X4.19044 Y-7.16091
G01 X4.11432 Y-7.11381
G01 X4.04055 Y-7.06439
G01 X3.96890 Y-7.01254
G01 X3.89833 Y-6.95747
G01 X3.82956 Y-6.89963
G01 X3.76371 Y-6.84004
G01 X3.70033 Y-6.77836
G01 X3.63823 Y-6.71340
G01 X3.57880 Y-6.64647
G01 X3.52228 Y-6.57798
G01 X3.46849 Y-6.50778
G01 X3.41665 Y-6.43480
G01 X3.36733 Y-6.35968
G01 X3.32132 Y-6.28373
G01 X3.27826 Y-6.20648
G01 X3.23738 Y-6.12645
G01 X3.19960 Y-6.04530
G01 X3.16521 Y-5.96382
G01 X3.13365 Y-5.88082
G01 X3.10479 Y-5.79571
G01 X3.07916 Y-5.70994
G01 X3.05692 Y-5.62434
G01 X3.03771 Y-5.53765
G01 X3.02153 Y-5.44961
G01 X3.00853 Y-5.36069
G01 X2.99891 Y-5.27277
G01 X2.99246 Y-5.18421
G01 X2.98919 Y-5.09404
G01 Z-0.01462 F50.00000 ( plunge. )
G04 P0 ( dwell for no time -- G64 should not smooth over this point )
G01 F100.00000
G01 X2.98919 Y-5.00560
G01 X2.99240 Y-4.91686
G01 X2.99338 Y-4.90346
G00 Z0.08000
G01 X2.99794 Y-4.84063
G01 Z-0.01462 F50.00000
G01 F100.00000
G01 X2.99891 Y-4.82723
G01 X3.00867 Y-4.73825
G01 X3.02153 Y-4.65039
G01 X3.03750 Y-4.56340
G01 X3.05692 Y-4.47565
G01 X3.07945 Y-4.38902
G01 X3.10479 Y-4.30429
G01 X3.13329 Y-4.22019
G01 X3.16521 Y-4.13618
G01 X3.19989 Y-4.05405
G01 X3.23722 Y-3.97387
G01 X3.27809 Y-3.89383
G01 X3.32168 Y-3.81565
G01 X3.36751 Y-3.74002
G01 X3.41625 Y-3.66579
G01 X3.46827 Y-3.59251
G01 X3.52272 Y-3.52146
G01 X3.57926 Y-3.45298
G01 X3.63800 Y-3.38686
G01 X3.69982 Y-3.32214
G01 X3.76424 Y-3.25947
G01 X3.82982 Y-3.20013
G01 X3.89778 Y-3.14298
G01 X3.96833 Y-3.08789
G01 X4.04114 Y-3.03520
G01 X4.11492 Y-2.98579
G01 X4.19014 Y-2.93927
G01 X4.26823 Y-2.89480
G01 X4.34726 Y-2.85354
G01 X4.42709 Y-2.81548
G01 X4.50956 Y-2.77976
G01 X4.59295 Y-2.74722
G01 X4.67678 Y-2.71795
G01 X4.76128 Y-2.69185
G01 X4.84805 Y-2.66844
G01 X4.93527 Y-2.64832
G01 X5.02211 Y-2.63156
G01 X5.10985 Y-2.61790
G01 X5.19874 Y-2.60734
G01 X5.28831 Y-2.60001
G01 X5.37666 Y-2.59600
G01 X5.46545 Y-2.59519
G01 X5.55529 Y-2.59762
G01 X5.64462 Y-2.60333
G01 X5.73297 Y-2.61219
G01 X5.82060 Y-2.62419
G01 X5.90913 Y-2.63961
G01 X5.99670 Y-2.65819
G01 X6.08284 Y-2.67975
G01 X6.16780 Y-2.70431
G01 X6.25283 Y-2.73226
G01 X6.33712 Y-2.76344
G01 X6.41924 Y-2.79724
G01 X6.49975 Y-2.83384
G01 X6.57984 Y-2.87381
G01 X6.65873 Y-2.91686
G01 X6.73508 Y-2.96219
G01 X6.80944 Y-3.01007
G01 X6.82062 Y-3.01785
G00 Z0.08000
G01 X6.87231 Y-3.05385
G01 Z-0.01462 F50.00000
G01 F100.00000
G01 X6.88348 Y-3.06163
G01 X6.95446 Y-3.11500
G01 X7.02317 Y-3.17068
G01 X7.09064 Y-3.22951
G01 X7.15616 Y-3.29101
G01 X7.21866 Y-3.35409
G01 X7.27859 Y-3.41913
G01 X7.33706 Y-3.48738
G01 X7.39277 Y-3.55744
G01 X7.44547 Y-3.62891
G01 X7.49536 Y-3.70194
G01 X7.54333 Y-3.77793
G01 X7.58830 Y-3.85533
G01 X7.62995 Y-3.93335
G01 X7.66890 Y-4.01315
G01 X7.70536 Y-4.09529
G01 X7.73866 Y-4.17837
G01 X7.76869 Y-4.26194
G01 X7.79556 Y-4.34620
G01 X7.81975 Y-4.43275
G01 X7.84067 Y-4.51979
G01 X7.85821 Y-4.60647
G01 X7.87267 Y-4.69408
G01 X7.88408 Y-4.78322
G01 X7.89215 Y-4.87201
G01 X7.89697 Y-4.96032
G01 X7.89861 Y-5.04982
G01 X7.89697 Y-5.13968
G01 X7.89215 Y-5.22798
G01 X7.88411 Y-5.31642
G01 X7.87273 Y-5.40556
G01 X7.85815 Y-5.49388
G01 X7.84052 Y-5.58091
G01 X7.81983 Y-5.66690
G01 X7.79567 Y-5.75346
G01 X7.76845 Y-5.83873
G01 X7.73854 Y-5.92196
G01 X7.70550 Y-6.00438
G01 X7.66921 Y-6.08621
G01 X7.62978 Y-6.16697
G01 X7.58813 Y-6.24499
G01 X7.54351 Y-6.32176
G01 X7.49556 Y-6.39777
G01 X7.44506 Y-6.47167
G01 X7.39234 Y-6.54312
G01 X7.33728 Y-6.61234
G01 X7.27883 Y-6.68061
G01 X7.21816 Y-6.74642
G01 X7.15591 Y-6.80924
G01 X7.09116 Y-6.87001
G01 X7.02372 Y-6.92886
G01 X6.95389 Y-6.98543
G01 X6.88291 Y-7.03879
G01 X6.81034 Y-7.08933
G01 X6.73508 Y-7.13780
G01 X6.65780 Y-7.18367
G01 X6.57984 Y-7.22619
G01 X6.50071 Y-7.26569
G01 X6.48848 Y-7.27126
G00 Z0.08000
G01 X6.43114 Y-7.29734
G01 Z-0.01462 F50.00000
G01 F100.00000
G01 X6.41891 Y-7.30290
G01 X6.33613 Y-7.33695
G01 X6.25283 Y-7.36774
G01 X6.16882 Y-7.39537
G01 X6.08284 Y-7.42025
G01 X5.99565 Y-7.44205
G01 X5.90913 Y-7.46039
G01 X5.82166 Y-7.47564
G01 X5.73297 Y-7.48781
G01 X5.64355 Y-7.49676
G01 X5.55529 Y-7.50237
G01 X5.46617 Y-7.50481
G01 X5.37630 Y-7.50398
G01 X5.28760 Y-7.49995
G01 X5.19945 Y-7.49273
G01 X5.11020 Y-7.48215
G01 X5.02176 Y-7.46838
G01 X4.93457 Y-7.45154
G01 X4.84840 Y-7.43164
G01 X4.76163 Y-7.40826
G01 X4.67611 Y-7.38182
G01 X4.59228 Y-7.35254
G01 X4.50956 Y-7.32024
G01 X4.42709 Y-7.28452
G01 X4.34726 Y-7.24646
G01 X4.26855 Y-7.20536
G01 X4.19044 Y-7.16091
G01 X4.11432 Y-7.11381
G01 X4.04055 Y-7.06439
G01 X3.96890 Y-7.01254
G01 X3.89833 Y-6.95747
G01 X3.82956 Y-6.89963
G01 X3.76371 Y-6.84004
G01 X3.70033 Y-6.77836
G01 X3.63823 Y-6.71340
G01 X3.57880 Y-6.64647
G01 X3.52228 Y-6.57798
G01 X3.46849 Y-6.50778
G01 X3.41665 Y-6.43480
G01 X3.36733 Y-6.35968
G01 X3.32132 Y-6.28373
G01 X3.27826 Y-6.20648
G01 X3.23738 Y-6.12645
G01 X3.19960 Y-6.04530
G01 X3.16521 Y-5.96382
G01 X3.13365 Y-5.88082
G01 X3.10479 Y-5.79571
G01 X3.07916 Y-5.70994
G01 X3.05692 Y-5.62434
G01 X3.03771 Y-5.53765
G01 X3.02153 Y-5.44961
G01 X3.00853 Y-5.36069
G01 X2.99891 Y-5.27277
G01 X2.99246 Y-5.18421
G01 X2.98919 Y-5.09404
G01 Z-0.02193 F50.00000 ( plunge. )
G04 P0 ( dwell for no time -- G64 should not smooth over this point )
G01 F100.00000
G01 X2.98919 Y-5.00560
G01 X2.99240 Y-4.91686
G01 X2.99338 Y-4.90346
G00 Z0.08000
G01 X2.99794 Y-4.84063
G01 Z-0.02193 F50.00000
G01 F100.00000
G01 X2.99891 Y-4.82723
G01 X3.00867 Y-4.73825
G01 X3.02153 Y-4.65039
G01 X3.03750 Y-4.56340
G01 X3.05692 Y-4.47565
G01 X3.07945 Y-4.38902
G01 X3.10479 Y-4.30429
G01 X3.13329 Y-4.22019
G01 X3.16521 Y-4.13618
G01 X3.19989 Y-4.05405
G01 X3.23722 Y-3.97387
G01 X3.27809 Y-3.89383
G01 X3.32168 Y-3.81565
G01 X3.36751 Y-3.74002
G01 X3.41625 Y-3.66579
G01 X3.46827 Y-3.59251
G01 X3.52272 Y-3.52146
G01 X3.57926 Y-3.45298
G01 X3.63800 Y-3.38686
G01 X3.69982 Y-3.32214
G01 X3.76424 Y-3.25947
G01 X3.82982 Y-3.20013
G01 X3.89778 Y-3.14298
G01 X3.96833 Y-3.08789
G01 X4.04114 Y-3.03520
G01 X4.11492 Y-2.98579
G01 X4.19014 Y-2.93927
G01 X4.26823 Y-2.89480
G01 X4.34726 Y-2.85354
G01 X4.42709 Y-2.81548
G01 X4.50956 Y-2.77976
G01 X4.59295 Y-2.74722
G01 X4.67678 Y-2.71795
G01 X4.76128 Y-2.69185
G01 X4.84805 Y-2.66844
G01 X4.93527 Y-2.64832
G01 X5.02211 Y-2.63156
G01 X5.10985 Y-2.61790
G01 X5.19874 Y-2.60734
G01 X5.28831 Y-2.60001
G01 X5.37666 Y-2.59600
G01 X5.46545 Y-2.59519
G01 X5.55529 Y-2.59762
G01 X5.64462 Y-2.60333
G01 X5.73297 Y-2.61219
G01 X5.82060 Y-2.62419
G01 X5.90913 Y-2.63961
G01 X5.99670 Y-2.65819
G01 X6.08284 Y-2.67975
G01 X6.16780 Y-2.70431
G01 X6.25283 Y-2.73226
G01 X6.33712 Y-2.76344
G01 X6.41924 Y-2.79724
G01 X6.49975 Y-2.83384
G01 X6.57984 Y-2.87381
G01 X6.65873 Y-2.91686
G01 X6.73508 Y-2.96219
G01 X6.80944 Y-3.01007
G01 X6.82062 Y-3.01785
G00 Z0.08000
G01 X6.87231 Y-3.05385
G01 Z-0.02193 F50.00000
G01 F100.00000
G01 X6.88348 Y-3.06163
G01 X6.95446 Y-3.11500
G01 X7.02317 Y-3.17068
G01 X7.09064 Y-3.22951
G01 X7.15616 Y-3.29101
G01 X7.21866 Y-3.35409
G01 X7.27859 Y-3.41913
G01 X7.33706 Y-3.48738
G01 X7.39277 Y-3.55744
G01 X7.44547 Y-3.62891
G01 X7.49536 Y-3.70194
G01 X7.54333 Y-3.77793
G01 X7.58830 Y-3.85533
G01 X7.62995 Y-3.93335
G01 X7.66890 Y-4.01315
G01 X7.70536 Y-4.09529
G01 X7.73866 Y-4.17837
G01 X7.76869 Y-4.26194
G01 X7.79556 Y-4.34620
G01 X7.81975 Y-4.43275
G01 X7.84067 Y-4.51979
G01 X7.85821 Y-4.60647
G01 X7.87267 Y-4.69408
G01 X7.88408 Y-4.78322
G01 X7.89215 Y-4.87201
G01 X7.89697 Y-4.96032
G01 X7.89861 Y-5.04982
G01 X7.89697 Y-5.13968
G01 X7.89215 Y-5.22798
G01 X7.88411 Y-5.31642
G01 X7.87273 Y-5.40556
G01 X7.85815 Y-5.49388
G01 X7.84052 Y-5.58091
G01 X7.81983 Y-5.66690
G01 X7.79567 Y-5.75346
G01 X7.76845 Y-5.83873
G01 X7.73854 Y-5.92196
G01 X7.70550 Y-6.00438
G01 X7.66921 Y-6.08621
G01 X7.62978 Y-6.16697
G01 X7.58813 Y-6.24499
G01 X7.54351 Y-6.32176
G01 X7.49556 Y-6.39777
G01 X7.44506 Y-6.47167
G01 X7.39234 Y-6.54312
G01 X7.33728 Y-6.61234
G01 X7.27883 Y-6.68061
G01 X7.21816 Y-6.74642
G01 X7.15591 Y-6.80924
G01 X7.09116 Y-6.87001
G01 X7.02372 Y-6.92886
G01 X6.95389 Y-6.98543
G01 X6.88291 Y-7.03879
G01 X6.81034 Y-7.08933
G01 X6.73508 Y-7.13780
G01 X6.65780 Y-7.18367
G01 X6.57984 Y-7.22619
G01 X6.50071 Y-7.26569
G01 X6.48848 Y-7.27126
G00 Z0.08000
G01 X6.43114 Y-7.29734
G01 Z-0.02193 F50.00000
G01 F100.00000
G01 X6.41891 Y-7.30290
G01 X6.33613 Y-7.33695
G01 X6.25283 Y-7.36774
G01 X6.16882 Y-7.39537
G01 X6.08284 Y-7.42025
G01 X5.99565 Y-7.44205
G01 X5.90913 Y-7.46039
G01 X5.82166 Y-7.47564
G01 X5.73297 Y-7.48781
G01 X5.64355 Y-7.49676
G01 X5.55529 Y-7.50237
G01 X5.46617 Y-7.50481
G01 X5.37630 Y-7.50398
G01 X5.28760 Y-7.49995
G01 X5.19945 Y-7.49273
G01 X5.11020 Y-7.48215
G01 X5.02176 Y-7.46838
G01 X4.93457 Y-7.45154
G01 X4.84840 Y-7.43164
G01 X4.76163 Y-7.40826
G01 X4.67611 Y-7.38182
G01 X4.59228 Y-7.35254
G01 X4.50956 Y-7.32024
G01 X4.42709 Y-7.28452
G01 X4.34726 Y-7.24646
G01 X4.26855 Y-7.20536
G01 X4.19044 Y-7.16091
G01 X4.11432 Y-7.11381
G01 X4.04055 Y-7.06439
G01 X3.96890 Y-7.01254
G01 X3.89833 Y-6.95747
G01 X3.82956 Y-6.89963
G01 X3.76371 Y-6.84004
G01 X3.70033 Y-6.77836
G01 X3.63823 Y-6.71340
G01 X3.57880 Y-6.64647
G01 X3.52228 Y-6.57798
G01 X3.46849 Y-6.50778
G01 X3.41665 Y-6.43480
G01 X3.36733 Y-6.35968
G01 X3.32132 Y-6.28373
G01 X3.27826 Y-6.20648
G01 X3.23738 Y-6.12645
G01 X3.19960 Y-6.04530
G01 X3.16521 Y-5.96382
G01 X3.13365 Y-5.88082
G01 X3.10479 Y-5.79571
G01 X3.07916 Y-5.70994
G01 X3.05692 Y-5.62434
G01 X3.03771 Y-5.53765
G01 X3.02153 Y-5.44961
G01 X3.00853 Y-5.36069
G01 X2.99891 Y-5.27277
G01 X2.99246 Y-5.18421
G01 X2.98919 Y-5.09404
G01 Z-0.02925 F50.00000 ( plunge. )
G04 P0 ( dwell for no time -- G64 should not smooth over this point )
G01 F100.00000
G01 X2.98919 Y-5.00560
G01 X2.99240 Y-4.91686
G01 X2.99338 Y-4.90346
G00 Z0.08000
G01 X2.99794 Y-4.84063
G01 Z-0.02925 F50.00000
G01 F100.00000
G01 X2.99891 Y-4.82723
G01 X3.00867 Y-4.73825
G01 X3.02153 Y-4.65039
G01 X3.03750 Y-4.56340
G01 X3.05692 Y-4.47565
G01 X3.07945 Y-4.38902
G01 X3.10479 Y-4.30429
G01 X3.13329 Y-4.22019
G01 X3.16521 Y-4.13618
G01 X3.19989 Y-4.05405
G01 X3.23722 Y-3.97387
G01 X3.27809 Y-3.89383
G01 X3.32168 Y-3.81565
G01 X3.36751 Y-3.74002
G01 X3.41625 Y-3.66579
G01 X3.46827 Y-3.59251
G01 X3.52272 Y-3.52146
G01 X3.57926 Y-3.45298
G01 X3.63800 Y-3.38686
G01 X3.69982 Y-3.32214
G01 X3.76424 Y-3.25947
G01 X3.82982 Y-3.20013
G01 X3.89778 Y-3.14298
G01 X3.96833 Y-3.08789
G01 X4.04114 Y-3.03520
G01 X4.11492 Y-2.98579
G01 X4.19014 Y-2.93927
G01 X4.26823 Y-2.89480
G01 X4.34726 Y-2.85354
G01 X4.42709 Y-2.81548
G01 X4.50956 Y-2.77976
G01 X4.59295 Y-2.74722
G01 X4.67678 Y-2.71795
G01 X4.76128 Y-2.69185
G01 X4.84805 Y-2.66844
G01 X4.93527 Y-2.64832
G01 X5.02211 Y-2.63156
G01 X5.10985 Y-2.61790
G01 X5.19874 Y-2.60734
G01 X5.28831 Y-2.60001
G01 X5.37666 Y-2.59600
G01 X5.46545 Y-2.59519
G01 X5.55529 Y-2.59762
G01 X5.64462 Y-2.60333
G01 X5.73297 Y-2.61219
G01 X5.82060 Y-2.62419
G01 X5.90913 Y-2.63961
G01 X5.99670 Y-2.65819
G01 X6.08284 Y-2.67975
G01 X6.16780 Y-2.70431
G01 X6.25283 Y-2.73226
G01 X6.33712 Y-2.76344
G01 X6.41924 Y-2.79724
G01 X6.49975 Y-2.83384
G01 X6.57984 Y-2.87381
G01 X6.65873 Y-2.91686
G01 X6.73508 Y-2.96219
G01 X6.80944 Y-3.01007
G01 X6.82062 Y-3.01785
G00 Z0.08000
G01 X6.87231 Y-3.05385
G01 Z-0.02925 F50.00000
G01 F100.00000
G01 X6.88348 Y-3.06163
G01 X6.95446 Y-3.11500
G01 X7.02317 Y-3.17068
G01 X7.09064 Y-3.22951
G01 X7.15616 Y-3.29101
G01 X7.21866 Y-3.35409
G01 X7.27859 Y-3.41913
G01 X7.33706 Y-3.48738
G01 X7.39277 Y-3.55744
G01 X7.44547 Y-3.62891
G01 X7.49536 Y-3.70194
G01 X7.54333 Y-3.77793
G01 X7.58830 Y-3.85533
G01 X7.62995 Y-3.93335
G01 X7.66890 Y-4.01315
G01 X7.70536 Y-4.09529
G01 X7.73866 Y-4.17837
G01 X7.76869 Y-4.26194
G01 X7.79556 Y-4.34620
G01 X7.81975 Y-4.43275
G01 X7.84067 Y-4.51979
G01 X7.85821 Y-4.60647
G01 X7.87267 Y-4.69408
G01 X7.88408 Y-4.78322
G01 X7.89215 Y-4.87201
G01 X7.89697 Y-4.96032
G01 X7.89861 Y-5.04982
G01 X7.89697 Y-5.13968
G01 X7.89215 Y-5.22798
G01 X7.88411 Y-5.31642
G01 X7.87273 Y-5.40556
G01 X7.85815 Y-5.49388
G01 X7.84052 Y-5.58091
G01 X7.81983 Y-5.66690
G01 X7.79567 Y-5.75346
G01 X7.76845 Y-5.83873
G01 X7.73854 Y-5.92196
G01 X7.70550 Y-6.00438
G01 X7.66921 Y-6.08621
G01 X7.62978 Y-6.16697
G01 X7.58813 Y-6.24499
G01 X7.54351 Y-6.32176
G01 X7.49556 Y-6.39777
G01 X7.44506 Y-6.47167
G01 X7.39234 Y-6.54312
G01 X7.33728 Y-6.61234
G01 X7.27883 Y-6.68061
G01 X7.21816 Y-6.74642
G01 X7.15591 Y-6.80924
G01 X7.09116 Y-6.87001
G01 X7.02372 Y-6.92886
G01 X6.95389 Y-6.98543
G01 X6.88291 Y-7.03879
G01 X6.81034 Y-7.08933
G01 X6.73508 Y-7.13780
G01 X6.65780 Y-7.18367
G01 X6.57984 Y-7.22619
G01 X6.50071 Y-7.26569
G01 X6.48848 Y-7.27126
G00 Z0.08000
G01 X6.43114 Y-7.29734
G01 Z-0.02925 F50.00000
G01 F100.00000
G01 X6.41891 Y-7.30290
G01 X6.33613 Y-7.33695
G01 X6.25283 Y-7.36774
G01 X6.16882 Y-7.39537
G01 X6.08284 Y-7.42025
G01 X5.99565 Y-7.44205
G01 X5.90913 Y-7.46039
G01 X5.82166 Y-7.47564
G01 X5.73297 Y-7.48781
G01 X5.64355 Y-7.49676
G01 X5.55529 Y-7.50237
G01 X5.46617 Y-7.50481
G01 X5.37630 Y-7.50398
G01 X5.28760 Y-7.49995
G01 X5.19945 Y-7.49273
G01 X5.11020 Y-7.48215
G01 X5.02176 Y-7.46838
G01 X4.93457 Y-7.45154
G01 X4.84840 Y-7.43164
G01 X4.76163 Y-7.40826
G01 X4.67611 Y-7.38182
G01 X4.59228 Y-7.35254
G01 X4.50956 Y-7.32024
G01 X4.42709 Y-7.28452
G01 X4.34726 Y-7.24646
G01 X4.26855 Y-7.20536
G01 X4.19044 Y-7.16091
G01 X4.11432 Y-7.11381
G01 X4.04055 Y-7.06439
G01 X3.96890 Y-7.01254
G01 X3.89833 Y-6.95747
G01 X3.82956 Y-6.89963
G01 X3.76371 Y-6.84004
G01 X3.70033 Y-6.77836
G01 X3.63823 Y-6.71340
G01 X3.57880 Y-6.64647
G01 X3.52228 Y-6.57798
G01 X3.46849 Y-6.50778
G01 X3.41665 Y-6.43480
G01 X3.36733 Y-6.35968
G01 X3.32132 Y-6.28373
G01 X3.27826 Y-6.20648
G01 X3.23738 Y-6.12645
G01 X3.19960 Y-6.04530
G01 X3.16521 Y-5.96382
G01 X3.13365 Y-5.88082
G01 X3.10479 Y-5.79571
G01 X3.07916 Y-5.70994
G01 X3.05692 Y-5.62434
G01 X3.03771 Y-5.53765
G01 X3.02153 Y-5.44961
G01 X3.00853 Y-5.36069
G01 X2.99891 Y-5.27277
G01 X2.99246 Y-5.18421
G01 X2.98919 Y-5.09404
G01 Z-0.03656 F50.00000 ( plunge. )
G04 P0 ( dwell for no time -- G64 should not smooth over this point )
G01 F100.00000
G01 X2.98919 Y-5.00560
G01 X2.99240 Y-4.91686
G01 X2.99338 Y-4.90346
G00 Z0.08000
G01 X2.99794 Y-4.84063
G01 Z-0.03656 F50.00000
G01 F100.00000
G01 X2.99891 Y-4.82723
G01 X3.00867 Y-4.73825
G01 X3.02153 Y-4.65039
G01 X3.03750 Y-4.56340
G01 X3.05692 Y-4.47565
G01 X3.07945 Y-4.38902
G01 X3.10479 Y-4.30429
G01 X3.13329 Y-4.22019
G01 X3.16521 Y-4.13618
G01 X3.19989 Y-4.05405
G01 X3.23722 Y-3.97387
G01 X3.27809 Y-3.89383
G01 X3.32168 Y-3.81565
G01 X3.36751 Y-3.74002
G01 X3.41625 Y-3.66579
G01 X3.46827 Y-3.59251
G01 X3.52272 Y-3.52146
G01 X3.57926 Y-3.45298
G01 X3.63800 Y-3.38686
G01 X3.69982 Y-3.32214
G01 X3.76424 Y-3.25947
G01 X3.82982 Y-3.20013
G01 X3.89778 Y-3.14298
G01 X3.96833 Y-3.08789
G01 X4.04114 Y-3.03520
G01 X4.11492 Y-2.98579
G01 X4.19014 Y-2.93927
G01 X4.26823 Y-2.89480
G01 X4.34726 Y-2.85354
G01 X4.42709 Y-2.81548
G01 X4.50956 Y-2.77976
G01 X4.59295 Y-2.74722
G01 X4.67678 Y-2.71795
G01 X4.76128 Y-2.69185
G01 X4.84805 Y-2.66844
G01 X4.93527 Y-2.64832
G01 X5.02211 Y-2.63156
G01 X5.10985 Y-2.61790
G01 X5.19874 Y-2.60734
G01 X5.28831 Y-2.60001
G01 X5.37666 Y-2.59600
G01 X5.46545 Y-2.59519
G01 X5.55529 Y-2.59762
G01 X5.64462 Y-2.60333
G01 X5.73297 Y-2.61219
G01 X5.82060 Y-2.62419
G01 X5.90913 Y-2.63961
G01 X5.99670 Y-2.65819
G01 X6.08284 Y-2.67975
G01 X6.16780 Y-2.70431
G01 X6.25283 Y-2.73226
G01 X6.33712 Y-2.76344
G01 X6.41924 Y-2.79724
G01 X6.49975 Y-2.83384
G01 X6.57984 Y-2.87381
G01 X6.65873 Y-2.91686
G01 X6.73508 Y-2.96219
G01 X6.80944 Y-3.01007
G01 X6.82062 Y-3.01785
G00 Z0.08000
G01 X6.87231 Y-3.05385
G01 Z-0.03656 F50.00000
G01 F100.00000
G01 X6.88348 Y-3.06163
G01 X6.95446 Y-3.11500
G01 X7.02317 Y-3.17068
G01 X7.09064 Y-3.22951
G01 X7.15616 Y-3.29101
G01 X7.21866 Y-3.35409
G01 X7.27859 Y-3.41913
G01 X7.33706 Y-3.48738
G01 X7.39277 Y-3.55744
G01 X7.44547 Y-3.62891
G01 X7.49536 Y-3.70194
G01 X7.54333 Y-3.77793
G01 X7.58830 Y-3.85533
G01 X7.62995 Y-3.93335
G01 X7.66890 Y-4.01315
G01 X7.70536 Y-4.09529
G01 X7.73866 Y-4.17837
G01 X7.76869 Y-4.26194
G01 X7.79556 Y-4.34620
G01 X7.81975 Y-4.43275
G01 X7.84067 Y-4.51979
G01 X7.85821 Y-4.60647
G01 X7.87267 Y-4.69408
G01 X7.88408 Y-4.78322
G01 X7.89215 Y-4.87201
G01 X7.89697 Y-4.96032
G01 X7.89861 Y-5.04982
G01 X7.89697 Y-5.13968
G01 X7.89215 Y-5.22798
G01 X7.88411 Y-5.31642
G01 X7.87273 Y-5.40556
G01 X7.85815 Y-5.49388
G01 X7.84052 Y-5.58091
G01 X7.81983 Y-5.66690
G01 X7.79567 Y-5.75346
G01 X7.76845 Y-5.83873
G01 X7.73854 Y-5.92196
G01 X7.70550 Y-6.00438
G01 X7.66921 Y-6.08621
G01 X7.62978 Y-6.16697
G01 X7.58813 Y-6.24499
G01 X7.54351 Y-6.32176
G01 X7.49556 Y-6.39777
G01 X7.44506 Y-6.47167
G01 X7.39234 Y-6.54312
G01 X7.33728 Y-6.61234
G01 X7.27883 Y-6.68061
G01 X7.21816 Y-6.74642
G01 X7.15591 Y-6.80924
G01 X7.09116 Y-6.87001
G01 X7.02372 Y-6.92886
G01 X6.95389 Y-6.98543
G01 X6.88291 Y-7.03879
G01 X6.81034 Y-7.08933
G01 X6.73508 Y-7.13780
G01 X6.65780 Y-7.18367
G01 X6.57984 Y-7.22619
G01 X6.50071 Y-7.26569
G01 X6.48848 Y-7.27126
G00 Z0.08000
G01 X6.43114 Y-7.29734
G01 Z-0.03656 F50.00000
G01 F100.00000
G01 X6.41891 Y-7.30290
G01 X6.33613 Y-7.33695
G01 X6.25283 Y-7.36774
G01 X6.16882 Y-7.39537
G01 X6.08284 Y-7.42025
G01 X5.99565 Y-7.44205
G01 X5.90913 Y-7.46039
G01 X5.82166 Y-7.47564
G01 X5.73297 Y-7.48781
G01 X5.64355 Y-7.49676
G01 X5.55529 Y-7.50237
G01 X5.46617 Y-7.50481
G01 X5.37630 Y-7.50398
G01 X5.28760 Y-7.49995
G01 X5.19945 Y-7.49273
G01 X5.11020 Y-7.48215
G01 X5.02176 Y-7.46838
G01 X4.93457 Y-7.45154
G01 X4.84840 Y-7.43164
G01 X4.76163 Y-7.40826
G01 X4.67611 Y-7.38182
G01 X4.59228 Y-7.35254
G01 X4.50956 Y-7.32024
G01 X4.42709 Y-7.28452
G01 X4.34726 Y-7.24646
G01 X4.26855 Y-7.20536
G01 X4.19044 Y-7.16091
G01 X4.11432 Y-7.11381
G01 X4.04055 Y-7.06439
G01 X3.96890 Y-7.01254
G01 X3.89833 Y-6.95747
G01 X3.82956 Y-6.89963
G01 X3.76371 Y-6.84004
G01 X3.70033 Y-6.77836
G01 X3.63823 Y-6.71340
G01 X3.57880 Y-6.64647
G01 X3.52228 Y-6.57798
G01 X3.46849 Y-6.50778
G01 X3.41665 Y-6.43480
G01 X3.36733 Y-6.35968
G01 X3.32132 Y-6.28373
G01 X3.27826 Y-6.20648
G01 X3.23738 Y-6.12645
G01 X3.19960 Y-6.04530
G01 X3.16521 Y-5.96382
G01 X3.13365 Y-5.88082
G01 X3.10479 Y-5.79571
G01 X3.07916 Y-5.70994
G01 X3.05692 Y-5.62434
G01 X3.03771 Y-5.53765
G01 X3.02153 Y-5.44961
G01 X3.00853 Y-5.36069
G01 X2.99891 Y-5.27277
G01 X2.99246 Y-5.18421
G01 X2.98919 Y-5.09404
G01 Z-0.04387 F50.00000 ( plunge. )
G04 P0 ( dwell for no time -- G64 should not smooth over this point )
G01 F100.00000
G01 X2.98919 Y-5.00560
G01 X2.99240 Y-4.91686
G01 X2.99338 Y-4.90346
G00 Z0.08000
G01 X2.99794 Y-4.84063
G01 Z-0.04387 F50.00000
G01 F100.00000
G01 X2.99891 Y-4.82723
G01 X3.00867 Y-4.73825
G01 X3.02153 Y-4.65039
G01 X3.03750 Y-4.56340
G01 X3.05692 Y-4.47565
G01 X3.07945 Y-4.38902
G01 X3.10479 Y-4.30429
G01 X3.13329 Y-4.22019
G01 X3.16521 Y-4.13618
G01 X3.19989 Y-4.05405
G01 X3.23722 Y-3.97387
G01 X3.27809 Y-3.89383
G01 X3.32168 Y-3.81565
G01 X3.36751 Y-3.74002
G01 X3.41625 Y-3.66579
G01 X3.46827 Y-3.59251
G01 X3.52272 Y-3.52146
G01 X3.57926 Y-3.45298
G01 X3.63800 Y-3.38686
G01 X3.69982 Y-3.32214
G01 X3.76424 Y-3.25947
G01 X3.82982 Y-3.20013
G01 X3.89778 Y-3.14298
G01 X3.96833 Y-3.08789
G01 X4.04114 Y-3.03520
G01 X4.11492 Y-2.98579
G01 X4.19014 Y-2.93927
G01 X4.26823 Y-2.89480
G01 X4.34726 Y-2.85354
G01 X4.42709 Y-2.81548
G01 X4.50956 Y-2.77976
G01 X4.59295 Y-2.74722
G01 X4.67678 Y-2.71795
G01 X4.76128 Y-2.69185
G01 X4.84805 Y-2.66844
G01 X4.93527 Y-2.64832
G01 X5.02211 Y-2.63156
G01 X5.10985 Y-2.61790
G01 X5.19874 Y-2.60734
G01 X5.28831 Y-2.60001
G01 X5.37666 Y-2.59600
G01 X5.46545 Y-2.59519
G01 X5.55529 Y-2.59762
G01 X5.64462 Y-2.60333
G01 X5.73297 Y-2.61219
G01 X5.82060 Y-2.62419
G01 X5.90913 Y-2.63961
G01 X5.99670 Y-2.65819
G01 X6.08284 Y-2.67975
G01 X6.16780 Y-2.70431
G01 X6.25283 Y-2.73226
G01 X6.33712 Y-2.76344
G01 X6.41924 Y-2.79724
G01 X6.49975 Y-2.83384
G01 X6.57984 Y-2.87381
G01 X6.65873 Y-2.91686
G01 X6.73508 Y-2.96219
G01 X6.80944 Y-3.01007
G01 X6.82062 Y-3.01785
G00 Z0.08000
G01 X6.87231 Y-3.05385
G01 Z-0.04387 F50.00000
G01 F100.00000
G01 X6.88348 Y-3.06163
G01 X6.95446 Y-3.11500
G01 X7.02317 Y-3.17068
G01 X7.09064 Y-3.22951
G01 X7.15616 Y-3.29101
G01 X7.21866 Y-3.35409
G01 X7.27859 Y-3.41913
G01 X7.33706 Y-3.48738
G01 X7.39277 Y-3.55744
G01 X7.44547 Y-3.62891
G01 X7.49536 Y-3.70194
G01 X7.54333 Y-3.77793
G01 X7.58830 Y-3.85533
G01 X7.62995 Y-3.93335
G01 X7.66890 Y-4.01315
G01 X7.70536 Y-4.09529
G01 X7.73866 Y-4.17837
G01 X7.76869 Y-4.26194
G01 X7.79556 Y-4.34620
G01 X7.81975 Y-4.43275
G01 X7.84067 Y-4.51979
G01 X7.85821 Y-4.60647
G01 X7.87267 Y-4.69408
G01 X7.88408 Y-4.78322
G01 X7.89215 Y-4.87201
G01 X7.89697 Y-4.96032
G01 X7.89861 Y-5.04982
G01 X7.89697 Y-5.13968
G01 X7.89215 Y-5.22798
G01 X7.88411 Y-5.31642
G01 X7.87273 Y-5.40556
G01 X7.85815 Y-5.49388
G01 X7.84052 Y-5.58091
G01 X7.81983 Y-5.66690
G01 X7.79567 Y-5.75346
G01 X7.76845 Y-5.83873
G01 X7.73854 Y-5.92196
G01 X7.70550 Y-6.00438
G01 X7.66921 Y-6.08621
G01 X7.62978 Y-6.16697
G01 X7.58813 Y-6.24499
G01 X7.54351 Y-6.32176
G01 X7.49556 Y-6.39777
G01 X7.44506 Y-6.47167
G01 X7.39234 Y-6.54312
G01 X7.33728 Y-6.61234
G01 X7.27883 Y-6.68061
G01 X7.21816 Y-6.74642
G01 X7.15591 Y-6.80924
G01 X7.09116 Y-6.87001
G01 X7.02372 Y-6.92886
G01 X6.95389 Y-6.98543
G01 X6.88291 Y-7.03879
G01 X6.81034 Y-7.08933
G01 X6.73508 Y-7.13780
G01 X6.65780 Y-7.18367
G01 X6.57984 Y-7.22619
G01 X6.50071 Y-7.26569
G01 X6.48848 Y-7.27126
G00 Z0.08000
G01 X6.43114 Y-7.29734
G01 Z-0.04387 F50.00000
G01 F100.00000
G01 X6.41891 Y-7.30290
G01 X6.33613 Y-7.33695
G01 X6.25283 Y-7.36774
G01 X6.16882 Y-7.39537
G01 X6.08284 Y-7.42025
G01 X5.99565 Y-7.44205
G01 X5.90913 Y-7.46039
G01 X5.82166 Y-7.47564
G01 X5.73297 Y-7.48781
G01 X5.64355 Y-7.49676
G01 X5.55529 Y-7.50237
G01 X5.46617 Y-7.50481
G01 X5.37630 Y-7.50398
G01 X5.28760 Y-7.49995
G01 X5.19945 Y-7.49273
G01 X5.11020 Y-7.48215
G01 X5.02176 Y-7.46838
G01 X4.93457 Y-7.45154
G01 X4.84840 Y-7.43164
G01 X4.76163 Y-7.40826
G01 X4.67611 Y-7.38182
G01 X4.59228 Y-7.35254
G01 X4.50956 Y-7.32024
G01 X4.42709 Y-7.28452
G01 X4.34726 Y-7.24646
G01 X4.26855 Y-7.20536
G01 X4.19044 Y-7.16091
G01 X4.11432 Y-7.11381
G01 X4.04055 Y-7.06439
G01 X3.96890 Y-7.01254
G01 X3.89833 Y-6.95747
G01 X3.82956 Y-6.89963
G01 X3.76371 Y-6.84004
G01 X3.70033 Y-6.77836
G01 X3.63823 Y-6.71340
G01 X3.57880 Y-6.64647
G01 X3.52228 Y-6.57798
G01 X3.46849 Y-6.50778
G01 X3.41665 Y-6.43480
G01 X3.36733 Y-6.35968
G01 X3.32132 Y-6.28373
G01 X3.27826 Y-6.20648
G01 X3.23738 Y-6.12645
G01 X3.19960 Y-6.04530
G01 X3.16521 Y-5.96382
G01 X3.13365 Y-5.88082
G01 X3.10479 Y-5.79571
G01 X3.07916 Y-5.70994
G01 X3.05692 Y-5.62434
G01 X3.03771 Y-5.53765
G01 X3.02153 Y-5.44961
G01 X3.00853 Y-5.36069
G01 X2.99891 Y-5.27277
G01 X2.99246 Y-5.18421
G01 X2.98919 Y-5.09404
G01 Z-0.05118 F50.00000 ( plunge. )
G04 P0 ( dwell for no time -- G64 should not smooth over this point )
G01 F100.00000
G01 X2.98919 Y-5.00560
G01 X2.99240 Y-4.91686
G01 X2.99338 Y-4.90346
G00 Z0.08000
G01 X2.99794 Y-4.84063
G01 Z-0.05118 F50.00000
G01 F100.00000
G01 X2.99891 Y-4.82723
G01 X3.00867 Y-4.73825
G01 X3.02153 Y-4.65039
G01 X3.03750 Y-4.56340
G01 X3.05692 Y-4.47565
G01 X3.07945 Y-4.38902
G01 X3.10479 Y-4.30429
G01 X3.13329 Y-4.22019
G01 X3.16521 Y-4.13618
G01 X3.19989 Y-4.05405
G01 X3.23722 Y-3.97387
G01 X3.27809 Y-3.89383
G01 X3.32168 Y-3.81565
G01 X3.36751 Y-3.74002
G01 X3.41625 Y-3.66579
G01 X3.46827 Y-3.59251
G01 X3.52272 Y-3.52146
G01 X3.57926 Y-3.45298
G01 X3.63800 Y-3.38686
G01 X3.69982 Y-3.32214
G01 X3.76424 Y-3.25947
G01 X3.82982 Y-3.20013
G01 X3.89778 Y-3.14298
G01 X3.96833 Y-3.08789
G01 X4.04114 Y-3.03520
G01 X4.11492 Y-2.98579
G01 X4.19014 Y-2.93927
G01 X4.26823 Y-2.89480
G01 X4.34726 Y-2.85354
G01 X4.42709 Y-2.81548
G01 X4.50956 Y-2.77976
G01 X4.59295 Y-2.74722
G01 X4.67678 Y-2.71795
G01 X4.76128 Y-2.69185
G01 X4.84805 Y-2.66844
G01 X4.93527 Y-2.64832
G01 X5.02211 Y-2.63156
G01 X5.10985 Y-2.61790
G01 X5.19874 Y-2.60734
G01 X5.28831 Y-2.60001
G01 X5.37666 Y-2.59600
G01 X5.46545 Y-2.59519
G01 X5.55529 Y-2.59762
G01 X5.64462 Y-2.60333
G01 X5.73297 Y-2.61219
G01 X5.82060 Y-2.62419
G01 X5.90913 Y-2.63961
G01 X5.99670 Y-2.65819
G01 X6.08284 Y-2.67975
G01 X6.16780 Y-2.70431
G01 X6.25283 Y-2.73226
G01 X6.33712 Y-2.76344
G01 X6.41924 Y-2.79724
G01 X6.49975 Y-2.83384
G01 X6.57984 Y-2.87381
G01 X6.65873 Y-2.91686
G01 X6.73508 Y-2.96219
G01 X6.80944 Y-3.01007
G01 X6.82062 Y-3.01785
G00 Z0.08000
G01 X6.87231 Y-3.05385
G01 Z-0.05118 F50.00000
G01 F100.00000
G01 X6.88348 Y-3.06163
G01 X6.95446 Y-3.11500
G01 X7.02317 Y-3.17068
G01 X7.09064 Y-3.22951
G01 X7.15616 Y-3.29101
G01 X7.21866 Y-3.35409
G01 X7.27859 Y-3.41913
G01 X7.33706 Y-3.48738
G01 X7.39277 Y-3.55744
G01 X7.44547 Y-3.62891
G01 X7.49536 Y-3.70194
G01 X7.54333 Y-3.77793
G01 X7.58830 Y-3.85533
G01 X7.62995 Y-3.93335
G01 X7.66890 Y-4.01315
G01 X7.70536 Y-4.09529
G01 X7.73866 Y-4.17837
G01 X7.76869 Y-4.26194
G01 X7.79556 Y-4.34620
G01 X7.81975 Y-4.43275
G01 X7.84067 Y-4.51979
G01 X7.85821 Y-4.60647
G01 X7.87267 Y-4.69408
G01 X7.88408 Y-4.78322
G01 X7.89215 Y-4.87201
G01 X7.89697 Y-4.96032
G01 X7.89861 Y-5.04982
G01 X7.89697 Y-5.13968
G01 X7.89215 Y-5.22798
G01 X7.88411 Y-5.31642
G01 X7.87273 Y-5.40556
G01 X7.85815 Y-5.49388
G01 X7.84052 Y-5.58091
G01 X7.81983 Y-5.66690
G01 X7.79567 Y-5.75346
G01 X7.76845 Y-5.83873
G01 X7.73854 Y-5.92196
G01 X7.70550 Y-6.00438
G01 X7.66921 Y-6.08621
G01 X7.62978 Y-6.16697
G01 X7.58813 Y-6.24499
G01 X7.54351 Y-6.32176
G01 X7.49556 Y-6.39777
G01 X7.44506 Y-6.47167
G01 X7.39234 Y-6.54312
G01 X7.33728 Y-6.61234
G01 X7.27883 Y-6.68061
G01 X7.21816 Y-6.74642
G01 X7.15591 Y-6.80924
G01 X7.09116 Y-6.87001
G01 X7.02372 Y-6.92886
G01 X6.95389 Y-6.98543
G01 X6.88291 Y-7.03879
G01 X6.81034 Y-7.08933
G01 X6.73508 Y-7.13780
G01 X6.65780 Y-7.18367
G01 X6.57984 Y-7.22619
G01 X6.50071 Y-7.26569
G01 X6.48848 Y-7.27126
G00 Z0.08000
G01 X6.43114 Y-7.29734
G01 Z-0.05118 F50.00000
G01 F100.00000
G01 X6.41891 Y-7.30290
G01 X6.33613 Y-7.33695
G01 X6.25283 Y-7.36774
G01 X6.16882 Y-7.39537
G01 X6.08284 Y-7.42025
G01 X5.99565 Y-7.44205
G01 X5.90913 Y-7.46039
G01 X5.82166 Y-7.47564
G01 X5.73297 Y-7.48781
G01 X5.64355 Y-7.49676
G01 X5.55529 Y-7.50237
G01 X5.46617 Y-7.50481
G01 X5.37630 Y-7.50398
G01 X5.28760 Y-7.49995
G01 X5.19945 Y-7.49273
G01 X5.11020 Y-7.48215
G01 X5.02176 Y-7.46838
G01 X4.93457 Y-7.45154
G01 X4.84840 Y-7.43164
G01 X4.76163 Y-7.40826
G01 X4.67611 Y-7.38182
G01 X4.59228 Y-7.35254
G01 X4.50956 Y-7.32024
G01 X4.42709 Y-7.28452
G01 X4.34726 Y-7.24646
G01 X4.26855 Y-7.20536
G01 X4.19044 Y-7.16091
G01 X4.11432 Y-7.11381
G01 X4.04055 Y-7.06439
G01 X3.96890 Y-7.01254
G01 X3.89833 Y-6.95747
G01 X3.82956 Y-6.89963
G01 X3.76371 Y-6.84004
G01 X3.70033 Y-6.77836
G01 X3.63823 Y-6.71340
G01 X3.57880 Y-6.64647
G01 X3.52228 Y-6.57798
G01 X3.46849 Y-6.50778
G01 X3.41665 Y-6.43480
G01 X3.36733 Y-6.35968
G01 X3.32132 Y-6.28373
G01 X3.27826 Y-6.20648
G01 X3.23738 Y-6.12645
G01 X3.19960 Y-6.04530
G01 X3.16521 Y-5.96382
G01 X3.13365 Y-5.88082
G01 X3.10479 Y-5.79571
G01 X3.07916 Y-5.70994
G01 X3.05692 Y-5.62434
G01 X3.03771 Y-5.53765
G01 X3.02153 Y-5.44961
G01 X3.00853 Y-5.36069
G01 X2.99891 Y-5.27277
G01 X2.99246 Y-5.18421
G01 X2.98919 Y-5.09404

G04 P0 ( dwell for no time -- G64 should not smooth over this point )
G00 Z1.000000 ( retract )

M5 ( Spindle off. )
G04 P1.000000
M9 ( Coolant off. )
M2 ( Program end. )

