( pcb2gcode 3.0.1 )
( Gcode for mach3 )

G94 ( Inches per minute feed rate. )
G20 ( Units == INCHES. )

G90 ( Absolute coordinates. )
G00 S12000 ( RPM spindle speed. )
G64 P0.00040 ( set maximum deviation from commanded toolpath )
G01 F360.00000 ( Feedrate. )

#107 = #5211
#108 = #5212

(MSG, Attach the probe tool)
M0 ( Temporary machine stop. )
G0 Z0.080 ( Move Z to safe height )
G0 X-10.95295 Y-3.35492 ( Move XY to start point )
G0 Z0.080 ( Move Z to probe height )
M40 (Begins a probe log file, when the window appears, enter a name for the log file such as "RawProbeLog.txt")
G31 Z-0.1 F2.362205 ( Z-probe )
#500 = 0 ( Probe point [0, 0] is our reference )
G92 Z0 ( Set the current Z as zero-value )

( We now start the real probing: move the Z axis to the probing height, move to )
( the probing XY position, probe it and save the result, parameter #2002, )
( in a numbered parameter; we will make 17 probes on the X-axis and )
( 6 probes on the Y-axis, for a grand total of 102 probes )

#101 = 0 ( X iterator )
#102 = 1 ( Y iterator )
#103 = 1 ( UP or DOWN increment )
#104 = 5 ( number of Y points; the 1st Y row can be done one time less )
M98 P3 L17

G0 Z0.080 ( Move Z to safe height )
M41 ( Close the probe log file )
( Probing has ended, each Z-coordinate will be corrected with a bilinear interpolation )
(MSG, Detach the probe tool)
M0 ( Temporary machine stop. )


G00 Z1.00000 (Retract to tool change height)
T1
M5      (Spindle stop.)
G04 P1.00000 (Wait for spindle to stop)
(MSG, Change tool bit to mill diameter 0.00000in)
M6      (Tool change.)
M0      (Temporary machine stop.)
M3 ( Spindle on clockwise. )
G04 P1.00000 (Wait for spindle to get up to speed)
M98 P200
G00 X2.174016
G92 X0
M98 P200
G00 X2.174016
G92 X0
M98 P200
G00 Y1.274016
G92 Y0
M98 P200
G00 X-2.174016
G92 X0
M98 P200
G00 X-2.174016
G92 X0
M98 P200
G00 Y-1.274016
G92 Y0

G04 P0 ( dwell for no time -- G64 should not smooth over this point )
G00 Z1.000000 ( retract )

M5 ( Spindle off. )
G04 P1.000000

O200 ( Main subroutine )

G04 P0 ( dwell for no time -- G64 should not smooth over this point )
G00 Z0.08000 ( retract )

G00 X-9.16104 Y-2.94286 ( rapid move to begin. )
G01 F180.00000
( Mill infeed pass 1/1 )
#101=-9.16104
#102=-2.94286
#103=-0.04000
M98 P1
G04 P0 ( dwell for no time -- G64 should not smooth over this point )
G01 F360.00000
#101=-9.16139
#102=-2.94806
#103=-0.04000
M98 P1
#101=-9.16242
#102=-2.95317
#103=-0.04000
M98 P1
#101=-9.16412
#102=-2.95811
#103=-0.04000
M98 P1
#101=-9.16645
#102=-2.96277
#103=-0.04000
M98 P1
#101=-9.16938
#102=-2.96709
#103=-0.04000
M98 P1
#101=-9.17257
#102=-2.97070
#103=-0.04000
M98 P1
#101=-9.17837
#102=-2.97649
#103=-0.04000
M98 P1
#101=-9.29128
#102=-3.08941
#103=-0.04000
M98 P1
#101=-9.16798
#102=-3.25387
#103=-0.04000
M98 P1
#101=-9.16627
#102=-3.25659
#103=-0.04000
M98 P1
#101=-9.16496
#102=-3.25908
#103=-0.04000
M98 P1
#101=-9.16368
#102=-3.26202
#103=-0.04000
M98 P1
#101=-9.16265
#102=-3.26506
#103=-0.04000
M98 P1
#101=-9.16186
#102=-3.26818
#103=-0.04000
M98 P1
#101=-9.16134
#102=-3.27135
#103=-0.04000
M98 P1
#101=-9.16108
#102=-3.27455
#103=-0.04000
M98 P1
#101=-9.16107
#102=-3.27776
#103=-0.04000
M98 P1
#101=-9.16128
#102=-3.28056
#103=-0.04000
M98 P1
#101=-9.16170
#102=-3.28334
#103=-0.04000
M98 P1
#101=-9.16298
#102=-3.28840
#103=-0.04000
M98 P1
#101=-9.16492
#102=-3.29324
#103=-0.04000
M98 P1
#101=-9.16749
#102=-3.29778
#103=-0.04000
M98 P1
#101=-9.17063
#102=-3.30194
#103=-0.04000
M98 P1
#101=-9.17430
#102=-3.30565
#103=-0.04000
M98 P1
#101=-9.17843
#102=-3.30885
#103=-0.04000
M98 P1
#101=-9.18081
#102=-3.31033
#103=-0.04000
M98 P1
#101=-9.18330
#102=-3.31164
#103=-0.04000
M98 P1
#101=-9.18813
#102=-3.31360
#103=-0.04000
M98 P1
#101=-9.19319
#102=-3.31489
#103=-0.04000
M98 P1
#101=-9.19837
#102=-3.31551
#103=-0.04000
M98 P1
#101=-9.20358
#102=-3.31543
#103=-0.04000
M98 P1
#101=-9.20638
#102=-3.31510
#103=-0.04000
M98 P1
#101=-9.20914
#102=-3.31458
#103=-0.04000
M98 P1
#101=-9.21414
#102=-3.31309
#103=-0.04000
M98 P1
#101=-9.21889
#102=-3.31095
#103=-0.04000
M98 P1
#101=-9.22333
#102=-3.30820
#103=-0.04000
M98 P1
#101=-9.22555
#102=-3.30649
#103=-0.04000
M98 P1
#101=-9.22765
#102=-3.30462
#103=-0.04000
M98 P1
#101=-9.22961
#102=-3.30260
#103=-0.04000
M98 P1
#101=-9.23166
#102=-3.30013
#103=-0.04000
M98 P1
#101=-9.34753
#102=-3.14565
#103=-0.04000
M98 P1
#101=-9.35152
#102=-3.14964
#103=-0.04000
M98 P1
#101=-9.35153
#102=-3.27699
#103=-0.04000
M98 P1
#101=-9.35177
#102=-3.28060
#103=-0.04000
M98 P1
#101=-9.35233
#102=-3.28416
#103=-0.04000
M98 P1
#101=-9.35323
#102=-3.28767
#103=-0.04000
M98 P1
#101=-9.35444
#102=-3.29107
#103=-0.04000
M98 P1
#101=-9.35633
#102=-3.29506
#103=-0.04000
M98 P1
#101=-9.35866
#102=-3.29881
#103=-0.04000
M98 P1
#101=-9.36140
#102=-3.30227
#103=-0.04000
M98 P1
#101=-9.36450
#102=-3.30541
#103=-0.04000
M98 P1
#101=-9.36794
#102=-3.30818
#103=-0.04000
M98 P1
#101=-9.37167
#102=-3.31055
#103=-0.04000
M98 P1
#101=-9.37564
#102=-3.31249
#103=-0.04000
M98 P1
#101=-9.37980
#102=-3.31397
#103=-0.04000
M98 P1
#101=-9.38410
#102=-3.31497
#103=-0.04000
M98 P1
#101=-9.38848
#102=-3.31549
#103=-0.04000
M98 P1
#101=-9.39289
#102=-3.31551
#103=-0.04000
M98 P1
#101=-9.39728
#102=-3.31504
#103=-0.04000
M98 P1
#101=-9.40198
#102=-3.31397
#103=-0.04000
M98 P1
#101=-9.40614
#102=-3.31249
#103=-0.04000
M98 P1
#101=-9.41011
#102=-3.31055
#103=-0.04000
M98 P1
#101=-9.41383
#102=-3.30818
#103=-0.04000
M98 P1
#101=-9.41727
#102=-3.30541
#103=-0.04000
M98 P1
#101=-9.41796
#102=-3.30470
#103=-0.04000
M98 P1
#101=-9.42064
#102=-3.30197
#103=-0.04000
M98 P1
#101=-9.42334
#102=-3.29848
#103=-0.04000
M98 P1
#101=-9.42563
#102=-3.29470
#103=-0.04000
M98 P1
#101=-9.42763
#102=-3.29032
#103=-0.04000
M98 P1
#101=-9.42898
#102=-3.28612
#103=-0.04000
M98 P1
#101=-9.42986
#102=-3.28179
#103=-0.04000
M98 P1
#101=-9.43024
#102=-3.27739
#103=-0.04000
M98 P1
#101=-9.43023
#102=-2.97649
#103=-0.04000
M98 P1
#101=-9.43023
#102=-2.77458
#103=-0.04000
M98 P1
#101=-9.42991
#102=-2.77098
#103=-0.04000
M98 P1
#101=-9.42918
#102=-2.76704
#103=-0.04000
M98 P1
#101=-9.42818
#102=-2.76357
#103=-0.04000
M98 P1
#101=-9.42670
#102=-2.75983
#103=-0.04000
M98 P1
#101=-9.42485
#102=-2.75627
#103=-0.04000
M98 P1
#101=-9.42264
#102=-2.75292
#103=-0.04000
M98 P1
#101=-9.42011
#102=-2.74981
#103=-0.04000
M98 P1
#101=-9.41796
#102=-2.74764
#103=-0.04000
M98 P1
#101=-9.41757
#102=-2.74724
#103=-0.04000
M98 P1
#101=-9.41480
#102=-2.74491
#103=-0.04000
M98 P1
#101=-9.41149
#102=-2.74264
#103=-0.04000
M98 P1
#101=-9.40797
#102=-2.74072
#103=-0.04000
M98 P1
#101=-9.40427
#102=-2.73916
#103=-0.04000
M98 P1
#101=-9.40043
#102=-2.73799
#103=-0.04000
M98 P1
#101=-9.39689
#102=-2.73728
#103=-0.04000
M98 P1
#101=-9.39330
#102=-2.73689
#103=-0.04000
M98 P1
#101=-9.38928
#102=-2.73685
#103=-0.04000
M98 P1
#101=-9.38568
#102=-2.73717
#103=-0.04000
M98 P1
#101=-9.38252
#102=-2.73772
#103=-0.04000
M98 P1
#101=-9.37903
#102=-2.73865
#103=-0.04000
M98 P1
#101=-9.37564
#102=-2.73989
#103=-0.04000
M98 P1
#101=-9.37237
#102=-2.74145
#103=-0.04000
M98 P1
#101=-9.36960
#102=-2.74307
#103=-0.04000
M98 P1
#101=-9.36697
#102=-2.74491
#103=-0.04000
M98 P1
#101=-9.36421
#102=-2.74724
#103=-0.04000
M98 P1
#101=-9.36194
#102=-2.74951
#103=-0.04000
M98 P1
#101=-9.35961
#102=-2.75228
#103=-0.04000
M98 P1
#101=-9.35777
#102=-2.75490
#103=-0.04000
M98 P1
#101=-9.35596
#102=-2.75803
#103=-0.04000
M98 P1
#101=-9.35459
#102=-2.76094
#103=-0.04000
M98 P1
#101=-9.35335
#102=-2.76433
#103=-0.04000
M98 P1
#101=-9.35242
#102=-2.76782
#103=-0.04000
M98 P1
#101=-9.35181
#102=-2.77138
#103=-0.04000
M98 P1
#101=-9.35152
#102=-2.77619
#103=-0.04000
M98 P1
#101=-9.35152
#102=-2.97649
#103=-0.04000
M98 P1
#101=-9.35152
#102=-3.03829
#103=-0.04000
M98 P1
#101=-9.28972
#102=-2.97649
#103=-0.04000
M98 P1
#101=-9.22796
#102=-2.91473
#103=-0.04000
M98 P1
#101=-9.22432
#102=-2.91158
#103=-0.04000
M98 P1
#101=-9.22033
#102=-2.90890
#103=-0.04000
M98 P1
#101=-9.21640
#102=-2.90688
#103=-0.04000
M98 P1
#101=-9.21265
#102=-2.90544
#103=-0.04000
M98 P1
#101=-9.20878
#102=-2.90439
#103=-0.04000
M98 P1
#101=-9.20482
#102=-2.90373
#103=-0.04000
M98 P1
#101=-9.20081
#102=-2.90349
#103=-0.04000
M98 P1
#101=-9.19640
#102=-2.90369
#103=-0.04000
M98 P1
#101=-9.19244
#102=-2.90430
#103=-0.04000
M98 P1
#101=-9.18817
#102=-2.90544
#103=-0.04000
M98 P1
#101=-9.18442
#102=-2.90688
#103=-0.04000
M98 P1
#101=-9.18049
#102=-2.90890
#103=-0.04000
M98 P1
#101=-9.17682
#102=-2.91134
#103=-0.04000
M98 P1
#101=-9.17373
#102=-2.91391
#103=-0.04000
M98 P1
#101=-9.17092
#102=-2.91677
#103=-0.04000
M98 P1
#101=-9.16819
#102=-2.92024
#103=-0.04000
M98 P1
#101=-9.16586
#102=-2.92399
#103=-0.04000
M98 P1
#101=-9.16412
#102=-2.92760
#103=-0.04000
M98 P1
#101=-9.16242
#102=-2.93254
#103=-0.04000
M98 P1
#101=-9.16139
#102=-2.93765
#103=-0.04000
M98 P1
#101=-9.16104
#102=-2.94286
#103=-0.04000
M98 P1
G04 P0 ( dwell for no time -- G64 should not smooth over this point )
G00 Z0.08000 ( retract )

G00 X-9.56582 Y-2.96564 ( rapid move to begin. )
G01 F180.00000
( Mill infeed pass 1/1 )
#101=-9.56582
#102=-2.96564
#103=-0.04000
M98 P1
G04 P0 ( dwell for no time -- G64 should not smooth over this point )
G01 F360.00000
#101=-9.56599
#102=-2.96284
#103=-0.04000
M98 P1
#101=-9.56636
#102=-2.96005
#103=-0.04000
M98 P1
#101=-9.56758
#102=-2.95498
#103=-0.04000
M98 P1
#101=-9.56851
#102=-2.95233
#103=-0.04000
M98 P1
#101=-9.56962
#102=-2.94975
#103=-0.04000
M98 P1
#101=-9.57217
#102=-2.94520
#103=-0.04000
M98 P1
#101=-9.57530
#102=-2.94102
#103=-0.04000
M98 P1
#101=-9.57721
#102=-2.93896
#103=-0.04000
M98 P1
#101=-9.57925
#102=-2.93703
#103=-0.04000
M98 P1
#101=-9.58340
#102=-2.93386
#103=-0.04000
M98 P1
#101=-9.58757
#102=-2.93145
#103=-0.04000
M98 P1
#101=-9.63591
#102=-2.90729
#103=-0.04000
M98 P1
#101=-9.64082
#102=-2.90535
#103=-0.04000
M98 P1
#101=-9.64593
#102=-2.90409
#103=-0.04000
M98 P1
#101=-9.64915
#102=-2.90366
#103=-0.04000
M98 P1
#101=-9.65279
#102=-2.90349
#103=-0.04000
M98 P1
#101=-9.74803
#102=-2.90349
#103=-0.04000
M98 P1
#101=-9.75329
#102=-2.90384
#103=-0.04000
M98 P1
#101=-9.75609
#102=-2.90432
#103=-0.04000
M98 P1
#101=-9.75884
#102=-2.90500
#103=-0.04000
M98 P1
#101=-9.76192
#102=-2.90602
#103=-0.04000
M98 P1
#101=-9.76454
#102=-2.90712
#103=-0.04000
M98 P1
#101=-9.80171
#102=-2.92568
#103=-0.04000
M98 P1
#101=-9.81326
#102=-2.93145
#103=-0.04000
M98 P1
#101=-9.81737
#102=-2.93383
#103=-0.04000
M98 P1
#101=-9.82055
#102=-2.93617
#103=-0.04000
M98 P1
#101=-9.82349
#102=-2.93883
#103=-0.04000
M98 P1
#101=-9.84785
#102=-2.96320
#103=-0.04000
M98 P1
#101=-9.85020
#102=-2.96588
#103=-0.04000
M98 P1
#101=-9.85230
#102=-2.96876
#103=-0.04000
M98 P1
#101=-9.85467
#102=-2.97287
#103=-0.04000
M98 P1
#101=-9.85648
#102=-2.97649
#103=-0.04000
M98 P1
#101=-9.87901
#102=-3.02158
#103=-0.04000
M98 P1
#101=-9.88025
#102=-3.02458
#103=-0.04000
M98 P1
#101=-9.88113
#102=-3.02728
#103=-0.04000
M98 P1
#101=-9.88181
#102=-3.03004
#103=-0.04000
M98 P1
#101=-9.88229
#102=-3.03284
#103=-0.04000
M98 P1
#101=-9.88264
#102=-3.03810
#103=-0.04000
M98 P1
#101=-9.88264
#102=-3.18095
#103=-0.04000
M98 P1
#101=-9.88239
#102=-3.18540
#103=-0.04000
M98 P1
#101=-9.88189
#102=-3.18861
#103=-0.04000
M98 P1
#101=-9.88113
#102=-3.19176
#103=-0.04000
M98 P1
#101=-9.88025
#102=-3.19446
#103=-0.04000
M98 P1
#101=-9.87901
#102=-3.19746
#103=-0.04000
M98 P1
#101=-9.85467
#102=-3.24618
#103=-0.04000
M98 P1
#101=-9.85251
#102=-3.24996
#103=-0.04000
M98 P1
#101=-9.85020
#102=-3.25317
#103=-0.04000
M98 P1
#101=-9.84730
#102=-3.25641
#103=-0.04000
M98 P1
#101=-9.82292
#102=-3.28077
#103=-0.04000
M98 P1
#101=-9.82025
#102=-3.28312
#103=-0.04000
M98 P1
#101=-9.81737
#102=-3.28522
#103=-0.04000
M98 P1
#101=-9.81326
#102=-3.28759
#103=-0.04000
M98 P1
#101=-9.80171
#102=-3.29336
#103=-0.04000
M98 P1
#101=-9.76491
#102=-3.31176
#103=-0.04000
M98 P1
#101=-9.76039
#102=-3.31357
#103=-0.04000
M98 P1
#101=-9.75529
#102=-3.31488
#103=-0.04000
M98 P1
#101=-9.75208
#102=-3.31535
#103=-0.04000
M98 P1
#101=-9.74844
#102=-3.31556
#103=-0.04000
M98 P1
#101=-9.65117
#102=-3.31553
#103=-0.04000
M98 P1
#101=-9.64753
#102=-3.31521
#103=-0.04000
M98 P1
#101=-9.64394
#102=-3.31455
#103=-0.04000
M98 P1
#101=-9.64043
#102=-3.31357
#103=-0.04000
M98 P1
#101=-9.63702
#102=-3.31226
#103=-0.04000
M98 P1
#101=-9.58685
#102=-3.28723
#103=-0.04000
M98 P1
#101=-9.58273
#102=-3.28473
#103=-0.04000
M98 P1
#101=-9.57895
#102=-3.28175
#103=-0.04000
M98 P1
#101=-9.57556
#102=-3.27833
#103=-0.04000
M98 P1
#101=-9.57239
#102=-3.27418
#103=-0.04000
M98 P1
#101=-9.57034
#102=-3.27073
#103=-0.04000
M98 P1
#101=-9.56851
#102=-3.26672
#103=-0.04000
M98 P1
#101=-9.56713
#102=-3.26252
#103=-0.04000
M98 P1
#101=-9.56630
#102=-3.25860
#103=-0.04000
M98 P1
#101=-9.56587
#102=-3.25460
#103=-0.04000
M98 P1
#101=-9.56586
#102=-3.25019
#103=-0.04000
M98 P1
#101=-9.56636
#102=-3.24580
#103=-0.04000
M98 P1
#101=-9.56734
#102=-3.24150
#103=-0.04000
M98 P1
#101=-9.56879
#102=-3.23733
#103=-0.04000
M98 P1
#101=-9.57071
#102=-3.23335
#103=-0.04000
M98 P1
#101=-9.57282
#102=-3.22994
#103=-0.04000
M98 P1
#101=-9.57554
#102=-3.22646
#103=-0.04000
M98 P1
#101=-9.57833
#102=-3.22358
#103=-0.04000
M98 P1
#101=-9.58173
#102=-3.22075
#103=-0.04000
M98 P1
#101=-9.58541
#102=-3.21833
#103=-0.04000
M98 P1
#101=-9.58935
#102=-3.21633
#103=-0.04000
M98 P1
#101=-9.59234
#102=-3.21516
#103=-0.04000
M98 P1
#101=-9.59542
#102=-3.21424
#103=-0.04000
M98 P1
#101=-9.59896
#102=-3.21350
#103=-0.04000
M98 P1
#101=-9.60215
#102=-3.21313
#103=-0.04000
M98 P1
#101=-9.60576
#102=-3.21301
#103=-0.04000
M98 P1
#101=-9.60896
#102=-3.21319
#103=-0.04000
M98 P1
#101=-9.61254
#102=-3.21371
#103=-0.04000
M98 P1
#101=-9.61567
#102=-3.21443
#103=-0.04000
M98 P1
#101=-9.61910
#102=-3.21556
#103=-0.04000
M98 P1
#101=-9.62242
#102=-3.21699
#103=-0.04000
M98 P1
#101=-9.66209
#102=-3.23682
#103=-0.04000
M98 P1
#101=-9.73874
#102=-3.23682
#103=-0.04000
M98 P1
#101=-9.77233
#102=-3.22002
#103=-0.04000
M98 P1
#101=-9.78710
#102=-3.20525
#103=-0.04000
M98 P1
#101=-9.80171
#102=-3.17603
#103=-0.04000
M98 P1
#101=-9.80390
#102=-3.17166
#103=-0.04000
M98 P1
#101=-9.80390
#102=-3.04739
#103=-0.04000
M98 P1
#101=-9.80171
#102=-3.04301
#103=-0.04000
M98 P1
#101=-9.78710
#102=-3.01380
#103=-0.04000
M98 P1
#101=-9.77233
#102=-2.99902
#103=-0.04000
M98 P1
#101=-9.73874
#102=-2.98223
#103=-0.04000
M98 P1
#101=-9.66209
#102=-2.98223
#103=-0.04000
M98 P1
#101=-9.62242
#102=-3.00206
#103=-0.04000
M98 P1
#101=-9.61948
#102=-3.00334
#103=-0.04000
M98 P1
#101=-9.61644
#102=-3.00439
#103=-0.04000
M98 P1
#101=-9.61333
#102=-3.00518
#103=-0.04000
M98 P1
#101=-9.61016
#102=-3.00572
#103=-0.04000
M98 P1
#101=-9.60696
#102=-3.00599
#103=-0.04000
M98 P1
#101=-9.60335
#102=-3.00599
#103=-0.04000
M98 P1
#101=-9.60015
#102=-3.00571
#103=-0.04000
M98 P1
#101=-9.59698
#102=-3.00517
#103=-0.04000
M98 P1
#101=-9.59387
#102=-3.00438
#103=-0.04000
M98 P1
#101=-9.59083
#102=-3.00333
#103=-0.04000
M98 P1
#101=-9.58826
#102=-3.00222
#103=-0.04000
M98 P1
#101=-9.58576
#102=-3.00092
#103=-0.04000
M98 P1
#101=-9.58140
#102=-2.99805
#103=-0.04000
M98 P1
#101=-9.57746
#102=-2.99463
#103=-0.04000
M98 P1
#101=-9.57554
#102=-2.99259
#103=-0.04000
M98 P1
#101=-9.57377
#102=-2.99040
#103=-0.04000
M98 P1
#101=-9.57215
#102=-2.98810
#103=-0.04000
M98 P1
#101=-9.57071
#102=-2.98569
#103=-0.04000
M98 P1
#101=-9.56849
#102=-2.98097
#103=-0.04000
M98 P1
#101=-9.56708
#102=-2.97649
#103=-0.04000
M98 P1
#101=-9.56692
#102=-2.97600
#103=-0.04000
M98 P1
#101=-9.56603
#102=-2.97086
#103=-0.04000
M98 P1
#101=-9.56582
#102=-2.96564
#103=-0.04000
M98 P1
G04 P0 ( dwell for no time -- G64 should not smooth over this point )
G00 Z0.08000 ( retract )

G00 X-10.01818 Y-3.01429 ( rapid move to begin. )
G01 F180.00000
( Mill infeed pass 1/1 )
#101=-10.01818
#102=-3.01429
#103=-0.04000
M98 P1
G04 P0 ( dwell for no time -- G64 should not smooth over this point )
G01 F360.00000
#101=-10.01819
#102=-3.27699
#103=-0.04000
M98 P1
#101=-10.01835
#102=-3.27980
#103=-0.04000
M98 P1
#101=-10.01871
#102=-3.28259
#103=-0.04000
M98 P1
#101=-10.01936
#102=-3.28573
#103=-0.04000
M98 P1
#101=-10.02014
#102=-3.28843
#103=-0.04000
M98 P1
#101=-10.02110
#102=-3.29107
#103=-0.04000
M98 P1
#101=-10.02226
#102=-3.29363
#103=-0.04000
M98 P1
#101=-10.02380
#102=-3.29645
#103=-0.04000
M98 P1
#101=-10.02533
#102=-3.29881
#103=-0.04000
M98 P1
#101=-10.02780
#102=-3.30197
#103=-0.04000
M98 P1
#101=-10.03087
#102=-3.30514
#103=-0.04000
M98 P1
#101=-10.03428
#102=-3.30795
#103=-0.04000
M98 P1
#101=-10.03798
#102=-3.31035
#103=-0.04000
M98 P1
#101=-10.04157
#102=-3.31217
#103=-0.04000
M98 P1
#101=-10.04569
#102=-3.31373
#103=-0.04000
M98 P1
#101=-10.04997
#102=-3.31482
#103=-0.04000
M98 P1
#101=-10.05434
#102=-3.31543
#103=-0.04000
M98 P1
#101=-10.05796
#102=-3.31556
#103=-0.04000
M98 P1
#101=-10.06116
#102=-3.31539
#103=-0.04000
M98 P1
#101=-10.06474
#102=-3.31490
#103=-0.04000
M98 P1
#101=-10.06826
#102=-3.31408
#103=-0.04000
M98 P1
#101=-10.07169
#102=-3.31293
#103=-0.04000
M98 P1
#101=-10.07464
#102=-3.31166
#103=-0.04000
M98 P1
#101=-10.07782
#102=-3.30994
#103=-0.04000
M98 P1
#101=-10.08075
#102=-3.30800
#103=-0.04000
M98 P1
#101=-10.08866
#102=-3.31193
#103=-0.04000
M98 P1
#101=-10.09281
#102=-3.31357
#103=-0.04000
M98 P1
#101=-10.09791
#102=-3.31488
#103=-0.04000
M98 P1
#101=-10.10315
#102=-3.31551
#103=-0.04000
M98 P1
#101=-10.18546
#102=-3.31554
#103=-0.04000
M98 P1
#101=-10.22422
#102=-3.31556
#103=-0.04000
M98 P1
#101=-10.22706
#102=-3.31546
#103=-0.04000
M98 P1
#101=-10.23108
#102=-3.31496
#103=-0.04000
M98 P1
#101=-10.23464
#102=-3.31415
#103=-0.04000
M98 P1
#101=-10.23811
#102=-3.31303
#103=-0.04000
M98 P1
#101=-10.24146
#102=-3.31158
#103=-0.04000
M98 P1
#101=-10.29052
#102=-3.28704
#103=-0.04000
M98 P1
#101=-10.29328
#102=-3.28540
#103=-0.04000
M98 P1
#101=-10.29559
#102=-3.28378
#103=-0.04000
M98 P1
#101=-10.29807
#102=-3.28174
#103=-0.04000
M98 P1
#101=-10.30038
#102=-3.27950
#103=-0.04000
M98 P1
#101=-10.30372
#102=-3.27548
#103=-0.04000
M98 P1
#101=-10.30650
#102=-3.27106
#103=-0.04000
M98 P1
#101=-10.33139
#102=-3.22127
#103=-0.04000
M98 P1
#101=-10.33303
#102=-3.21712
#103=-0.04000
M98 P1
#101=-10.33410
#102=-3.21321
#103=-0.04000
M98 P1
#101=-10.33477
#102=-3.20921
#103=-0.04000
M98 P1
#101=-10.33502
#102=-3.20517
#103=-0.04000
M98 P1
#101=-10.33501
#102=-3.15633
#103=-0.04000
M98 P1
#101=-10.33461
#102=-3.15148
#103=-0.04000
M98 P1
#101=-10.33372
#102=-3.14711
#103=-0.04000
M98 P1
#101=-10.33249
#102=-3.14325
#103=-0.04000
M98 P1
#101=-10.33086
#102=-3.13953
#103=-0.04000
M98 P1
#101=-10.30687
#102=-3.09156
#103=-0.04000
M98 P1
#101=-10.30507
#102=-3.08842
#103=-0.04000
M98 P1
#101=-10.30275
#102=-3.08514
#103=-0.04000
M98 P1
#101=-10.30010
#102=-3.08211
#103=-0.04000
M98 P1
#101=-10.29716
#102=-3.07937
#103=-0.04000
M98 P1
#101=-10.29395
#102=-3.07695
#103=-0.04000
M98 P1
#101=-10.29052
#102=-3.07486
#103=-0.04000
M98 P1
#101=-10.24110
#102=-3.05014
#103=-0.04000
M98 P1
#101=-10.23697
#102=-3.04846
#103=-0.04000
M98 P1
#101=-10.23228
#102=-3.04718
#103=-0.04000
M98 P1
#101=-10.22867
#102=-3.04660
#103=-0.04000
M98 P1
#101=-10.22463
#102=-3.04635
#103=-0.04000
M98 P1
#101=-10.18546
#102=-3.04634
#103=-0.04000
M98 P1
#101=-10.11447
#102=-3.04634
#103=-0.04000
M98 P1
#101=-10.09692
#102=-3.03757
#103=-0.04000
M98 P1
#101=-10.09692
#102=-3.02358
#103=-0.04000
M98 P1
#101=-10.11071
#102=-2.99601
#103=-0.04000
M98 P1
#101=-10.13828
#102=-2.98223
#103=-0.04000
M98 P1
#101=-10.18546
#102=-2.98223
#103=-0.04000
M98 P1
#101=-10.21493
#102=-2.98223
#103=-0.04000
M98 P1
#101=-10.25459
#102=-3.00206
#103=-0.04000
M98 P1
#101=-10.25754
#102=-3.00334
#103=-0.04000
M98 P1
#101=-10.26057
#102=-3.00439
#103=-0.04000
M98 P1
#101=-10.26369
#102=-3.00518
#103=-0.04000
M98 P1
#101=-10.26685
#102=-3.00572
#103=-0.04000
M98 P1
#101=-10.27005
#102=-3.00599
#103=-0.04000
M98 P1
#101=-10.27326
#102=-3.00601
#103=-0.04000
M98 P1
#101=-10.27647
#102=-3.00576
#103=-0.04000
M98 P1
#101=-10.27964
#102=-3.00526
#103=-0.04000
M98 P1
#101=-10.28276
#102=-3.00449
#103=-0.04000
M98 P1
#101=-10.28580
#102=-3.00348
#103=-0.04000
M98 P1
#101=-10.29019
#102=-3.00150
#103=-0.04000
M98 P1
#101=-10.29398
#102=-2.99922
#103=-0.04000
M98 P1
#101=-10.29748
#102=-2.99654
#103=-0.04000
M98 P1
#101=-10.30067
#102=-2.99348
#103=-0.04000
M98 P1
#101=-10.30349
#102=-2.99008
#103=-0.04000
M98 P1
#101=-10.30591
#102=-2.98639
#103=-0.04000
M98 P1
#101=-10.30791
#102=-2.98245
#103=-0.04000
M98 P1
#101=-10.30945
#102=-2.97832
#103=-0.04000
M98 P1
#101=-10.30989
#102=-2.97649
#103=-0.04000
M98 P1
#101=-10.31059
#102=-2.97364
#103=-0.04000
M98 P1
#101=-10.31112
#102=-2.96926
#103=-0.04000
M98 P1
#101=-10.31117
#102=-2.96484
#103=-0.04000
M98 P1
#101=-10.31072
#102=-2.96045
#103=-0.04000
M98 P1
#101=-10.30978
#102=-2.95614
#103=-0.04000
M98 P1
#101=-10.30836
#102=-2.95195
#103=-0.04000
M98 P1
#101=-10.30648
#102=-2.94796
#103=-0.04000
M98 P1
#101=-10.30417
#102=-2.94420
#103=-0.04000
M98 P1
#101=-10.30118
#102=-2.94042
#103=-0.04000
M98 P1
#101=-10.29776
#102=-2.93703
#103=-0.04000
M98 P1
#101=-10.29395
#102=-2.93409
#103=-0.04000
M98 P1
#101=-10.29016
#102=-2.93182
#103=-0.04000
M98 P1
#101=-10.23999
#102=-2.90678
#103=-0.04000
M98 P1
#101=-10.23658
#102=-2.90548
#103=-0.04000
M98 P1
#101=-10.23307
#102=-2.90449
#103=-0.04000
M98 P1
#101=-10.22948
#102=-2.90384
#103=-0.04000
M98 P1
#101=-10.22584
#102=-2.90352
#103=-0.04000
M98 P1
#101=-10.18546
#102=-2.90351
#103=-0.04000
M98 P1
#101=-10.12858
#102=-2.90349
#103=-0.04000
M98 P1
#101=-10.12493
#102=-2.90369
#103=-0.04000
M98 P1
#101=-10.12172
#102=-2.90416
#103=-0.04000
M98 P1
#101=-10.11701
#102=-2.90535
#103=-0.04000
M98 P1
#101=-10.11211
#102=-2.90729
#103=-0.04000
M98 P1
#101=-10.06340
#102=-2.93163
#103=-0.04000
M98 P1
#101=-10.05892
#102=-2.93432
#103=-0.04000
M98 P1
#101=-10.05513
#102=-2.93731
#103=-0.04000
M98 P1
#101=-10.05174
#102=-2.94074
#103=-0.04000
M98 P1
#101=-10.04879
#102=-2.94455
#103=-0.04000
M98 P1
#101=-10.04652
#102=-2.94834
#103=-0.04000
M98 P1
#101=-10.03246
#102=-2.97649
#103=-0.04000
M98 P1
#101=-10.02164
#102=-2.99814
#103=-0.04000
M98 P1
#101=-10.02044
#102=-3.00115
#103=-0.04000
M98 P1
#101=-10.01948
#102=-3.00426
#103=-0.04000
M98 P1
#101=-10.01879
#102=-3.00742
#103=-0.04000
M98 P1
#101=-10.01835
#102=-3.01064
#103=-0.04000
M98 P1
#101=-10.01818
#102=-3.01429
#103=-0.04000
M98 P1
G04 P0 ( dwell for no time -- G64 should not smooth over this point )
G00 Z0.08000 ( retract )

G00 X-10.09692 Y-3.22805 ( rapid move to begin. )
G01 F180.00000
( Mill infeed pass 1/1 )
#101=-10.09692
#102=-3.22805
#103=-0.04000
M98 P1
G04 P0 ( dwell for no time -- G64 should not smooth over this point )
G01 F360.00000
#101=-10.09692
#102=-3.12421
#103=-0.04000
M98 P1
#101=-10.10072
#102=-3.12483
#103=-0.04000
M98 P1
#101=-10.10477
#102=-3.12508
#103=-0.04000
M98 P1
#101=-10.18546
#102=-3.12508
#103=-0.04000
M98 P1
#101=-10.21493
#102=-3.12508
#103=-0.04000
M98 P1
#101=-10.24250
#102=-3.13887
#103=-0.04000
M98 P1
#101=-10.25628
#102=-3.16644
#103=-0.04000
M98 P1
#101=-10.25628
#102=-3.19547
#103=-0.04000
M98 P1
#101=-10.24250
#102=-3.22303
#103=-0.04000
M98 P1
#101=-10.21493
#102=-3.23682
#103=-0.04000
M98 P1
#101=-10.18546
#102=-3.23682
#103=-0.04000
M98 P1
#101=-10.11447
#102=-3.23682
#103=-0.04000
M98 P1
#101=-10.09692
#102=-3.22805
#103=-0.04000
M98 P1
G04 P0 ( dwell for no time -- G64 should not smooth over this point )
G00 Z0.08000 ( retract )

G00 X-10.44676 Y-3.18095 ( rapid move to begin. )
G01 F180.00000
( Mill infeed pass 1/1 )
#101=-10.44676
#102=-3.18095
#103=-0.04000
M98 P1
G04 P0 ( dwell for no time -- G64 should not smooth over this point )
G01 F360.00000
#101=-10.44676
#102=-3.10871
#103=-0.04000
M98 P1
#101=-10.44696
#102=-3.10547
#103=-0.04000
M98 P1
#101=-10.44736
#102=-3.10266
#103=-0.04000
M98 P1
#101=-10.44805
#102=-3.09949
#103=-0.04000
M98 P1
#101=-10.44888
#102=-3.09678
#103=-0.04000
M98 P1
#101=-10.45073
#102=-3.09228
#103=-0.04000
M98 P1
#101=-10.47472
#102=-3.04430
#103=-0.04000
M98 P1
#101=-10.47625
#102=-3.04152
#103=-0.04000
M98 P1
#101=-10.47777
#102=-3.03921
#103=-0.04000
M98 P1
#101=-10.47969
#102=-3.03669
#103=-0.04000
M98 P1
#101=-10.48182
#102=-3.03435
#103=-0.04000
M98 P1
#101=-10.50649
#102=-3.00969
#103=-0.04000
M98 P1
#101=-10.51052
#102=-3.00630
#103=-0.04000
M98 P1
#101=-10.51492
#102=-3.00352
#103=-0.04000
M98 P1
#101=-10.50428
#102=-2.99277
#103=-0.04000
M98 P1
#101=-10.50181
#102=-2.98969
#103=-0.04000
M98 P1
#101=-10.49966
#102=-2.98636
#103=-0.04000
M98 P1
#101=-10.49471
#102=-2.97649
#103=-0.04000
M98 P1
#101=-10.47454
#102=-2.93629
#103=-0.04000
M98 P1
#101=-10.47324
#102=-2.93332
#103=-0.04000
M98 P1
#101=-10.47219
#102=-2.93025
#103=-0.04000
M98 P1
#101=-10.47103
#102=-2.92511
#103=-0.04000
M98 P1
#101=-10.47058
#102=-2.92026
#103=-0.04000
M98 P1
#101=-10.47056
#102=-2.87143
#103=-0.04000
M98 P1
#101=-10.47067
#102=-2.86859
#103=-0.04000
M98 P1
#101=-10.47097
#102=-2.86577
#103=-0.04000
M98 P1
#101=-10.47148
#102=-2.86298
#103=-0.04000
M98 P1
#101=-10.47231
#102=-2.85984
#103=-0.04000
M98 P1
#101=-10.47339
#102=-2.85678
#103=-0.04000
M98 P1
#101=-10.47454
#102=-2.85418
#103=-0.04000
M98 P1
#101=-10.49889
#102=-2.80550
#103=-0.04000
M98 P1
#101=-10.50048
#102=-2.80276
#103=-0.04000
M98 P1
#101=-10.50204
#102=-2.80047
#103=-0.04000
M98 P1
#101=-10.50563
#102=-2.79625
#103=-0.04000
M98 P1
#101=-10.53028
#102=-2.77161
#103=-0.04000
M98 P1
#101=-10.53296
#102=-2.76926
#103=-0.04000
M98 P1
#101=-10.53584
#102=-2.76716
#103=-0.04000
M98 P1
#101=-10.53995
#102=-2.76479
#103=-0.04000
M98 P1
#101=-10.56920
#102=-2.75016
#103=-0.04000
M98 P1
#101=-10.58757
#102=-2.74098
#103=-0.04000
M98 P1
#101=-10.59166
#102=-2.73921
#103=-0.04000
M98 P1
#101=-10.59475
#102=-2.73822
#103=-0.04000
M98 P1
#101=-10.59791
#102=-2.73750
#103=-0.04000
M98 P1
#101=-10.60112
#102=-2.73703
#103=-0.04000
M98 P1
#101=-10.60477
#102=-2.73682
#103=-0.04000
M98 P1
#101=-10.77184
#102=-2.73682
#103=-0.04000
M98 P1
#101=-10.77625
#102=-2.73707
#103=-0.04000
M98 P1
#101=-10.77903
#102=-2.73748
#103=-0.04000
M98 P1
#101=-10.78446
#102=-2.73890
#103=-0.04000
M98 P1
#101=-10.78964
#102=-2.74107
#103=-0.04000
M98 P1
#101=-10.79210
#102=-2.74243
#103=-0.04000
M98 P1
#101=-10.79639
#102=-2.74541
#103=-0.04000
M98 P1
#101=-10.80024
#102=-2.74892
#103=-0.04000
M98 P1
#101=-10.80211
#102=-2.75102
#103=-0.04000
M98 P1
#101=-10.80383
#102=-2.75324
#103=-0.04000
M98 P1
#101=-10.80658
#102=-2.75767
#103=-0.04000
M98 P1
#101=-10.80782
#102=-2.76020
#103=-0.04000
M98 P1
#101=-10.80887
#102=-2.76281
#103=-0.04000
M98 P1
#101=-10.80994
#102=-2.76626
#103=-0.04000
M98 P1
#101=-10.81062
#102=-2.76940
#103=-0.04000
M98 P1
#101=-10.81108
#102=-2.77298
#103=-0.04000
M98 P1
#101=-10.81121
#102=-2.77619
#103=-0.04000
M98 P1
#101=-10.81121
#102=-2.97649
#103=-0.04000
M98 P1
#101=-10.81120
#102=-3.27699
#103=-0.04000
M98 P1
#101=-10.81092
#102=-3.28100
#103=-0.04000
M98 P1
#101=-10.81031
#102=-3.28456
#103=-0.04000
M98 P1
#101=-10.80926
#102=-3.28843
#103=-0.04000
M98 P1
#101=-10.80782
#102=-3.29218
#103=-0.04000
M98 P1
#101=-10.80620
#102=-3.29541
#103=-0.04000
M98 P1
#101=-10.80406
#102=-3.29881
#103=-0.04000
M98 P1
#101=-10.80159
#102=-3.30197
#103=-0.04000
M98 P1
#101=-10.79881
#102=-3.30487
#103=-0.04000
M98 P1
#101=-10.79639
#102=-3.30697
#103=-0.04000
M98 P1
#101=-10.79346
#102=-3.30909
#103=-0.04000
M98 P1
#101=-10.79035
#102=-3.31093
#103=-0.04000
M98 P1
#101=-10.78709
#102=-3.31249
#103=-0.04000
M98 P1
#101=-10.78370
#102=-3.31373
#103=-0.04000
M98 P1
#101=-10.78021
#102=-3.31466
#103=-0.04000
M98 P1
#101=-10.77705
#102=-3.31521
#103=-0.04000
M98 P1
#101=-10.77345
#102=-3.31553
#103=-0.04000
M98 P1
#101=-10.58096
#102=-3.31556
#103=-0.04000
M98 P1
#101=-10.57812
#102=-3.31543
#103=-0.04000
M98 P1
#101=-10.57530
#102=-3.31509
#103=-0.04000
M98 P1
#101=-10.57252
#102=-3.31455
#103=-0.04000
M98 P1
#101=-10.56939
#102=-3.31369
#103=-0.04000
M98 P1
#101=-10.56920
#102=-3.31363
#103=-0.04000
M98 P1
#101=-10.56672
#102=-3.31273
#103=-0.04000
M98 P1
#101=-10.56412
#102=-3.31158
#103=-0.04000
M98 P1
#101=-10.51543
#102=-3.28723
#103=-0.04000
M98 P1
#101=-10.51269
#102=-3.28565
#103=-0.04000
M98 P1
#101=-10.51041
#102=-3.28409
#103=-0.04000
M98 P1
#101=-10.50793
#102=-3.28211
#103=-0.04000
M98 P1
#101=-10.50591
#102=-3.28022
#103=-0.04000
M98 P1
#101=-10.48154
#102=-3.25584
#103=-0.04000
M98 P1
#101=-10.47919
#102=-3.25317
#103=-0.04000
M98 P1
#101=-10.47710
#102=-3.25029
#103=-0.04000
M98 P1
#101=-10.47472
#102=-3.24618
#103=-0.04000
M98 P1
#101=-10.45091
#102=-3.19856
#103=-0.04000
M98 P1
#101=-10.44915
#102=-3.19446
#103=-0.04000
M98 P1
#101=-10.44805
#102=-3.19098
#103=-0.04000
M98 P1
#101=-10.44736
#102=-3.18781
#103=-0.04000
M98 P1
#101=-10.44693
#102=-3.18460
#103=-0.04000
M98 P1
#101=-10.44676
#102=-3.18095
#103=-0.04000
M98 P1
G04 P0 ( dwell for no time -- G64 should not smooth over this point )
G00 Z0.08000 ( retract )

G00 X-10.52550 Y-3.17166 ( rapid move to begin. )
G01 F180.00000
( Mill infeed pass 1/1 )
#101=-10.52550
#102=-3.17166
#103=-0.04000
M98 P1
G04 P0 ( dwell for no time -- G64 should not smooth over this point )
G01 F360.00000
#101=-10.52550
#102=-3.11882
#103=-0.04000
M98 P1
#101=-10.54229
#102=-3.08522
#103=-0.04000
M98 P1
#101=-10.55501
#102=-3.07251
#103=-0.04000
M98 P1
#101=-10.56920
#102=-3.06777
#103=-0.04000
M98 P1
#101=-10.61156
#102=-3.05366
#103=-0.04000
M98 P1
#101=-10.73247
#102=-3.05366
#103=-0.04000
M98 P1
#101=-10.73247
#102=-3.23682
#103=-0.04000
M98 P1
#101=-10.59066
#102=-3.23682
#103=-0.04000
M98 P1
#101=-10.56920
#102=-3.22609
#103=-0.04000
M98 P1
#101=-10.55707
#102=-3.22002
#103=-0.04000
M98 P1
#101=-10.54229
#102=-3.20525
#103=-0.04000
M98 P1
#101=-10.52550
#102=-3.17166
#103=-0.04000
M98 P1
G04 P0 ( dwell for no time -- G64 should not smooth over this point )
G00 Z0.08000 ( retract )

G00 X-10.54931 Y-2.90975 ( rapid move to begin. )
G01 F180.00000
( Mill infeed pass 1/1 )
#101=-10.54931
#102=-2.90975
#103=-0.04000
M98 P1
G04 P0 ( dwell for no time -- G64 should not smooth over this point )
G01 F360.00000
#101=-10.54931
#102=-2.88072
#103=-0.04000
M98 P1
#101=-10.56610
#102=-2.84713
#103=-0.04000
M98 P1
#101=-10.56920
#102=-2.84403
#103=-0.04000
M98 P1
#101=-10.58088
#102=-2.83236
#103=-0.04000
M98 P1
#101=-10.61447
#102=-2.81556
#103=-0.04000
M98 P1
#101=-10.73247
#102=-2.81556
#103=-0.04000
M98 P1
#101=-10.73247
#102=-2.97491
#103=-0.04000
M98 P1
#101=-10.61447
#102=-2.97491
#103=-0.04000
M98 P1
#101=-10.58088
#102=-2.95812
#103=-0.04000
M98 P1
#101=-10.56920
#102=-2.94645
#103=-0.04000
M98 P1
#101=-10.56610
#102=-2.94334
#103=-0.04000
M98 P1
#101=-10.54931
#102=-2.90975
#103=-0.04000
M98 P1
G04 P0 ( dwell for no time -- G64 should not smooth over this point )
G00 Z0.08000 ( retract )

G00 X-10.84311 Y-3.35020 ( rapid move to begin. )
G01 F180.00000
( Mill infeed pass 1/1 )
#101=-10.84311
#102=-3.35020
#103=-0.04000
M98 P1
G04 P0 ( dwell for no time -- G64 should not smooth over this point )
G01 F360.00000
#101=-10.84331
#102=-3.35140
#103=-0.04000
M98 P1
#101=-10.84361
#102=-3.35216
#103=-0.04000
M98 P1
#101=-10.84455
#102=-3.35348
#103=-0.04000
M98 P1
#101=-10.84587
#102=-3.35442
#103=-0.04000
M98 P1
#101=-10.84663
#102=-3.35472
#103=-0.04000
M98 P1
#101=-10.84783
#102=-3.35492
#103=-0.04000
M98 P1
#101=-10.84944
#102=-3.35472
#103=-0.04000
M98 P1
#101=-10.85019
#102=-3.35442
#103=-0.04000
M98 P1
#101=-10.85121
#102=-3.35376
#103=-0.04000
M98 P1
#101=-10.89803
#102=-3.30696
#103=-0.04000
M98 P1
#101=-10.94485
#102=-3.35376
#103=-0.04000
M98 P1
#101=-10.94587
#102=-3.35442
#103=-0.04000
M98 P1
#101=-10.94663
#102=-3.35472
#103=-0.04000
M98 P1
#101=-10.94823
#102=-3.35492
#103=-0.04000
M98 P1
#101=-10.94944
#102=-3.35472
#103=-0.04000
M98 P1
#101=-10.95019
#102=-3.35442
#103=-0.04000
M98 P1
#101=-10.95151
#102=-3.35348
#103=-0.04000
M98 P1
#101=-10.95245
#102=-3.35216
#103=-0.04000
M98 P1
#101=-10.95275
#102=-3.35140
#103=-0.04000
M98 P1
#101=-10.95295
#102=-3.35020
#103=-0.04000
M98 P1
#101=-10.95275
#102=-3.34859
#103=-0.04000
M98 P1
#101=-10.95245
#102=-3.34784
#103=-0.04000
M98 P1
#101=-10.95179
#102=-3.34682
#103=-0.04000
M98 P1
#101=-10.90499
#102=-3.30000
#103=-0.04000
M98 P1
#101=-10.95179
#102=-3.25318
#103=-0.04000
M98 P1
#101=-10.95245
#102=-3.25216
#103=-0.04000
M98 P1
#101=-10.95275
#102=-3.25140
#103=-0.04000
M98 P1
#101=-10.95295
#102=-3.24980
#103=-0.04000
M98 P1
#101=-10.95275
#102=-3.24859
#103=-0.04000
M98 P1
#101=-10.95245
#102=-3.24784
#103=-0.04000
M98 P1
#101=-10.95151
#102=-3.24652
#103=-0.04000
M98 P1
#101=-10.95019
#102=-3.24558
#103=-0.04000
M98 P1
#101=-10.94944
#102=-3.24528
#103=-0.04000
M98 P1
#101=-10.94823
#102=-3.24508
#103=-0.04000
M98 P1
#101=-10.94663
#102=-3.24528
#103=-0.04000
M98 P1
#101=-10.94587
#102=-3.24558
#103=-0.04000
M98 P1
#101=-10.94485
#102=-3.24624
#103=-0.04000
M98 P1
#101=-10.89803
#102=-3.29304
#103=-0.04000
M98 P1
#101=-10.85121
#102=-3.24624
#103=-0.04000
M98 P1
#101=-10.85019
#102=-3.24558
#103=-0.04000
M98 P1
#101=-10.84944
#102=-3.24528
#103=-0.04000
M98 P1
#101=-10.84783
#102=-3.24508
#103=-0.04000
M98 P1
#101=-10.84663
#102=-3.24528
#103=-0.04000
M98 P1
#101=-10.84587
#102=-3.24558
#103=-0.04000
M98 P1
#101=-10.84455
#102=-3.24652
#103=-0.04000
M98 P1
#101=-10.84361
#102=-3.24784
#103=-0.04000
M98 P1
#101=-10.84331
#102=-3.24859
#103=-0.04000
M98 P1
#101=-10.84311
#102=-3.24980
#103=-0.04000
M98 P1
#101=-10.84331
#102=-3.25140
#103=-0.04000
M98 P1
#101=-10.84361
#102=-3.25216
#103=-0.04000
M98 P1
#101=-10.84428
#102=-3.25318
#103=-0.04000
M98 P1
#101=-10.89107
#102=-3.30000
#103=-0.04000
M98 P1
#101=-10.84428
#102=-3.34682
#103=-0.04000
M98 P1
#101=-10.84361
#102=-3.34784
#103=-0.04000
M98 P1
#101=-10.84331
#102=-3.34859
#103=-0.04000
M98 P1
#101=-10.84311
#102=-3.35020
#103=-0.04000
M98 P1

M99

O1 ( G01 with Z-correction subroutine )
    #4 = [ #5211 - #107 ] ( x-tile offset [minus the initial offset] )
    #5 = [ #5212 - #108 ] ( y-tile offset [minus the initial offset] )
    #6 = [ FIX[ [ #101 - -10.95295 + #4 ] / 0.38375 ] ] ( Lower left point X index )
    #7 = [ FIX[ [ #102 - -3.35492 + #5 ] / 0.37842 ] ] ( Lower left point Y index )
    #8 = [ #6 * 6 + [ #7 + 1 ] + 500 ] ( Upper left point parameter number )
    #9 = [ [ #6 + 1 ] *6 + [ #7 + 1 ] + 500 ] ( Upper right point parameter number )
    #10 = [ #6 * 6 + #7 + 500 ] ( Lower left point parameter number )
    #11 = [ [ #6 + 1 ] * 6 + #7 + 500 ] ( Lower right point parameter number )
    #12 = [ [ #102 + #5 - -3.35492 - #7 * 0.37842 ] / 0.37842 ] ( Distance between the point and the left border of the rectangle, normalized to 1 )
    #13 = [ [ #101 + #4 - -10.95295 - #6 * 0.38375 ] / 0.38375 ] ( Distance between the point and the bottom border of the rectangle, normalized to 1 ) 
    #14 = [ ##10 + [ ##8 - ##10 ] * #12 ] ( Linear interpolation of the x-min elements )
    #15 = [ ##11 + [ ##9 - ##11 ] * #12 ] ( Linear interpolation of the x-max elements )
    #16 = [ #14 + [ #15 - #14 ] * #13 ] ( Linear interpolation of previously interpolated points )
    G01 X#101 Y#102 Z[#103 + #16]
M99

O2 ( Y probe subroutine )
    G0 Z0.080 ( Move to probe height )
    X[#101 * 0.38375 + -10.95295] Y[#102 * 0.37842 + -3.35492] ( Move to the current probe point )
    G31 Z-0.1 F2.362205 ( Probe it )
    #[#101 * 6 + #102 + 500] = #2002 ( Save the probe in the correct parameter )
    #102 = [#102 + #103] ( Increment/decrement by 1 the Y counter )
M99

O3 ( X probe subroutine )
    M98 P2 L#104
    #104 = 6
    #103 = [0 - #103]
    #102 = [#102 + #103]
    #101 = [#101 + 1] ( Increment by 1 the X counter )
M99

M9 ( Coolant off. )
M2 ( Program end. )

