( pcb2gcode 3.0.1 )
( Software-independent Gcode )

G94 ( Inches per minute feed rate. )
G20 ( Units == INCHES. )

G90 ( Absolute coordinates. )
G00 S24000 ( RPM spindle speed. )
G64 P0.00040 ( set maximum deviation from commanded toolpath )
G01 F39.37008 ( Feedrate. )


G00 Z0.39370 (Retract to tool change height)
T1
M5      (Spindle stop.)
G04 P1.00000 (Wait for spindle to stop)
(MSG, Change tool bit to mill diameter 0.05709in)
M6      (Tool change.)
M0      (Temporary machine stop.)
M3 ( Spindle on clockwise. )
G04 P1.00000 (Wait for spindle to get up to speed)
G04 P0 ( dwell for no time -- G64 should not smooth over this point )
G00 Z0.05906 ( retract )

G00 X-0.19304 Y0.61269 ( rapid move to begin. )
G01 F19.68504
( Mill infeed pass 1/1 )
G01 Z-0.00354
G04 P0 ( dwell for no time -- G64 should not smooth over this point )
G01 F39.37008
G01 X-0.19304 Y0.61269
G01 X-0.19334 Y0.61269
G04 P0 ( dwell for no time -- G64 should not smooth over this point )
G00 Z0.05906 ( retract )

G00 X-0.26554 Y0.61300 ( rapid move to begin. )
G01 F19.68504
( Mill infeed pass 1/1 )
G01 Z-0.00354
G04 P0 ( dwell for no time -- G64 should not smooth over this point )
G01 F39.37008
G01 X-0.26554 Y0.61300
G01 X-0.26295 Y0.61409
G01 X-0.25982 Y0.61592
G01 X-0.25597 Y0.61870
G01 X-0.25596 Y0.61920
G01 X-0.25597 Y0.61870
G01 X-0.25476 Y0.61779
G01 X-0.24893 Y0.61418
G01 X-0.24728 Y0.61333
G01 X-0.24427 Y0.61269
G01 X-0.24615 Y0.61309
G01 X-0.26519 Y0.61309
G01 X-0.26708 Y0.61269
G04 P0 ( dwell for no time -- G64 should not smooth over this point )
G00 Z0.05906 ( retract )

G00 X-0.24465 Y0.53277 ( rapid move to begin. )
G01 F19.68504
( Mill infeed pass 1/1 )
G01 Z-0.00354
G04 P0 ( dwell for no time -- G64 should not smooth over this point )
G01 F39.37008
G01 X-0.24465 Y0.53277
G01 X-0.24629 Y0.53238
G01 X-0.26519 Y0.53238
G01 X-0.26708 Y0.53278
G01 X-0.26491 Y0.53231
G01 X-0.26119 Y0.53041
G01 X-0.25597 Y0.52677
G01 X-0.25596 Y0.52627
G01 X-0.25597 Y0.52677
G01 X-0.25547 Y0.52716
G01 X-0.25021 Y0.53065
G01 X-0.24725 Y0.53215
G01 X-0.24461 Y0.53278
G04 P0 ( dwell for no time -- G64 should not smooth over this point )
G00 Z0.05906 ( retract )

G00 X-0.18461 Y0.52863 ( rapid move to begin. )
G01 F19.68504
( Mill infeed pass 1/1 )
G01 Z-0.00354
G04 P0 ( dwell for no time -- G64 should not smooth over this point )
G01 F39.37008
G01 X-0.18461 Y0.52863
G01 X-0.18744 Y0.53045
G01 X-0.18993 Y0.53178
G01 X-0.19100 Y0.53227
G01 X-0.19337 Y0.53278
G01 X-0.19152 Y0.53238
G01 X-0.18730 Y0.53238
G01 X-0.18461 Y0.52863
G01 X-0.18281 Y0.52688
G04 P0 ( dwell for no time -- G64 should not smooth over this point )
G00 Z0.05906 ( retract )

G00 X-0.25246 Y0.39063 ( rapid move to begin. )
G01 F19.68504
( Mill infeed pass 1/1 )
G01 Z-0.00354
G04 P0 ( dwell for no time -- G64 should not smooth over this point )
G01 F39.37008
G01 X-0.25246 Y0.39063
G01 X-0.25246 Y0.41959
G01 X-0.25286 Y0.42025
G01 X-0.25225 Y0.41924
G01 X-0.24917 Y0.41741
G01 X-0.24586 Y0.41588
G01 X-0.24131 Y0.41424
G01 X-0.23820 Y0.41337
G01 X-0.23503 Y0.41279
G01 X-0.23077 Y0.41237
G01 X-0.22976 Y0.41276
G01 X-0.23068 Y0.41241
G01 X-0.25246 Y0.39063
G01 X-0.25286 Y0.38966
G04 P0 ( dwell for no time -- G64 should not smooth over this point )
G00 Z0.05906 ( retract )

G00 X-0.33277 Y0.41455 ( rapid move to begin. )
G01 F19.68504
( Mill infeed pass 1/1 )
G01 Z-0.00354
G04 P0 ( dwell for no time -- G64 should not smooth over this point )
G01 F39.37008
G01 X-0.33277 Y0.41455
G01 X-0.33317 Y0.41550
G01 X-0.33317 Y0.42287
G01 X-0.33570 Y0.42176
G01 X-0.33833 Y0.42084
G01 X-0.33913 Y0.42059
G01 X-0.34008 Y0.42073
G01 X-0.33912 Y0.42059
G01 X-0.33688 Y0.41903
G01 X-0.33413 Y0.41669
G01 X-0.33334 Y0.41592
G01 X-0.33317 Y0.41550
G04 P0 ( dwell for no time -- G64 should not smooth over this point )
G00 Z0.05906 ( retract )

G00 X-0.39421 Y0.42568 ( rapid move to begin. )
G01 F19.68504
( Mill infeed pass 1/1 )
G01 Z-0.00354
G04 P0 ( dwell for no time -- G64 should not smooth over this point )
G01 F39.37008
G01 X-0.39421 Y0.42568
G01 X-0.39629 Y0.42634
G01 X-0.39912 Y0.42855
G01 X-0.40334 Y0.43247
G01 X-0.40644 Y0.43621
G01 X-0.40951 Y0.44110
G01 X-0.41117 Y0.44432
G01 X-0.41248 Y0.44770
G01 X-0.41391 Y0.45278
G01 X-0.41449 Y0.45632
G01 X-0.41485 Y0.46092
G01 X-0.41486 Y0.47938
G01 X-0.41472 Y0.48211
G01 X-0.41392 Y0.48774
G01 X-0.41295 Y0.49168
G01 X-0.41184 Y0.49473
G01 X-0.41037 Y0.49794
G01 X-0.40974 Y0.49834
G01 X-0.41037 Y0.49794
G01 X-0.45188 Y0.49797
G01 X-0.45662 Y0.49846
G01 X-0.46006 Y0.49916
G01 X-0.46274 Y0.49990
G01 X-0.48170 Y0.49997
G01 X-0.48599 Y0.50040
G01 X-0.48649 Y0.50089
G01 X-0.48599 Y0.50040
G01 X-0.48584 Y0.49949
G01 X-0.48524 Y0.49270
G01 X-0.48524 Y0.45593
G01 X-0.48584 Y0.44911
G01 X-0.48705 Y0.44402
G01 X-0.48866 Y0.43946
G01 X-0.48979 Y0.43685
G01 X-0.49113 Y0.43435
G01 X-0.49290 Y0.43164
G01 X-0.49581 Y0.42777
G01 X-0.49852 Y0.42482
G01 X-0.49852 Y0.42257
G01 X-0.49892 Y0.42189
G01 X-0.49837 Y0.42283
G01 X-0.49364 Y0.42464
G01 X-0.48935 Y0.42563
G01 X-0.48496 Y0.42606
G01 X-0.39547 Y0.42608
G01 X-0.39491 Y0.42591
G04 P0 ( dwell for no time -- G64 should not smooth over this point )
G00 Z0.05906 ( retract )

G00 X-0.58306 Y0.53149 ( rapid move to begin. )
G01 F19.68504
( Mill infeed pass 1/1 )
G01 Z-0.00354
G04 P0 ( dwell for no time -- G64 should not smooth over this point )
G01 F39.37008
G01 X-0.58306 Y0.53149
G01 X-0.58584 Y0.53275
G01 X-0.59077 Y0.53451
G01 X-0.59387 Y0.53534
G01 X-0.59704 Y0.53588
G01 X-0.60267 Y0.53632
G01 X-0.62356 Y0.53630
G01 X-0.62954 Y0.53571
G01 X-0.63462 Y0.53451
G01 X-0.64140 Y0.53195
G01 X-0.64391 Y0.53065
G01 X-0.64669 Y0.52889
G01 X-0.64891 Y0.53084
G01 X-0.65360 Y0.53449
G01 X-0.66027 Y0.53871
G01 X-0.66735 Y0.54219
G01 X-0.67291 Y0.54430
G01 X-0.67551 Y0.54510
G01 X-0.68127 Y0.54657
G01 X-0.68676 Y0.54748
G01 X-0.68946 Y0.54780
G01 X-0.69501 Y0.54811
G01 X-0.69773 Y0.54809
G01 X-0.70422 Y0.54771
G01 X-0.71093 Y0.54667
G01 X-0.71152 Y0.54613
G01 X-0.71112 Y0.54661
G01 X-0.71112 Y0.59884
G01 X-0.70581 Y0.59795
G01 X-0.70001 Y0.59743
G01 X-0.69421 Y0.59737
G01 X-0.68874 Y0.59774
G01 X-0.68607 Y0.59811
G01 X-0.67816 Y0.59962
G01 X-0.66819 Y0.60293
G01 X-0.65885 Y0.60758
G01 X-0.65319 Y0.61130
G01 X-0.65073 Y0.61315
G01 X-0.64564 Y0.61752
G01 X-0.64099 Y0.62237
G01 X-0.63877 Y0.62503
G01 X-0.63455 Y0.63081
G01 X-0.57232 Y0.63081
G01 X-0.54725 Y0.60574
G01 X-0.54640 Y0.60545
G01 X-0.54725 Y0.60574
G01 X-0.54994 Y0.60533
G01 X-0.55272 Y0.60473
G01 X-0.55544 Y0.60391
G01 X-0.55808 Y0.60286
G01 X-0.56183 Y0.60109
G01 X-0.56601 Y0.59860
G01 X-0.56950 Y0.59583
G01 X-0.57225 Y0.59331
G01 X-0.57419 Y0.59126
G01 X-0.57596 Y0.58906
G01 X-0.57782 Y0.58634
G01 X-0.58019 Y0.58220
G01 X-0.58210 Y0.57770
G01 X-0.58328 Y0.57385
G01 X-0.58427 Y0.56820
G01 X-0.58461 Y0.56470
G01 X-0.58458 Y0.54084
G01 X-0.58417 Y0.53670
G01 X-0.58368 Y0.53393
G01 X-0.58306 Y0.53149
G01 X-0.58239 Y0.53069
G04 P0 ( dwell for no time -- G64 should not smooth over this point )
G00 Z0.05906 ( retract )

G00 X-0.53265 Y0.18297 ( rapid move to begin. )
G01 F19.68504
( Mill infeed pass 1/1 )
G01 Z-0.00354
G04 P0 ( dwell for no time -- G64 should not smooth over this point )
G01 F39.37008
G01 X-0.53265 Y0.18297
G01 X-0.53532 Y0.18634
G01 X-0.53817 Y0.18915
G01 X-0.54133 Y0.19162
G01 X-0.54490 Y0.19378
G01 X-0.54808 Y0.19895
G01 X-0.55121 Y0.20273
G01 X-0.60679 Y0.25835
G01 X-0.60680 Y0.33732
G01 X-0.60702 Y0.34053
G01 X-0.60770 Y0.34483
G01 X-0.60835 Y0.34759
G01 X-0.60922 Y0.35030
G01 X-0.61066 Y0.35365
G01 X-0.61286 Y0.35780
G01 X-0.61487 Y0.36072
G01 X-0.61744 Y0.36383
G01 X-0.66238 Y0.40882
G01 X-0.66304 Y0.40892
G01 X-0.66238 Y0.40882
G01 X-0.65732 Y0.41169
G01 X-0.65239 Y0.41502
G01 X-0.64670 Y0.41969
G01 X-0.64185 Y0.41692
G01 X-0.63818 Y0.41527
G01 X-0.63472 Y0.41417
G01 X-0.62887 Y0.41281
G01 X-0.62371 Y0.41235
G01 X-0.60279 Y0.41231
G01 X-0.60011 Y0.41243
G01 X-0.59586 Y0.41291
G01 X-0.59309 Y0.41346
G01 X-0.59038 Y0.41424
G01 X-0.58583 Y0.41588
G01 X-0.58252 Y0.41741
G01 X-0.57944 Y0.41924
G01 X-0.57883 Y0.42025
G01 X-0.57923 Y0.41959
G01 X-0.57923 Y0.33176
G01 X-0.57887 Y0.32688
G01 X-0.57808 Y0.32264
G01 X-0.57623 Y0.31710
G01 X-0.57458 Y0.31339
G01 X-0.57251 Y0.30991
G01 X-0.56935 Y0.30576
G01 X-0.56741 Y0.30365
G01 X-0.53474 Y0.27098
G01 X-0.53474 Y0.19478
G01 X-0.53463 Y0.19198
G01 X-0.53422 Y0.18880
G01 X-0.53352 Y0.18567
G01 X-0.53266 Y0.18298
G01 X-0.52816 Y0.17454
G01 X-0.52562 Y0.17144
G01 X-0.52274 Y0.16865
G01 X-0.51956 Y0.16622
G01 X-0.51611 Y0.16418
G01 X-0.51320 Y0.16284
G01 X-0.50979 Y0.16167
G01 X-0.50628 Y0.16086
G01 X-0.50270 Y0.16042
G01 X-0.46092 Y0.16033
G01 X-0.45772 Y0.16048
G01 X-0.45455 Y0.16093
G01 X-0.45143 Y0.16167
G01 X-0.44839 Y0.16270
G01 X-0.44546 Y0.16400
G01 X-0.44267 Y0.16557
G01 X-0.44003 Y0.16739
G01 X-0.43728 Y0.16973
G01 X-0.43506 Y0.17203
G01 X-0.43265 Y0.17510
G01 X-0.42856 Y0.18297
G01 X-0.42793 Y0.18386
G01 X-0.42479 Y0.18750
G01 X-0.42096 Y0.19085
G01 X-0.42088 Y0.26098
G01 X-0.41998 Y0.26723
G01 X-0.41874 Y0.27177
G01 X-0.41758 Y0.27468
G01 X-0.41586 Y0.27820
G01 X-0.41477 Y0.27885
G01 X-0.41548 Y0.27845
G01 X-0.42648 Y0.27845
G01 X-0.42688 Y0.27885
G01 X-0.42648 Y0.27845
G01 X-0.42656 Y0.19238
G01 X-0.42715 Y0.18801
G01 X-0.42842 Y0.18338
G01 X-0.43265 Y0.17510
G01 X-0.43330 Y0.17317
G01 X-0.43429 Y0.16887
G01 X-0.43472 Y0.16449
G01 X-0.43474 Y0.06407
G01 X-0.43441 Y0.05967
G01 X-0.43341 Y0.05497
G01 X-0.43177 Y0.05046
G01 X-0.42972 Y0.04655
G01 X-0.42694 Y0.04263
G01 X-0.42393 Y0.03941
G01 X-0.42022 Y0.03637
G01 X-0.41647 Y0.03405
G01 X-0.41245 Y0.03224
G01 X-0.40785 Y0.03086
G01 X-0.40429 Y0.03025
G01 X-0.40070 Y0.03002
G01 X-0.35892 Y0.03008
G01 X-0.35534 Y0.03048
G01 X-0.35143 Y0.03135
G01 X-0.34765 Y0.03268
G01 X-0.34405 Y0.03444
G01 X-0.34035 Y0.03684
G01 X-0.33699 Y0.03969
G01 X-0.33403 Y0.04295
G01 X-0.33150 Y0.04655
G01 X-0.32945 Y0.05046
G01 X-0.32792 Y0.05459
G01 X-0.32687 Y0.05928
G01 X-0.32648 Y0.06367
G01 X-0.32648 Y0.16329
G01 X-0.32659 Y0.16609
G01 X-0.32731 Y0.17084
G01 X-0.32856 Y0.17509
G01 X-0.33265 Y0.18297
G01 X-0.33428 Y0.18512
G01 X-0.33614 Y0.18722
G01 X-0.33817 Y0.18915
G01 X-0.34025 Y0.19085
G01 X-0.34025 Y0.24185
G01 X-0.33474 Y0.24736
G01 X-0.33434 Y0.24833
G01 X-0.33474 Y0.24736
G01 X-0.33474 Y0.19478
G01 X-0.33463 Y0.19198
G01 X-0.33429 Y0.18920
G01 X-0.33362 Y0.18606
G01 X-0.33266 Y0.18298
G01 X-0.32856 Y0.17509
G01 X-0.32535 Y0.17114
G01 X-0.32150 Y0.16764
G01 X-0.31922 Y0.16600
G01 X-0.31682 Y0.16456
G01 X-0.31431 Y0.16331
G01 X-0.31170 Y0.16228
G01 X-0.30902 Y0.16146
G01 X-0.30628 Y0.16086
G01 X-0.30110 Y0.16034
G01 X-0.26092 Y0.16033
G01 X-0.25772 Y0.16048
G01 X-0.25376 Y0.16109
G01 X-0.24990 Y0.16215
G01 X-0.24618 Y0.16365
G01 X-0.24267 Y0.16557
G01 X-0.23972 Y0.16764
G01 X-0.23671 Y0.17028
G01 X-0.23403 Y0.17326
G01 X-0.23192 Y0.17619
G01 X-0.22996 Y0.17968
G01 X-0.22842 Y0.18338
G01 X-0.22731 Y0.18723
G01 X-0.22671 Y0.19078
G01 X-0.22648 Y0.19478
G01 X-0.22648 Y0.29400
G01 X-0.22671 Y0.29760
G01 X-0.22740 Y0.30155
G01 X-0.16389 Y0.36506
G01 X-0.11281 Y0.36506
G01 X-0.10944 Y0.36523
G01 X-0.10436 Y0.36596
G01 X-0.09904 Y0.36749
G01 X-0.09502 Y0.36921
G01 X-0.09023 Y0.37197
G01 X-0.08768 Y0.37387
G01 X-0.08458 Y0.37658
G01 X-0.04125 Y0.41993
G01 X-0.03834 Y0.42334
G01 X-0.03649 Y0.42593
G01 X-0.03435 Y0.42971
G01 X-0.03301 Y0.43260
G01 X-0.03162 Y0.43670
G01 X-0.03083 Y0.43979
G01 X-0.03034 Y0.44293
G01 X-0.03002 Y0.44743
G01 X-0.03006 Y0.72477
G01 X-0.03043 Y0.72844
G01 X-0.03154 Y0.73402
G01 X-0.03277 Y0.73779
G01 X-0.03443 Y0.74139
G01 X-0.03715 Y0.74596
G01 X-0.03934 Y0.74892
G01 X-0.04154 Y0.75134
G01 X-0.04733 Y0.75698
G01 X-0.05050 Y0.75939
G01 X-0.05317 Y0.76113
G01 X-0.05563 Y0.76244
G01 X-0.05921 Y0.76401
G01 X-0.06181 Y0.76490
G01 X-0.06485 Y0.76565
G01 X-0.06951 Y0.76640
G01 X-0.07272 Y0.76663
G01 X-0.31270 Y0.76658
G01 X-0.31634 Y0.76635
G01 X-0.31954 Y0.76581
G01 X-0.32333 Y0.76478
G01 X-0.32373 Y0.76425
G01 X-0.32333 Y0.76478
G01 X-0.32333 Y0.83258
G01 X-0.32344 Y0.83538
G01 X-0.32385 Y0.83856
G01 X-0.32466 Y0.84207
G01 X-0.32599 Y0.84585
G01 X-0.32755 Y0.84910
G01 X-0.32944 Y0.85217
G01 X-0.33191 Y0.85533
G01 X-0.33443 Y0.85791
G01 X-0.33753 Y0.86045
G01 X-0.34055 Y0.86241
G01 X-0.34450 Y0.86437
G01 X-0.34867 Y0.86580
G01 X-0.35298 Y0.86669
G01 X-0.35737 Y0.86703
G01 X-0.48456 Y0.86702
G01 X-0.48816 Y0.86675
G01 X-0.49170 Y0.86610
G01 X-0.49554 Y0.86495
G01 X-0.49886 Y0.86354
G01 X-0.50269 Y0.86136
G01 X-0.50621 Y0.85871
G01 X-0.50936 Y0.85563
G01 X-0.51209 Y0.85217
G01 X-0.51436 Y0.84840
G01 X-0.51613 Y0.84436
G01 X-0.51746 Y0.83974
G01 X-0.51809 Y0.83538
G01 X-0.51821 Y0.83258
G01 X-0.51812 Y0.75144
G01 X-0.51737 Y0.74628
G01 X-0.51664 Y0.74358
G01 X-0.51570 Y0.74093
G01 X-0.51339 Y0.73627
G01 X-0.51040 Y0.73201
G01 X-0.50826 Y0.72962
G01 X-0.50559 Y0.72719
G01 X-0.50302 Y0.72528
G01 X-0.49993 Y0.72342
G01 X-0.49703 Y0.72205
G01 X-0.49364 Y0.72084
G01 X-0.49053 Y0.72006
G01 X-0.48696 Y0.71954
G01 X-0.48376 Y0.71939
G01 X-0.38502 Y0.71939
G01 X-0.38234 Y0.71979
G01 X-0.38683 Y0.71912
G01 X-0.39310 Y0.71618
G01 X-0.39749 Y0.71333
G01 X-0.40065 Y0.71074
G01 X-0.40267 Y0.70881
G01 X-0.40452 Y0.70674
G01 X-0.40704 Y0.70353
G01 X-0.40856 Y0.70120
G01 X-0.41032 Y0.69797
G01 X-0.41236 Y0.69322
G01 X-0.41344 Y0.68970
G01 X-0.41407 Y0.68699
G01 X-0.41453 Y0.68384
G01 X-0.41486 Y0.67921
G01 X-0.41485 Y0.66072
G01 X-0.41439 Y0.65533
G01 X-0.41354 Y0.65103
G01 X-0.41179 Y0.64561
G01 X-0.40951 Y0.64090
G01 X-0.40850 Y0.63922
G01 X-0.40804 Y0.63922
G01 X-0.40853 Y0.63922
G01 X-0.40887 Y0.63867
G01 X-0.41006 Y0.63654
G01 X-0.41125 Y0.63397
G01 X-0.41319 Y0.62854
G01 X-0.41428 Y0.62383
G01 X-0.41485 Y0.61747
G01 X-0.41478 Y0.59704
G01 X-0.41422 Y0.59229
G01 X-0.41275 Y0.58634
G01 X-0.41136 Y0.58256
G01 X-0.40940 Y0.57864
G01 X-0.42218 Y0.57864
G01 X-0.42332 Y0.58131
G01 X-0.42486 Y0.58417
G01 X-0.42523 Y0.58694
G01 X-0.42603 Y0.59081
G01 X-0.42683 Y0.59354
G01 X-0.42801 Y0.59656
G01 X-0.43121 Y0.60255
G01 X-0.43282 Y0.60488
G01 X-0.43489 Y0.60738
G01 X-0.52765 Y0.70026
G01 X-0.53046 Y0.70267
G01 X-0.53426 Y0.70540
G01 X-0.53733 Y0.70713
G01 X-0.54128 Y0.70885
G01 X-0.54438 Y0.70992
G01 X-0.54756 Y0.71069
G01 X-0.55193 Y0.71132
G01 X-0.55479 Y0.71151
G01 X-0.63458 Y0.71152
G01 X-0.63684 Y0.71483
G01 X-0.64007 Y0.71892
G01 X-0.64499 Y0.72417
G01 X-0.64916 Y0.72792
G01 X-0.65295 Y0.73086
G01 X-0.65967 Y0.73521
G01 X-0.66427 Y0.73764
G01 X-0.66866 Y0.73958
G01 X-0.67584 Y0.74207
G01 X-0.68089 Y0.74334
G01 X-0.68600 Y0.74424
G01 X-0.69469 Y0.74495
G01 X-0.69751 Y0.74495
G01 X-0.70391 Y0.74459
G01 X-0.71269 Y0.74315
G01 X-0.72133 Y0.74063
G01 X-0.72881 Y0.73745
G01 X-0.73131 Y0.73616
G01 X-0.73683 Y0.73290
G01 X-0.74328 Y0.72813
G01 X-0.74542 Y0.72629
G01 X-0.74949 Y0.72239
G01 X-0.75383 Y0.71749
G01 X-0.75819 Y0.71148
G01 X-0.76193 Y0.70503
G01 X-0.76420 Y0.70025
G01 X-0.76598 Y0.69568
G01 X-0.76817 Y0.68827
G01 X-0.76955 Y0.68067
G01 X-0.77003 Y0.67586
G01 X-0.77017 Y0.67064
G01 X-0.76972 Y0.66292
G01 X-0.76860 Y0.65599
G01 X-0.78085 Y0.64371
G01 X-0.78293 Y0.64125
G01 X-0.78546 Y0.63773
G01 X-0.78749 Y0.63425
G01 X-0.78910 Y0.63056
G01 X-0.79073 Y0.62525
G01 X-0.79149 Y0.62127
G01 X-0.79178 Y0.61682
G01 X-0.79183 Y0.44086
G01 X-0.79166 Y0.43747
G01 X-0.79110 Y0.43321
G01 X-0.78978 Y0.42830
G01 X-0.78838 Y0.42463
G01 X-0.78736 Y0.42242
G01 X-0.78488 Y0.41823
G01 X-0.78114 Y0.41350
G01 X-0.68750 Y0.31980
G01 X-0.68750 Y0.24123
G01 X-0.68720 Y0.23714
G01 X-0.68617 Y0.23153
G01 X-0.68476 Y0.22703
G01 X-0.68254 Y0.22229
G01 X-0.68041 Y0.21880
G01 X-0.67735 Y0.21490
G01 X-0.63381 Y0.17123
G01 X-0.63451 Y0.16729
G01 X-0.63474 Y0.16329
G01 X-0.63474 Y0.06447
G01 X-0.63455 Y0.06087
G01 X-0.63399 Y0.05731
G01 X-0.63293 Y0.05344
G01 X-0.63143 Y0.04973
G01 X-0.62972 Y0.04655
G01 X-0.62744 Y0.04326
G01 X-0.62479 Y0.04025
G01 X-0.62213 Y0.03782
G01 X-0.61889 Y0.03547
G01 X-0.61503 Y0.03333
G01 X-0.61132 Y0.03183
G01 X-0.60706 Y0.03069
G01 X-0.60310 Y0.03013
G01 X-0.60029 Y0.03002
G01 X-0.56092 Y0.03002
G01 X-0.55693 Y0.03025
G01 X-0.55298 Y0.03095
G01 X-0.54952 Y0.03196
G01 X-0.54618 Y0.03333
G01 X-0.54267 Y0.03525
G01 X-0.53972 Y0.03732
G01 X-0.53671 Y0.03997
G01 X-0.53403 Y0.04295
G01 X-0.53192 Y0.04587
G01 X-0.52962 Y0.05009
G01 X-0.52804 Y0.05421
G01 X-0.52693 Y0.05888
G01 X-0.52648 Y0.06367
G01 X-0.52648 Y0.16409
G01 X-0.52666 Y0.16689
G01 X-0.52707 Y0.16966
G01 X-0.52770 Y0.17240
G01 X-0.52856 Y0.17509

G00 Z0.39370 (Retract to tool change height)
T2
M5      (Spindle stop.)
G04 P1.00000 (Wait for spindle to stop)
(MSG, Change tool bit to mill diameter 0.03346in)
M6      (Tool change.)
M0      (Temporary machine stop.)
M3 ( Spindle on clockwise. )
G04 P1.00000 (Wait for spindle to get up to speed)
G04 P0 ( dwell for no time -- G64 should not smooth over this point )
G00 Z0.05906 ( retract )

G00 X-0.16699 Y0.37687 ( rapid move to begin. )
G01 F19.68504
( Mill infeed pass 1/1 )
G01 Z-0.00354
G04 P0 ( dwell for no time -- G64 should not smooth over this point )
G01 F39.37008
G01 X-0.16699 Y0.37687
G01 X-0.16879 Y0.37687
G01 X-0.24111 Y0.30455
G01 X-0.23961 Y0.30123
G04 P0 ( dwell for no time -- G64 should not smooth over this point )
G00 Z0.05906 ( retract )

G00 X-0.34943 Y0.18279 ( rapid move to begin. )
G01 F19.68504
( Mill infeed pass 1/1 )
G01 Z-0.00354
G04 P0 ( dwell for no time -- G64 should not smooth over this point )
G01 F39.37008
G01 X-0.34943 Y0.18279
G01 X-0.35207 Y0.18412
G01 X-0.35207 Y0.18775
G01 X-0.34008 Y0.25528
G01 X-0.33254 Y0.26040
G01 X-0.32839 Y0.27042
G01 X-0.32293 Y0.27587
G01 X-0.32293 Y0.26816
G01 X-0.32708 Y0.25814
G01 X-0.32293 Y0.26816
G01 X-0.32293 Y0.25267
G01 X-0.32293 Y0.27587
G01 X-0.32253 Y0.27684
G01 X-0.32293 Y0.27587
G01 X-0.33934 Y0.25947
G01 X-0.34008 Y0.25528
G01 X-0.35080 Y0.24801
G01 X-0.35207 Y0.24674
G01 X-0.35207 Y0.24494
G04 P0 ( dwell for no time -- G64 should not smooth over this point )
G00 Z0.05906 ( retract )

G00 X-0.39700 Y0.29026 ( rapid move to begin. )
G01 F19.68504
( Mill infeed pass 1/1 )
G01 Z-0.00354
G04 P0 ( dwell for no time -- G64 should not smooth over this point )
G01 F39.37008
G01 X-0.39700 Y0.29026
G01 X-0.43829 Y0.29026
G01 X-0.43829 Y0.28608
G01 X-0.43734 Y0.28514
G01 X-0.43829 Y0.28608
G01 X-0.43829 Y0.28319
G01 X-0.43829 Y0.29026
G01 X-0.43869 Y0.29066
G01 X-0.43829 Y0.29026
G01 X-0.43411 Y0.29026
G01 X-0.43317 Y0.28931
G01 X-0.40546 Y0.28675
G01 X-0.39700 Y0.29026
G01 X-0.38928 Y0.29026
G01 X-0.38832 Y0.29066
G01 X-0.38928 Y0.29026
G01 X-0.39474 Y0.28480
G01 X-0.40324 Y0.28128
G01 X-0.39474 Y0.28480
G01 X-0.40109 Y0.27845
G01 X-0.40327 Y0.27583
G04 P0 ( dwell for no time -- G64 should not smooth over this point )
G00 Z0.05906 ( retract )

G00 X-0.40915 Y0.18775 ( rapid move to begin. )
G01 F19.68504
( Mill infeed pass 1/1 )
G01 Z-0.00354
G04 P0 ( dwell for no time -- G64 should not smooth over this point )
G01 F39.37008
G01 X-0.40915 Y0.18775
G01 X-0.40915 Y0.18412
G01 X-0.41179 Y0.18279
G04 P0 ( dwell for no time -- G64 should not smooth over this point )
G00 Z0.05906 ( retract )

G00 X-0.55268 Y0.18437 ( rapid move to begin. )
G01 F19.68504
( Mill infeed pass 1/1 )
G01 Z-0.00354
G04 P0 ( dwell for no time -- G64 should not smooth over this point )
G01 F39.37008
G01 X-0.55268 Y0.18437
G01 X-0.55375 Y0.18476
G01 X-0.55416 Y0.18582
G01 X-0.52293 Y0.27408
G01 X-0.52293 Y0.27587
G01 X-0.52420 Y0.27714
G01 X-0.52293 Y0.27587
G01 X-0.52293 Y0.27408
G01 X-0.61860 Y0.25525
G01 X-0.61860 Y0.25346
G01 X-0.61733 Y0.25219
G01 X-0.61860 Y0.25346
G01 X-0.61860 Y0.25525
G01 X-0.56742 Y0.42460
G01 X-0.56742 Y0.43030
G01 X-0.56969 Y0.43209
G01 X-0.57246 Y0.43484
G01 X-0.57401 Y0.43669
G01 X-0.57579 Y0.43929
G01 X-0.57911 Y0.43485
G01 X-0.58073 Y0.43314
G01 X-0.58225 Y0.43182
G01 X-0.58045 Y0.43342
G01 X-0.57878 Y0.43524
G01 X-0.57875 Y0.43228
G01 X-0.57878 Y0.43524
G01 X-0.57579 Y0.43929
G01 X-0.57579 Y0.44003
G01 X-0.57579 Y0.43929
G01 X-0.57288 Y0.43530
G01 X-0.57282 Y0.43088
G01 X-0.57288 Y0.43530
G01 X-0.56969 Y0.43209
G01 X-0.56742 Y0.43030
G01 X-0.56742 Y0.42460
G01 X-0.67182 Y0.41741
G01 X-0.67621 Y0.41567
G01 X-0.68087 Y0.41427
G01 X-0.68388 Y0.41361
G01 X-0.67961 Y0.40935
G01 X-0.67524 Y0.40827
G04 P0 ( dwell for no time -- G64 should not smooth over this point )
G00 Z0.05906 ( retract )

G00 X-0.65275 Y0.43030 ( rapid move to begin. )
G01 F19.68504
( Mill infeed pass 1/1 )
G01 Z-0.00354
G04 P0 ( dwell for no time -- G64 should not smooth over this point )
G01 F39.37008
G01 X-0.65275 Y0.43030
G01 X-0.65023 Y0.43287
G01 X-0.64745 Y0.43626
G01 X-0.64494 Y0.43341
G01 X-0.64218 Y0.43103
G01 X-0.67182 Y0.41741
G01 X-0.67538 Y0.41596
G01 X-0.67817 Y0.41507
G01 X-0.67411 Y0.41407
G01 X-0.67817 Y0.41507
G01 X-0.68127 Y0.41417
G01 X-0.68388 Y0.41361
G01 X-0.68468 Y0.41386
G01 X-0.68388 Y0.41361
G01 X-0.67418 Y0.40392
G04 P0 ( dwell for no time -- G64 should not smooth over this point )
G00 Z0.05906 ( retract )

G00 X-0.67696 Y0.32596 ( rapid move to begin. )
G01 F19.68504
( Mill infeed pass 1/1 )
G01 Z-0.00354
G04 P0 ( dwell for no time -- G64 should not smooth over this point )
G01 F39.37008
G01 X-0.67696 Y0.32596
G01 X-0.67569 Y0.32469
G01 X-0.67569 Y0.32290
G04 P0 ( dwell for no time -- G64 should not smooth over this point )
G00 Z0.05906 ( retract )

G00 X-0.62327 Y0.17740 ( rapid move to begin. )
G01 F19.68504
( Mill infeed pass 1/1 )
G01 Z-0.00354
G04 P0 ( dwell for no time -- G64 should not smooth over this point )
G01 F39.37008
G01 X-0.62327 Y0.17740
G01 X-0.62011 Y0.17423
G01 X-0.62161 Y0.17092
G04 P0 ( dwell for no time -- G64 should not smooth over this point )
G00 Z0.05906 ( retract )

G00 X-0.50432 Y0.40110 ( rapid move to begin. )
G01 F19.68504
( Mill infeed pass 1/1 )
G01 Z-0.00354
G04 P0 ( dwell for no time -- G64 should not smooth over this point )
G01 F39.37008
G01 X-0.50432 Y0.40110
G01 X-0.50280 Y0.40387
G01 X-0.50113 Y0.40615
G01 X-0.49918 Y0.40820
G01 X-0.49676 Y0.41016
G01 X-0.48989 Y0.41342
G01 X-0.48578 Y0.41418
G01 X-0.35777 Y0.41427
G01 X-0.35535 Y0.41414
G01 X-0.35257 Y0.41367
G01 X-0.34917 Y0.41257
G01 X-0.33239 Y0.40270
G01 X-0.33161 Y0.39837
G01 X-0.33120 Y0.39155
G01 X-0.33120 Y0.36162
G01 X-0.33514 Y0.35211
G01 X-0.33514 Y0.34440
G01 X-0.32136 Y0.35818
G01 X-0.32136 Y0.43030
G01 X-0.32318 Y0.43170
G01 X-0.32499 Y0.43342
G01 X-0.32794 Y0.43672
G01 X-0.32981 Y0.43939
G01 X-0.33409 Y0.43589
G01 X-0.34534 Y0.42889
G01 X-0.34685 Y0.43089
G01 X-0.35125 Y0.43052
G01 X-0.37329 Y0.43056
G01 X-0.37691 Y0.43094
G01 X-0.37927 Y0.43143
G01 X-0.38282 Y0.43253
G01 X-0.38552 Y0.43371
G01 X-0.38282 Y0.43253
G01 X-0.37927 Y0.43143
G01 X-0.37691 Y0.43094
G01 X-0.37329 Y0.43056
G01 X-0.35125 Y0.43052
G01 X-0.34685 Y0.43089
G01 X-0.34534 Y0.42889
G01 X-0.35151 Y0.42503
G01 X-0.35777 Y0.42534
G01 X-0.37472 Y0.42542
G01 X-0.38237 Y0.42619
G01 X-0.37472 Y0.42542
G01 X-0.35777 Y0.42534
G01 X-0.35151 Y0.42503
G01 X-0.34534 Y0.42889
G01 X-0.32662 Y0.40400
G01 X-0.32576 Y0.39925
G01 X-0.32529 Y0.39164
G01 X-0.32529 Y0.36104
G01 X-0.32552 Y0.35991
G01 X-0.32541 Y0.35988
G01 X-0.32552 Y0.35991
G01 X-0.32968 Y0.34986
G01 X-0.33514 Y0.34440
G01 X-0.33554 Y0.34344
G01 X-0.33514 Y0.34440
G01 X-0.33514 Y0.39163
G01 X-0.33527 Y0.39405
G01 X-0.33565 Y0.39645
G01 X-0.33630 Y0.39878
G01 X-0.33702 Y0.40067
G01 X-0.33904 Y0.40433
G01 X-0.35236 Y0.41917
G01 X-0.35785 Y0.41944
G01 X-0.37490 Y0.41952
G01 X-0.38250 Y0.42018
G01 X-0.48193 Y0.42018
G01 X-0.50148 Y0.41032
G01 X-0.50283 Y0.40708
G01 X-0.50432 Y0.40110
G01 X-0.50569 Y0.39723
G01 X-0.50611 Y0.39526
G01 X-0.50636 Y0.39285
G01 X-0.50640 Y0.34007
G01 X-0.50600 Y0.33911
G01 X-0.50640 Y0.34007
G01 X-0.51033 Y0.34401
G01 X-0.51033 Y0.43029
G01 X-0.50866 Y0.43164
G01 X-0.51033 Y0.43029
G01 X-0.51033 Y0.40139
G01 X-0.50851 Y0.40872
G01 X-0.50691 Y0.41265
G01 X-0.50838 Y0.40915
G01 X-0.40539 Y0.50975
G01 X-0.39972 Y0.50975
G01 X-0.39826 Y0.50720
G01 X-0.39560 Y0.50358
G01 X-0.39360 Y0.50138
G01 X-0.39301 Y0.50138
G01 X-0.39360 Y0.50138
G01 X-0.39622 Y0.49843
G01 X-0.39753 Y0.49843
G01 X-0.39622 Y0.49843
G01 X-0.39766 Y0.49653
G01 X-0.39513 Y0.49974
G01 X-0.39360 Y0.50138
G01 X-0.39617 Y0.50433
G01 X-0.39911 Y0.50435
G01 X-0.49297 Y0.51124
G01 X-0.49902 Y0.51712
G01 X-0.49902 Y0.51850
G01 X-0.50197 Y0.52122
G01 X-0.50492 Y0.51850
G01 X-0.50492 Y0.51587
G01 X-0.50504 Y0.51585
G01 X-0.50492 Y0.51587
G01 X-0.50469 Y0.51472
G01 X-0.50402 Y0.51376
G01 X-0.50412 Y0.51369
G01 X-0.50402 Y0.51376
G01 X-0.49707 Y0.50699
G01 X-0.50402 Y0.51376
G01 X-0.50469 Y0.51472
G01 X-0.50492 Y0.51587
G01 X-0.50492 Y0.51850
G01 X-0.50197 Y0.52122
G01 X-0.49865 Y0.51822
G01 X-0.49451 Y0.51559
G01 X-0.49153 Y0.51409
G01 X-0.48814 Y0.51299
G01 X-0.49037 Y0.51365
G01 X-0.49230 Y0.51442
G01 X-0.49701 Y0.51709
G01 X-0.49897 Y0.51846
G01 X-0.50076 Y0.52002
G01 X-0.50197 Y0.52122
G01 X-0.50197 Y0.52178
G01 X-0.50197 Y0.52122
G01 X-0.50376 Y0.51947
G01 X-0.50565 Y0.51794
G01 X-0.50794 Y0.51640
G01 X-0.50551 Y0.51402
G01 X-0.50237 Y0.51001
G01 X-0.49991 Y0.50554
G01 X-0.49864 Y0.50215
G01 X-0.49712 Y0.49414
G01 X-0.49706 Y0.49316
G01 X-0.49705 Y0.46891
G01 X-0.49114 Y0.48037
G01 X-0.49114 Y0.48205
G04 P0 ( dwell for no time -- G64 should not smooth over this point )
G00 Z0.05906 ( retract )

G00 X-0.58483 Y0.51873 ( rapid move to begin. )
G01 F19.68504
( Mill infeed pass 1/1 )
G01 Z-0.00354
G04 P0 ( dwell for no time -- G64 should not smooth over this point )
G01 F39.37008
G01 X-0.58483 Y0.51873
G01 X-0.58130 Y0.51601
G01 X-0.57874 Y0.51333
G01 X-0.57874 Y0.51904
G01 X-0.57874 Y0.51333
G01 X-0.57579 Y0.50933
G01 X-0.57579 Y0.50859
G01 X-0.57579 Y0.50933
G01 X-0.57283 Y0.51333
G01 X-0.57292 Y0.52298
G01 X-0.57283 Y0.52230
G01 X-0.57270 Y0.52233
G01 X-0.57283 Y0.52230
G01 X-0.57283 Y0.51333
G01 X-0.57052 Y0.51578
G01 X-0.56742 Y0.51834
G01 X-0.56742 Y0.52546
G01 X-0.56903 Y0.52802
G01 X-0.57018 Y0.53046
G01 X-0.64310 Y0.63953
G01 X-0.64241 Y0.51745
G01 X-0.64433 Y0.51576
G01 X-0.64742 Y0.51238
G01 X-0.65083 Y0.51640
G01 X-0.65266 Y0.51824
G01 X-0.65083 Y0.51640
G01 X-0.64742 Y0.51238
G01 X-0.64433 Y0.51576
G01 X-0.64241 Y0.51745
G01 X-0.64310 Y0.63953
G01 X-0.64131 Y0.64262
G01 X-0.56743 Y0.64262
G01 X-0.51860 Y0.59378
G01 X-0.52353 Y0.59438
G01 X-0.54126 Y0.59439
G01 X-0.52692 Y0.59439
G01 X-0.53649 Y0.59836
G01 X-0.52692 Y0.59439
G01 X-0.52353 Y0.59438
G01 X-0.52104 Y0.59415
G01 X-0.51860 Y0.59378
G01 X-0.51726 Y0.59301
G01 X-0.51860 Y0.59378
G01 X-0.52466 Y0.59985
G01 X-0.53429 Y0.60384
G01 X-0.72293 Y0.60193
G01 X-0.72293 Y0.60422
G01 X-0.72050 Y0.60665
G01 X-0.71124 Y0.61105
G01 X-0.71505 Y0.61210
G01 X-0.71893 Y0.60822
G01 X-0.72293 Y0.54178
G01 X-0.72293 Y0.53570
G01 X-0.72102 Y0.53845
G01 X-0.72293 Y0.53570
G01 X-0.72293 Y0.53028
G01 X-0.72333 Y0.52966
G01 X-0.72293 Y0.53028
G01 X-0.71805 Y0.53237
G01 X-0.71630 Y0.53490
G01 X-0.71805 Y0.53237
G01 X-0.71835 Y0.53227
G01 X-0.71307 Y0.53402
G01 X-0.70435 Y0.53577
G01 X-0.70206 Y0.53606
G01 X-0.69604 Y0.53632
G01 X-0.68975 Y0.53597
G01 X-0.68353 Y0.53498
G01 X-0.67677 Y0.53313
G01 X-0.68668 Y0.54148
G01 X-0.68933 Y0.54186
G01 X-0.69301 Y0.54209
G04 P0 ( dwell for no time -- G64 should not smooth over this point )
G00 Z0.05906 ( retract )

G00 X-0.75806 Y0.64983 ( rapid move to begin. )
G01 F19.68504
( Mill infeed pass 1/1 )
G01 Z-0.00354
G04 P0 ( dwell for no time -- G64 should not smooth over this point )
G01 F39.37008
G01 X-0.75806 Y0.64983
G01 X-0.75545 Y0.65244
G01 X-0.75639 Y0.65576
G04 P0 ( dwell for no time -- G64 should not smooth over this point )
G00 Z0.05906 ( retract )

G00 X-0.64294 Y0.70262 ( rapid move to begin. )
G01 F19.68504
( Mill infeed pass 1/1 )
G01 Z-0.00354
G04 P0 ( dwell for no time -- G64 should not smooth over this point )
G01 F39.37008
G01 X-0.64294 Y0.70262
G01 X-0.64132 Y0.69971
G01 X-0.63767 Y0.69971
G01 X-0.37783 Y0.70939
G01 X-0.37347 Y0.70998
G01 X-0.36812 Y0.71004
G01 X-0.35163 Y0.72653
G01 X-0.35664 Y0.72399
G01 X-0.36667 Y0.71984
G01 X-0.37057 Y0.71594
G01 X-0.37309 Y0.71591
G01 X-0.37057 Y0.71594
G01 X-0.37042 Y0.71563
G01 X-0.37057 Y0.71594
G01 X-0.36667 Y0.71984
G01 X-0.35664 Y0.72399
G01 X-0.35163 Y0.72653
G01 X-0.33110 Y0.74704
G01 X-0.32698 Y0.75022
G01 X-0.32381 Y0.75204
G01 X-0.32755 Y0.75265
G01 X-0.33019 Y0.74784
G01 X-0.33049 Y0.74759
G01 X-0.33536 Y0.75070
G01 X-0.33254 Y0.75580
G01 X-0.33514 Y0.75990
G01 X-0.33517 Y0.75263
G01 X-0.33565 Y0.74903
G01 X-0.33630 Y0.74669
G01 X-0.33702 Y0.74480
G01 X-0.33810 Y0.74264
G01 X-0.33918 Y0.74093
G01 X-0.34067 Y0.73901
G01 X-0.34235 Y0.73727
G01 X-0.34421 Y0.73572
G01 X-0.34622 Y0.73437
G01 X-0.34837 Y0.73325
G01 X-0.35063 Y0.73236
G01 X-0.35296 Y0.73172
G01 X-0.35517 Y0.73135
G04 P0 ( dwell for no time -- G64 should not smooth over this point )
G00 Z0.05906 ( retract )

G00 X-0.37144 Y0.72530 ( rapid move to begin. )
G01 F19.68504
( Mill infeed pass 1/1 )
G01 Z-0.00354
G04 P0 ( dwell for no time -- G64 should not smooth over this point )
G01 F39.37008
G01 X-0.37144 Y0.72530
G01 X-0.36892 Y0.72530
G01 X-0.35901 Y0.72941
G01 X-0.35517 Y0.73135
G01 X-0.35777 Y0.73120
G01 X-0.37799 Y0.73120
G04 P0 ( dwell for no time -- G64 should not smooth over this point )
G00 Z0.05906 ( retract )

G00 X-0.39294 Y0.63921 ( rapid move to begin. )
G01 F19.68504
( Mill infeed pass 1/1 )
G01 Z-0.00354
G04 P0 ( dwell for no time -- G64 should not smooth over this point )
G01 F39.37008
G01 X-0.39294 Y0.63921
G01 X-0.39354 Y0.63922
G01 X-0.39614 Y0.64197
G01 X-0.39354 Y0.63922
G01 X-0.39297 Y0.63921
G01 X-0.39355 Y0.63922
G01 X-0.39625 Y0.63612
G04 P0 ( dwell for no time -- G64 should not smooth over this point )
G00 Z0.05906 ( retract )

G00 X-0.43243 Y0.57200 ( rapid move to begin. )
G01 F19.68504
( Mill infeed pass 1/1 )
G01 Z-0.00354
G04 P0 ( dwell for no time -- G64 should not smooth over this point )
G01 F39.37008
G01 X-0.43243 Y0.57200
G01 X-0.43174 Y0.56943
G01 X-0.43135 Y0.56683
G01 X-0.38938 Y0.56683
G01 X-0.38697 Y0.56827
G01 X-0.38267 Y0.57027
G01 X-0.38468 Y0.57109
G01 X-0.38761 Y0.57263
G01 X-0.39063 Y0.57464
G01 X-0.39432 Y0.57789
G01 X-0.39767 Y0.58202
G01 X-0.39831 Y0.57353
G01 X-0.39750 Y0.57273
G01 X-0.39871 Y0.57273
G01 X-0.39750 Y0.57273
G01 X-0.39070 Y0.56942
G04 P0 ( dwell for no time -- G64 should not smooth over this point )
G00 Z0.05906 ( retract )

G00 X-0.27491 Y0.62206 ( rapid move to begin. )
G01 F19.68504
( Mill infeed pass 1/1 )
G01 Z-0.00354
G04 P0 ( dwell for no time -- G64 should not smooth over this point )
G01 F39.37008
G01 X-0.27491 Y0.62206
G01 X-0.27906 Y0.62124
G01 X-0.28187 Y0.62101
G01 X-0.30376 Y0.62101
G01 X-0.30657 Y0.62124
G01 X-0.31000 Y0.62189
G01 X-0.31230 Y0.62252
G01 X-0.31742 Y0.62476
G01 X-0.31952 Y0.62589
G01 X-0.32149 Y0.62723
G01 X-0.32249 Y0.62804
G01 X-0.32345 Y0.62935
G01 X-0.32246 Y0.62800
G01 X-0.32212 Y0.62703
G01 X-0.32110 Y0.62347
G01 X-0.32063 Y0.62054
G01 X-0.31448 Y0.61218
G01 X-0.31449 Y0.60718
G01 X-0.31623 Y0.60545
G01 X-0.31449 Y0.60718
G01 X-0.20424 Y0.60718
G01 X-0.18253 Y0.60646
G01 X-0.17667 Y0.60760
G01 X-0.17414 Y0.61114
G01 X-0.17606 Y0.61212
G01 X-0.17799 Y0.61335
G01 X-0.18084 Y0.61277
G01 X-0.17799 Y0.61335
G01 X-0.17969 Y0.61468
G01 X-0.18139 Y0.61633
G01 X-0.18536 Y0.62218
G01 X-0.18669 Y0.62580
G01 X-0.18740 Y0.62965
G01 X-0.19096 Y0.62676
G01 X-0.19410 Y0.62490
G01 X-0.20107 Y0.62207
G01 X-0.20608 Y0.62121
G01 X-0.20898 Y0.62097
G01 X-0.22948 Y0.62098
G01 X-0.23428 Y0.62147
G01 X-0.23760 Y0.62230
G01 X-0.23287 Y0.61535
G01 X-0.22859 Y0.61506
G01 X-0.20898 Y0.61507
G01 X-0.20574 Y0.61530
G01 X-0.20898 Y0.61507
G01 X-0.22859 Y0.61506
G01 X-0.23287 Y0.61535
G01 X-0.23760 Y0.62230
G01 X-0.23428 Y0.62147
G01 X-0.22948 Y0.62098
G01 X-0.20898 Y0.62097
G01 X-0.20608 Y0.62121
G01 X-0.20107 Y0.62207
G01 X-0.19410 Y0.62490
G01 X-0.19096 Y0.62676
G01 X-0.18740 Y0.62965
G01 X-0.18669 Y0.62580
G01 X-0.18545 Y0.62239
G01 X-0.18139 Y0.61633
G01 X-0.17938 Y0.61442
G01 X-0.17710 Y0.61275
G01 X-0.17414 Y0.61114
G01 X-0.17351 Y0.61131
G01 X-0.17414 Y0.61114
G01 X-0.17772 Y0.60612
G01 X-0.18044 Y0.60128
G01 X-0.32041 Y0.60133
G01 X-0.32045 Y0.61862
G01 X-0.32101 Y0.62307
G01 X-0.32249 Y0.62804
G01 X-0.31952 Y0.62589
G01 X-0.31586 Y0.62402
G01 X-0.30985 Y0.61584
G01 X-0.30694 Y0.61534
G01 X-0.30415 Y0.61512
G01 X-0.28108 Y0.61513
G01 X-0.27901 Y0.61530
G01 X-0.26017 Y0.63067
G01 X-0.25886 Y0.63215
G01 X-0.25884 Y0.63107
G01 X-0.25886 Y0.63215
G01 X-0.25609 Y0.63580
G01 X-0.25590 Y0.63609
G01 X-0.25590 Y0.63688
G01 X-0.25590 Y0.63609
G01 X-0.25574 Y0.63582
G01 X-0.25437 Y0.63388
G01 X-0.25295 Y0.63223
G01 X-0.25294 Y0.63104
G01 X-0.25295 Y0.63223
G01 X-0.25141 Y0.63054
G04 P0 ( dwell for no time -- G64 should not smooth over this point )
G00 Z0.05906 ( retract )

G00 X-0.27491 Y0.52341 ( rapid move to begin. )
G01 F19.68504
( Mill infeed pass 1/1 )
G01 Z-0.00354
G04 P0 ( dwell for no time -- G64 should not smooth over this point )
G01 F39.37008
G01 X-0.27491 Y0.52341
G01 X-0.27990 Y0.52426
G01 X-0.28238 Y0.52449
G01 X-0.30241 Y0.52451
G01 X-0.30490 Y0.52437
G01 X-0.30968 Y0.52365
G01 X-0.31270 Y0.52282
G01 X-0.31778 Y0.52054
G01 X-0.32080 Y0.51874
G01 X-0.31849 Y0.52018
G01 X-0.31542 Y0.52166
G01 X-0.31411 Y0.52374
G01 X-0.30969 Y0.52964
G01 X-0.30576 Y0.53021
G01 X-0.30283 Y0.53041
G01 X-0.28280 Y0.53041
G01 X-0.27903 Y0.53010
G01 X-0.26017 Y0.51481
G01 X-0.25888 Y0.51335
G01 X-0.25887 Y0.51441
G01 X-0.25888 Y0.51335
G01 X-0.25592 Y0.50936
G01 X-0.25590 Y0.50859
G01 X-0.25592 Y0.50936
G01 X-0.25508 Y0.51064
G01 X-0.25141 Y0.51494
G01 X-0.25298 Y0.51321
G01 X-0.25296 Y0.51443
G01 X-0.23192 Y0.53022
G01 X-0.22859 Y0.53041
G01 X-0.20900 Y0.53041
G01 X-0.20608 Y0.53022
G01 X-0.18703 Y0.51542
G01 X-0.18412 Y0.51221
G01 X-0.18269 Y0.51032
G01 X-0.18146 Y0.50828
G01 X-0.17958 Y0.50453
G01 X-0.17818 Y0.50700
G01 X-0.17528 Y0.51125
G01 X-0.17102 Y0.51640
G01 X-0.16594 Y0.52131
G01 X-0.16315 Y0.52352
G01 X-0.16250 Y0.52352
G01 X-0.16320 Y0.52352
G01 X-0.16673 Y0.52650
G01 X-0.17061 Y0.52648
G01 X-0.20427 Y0.53829
G01 X-0.31301 Y0.53829
G01 X-0.31320 Y0.53874
G01 X-0.31301 Y0.53829
G01 X-0.31448 Y0.53682
G01 X-0.31493 Y0.53700
G01 X-0.31448 Y0.53682
G01 X-0.31449 Y0.53309
G01 X-0.31890 Y0.52719
G01 X-0.32041 Y0.52482
G01 X-0.32043 Y0.52209
G01 X-0.32064 Y0.51974
G01 X-0.32080 Y0.51874
G01 X-0.32142 Y0.51779
G01 X-0.32080 Y0.51874
G01 X-0.32045 Y0.52170
G01 X-0.32038 Y0.53927
G01 X-0.31546 Y0.54419
G01 X-0.18054 Y0.54419
G01 X-0.17878 Y0.54113
G01 X-0.17135 Y0.53108
G01 X-0.16824 Y0.52783
G01 X-0.16428 Y0.52439
G01 X-0.16320 Y0.52352
G01 X-0.16253 Y0.52352
G01 X-0.16315 Y0.52352
G01 X-0.16674 Y0.52060
G01 X-0.17084 Y0.52057
G01 X-0.17236 Y0.52057
G01 X-0.20120 Y0.52342
G01 X-0.20412 Y0.52407
G01 X-0.20828 Y0.52448
G01 X-0.22933 Y0.52450
G01 X-0.23387 Y0.52407
G01 X-0.23680 Y0.52342
G04 P0 ( dwell for no time -- G64 should not smooth over this point )
G00 Z0.05906 ( retract )

G00 X-0.17932 Y0.51518 ( rapid move to begin. )
G01 F19.68504
( Mill infeed pass 1/1 )
G01 Z-0.00354
G04 P0 ( dwell for no time -- G64 should not smooth over this point )
G01 F39.37008
G01 X-0.17932 Y0.51518
G01 X-0.17926 Y0.51274
G04 P0 ( dwell for no time -- G64 should not smooth over this point )
G00 Z0.05906 ( retract )

G00 X-0.17656 Y0.43919 ( rapid move to begin. )
G01 F19.68504
( Mill infeed pass 1/1 )
G01 Z-0.00354
G04 P0 ( dwell for no time -- G64 should not smooth over this point )
G01 F39.37008
G01 X-0.17656 Y0.43919
G01 X-0.17959 Y0.44408
G01 X-0.18165 Y0.43999
G01 X-0.18342 Y0.43729
G01 X-0.18697 Y0.43320
G01 X-0.18842 Y0.43244
G01 X-0.18697 Y0.43320
G01 X-0.18225 Y0.43390
G01 X-0.17253 Y0.43396
G01 X-0.17166 Y0.43356
G01 X-0.17253 Y0.43396
G01 X-0.17515 Y0.43719
G01 X-0.17656 Y0.43919
G01 X-0.17848 Y0.44014
G01 X-0.17963 Y0.44025
G01 X-0.17965 Y0.44068
G01 X-0.17963 Y0.44025
G01 X-0.18074 Y0.43991
G01 X-0.18214 Y0.43915
G04 P0 ( dwell for no time -- G64 should not smooth over this point )
G00 Z0.05906 ( retract )

G00 X-0.22002 Y0.41997 ( rapid move to begin. )
G01 F19.68504
( Mill infeed pass 1/1 )
G01 Z-0.00354
G04 P0 ( dwell for no time -- G64 should not smooth over this point )
G01 F39.37008
G01 X-0.22002 Y0.41997
G01 X-0.20995 Y0.42416
G01 X-0.20566 Y0.42433
G01 X-0.20108 Y0.42531
G01 X-0.26427 Y0.36211
G01 X-0.26427 Y0.36982
G01 X-0.26012 Y0.37984
G01 X-0.25886 Y0.43089
G01 X-0.25886 Y0.43530
G01 X-0.25590 Y0.43929
G01 X-0.25258 Y0.43485
G01 X-0.25096 Y0.43314
G01 X-0.24944 Y0.43182
G01 X-0.25124 Y0.43342
G01 X-0.25295 Y0.43530
G01 X-0.25295 Y0.43228
G01 X-0.25295 Y0.43530
G01 X-0.25590 Y0.43929
G01 X-0.25590 Y0.44003
G01 X-0.25590 Y0.43929
G01 X-0.25924 Y0.43484
G01 X-0.26117 Y0.43284
G01 X-0.26427 Y0.43029
G01 X-0.26427 Y0.36211
G01 X-0.26467 Y0.36114
G01 X-0.26427 Y0.36211
G01 X-0.25882 Y0.36756
G01 X-0.25467 Y0.37759
G01 X-0.21768 Y0.41455
G01 X-0.20768 Y0.41871
G01 X-0.20108 Y0.42531
G01 X-0.19971 Y0.42608
G01 X-0.20108 Y0.42531
G01 X-0.20411 Y0.42458
G01 X-0.20684 Y0.42422
G01 X-0.22546 Y0.42412

G00 Z0.39370 (Retract to tool change height)
T3
M5      (Spindle stop.)
G04 P1.00000 (Wait for spindle to stop)
(MSG, Change tool bit to mill diameter 0.00984in)
M6      (Tool change.)
M0      (Temporary machine stop.)
M3 ( Spindle on clockwise. )
G04 P1.00000 (Wait for spindle to get up to speed)
G04 P0 ( dwell for no time -- G64 should not smooth over this point )
G00 Z0.05906 ( retract )

G00 X-0.11187 Y0.62096 ( rapid move to begin. )
G01 F19.68504
( Mill infeed pass 1/1 )
G01 Z-0.00354
G04 P0 ( dwell for no time -- G64 should not smooth over this point )
G01 F39.37008
G01 X-0.11187 Y0.62096
G01 X-0.11638 Y0.62152
G01 X-0.12289 Y0.62191
G01 X-0.12940 Y0.62186
G01 X-0.13460 Y0.62152
G01 X-0.13905 Y0.62097
G01 X-0.16615 Y0.62104
G01 X-0.16363 Y0.61848
G01 X-0.15634 Y0.62096
G01 X-0.13905 Y0.62097
G01 X-0.14258 Y0.61993
G01 X-0.14803 Y0.61758
G01 X-0.15423 Y0.61389
G01 X-0.16130 Y0.61147
G01 X-0.15423 Y0.61389
G01 X-0.15931 Y0.60982
G01 X-0.16211 Y0.60695
G01 X-0.32345 Y0.58947
G01 X-0.32525 Y0.58947
G01 X-0.33243 Y0.59664
G01 X-0.33223 Y0.59829
G01 X-0.33243 Y0.59664
G01 X-0.32525 Y0.58947
G01 X-0.32345 Y0.58947
G01 X-0.22255 Y0.60040
G01 X-0.17735 Y0.58947
G01 X-0.17273 Y0.58947
G01 X-0.17136 Y0.59312
G01 X-0.17273 Y0.58947
G01 X-0.17735 Y0.58947
G01 X-0.33555 Y0.62772
G01 X-0.33773 Y0.63038
G01 X-0.34065 Y0.63283
G01 X-0.34390 Y0.63462
G01 X-0.34654 Y0.63545
G01 X-0.33401 Y0.63548
G01 X-0.34654 Y0.63545
G01 X-0.34889 Y0.63601
G01 X-0.35076 Y0.63618
G01 X-0.37178 Y0.63622
G01 X-0.37492 Y0.63596
G01 X-0.37677 Y0.63554
G01 X-0.37988 Y0.63443
G01 X-0.38131 Y0.63373
G01 X-0.38250 Y0.63293
G01 X-0.44834 Y0.57907
G01 X-0.44833 Y0.57654
G01 X-0.44718 Y0.57529
G01 X-0.38837 Y0.62905
G01 X-0.37697 Y0.64286
G01 X-0.37497 Y0.64239
G01 X-0.37180 Y0.64213
G01 X-0.35127 Y0.64213
G01 X-0.34846 Y0.64239
G01 X-0.34655 Y0.64283
G01 X-0.33240 Y0.64286
G01 X-0.32939 Y0.64656
G01 X-0.33240 Y0.64286
G01 X-0.33005 Y0.64280
G01 X-0.32997 Y0.64309
G01 X-0.33005 Y0.64280
G01 X-0.32880 Y0.64233
G01 X-0.32781 Y0.64144
G01 X-0.32771 Y0.64155
G01 X-0.32781 Y0.64144
G01 X-0.32740 Y0.64090
G01 X-0.32845 Y0.64349
G01 X-0.32939 Y0.64656
G01 X-0.32822 Y0.65386
G01 X-0.32939 Y0.64656
G01 X-0.33240 Y0.64286
G01 X-0.34655 Y0.64283
G01 X-0.34399 Y0.64369
G01 X-0.34173 Y0.64486
G01 X-0.34030 Y0.64577
G01 X-0.33834 Y0.64738
G01 X-0.33558 Y0.65059
G01 X-0.33354 Y0.65443
G01 X-0.32283 Y0.65443
G01 X-0.32255 Y0.64984
G01 X-0.32151 Y0.64598
G01 X-0.31973 Y0.64239
G01 X-0.31827 Y0.64041
G01 X-0.31973 Y0.64239
G01 X-0.32151 Y0.64598
G01 X-0.32255 Y0.64984
G01 X-0.32283 Y0.65443
G01 X-0.33354 Y0.65443
G01 X-0.33491 Y0.65168
G01 X-0.33583 Y0.65025
G01 X-0.33773 Y0.64797
G01 X-0.33997 Y0.64604
G01 X-0.34136 Y0.64506
G01 X-0.34399 Y0.64369
G01 X-0.34680 Y0.64276
G01 X-0.34846 Y0.64239
G01 X-0.35162 Y0.64213
G01 X-0.37286 Y0.64218
G01 X-0.37580 Y0.64254
G01 X-0.37824 Y0.64325
G01 X-0.37982 Y0.64387
G01 X-0.38230 Y0.64521
G01 X-0.38127 Y0.64284
G01 X-0.37697 Y0.64286
G01 X-0.38837 Y0.62905
G01 X-0.38136 Y0.63545
G01 X-0.37695 Y0.63548
G01 X-0.38136 Y0.63545
G01 X-0.38837 Y0.62905
G01 X-0.44291 Y0.56290
G01 X-0.44291 Y0.55502
G01 X-0.43445 Y0.55502
G01 X-0.37624 Y0.55989
G01 X-0.37260 Y0.56040
G01 X-0.36323 Y0.56043
G01 X-0.35340 Y0.57027
G01 X-0.36323 Y0.58012
G01 X-0.37215 Y0.58012
G01 X-0.37621 Y0.58063
G01 X-0.37071 Y0.57274
G01 X-0.36629 Y0.57274
G01 X-0.36608 Y0.57323
G01 X-0.36629 Y0.57274
G01 X-0.36383 Y0.57027
G01 X-0.36078 Y0.57027
G01 X-0.36383 Y0.57027
G01 X-0.36629 Y0.56781
G01 X-0.36606 Y0.56726
G01 X-0.36629 Y0.56781
G01 X-0.37071 Y0.56781
G01 X-0.38525 Y0.55502
G01 X-0.38629 Y0.55502
G04 P0 ( dwell for no time -- G64 should not smooth over this point )
G00 Z0.05906 ( retract )

G00 X-0.38254 Y0.50765 ( rapid move to begin. )
G01 F19.68504
( Mill infeed pass 1/1 )
G01 Z-0.00354
G04 P0 ( dwell for no time -- G64 should not smooth over this point )
G01 F39.37008
G01 X-0.38254 Y0.50765
G01 X-0.38069 Y0.50649
G01 X-0.37773 Y0.50526
G01 X-0.37626 Y0.50488
G01 X-0.37259 Y0.50436
G01 X-0.35076 Y0.50437
G01 X-0.34867 Y0.50458
G01 X-0.34578 Y0.50523
G01 X-0.34342 Y0.50617
G01 X-0.34191 Y0.50694
G01 X-0.33946 Y0.50861
G01 X-0.33631 Y0.51180
G01 X-0.33438 Y0.51491
G01 X-0.33357 Y0.51658
G01 X-0.33418 Y0.51526
G01 X-0.33609 Y0.51210
G01 X-0.33881 Y0.50916
G01 X-0.34227 Y0.50673
G01 X-0.34630 Y0.50508
G01 X-0.33390 Y0.50507
G01 X-0.33078 Y0.50995
G01 X-0.33242 Y0.54392
G01 X-0.32035 Y0.55600
G01 X-0.17278 Y0.55600
G01 X-0.17112 Y0.55197
G01 X-0.17067 Y0.49618
G01 X-0.17281 Y0.49104
G01 X-0.18898 Y0.49104
G01 X-0.18926 Y0.49563
G01 X-0.18979 Y0.49782
G04 P0 ( dwell for no time -- G64 should not smooth over this point )
G00 Z0.05906 ( retract )

G00 X-0.17188 Y0.38868 ( rapid move to begin. )
G01 F19.68504
( Mill infeed pass 1/1 )
G01 Z-0.00354
G04 P0 ( dwell for no time -- G64 should not smooth over this point )
G01 F39.37008
G01 X-0.17188 Y0.38868
G01 X-0.17368 Y0.38868
G01 X-0.25826 Y0.30410
G01 X-0.25659 Y0.30353
G01 X-0.25516 Y0.30277
G01 X-0.25386 Y0.30181
G01 X-0.25266 Y0.30060
G04 P0 ( dwell for no time -- G64 should not smooth over this point )
G00 Z0.05906 ( retract )

G00 X-0.25967 Y0.35000 ( rapid move to begin. )
G01 F19.68504
( Mill infeed pass 1/1 )
G01 Z-0.00354
G04 P0 ( dwell for no time -- G64 should not smooth over this point )
G01 F39.37008
G01 X-0.25967 Y0.35000
G01 X-0.26994 Y0.33973
G01 X-0.26809 Y0.34335
G01 X-0.26571 Y0.34898
G01 X-0.26809 Y0.34335
G01 X-0.26994 Y0.33973
G01 X-0.29327 Y0.31636
G01 X-0.29424 Y0.31503
G01 X-0.29583 Y0.31236
G01 X-0.29640 Y0.31089
G01 X-0.29699 Y0.30848
G01 X-0.29794 Y0.30676
G01 X-0.29881 Y0.30569
G01 X-0.30110 Y0.30440
G01 X-0.29733 Y0.30443
G01 X-0.29730 Y0.30663
G01 X-0.29699 Y0.30848
G01 X-0.29833 Y0.30618
G01 X-0.29806 Y0.30597
G01 X-0.29833 Y0.30618
G01 X-0.29938 Y0.30529
G01 X-0.30096 Y0.30441
G01 X-0.30310 Y0.30406
G01 X-0.30535 Y0.30317
G01 X-0.30736 Y0.30181
G01 X-0.30901 Y0.30003
G01 X-0.31037 Y0.29756
G01 X-0.31085 Y0.29601
G01 X-0.31110 Y0.29423
G01 X-0.31224 Y0.29204
G01 X-0.31467 Y0.28618
G01 X-0.31112 Y0.28118
G01 X-0.31110 Y0.29423
G01 X-0.31740 Y0.29811
G01 X-0.31900 Y0.29502
G01 X-0.32149 Y0.28901
G01 X-0.36260 Y0.25291
G01 X-0.36388 Y0.25163
G01 X-0.36388 Y0.24983
G01 X-0.35873 Y0.17389
G01 X-0.36052 Y0.17411
G01 X-0.36388 Y0.17411
G01 X-0.36388 Y0.18103
G01 X-0.32753 Y0.28798
G01 X-0.30345 Y0.31206
G01 X-0.30392 Y0.31121
G01 X-0.30479 Y0.31072
G01 X-0.28050 Y0.33504
G01 X-0.27879 Y0.33724
G01 X-0.27762 Y0.33937
G01 X-0.27700 Y0.34096
G01 X-0.27635 Y0.34340
G01 X-0.27482 Y0.34638
G01 X-0.27253 Y0.35180
G01 X-0.27482 Y0.34638
G01 X-0.27635 Y0.34340
G01 X-0.27609 Y0.34600
G01 X-0.27608 Y0.35680
G01 X-0.26467 Y0.44603
G01 X-0.25958 Y0.45167
G01 X-0.25220 Y0.45166
G01 X-0.25221 Y0.49695
G01 X-0.24765 Y0.49960
G01 X-0.24866 Y0.49605
G01 X-0.24901 Y0.49226
G01 X-0.24896 Y0.45497
G01 X-0.24830 Y0.45104
G01 X-0.24759 Y0.44897
G01 X-0.24830 Y0.45104
G01 X-0.24896 Y0.45497
G01 X-0.24901 Y0.49226
G01 X-0.24866 Y0.49605
G01 X-0.24765 Y0.49960
G01 X-0.25221 Y0.49695
G01 X-0.25220 Y0.45166
G01 X-0.25958 Y0.45167
G01 X-0.25959 Y0.49696
G01 X-0.26431 Y0.49974
G01 X-0.26320 Y0.49633
G01 X-0.26280 Y0.49263
G01 X-0.26279 Y0.45635
G01 X-0.26307 Y0.45304
G01 X-0.26338 Y0.45155
G01 X-0.26431 Y0.44889
G01 X-0.26467 Y0.44603
G01 X-0.27608 Y0.43338
G01 X-0.27608 Y0.43723
G01 X-0.27323 Y0.43858
G04 P0 ( dwell for no time -- G64 should not smooth over this point )
G00 Z0.05906 ( retract )

G00 X-0.27608 Y0.43338 ( rapid move to begin. )
G01 F19.68504
( Mill infeed pass 1/1 )
G01 Z-0.00354
G04 P0 ( dwell for no time -- G64 should not smooth over this point )
G01 F39.37008
G01 X-0.27608 Y0.43338
G01 X-0.16732 Y0.42215
G01 X-0.18979 Y0.45080
G01 X-0.18926 Y0.45300
G01 X-0.18898 Y0.45758
G01 X-0.17281 Y0.45758
G01 X-0.17061 Y0.45236
G01 X-0.17281 Y0.45758
G01 X-0.18898 Y0.45758
G01 X-0.18926 Y0.45300
G01 X-0.18979 Y0.45080
G01 X-0.16732 Y0.42215
G01 X-0.14940 Y0.42215
G01 X-0.15583 Y0.42379
G01 X-0.16221 Y0.42582
G01 X-0.15583 Y0.42379
G01 X-0.14940 Y0.42215
G01 X-0.11974 Y0.42215
G01 X-0.11703 Y0.42487
G01 X-0.11917 Y0.42453
G01 X-0.12385 Y0.42414
G01 X-0.12850 Y0.42421
G01 X-0.13351 Y0.42476
G01 X-0.13787 Y0.42566
G01 X-0.14179 Y0.42684
G01 X-0.14774 Y0.42934
G01 X-0.15381 Y0.43089
G01 X-0.15953 Y0.43270
G01 X-0.15381 Y0.43089
G01 X-0.14774 Y0.42934
G01 X-0.15162 Y0.43146
G01 X-0.15555 Y0.43411
G01 X-0.16046 Y0.43834
G01 X-0.15584 Y0.43433
G01 X-0.15162 Y0.43146
G01 X-0.14681 Y0.42887
G01 X-0.14179 Y0.42684
G01 X-0.13787 Y0.42566
G01 X-0.13386 Y0.42483
G01 X-0.12850 Y0.42421
G01 X-0.12350 Y0.42416
G01 X-0.11868 Y0.42458
G01 X-0.11703 Y0.42487
G01 X-0.11193 Y0.42767
G01 X-0.10891 Y0.42953
G01 X-0.10211 Y0.43431
G01 X-0.09708 Y0.43849
G01 X-0.09436 Y0.44102
G01 X-0.08920 Y0.44643
G01 X-0.08678 Y0.44930
G01 X-0.08369 Y0.45337
G01 X-0.08251 Y0.45910
G01 X-0.08164 Y0.46554
G01 X-0.08131 Y0.47000
G01 X-0.08120 Y0.47456
G01 X-0.08133 Y0.47908
G01 X-0.08214 Y0.48720
G01 X-0.08306 Y0.49245
G01 X-0.08416 Y0.49720
G01 X-0.08543 Y0.50167
G01 X-0.08711 Y0.50664
G01 X-0.08710 Y0.54048
G01 X-0.08865 Y0.53867
G01 X-0.09346 Y0.53411
G01 X-0.09822 Y0.53060
G01 X-0.10431 Y0.52723
G01 X-0.09707 Y0.52723
G01 X-0.09379 Y0.53387
G01 X-0.09822 Y0.53060
G01 X-0.10401 Y0.52737
G01 X-0.10990 Y0.52503
G01 X-0.11565 Y0.52353
G01 X-0.11145 Y0.52250
G01 X-0.10733 Y0.52110
G01 X-0.10267 Y0.51901
G01 X-0.09794 Y0.51627
G01 X-0.09383 Y0.51326
G01 X-0.09709 Y0.51985
G01 X-0.10450 Y0.51985
G01 X-0.10698 Y0.52097
G01 X-0.11111 Y0.52239
G01 X-0.11565 Y0.52353
G01 X-0.13517 Y0.52353
G01 X-0.13628 Y0.52373
G01 X-0.14162 Y0.52520
G01 X-0.14642 Y0.52713
G01 X-0.15246 Y0.53042
G01 X-0.15090 Y0.52721
G01 X-0.14667 Y0.52723
G01 X-0.14162 Y0.52520
G01 X-0.13703 Y0.52389
G01 X-0.13517 Y0.52353
G01 X-0.14112 Y0.52201
G01 X-0.14554 Y0.52032
G01 X-0.15041 Y0.51788
G01 X-0.15242 Y0.51662
G01 X-0.15086 Y0.51983
G01 X-0.14658 Y0.51985
G01 X-0.14112 Y0.52201
G01 X-0.13584 Y0.52342
G01 X-0.13517 Y0.52353
G01 X-0.11565 Y0.52353
G01 X-0.11145 Y0.52250
G01 X-0.10664 Y0.52083
G01 X-0.10234 Y0.51885
G01 X-0.09826 Y0.51646
G01 X-0.09327 Y0.51278
G01 X-0.09005 Y0.50986
G01 X-0.08711 Y0.50664
G01 X-0.08711 Y0.51631
G01 X-0.09068 Y0.52353
G01 X-0.08711 Y0.53073
G01 X-0.08710 Y0.54048
G01 X-0.08527 Y0.54590
G01 X-0.08395 Y0.55070
G01 X-0.08248 Y0.55768
G01 X-0.08168 Y0.56360
G01 X-0.08129 Y0.56880
G01 X-0.08122 Y0.57424
G01 X-0.08157 Y0.58076
G01 X-0.08231 Y0.58675
G01 X-0.08329 Y0.59195
G01 X-0.08483 Y0.59809
G01 X-0.08711 Y0.60505
G01 X-0.08711 Y0.61575
G01 X-0.08744 Y0.61541
G01 X-0.08711 Y0.61471
G01 X-0.08711 Y0.62096
G01 X-0.08711 Y0.60505
G01 X-0.09138 Y0.60956
G01 X-0.09673 Y0.61387
G01 X-0.09456 Y0.61320
G01 X-0.09377 Y0.61153
G01 X-0.09686 Y0.61396
G01 X-0.10263 Y0.61743
G01 X-0.10883 Y0.62008
G01 X-0.11187 Y0.62096
G01 X-0.09232 Y0.62096
G01 X-0.09288 Y0.62041
G01 X-0.09469 Y0.62096
G01 X-0.08711 Y0.62096
G01 X-0.08612 Y0.62195
G01 X-0.08243 Y0.62687
G01 X-0.08120 Y0.63179
G01 X-0.08120 Y0.71053
G01 X-0.08204 Y0.71461
G01 X-0.08612 Y0.71545
G01 X-0.16486 Y0.71545
G01 X-0.16978 Y0.71422
G01 X-0.17471 Y0.71053
G01 X-0.17569 Y0.70955
G01 X-0.19136 Y0.70955
G01 X-0.18610 Y0.70707
G01 X-0.18436 Y0.70609
G01 X-0.18091 Y0.70955
G01 X-0.17569 Y0.70955
G01 X-0.17569 Y0.68790
G01 X-0.18898 Y0.68790
G01 X-0.18921 Y0.69206
G01 X-0.18963 Y0.69414
G01 X-0.19071 Y0.69736
G01 X-0.19289 Y0.70110
G01 X-0.19406 Y0.70260
G01 X-0.19680 Y0.70519
G01 X-0.20049 Y0.70747
G01 X-0.20222 Y0.70824
G01 X-0.20521 Y0.70911
G01 X-0.20869 Y0.70952
G01 X-0.22859 Y0.70955
G01 X-0.23278 Y0.70911
G01 X-0.23648 Y0.70796
G01 X-0.24088 Y0.70542
G01 X-0.24380 Y0.70273
G01 X-0.24854 Y0.70049
G01 X-0.25221 Y0.69836
G01 X-0.25221 Y0.64852
G01 X-0.25221 Y0.69836
G01 X-0.24854 Y0.70049
G01 X-0.24380 Y0.70273
G01 X-0.24509 Y0.70110
G01 X-0.24743 Y0.69701
G01 X-0.24858 Y0.69332
G01 X-0.24899 Y0.68983
G01 X-0.24896 Y0.65187
G01 X-0.24873 Y0.65000
G01 X-0.24765 Y0.64588
G01 X-0.24873 Y0.65000
G01 X-0.24896 Y0.65187
G01 X-0.24901 Y0.68911
G01 X-0.24878 Y0.69206
G01 X-0.24848 Y0.69373
G01 X-0.24782 Y0.69594
G01 X-0.24693 Y0.69803
G01 X-0.24466 Y0.70172
G01 X-0.24178 Y0.70472
G01 X-0.24057 Y0.70563
G01 X-0.23682 Y0.70781
G01 X-0.23360 Y0.70890
G01 X-0.23194 Y0.70926
G01 X-0.22859 Y0.70955
G01 X-0.20931 Y0.70955
G01 X-0.20604 Y0.70926
G01 X-0.20222 Y0.70824
G01 X-0.20049 Y0.70747
G01 X-0.19680 Y0.70519
G01 X-0.19419 Y0.70273
G01 X-0.18945 Y0.70049
G01 X-0.18562 Y0.69830
G01 X-0.18432 Y0.69784
G01 X-0.18363 Y0.69779
G01 X-0.18367 Y0.69724
G01 X-0.18363 Y0.69779
G01 X-0.18229 Y0.69810
G01 X-0.18168 Y0.69843
G01 X-0.18157 Y0.69826
G01 X-0.18168 Y0.69843
G01 X-0.17569 Y0.70433
G01 X-0.17569 Y0.70955
G01 X-0.30458 Y0.70955
G01 X-0.30482 Y0.70931
G01 X-0.30241 Y0.70955
G01 X-0.28286 Y0.70954
G01 X-0.27879 Y0.70906
G01 X-0.27434 Y0.70750
G01 X-0.27111 Y0.70555
G01 X-0.26937 Y0.70409
G01 X-0.26697 Y0.70144
G01 X-0.26607 Y0.70022
G01 X-0.26463 Y0.69756
G01 X-0.26406 Y0.69616
G01 X-0.26308 Y0.69232
G01 X-0.26285 Y0.69044
G01 X-0.26285 Y0.65188
G01 X-0.26308 Y0.65000
G01 X-0.26416 Y0.64588
G01 X-0.25959 Y0.64852
G01 X-0.25963 Y0.69644
G01 X-0.25952 Y0.70116
G01 X-0.25986 Y0.70127
G01 X-0.25952 Y0.70116
G01 X-0.25893 Y0.70253
G01 X-0.25784 Y0.70356
G01 X-0.25797 Y0.70370
G01 X-0.25784 Y0.70356
G01 X-0.25189 Y0.70707
G01 X-0.24663 Y0.70955
G04 P0 ( dwell for no time -- G64 should not smooth over this point )
G00 Z0.05906 ( retract )

G00 X-0.18079 Y0.65443 ( rapid move to begin. )
G01 F19.68504
( Mill infeed pass 1/1 )
G01 Z-0.00354
G04 P0 ( dwell for no time -- G64 should not smooth over this point )
G01 F39.37008
G01 X-0.18079 Y0.65443
G01 X-0.18898 Y0.65443
G01 X-0.18926 Y0.64985
G01 X-0.19030 Y0.64598
G01 X-0.19208 Y0.64239
G01 X-0.19386 Y0.64001
G01 X-0.18422 Y0.64144
G01 X-0.18307 Y0.64437
G01 X-0.18307 Y0.64107
G01 X-0.18307 Y0.64437
G01 X-0.18079 Y0.65443
G01 X-0.17569 Y0.65443
G01 X-0.17569 Y0.63312
G04 P0 ( dwell for no time -- G64 should not smooth over this point )
G00 Z0.05906 ( retract )

G00 X-0.32265 Y0.69148 ( rapid move to begin. )
G01 F19.68504
( Mill infeed pass 1/1 )
G01 Z-0.00354
G04 P0 ( dwell for no time -- G64 should not smooth over this point )
G01 F39.37008
G01 X-0.32265 Y0.69148
G01 X-0.32283 Y0.68790
G01 X-0.32624 Y0.68790
G01 X-0.32265 Y0.69148
G04 P0 ( dwell for no time -- G64 should not smooth over this point )
G00 Z0.05906 ( retract )

G00 X-0.36503 Y0.69823 ( rapid move to begin. )
G01 F19.68504
( Mill infeed pass 1/1 )
G01 Z-0.00354
G04 P0 ( dwell for no time -- G64 should not smooth over this point )
G01 F39.37008
G01 X-0.36503 Y0.69823
G01 X-0.36323 Y0.69823
G01 X-0.36196 Y0.69950
G01 X-0.64441 Y0.68790
G01 X-0.64907 Y0.68790
G01 X-0.65065 Y0.69184
G04 P0 ( dwell for no time -- G64 should not smooth over this point )
G00 Z0.05906 ( retract )

G00 X-0.65073 Y0.65039 ( rapid move to begin. )
G01 F19.68504
( Mill infeed pass 1/1 )
G01 Z-0.00354
G04 P0 ( dwell for no time -- G64 should not smooth over this point )
G01 F39.37008
G01 X-0.65073 Y0.65039
G01 X-0.55846 Y0.51004
G01 X-0.55561 Y0.51140
G01 X-0.55561 Y0.52957
G01 X-0.55612 Y0.53007
G01 X-0.58419 Y0.49974
G01 X-0.57948 Y0.48543
G01 X-0.57944 Y0.49695
G01 X-0.57944 Y0.45168
G01 X-0.58419 Y0.44889
G01 X-0.58308 Y0.45229
G01 X-0.58268 Y0.45600
G01 X-0.58268 Y0.49227
G01 X-0.58308 Y0.49633
G01 X-0.58419 Y0.49974
G01 X-0.56747 Y0.44897
G01 X-0.56830 Y0.45160
G01 X-0.56890 Y0.45635
G01 X-0.56889 Y0.49267
G01 X-0.56823 Y0.49740
G01 X-0.56747 Y0.49965
G01 X-0.57206 Y0.49697
G01 X-0.57206 Y0.45166
G01 X-0.55561 Y0.43340
G01 X-0.55561 Y0.43725
G01 X-0.55835 Y0.43848
G01 X-0.55561 Y0.43725
G01 X-0.55561 Y0.43340
G01 X-0.63041 Y0.25036
G01 X-0.63041 Y0.24856
G01 X-0.62914 Y0.24729
G01 X-0.63041 Y0.24856
G01 X-0.63041 Y0.25036
G01 X-0.51112 Y0.27897
G01 X-0.51112 Y0.28077
G01 X-0.51239 Y0.28204
G01 X-0.51112 Y0.28077
G01 X-0.51112 Y0.27897
G01 X-0.56432 Y0.17864
G01 X-0.56395 Y0.17668
G01 X-0.56389 Y0.17411
G01 X-0.40249 Y0.17389
G01 X-0.40070 Y0.17411
G01 X-0.39734 Y0.17411
G01 X-0.39734 Y0.18102
G04 P0 ( dwell for no time -- G64 should not smooth over this point )
G00 Z0.05906 ( retract )

G00 X-0.60856 Y0.17028 ( rapid move to begin. )
G01 F19.68504
( Mill infeed pass 1/1 )
G01 Z-0.00354
G04 P0 ( dwell for no time -- G64 should not smooth over this point )
G01 F39.37008
G01 X-0.60856 Y0.17028
G01 X-0.60736 Y0.17149
G01 X-0.60605 Y0.17245
G01 X-0.60462 Y0.17321
G01 X-0.60295 Y0.17378
G01 X-0.60957 Y0.18039
G04 P0 ( dwell for no time -- G64 should not smooth over this point )
G00 Z0.05906 ( retract )

G00 X-0.66388 Y0.32779 ( rapid move to begin. )
G01 F19.68504
( Mill infeed pass 1/1 )
G01 Z-0.00354
G04 P0 ( dwell for no time -- G64 should not smooth over this point )
G01 F39.37008
G01 X-0.66388 Y0.32779
G01 X-0.66388 Y0.32959
G01 X-0.66515 Y0.33086
G04 P0 ( dwell for no time -- G64 should not smooth over this point )
G00 Z0.05906 ( retract )

G00 X-0.52087 Y0.33784 ( rapid move to begin. )
G01 F19.68504
( Mill infeed pass 1/1 )
G01 Z-0.00354
G04 P0 ( dwell for no time -- G64 should not smooth over this point )
G01 F39.37008
G01 X-0.52087 Y0.33784
G01 X-0.52214 Y0.33912
G01 X-0.52214 Y0.43723
G01 X-0.51929 Y0.43858
G01 X-0.39662 Y0.52156
G01 X-0.39111 Y0.52156
G01 X-0.39057 Y0.51874
G01 X-0.39010 Y0.51726
G01 X-0.39057 Y0.51874
G01 X-0.39111 Y0.52156
G01 X-0.39662 Y0.52156
G01 X-0.51756 Y0.50888
G01 X-0.50844 Y0.51122
G01 X-0.50815 Y0.53231
G01 X-0.50671 Y0.53490
G01 X-0.50549 Y0.53836
G01 X-0.50514 Y0.54022
G01 X-0.50492 Y0.54296
G01 X-0.50492 Y0.56314
G01 X-0.50504 Y0.56473
G01 X-0.50566 Y0.56843
G01 X-0.50565 Y0.57941
G01 X-0.51004 Y0.58362
G01 X-0.51684 Y0.58102
G01 X-0.51464 Y0.57997
G01 X-0.51197 Y0.57812
G01 X-0.50917 Y0.57519
G01 X-0.50819 Y0.57394
G01 X-0.50633 Y0.57027
G01 X-0.50576 Y0.56878
G01 X-0.50541 Y0.56723
G01 X-0.50493 Y0.56354
G01 X-0.50492 Y0.54296
G01 X-0.50514 Y0.54022
G01 X-0.50549 Y0.53836
G01 X-0.50671 Y0.53490
G01 X-0.50815 Y0.53231
G01 X-0.51099 Y0.32797
G01 X-0.50140 Y0.31838
G01 X-0.50495 Y0.32694
G01 X-0.50140 Y0.31838
G01 X-0.49404 Y0.31101
G01 X-0.49453 Y0.31186
G01 X-0.49458 Y0.31249
G01 X-0.49459 Y0.33476
G01 X-0.49813 Y0.32977
G04 P0 ( dwell for no time -- G64 should not smooth over this point )
G00 Z0.05906 ( retract )

G00 X-0.49813 Y0.32977 ( rapid move to begin. )
G01 F19.68504
( Mill infeed pass 1/1 )
G01 Z-0.00354
G04 P0 ( dwell for no time -- G64 should not smooth over this point )
G01 F39.37008
G01 X-0.49813 Y0.32977
G01 X-0.49459 Y0.32120
G01 X-0.49453 Y0.31186
G01 X-0.49208 Y0.30765
G01 X-0.48777 Y0.30367
G01 X-0.48376 Y0.30325
G01 X-0.46092 Y0.30325
G01 X-0.45610 Y0.30265
G01 X-0.45386 Y0.30180
G01 X-0.45221 Y0.30003
G01 X-0.45100 Y0.29793
G01 X-0.45035 Y0.29590
G01 X-0.44985 Y0.29559
G01 X-0.45017 Y0.29482
G01 X-0.45085 Y0.29756
G01 X-0.45221 Y0.30003
G01 X-0.45386 Y0.30180
G01 X-0.45610 Y0.30265
G01 X-0.45456 Y0.30207
G01 X-0.44628 Y0.30207
G01 X-0.44487 Y0.30118
G01 X-0.44628 Y0.30207
G01 X-0.37041 Y0.30207
G01 X-0.37898 Y0.29852
G01 X-0.37041 Y0.30207
G01 X-0.36077 Y0.30207
G01 X-0.37718 Y0.28566
G01 X-0.37615 Y0.29170
G01 X-0.36759 Y0.29525
G01 X-0.36077 Y0.30207
G01 X-0.35777 Y0.30331
G01 X-0.35199 Y0.30711
G01 X-0.34819 Y0.31289
G01 X-0.34695 Y0.31589
G01 X-0.34695 Y0.33909
G01 X-0.34340 Y0.33410
G01 X-0.34695 Y0.32553
G01 X-0.34695 Y0.31589
G01 X-0.34013 Y0.32271
G01 X-0.33658 Y0.33127
G01 X-0.34013 Y0.32271
G01 X-0.30955 Y0.35329
G01 X-0.30955 Y0.43723
G01 X-0.31095 Y0.43781
G01 X-0.31250 Y0.43871
G01 X-0.32843 Y0.45152
G01 X-0.32820 Y0.45398
G01 X-0.33652 Y0.44959
G01 X-0.33534 Y0.45114
G01 X-0.33394 Y0.45370
G01 X-0.33337 Y0.45511
G01 X-0.33273 Y0.45758
G01 X-0.32279 Y0.45758
G01 X-0.32278 Y0.45493
G01 X-0.32256 Y0.45320
G01 X-0.32168 Y0.44968
G01 X-0.32092 Y0.44776
G04 P0 ( dwell for no time -- G64 should not smooth over this point )
G00 Z0.05906 ( retract )

G00 X-0.38137 Y0.50506 ( rapid move to begin. )
G01 F19.68504
( Mill infeed pass 1/1 )
G01 Z-0.00354
G04 P0 ( dwell for no time -- G64 should not smooth over this point )
G01 F39.37008
G01 X-0.38137 Y0.50506
G01 X-0.37713 Y0.50508
G01 X-0.37691 Y0.49770
G01 X-0.38025 Y0.49648
G01 X-0.38253 Y0.49511
G01 X-0.38138 Y0.49768
G01 X-0.37691 Y0.49770
G01 X-0.37492 Y0.49817
G01 X-0.37215 Y0.49842
G01 X-0.35127 Y0.49842
G01 X-0.34846 Y0.49816
G01 X-0.34572 Y0.49766
G01 X-0.33201 Y0.49769
G01 X-0.33068 Y0.49794
G01 X-0.33054 Y0.49755
G01 X-0.33068 Y0.49794
G01 X-0.32952 Y0.49843
G01 X-0.32947 Y0.49863
G01 X-0.32971 Y0.49843
G01 X-0.32866 Y0.49952
G01 X-0.32858 Y0.49945
G01 X-0.32866 Y0.49952
G01 X-0.32817 Y0.50032
G01 X-0.32455 Y0.50599
G01 X-0.32866 Y0.49952
G01 X-0.32976 Y0.49838
G01 X-0.33068 Y0.49794
G01 X-0.33201 Y0.49769
G01 X-0.34648 Y0.49770
G01 X-0.34377 Y0.49676
G01 X-0.34027 Y0.49473
G01 X-0.33878 Y0.49356
G01 X-0.33638 Y0.49104
G01 X-0.32283 Y0.49104
G01 X-0.32255 Y0.49563
G01 X-0.32151 Y0.49949
G01 X-0.31951 Y0.50344
G01 X-0.31723 Y0.50632
G01 X-0.31951 Y0.50344
G01 X-0.32151 Y0.49949
G01 X-0.32255 Y0.49563
G01 X-0.32283 Y0.49104
G01 X-0.33638 Y0.49104
G01 X-0.33878 Y0.49356
G01 X-0.34059 Y0.49493
G01 X-0.34411 Y0.49692
G01 X-0.34804 Y0.49809
G01 X-0.35162 Y0.49843
G01 X-0.37180 Y0.49843
G01 X-0.37492 Y0.49817
G01 X-0.37691 Y0.49770
G01 X-0.45788 Y0.52343
G01 X-0.45874 Y0.52386
G01 X-0.45971 Y0.52373
G01 X-0.51756 Y0.50888
G01 X-0.51958 Y0.51025
G01 X-0.52214 Y0.51138
G01 X-0.52214 Y0.52373
G01 X-0.51915 Y0.52424
G01 X-0.51629 Y0.52531
G01 X-0.49827 Y0.53764
G01 X-0.49700 Y0.53437
G01 X-0.49579 Y0.53231
G01 X-0.49828 Y0.53342
G01 X-0.49827 Y0.53764
G01 X-0.50565 Y0.53784
G01 X-0.50567 Y0.53342
G01 X-0.50565 Y0.53784
G01 X-0.49827 Y0.53764
G01 X-0.49884 Y0.54042
G01 X-0.49897 Y0.54210
G01 X-0.49901 Y0.56352
G01 X-0.49828 Y0.56843
G01 X-0.49830 Y0.58099
G01 X-0.49838 Y0.58166
G01 X-0.49889 Y0.58291
G01 X-0.49855 Y0.58308
G01 X-0.49889 Y0.58291
G01 X-0.50146 Y0.58572
G01 X-0.50556 Y0.58950
G01 X-0.50146 Y0.58572
G01 X-0.49930 Y0.58344
G01 X-0.49858 Y0.58231
G01 X-0.49830 Y0.58099
G01 X-0.49826 Y0.57919
G01 X-0.49828 Y0.56843
G01 X-0.49682 Y0.57211
G01 X-0.49447 Y0.57564
G01 X-0.49185 Y0.57822
G01 X-0.48847 Y0.58036
G01 X-0.56254 Y0.65443
G01 X-0.64907 Y0.65443
G01 X-0.65073 Y0.65039
G01 X-0.65522 Y0.50298
G01 X-0.65344 Y0.50035
G01 X-0.65118 Y0.49619
G01 X-0.64904 Y0.49104
G01 X-0.64271 Y0.49104
G01 X-0.64266 Y0.49333
G01 X-0.64218 Y0.49688
G01 X-0.64124 Y0.49989
G01 X-0.63970 Y0.50292
G01 X-0.64708 Y0.50018
G01 X-0.64701 Y0.49878
G01 X-0.64708 Y0.50018
G01 X-0.63970 Y0.50292
G01 X-0.64124 Y0.49989
G01 X-0.64218 Y0.49688
G01 X-0.64266 Y0.49333
G01 X-0.64271 Y0.49104
G01 X-0.64904 Y0.49104
G01 X-0.65118 Y0.49619
G01 X-0.65344 Y0.50035
G01 X-0.65522 Y0.50298
G01 X-0.73474 Y0.60731
G01 X-0.73474 Y0.60911
G01 X-0.73347 Y0.61039
G01 X-0.71418 Y0.62428
G01 X-0.71794 Y0.62592
G01 X-0.72121 Y0.62264
G01 X-0.73474 Y0.52532
G01 X-0.73474 Y0.51629
G01 X-0.73229 Y0.52136
G01 X-0.73474 Y0.51629
G01 X-0.73474 Y0.50664
G01 X-0.73145 Y0.51020
G01 X-0.72801 Y0.51326
G01 X-0.72586 Y0.51772
G01 X-0.72175 Y0.51755
G01 X-0.72418 Y0.51609
G01 X-0.72792 Y0.51334
G01 X-0.73145 Y0.51020
G01 X-0.73474 Y0.50665
G01 X-0.73642 Y0.50167
G01 X-0.73788 Y0.49645
G01 X-0.73892 Y0.49180
G01 X-0.74016 Y0.48362
G01 X-0.74052 Y0.47901
G01 X-0.74064 Y0.47451
G01 X-0.74054 Y0.47000
G01 X-0.73989 Y0.46274
G01 X-0.73925 Y0.45859
G01 X-0.73774 Y0.45162
G01 X-0.73645 Y0.44707
G01 X-0.73157 Y0.44160
G01 X-0.72678 Y0.43696
G01 X-0.72362 Y0.43423
G01 X-0.71825 Y0.43009
G01 X-0.71447 Y0.42751
G01 X-0.69582 Y0.40886
G01 X-0.69689 Y0.41427
G01 X-0.70472 Y0.41776
G01 X-0.71447 Y0.42751
G01 X-0.71119 Y0.42636
G01 X-0.70727 Y0.42531
G01 X-0.70365 Y0.42465
G01 X-0.70157 Y0.42444
G01 X-0.69441 Y0.42124
G01 X-0.70157 Y0.42444
G01 X-0.69810 Y0.42416
G01 X-0.69374 Y0.42418
G01 X-0.69069 Y0.42449
G04 P0 ( dwell for no time -- G64 should not smooth over this point )
G00 Z0.05906 ( retract )

G00 X-0.65510 Y0.44577 ( rapid move to begin. )
G01 F19.68504
( Mill infeed pass 1/1 )
G01 Z-0.00354
G04 P0 ( dwell for no time -- G64 should not smooth over this point )
G01 F39.37008
G01 X-0.65510 Y0.44577
G01 X-0.65317 Y0.44873
G01 X-0.65113 Y0.45257
G01 X-0.64904 Y0.45758
G01 X-0.64271 Y0.45758
G01 X-0.64266 Y0.45529
G01 X-0.64218 Y0.45174
G01 X-0.64124 Y0.44873
G01 X-0.63970 Y0.44570
G01 X-0.64718 Y0.44847
G01 X-0.64715 Y0.44959
G04 P0 ( dwell for no time -- G64 should not smooth over this point )
G00 Z0.05906 ( retract )

G00 X-0.74491 Y0.64628 ( rapid move to begin. )
G01 F19.68504
( Mill infeed pass 1/1 )
G01 Z-0.00354
G04 P0 ( dwell for no time -- G64 should not smooth over this point )
G01 F39.37008
G01 X-0.74491 Y0.64628
G01 X-0.74164 Y0.64954
G01 X-0.74327 Y0.65334

G04 P0 ( dwell for no time -- G64 should not smooth over this point )
G00 Z0.393701 ( retract )

M5 ( Spindle off. )
G04 P1.000000
M9 ( Coolant off. )
M2 ( Program end. )

