( pcb2gcode 3.0.2 )
( Software-independent Gcode )

G94 ( Inches per minute feed rate. )
G20 ( Units == INCHES. )

G90 ( Absolute coordinates. )
G00 S12000 ( RPM spindle speed. )
G64 P0.00040 ( set maximum deviation from commanded toolpath )
G01 F360.00000 ( Feedrate. )


G00 Z1.00000 (Retract to tool change height)
T1
M5      (Spindle stop.)
G04 P1.00000 (Wait for spindle to stop)
(MSG, Change tool bit to mill diameter 0.00000in)
M6      (Tool change.)
M0      (Temporary machine stop.)
M3 ( Spindle on clockwise. )
G04 P1.00000 (Wait for spindle to get up to speed)
G04 P0 ( dwell for no time -- G64 should not smooth over this point )
G00 Z0.08000 ( retract )

G00 X2.05000 Y-0.00490 ( rapid move to begin. )
G01 F180.00000
( Mill infeed pass 1/1 )
G01 Z-0.04000
G04 P0 ( dwell for no time -- G64 should not smooth over this point )
G01 F360.00000
G01 X2.05000 Y-0.00490
G01 X2.00492 Y-0.00492
G01 X2.00490 Y-0.05041
G01 X2.00477 Y-0.05121
G01 X2.00433 Y-0.05234
G01 X2.00333 Y-0.05362
G01 X2.00198 Y-0.05451
G01 X2.00081 Y-0.05485
G01 X2.00000 Y-0.05492
G01 X1.99919 Y-0.05485
G01 X1.99802 Y-0.05451
G01 X1.99667 Y-0.05362
G01 X1.99567 Y-0.05234
G01 X1.99523 Y-0.05121
G01 X1.99510 Y-0.05041
G01 X1.99508 Y-0.00492
G01 X1.94959 Y-0.00490
G01 X1.94879 Y-0.00477
G01 X1.94766 Y-0.00433
G01 X1.94698 Y-0.00388
G01 X1.94612 Y-0.00302
G01 X1.94567 Y-0.00234
G01 X1.94523 Y-0.00121
G01 X1.94510 Y0.00041
G01 X1.94523 Y0.00121
G01 X1.94567 Y0.00234
G01 X1.94667 Y0.00362
G01 X1.94802 Y0.00451
G01 X1.94959 Y0.00490
G01 X1.99508 Y0.00492
G01 X1.99510 Y0.05000
G01 X2.00490 Y0.05000
G01 X2.00492 Y0.00492
G01 X2.05000 Y0.00490
G01 X2.05000 Y-0.00490
G01 X1.83699 Y-0.59286
G01 X1.83665 Y-0.58765
G01 X1.83561 Y-0.58254
G01 X1.83392 Y-0.57761
G01 X1.83217 Y-0.57399
G01 X1.82984 Y-0.57024
G01 X1.82711 Y-0.56677
G01 X1.82430 Y-0.56390
G01 X1.82121 Y-0.56134
G01 X1.81754 Y-0.55890
G01 X1.81361 Y-0.55688
G01 X1.80986 Y-0.55544
G01 X1.80560 Y-0.55430
G01 X1.80163 Y-0.55369
G01 X1.79722 Y-0.55349
G01 X1.79321 Y-0.55373
G01 X1.78925 Y-0.55439
G01 X1.78538 Y-0.55544
G01 X1.78163 Y-0.55688
G01 X1.77770 Y-0.55890
G01 X1.77371 Y-0.56158
G01 X1.77007 Y-0.56473
G01 X1.64651 Y-0.68829
G01 X1.64651 Y-0.42619
G01 X1.64622 Y-0.42138
G01 X1.64561 Y-0.41782
G01 X1.64468 Y-0.41433
G01 X1.64344 Y-0.41094
G01 X1.64207 Y-0.40803
G01 X1.64026 Y-0.40490
G01 X1.63842 Y-0.40228
G01 X1.63610 Y-0.39951
G01 X1.63382 Y-0.39724
G01 X1.63106 Y-0.39491
G01 X1.62843 Y-0.39307
G01 X1.62566 Y-0.39144
G01 X1.62240 Y-0.38989
G01 X1.61900 Y-0.38865
G01 X1.61551 Y-0.38772
G01 X1.61235 Y-0.38716
G01 X1.60875 Y-0.38685
G01 X1.60474 Y-0.38689
G01 X1.60114 Y-0.38728
G01 X1.59760 Y-0.38799
G01 X1.59376 Y-0.38916
G01 X1.59006 Y-0.39072
G01 X1.58654 Y-0.39264
G01 X1.58323 Y-0.39491
G01 X1.58046 Y-0.39724
G01 X1.57792 Y-0.39981
G01 X1.57539 Y-0.40292
G01 X1.57318 Y-0.40627
G01 X1.57133 Y-0.40984
G01 X1.56985 Y-0.41357
G01 X1.56885 Y-0.41704
G01 X1.56812 Y-0.42098
G01 X1.56781 Y-0.42458
G01 X1.56779 Y-0.92739
G01 X1.56817 Y-0.93179
G01 X1.56905 Y-0.93612
G01 X1.57040 Y-0.94032
G01 X1.57240 Y-0.94470
G01 X1.57469 Y-0.94848
G01 X1.57739 Y-0.95197
G01 X1.58076 Y-0.95541
G01 X1.58420 Y-0.95818
G01 X1.58792 Y-0.96055
G01 X1.59189 Y-0.96249
G01 X1.59605 Y-0.96396
G01 X1.60075 Y-0.96504
G01 X1.60514 Y-0.96551
G01 X1.60955 Y-0.96549
G01 X1.61394 Y-0.96497
G01 X1.61823 Y-0.96396
G01 X1.62240 Y-0.96249
G01 X1.62636 Y-0.96055
G01 X1.63009 Y-0.95818
G01 X1.63353 Y-0.95541
G01 X1.63663 Y-0.95227
G01 X1.63937 Y-0.94881
G01 X1.64170 Y-0.94506
G01 X1.64359 Y-0.94107
G01 X1.64480 Y-0.93767
G01 X1.64570 Y-0.93417
G01 X1.64627 Y-0.93060
G01 X1.64650 Y-0.92699
G01 X1.64651 Y-0.79964
G01 X1.65050 Y-0.79565
G01 X1.76637 Y-0.95013
G01 X1.76842 Y-0.95260
G01 X1.77038 Y-0.95461
G01 X1.77248 Y-0.95649
G01 X1.77470 Y-0.95820
G01 X1.77914 Y-0.96095
G01 X1.78390 Y-0.96309
G01 X1.78890 Y-0.96458
G01 X1.79166 Y-0.96510
G01 X1.79445 Y-0.96543
G01 X1.79966 Y-0.96551
G01 X1.80484 Y-0.96489
G01 X1.80990 Y-0.96360
G01 X1.81473 Y-0.96164
G01 X1.81722 Y-0.96033
G01 X1.81961 Y-0.95885
G01 X1.82373 Y-0.95566
G01 X1.82740 Y-0.95194
G01 X1.83054 Y-0.94778
G01 X1.83311 Y-0.94324
G01 X1.83505 Y-0.93840
G01 X1.83634 Y-0.93334
G01 X1.83675 Y-0.93056
G01 X1.83696 Y-0.92776
G01 X1.83696 Y-0.92455
G01 X1.83669 Y-0.92135
G01 X1.83617 Y-0.91818
G01 X1.83539 Y-0.91506
G01 X1.83435 Y-0.91202
G01 X1.83308 Y-0.90907
G01 X1.83177 Y-0.90659
G01 X1.83005 Y-0.90387
G01 X1.70675 Y-0.73941
G01 X1.82546 Y-0.62069
G01 X1.82865 Y-0.61709
G01 X1.83158 Y-0.61277
G01 X1.83392 Y-0.60811
G01 X1.83561 Y-0.60318
G01 X1.83665 Y-0.59806
G01 X1.83699 Y-0.59286
G04 P0 ( dwell for no time -- G64 should not smooth over this point )
G00 Z0.08000 ( retract )

G00 X1.43219 Y-0.61484 ( rapid move to begin. )
G01 F180.00000
( Mill infeed pass 1/1 )
G01 Z-0.04000
G04 P0 ( dwell for no time -- G64 should not smooth over this point )
G01 F360.00000
G01 X1.43219 Y-0.61484
G01 X1.43208 Y-0.62006
G01 X1.43138 Y-0.62482
G01 X1.42996 Y-0.62984
G01 X1.42807 Y-0.63427
G01 X1.42544 Y-0.63877
G01 X1.42249 Y-0.64258
G01 X1.41911 Y-0.64601
G01 X1.41500 Y-0.64922
G01 X1.41085 Y-0.65168
G01 X1.40607 Y-0.65375
G01 X1.40300 Y-0.65471
G01 X1.40026 Y-0.65533
G01 X1.39709 Y-0.65581
G01 X1.39388 Y-0.65602
G01 X1.39067 Y-0.65597
G01 X1.38747 Y-0.65567
G01 X1.38431 Y-0.65510
G01 X1.38121 Y-0.65427
G01 X1.37855 Y-0.65334
G01 X1.37561 Y-0.65206
G01 X1.33595 Y-0.63223
G01 X1.25929 Y-0.63223
G01 X1.22570 Y-0.64902
G01 X1.21093 Y-0.66380
G01 X1.19413 Y-0.69739
G01 X1.19413 Y-0.82166
G01 X1.21093 Y-0.85525
G01 X1.22570 Y-0.87002
G01 X1.25930 Y-0.88682
G01 X1.33595 Y-0.88682
G01 X1.37561 Y-0.86699
G01 X1.37893 Y-0.86556
G01 X1.38236 Y-0.86443
G01 X1.38549 Y-0.86370
G01 X1.38907 Y-0.86319
G01 X1.39227 Y-0.86301
G01 X1.39589 Y-0.86313
G01 X1.39907 Y-0.86350
G01 X1.40261 Y-0.86424
G01 X1.40607 Y-0.86529
G01 X1.40905 Y-0.86649
G01 X1.41262 Y-0.86833
G01 X1.41630 Y-0.87075
G01 X1.41970 Y-0.87358
G01 X1.42275 Y-0.87676
G01 X1.42521 Y-0.87994
G01 X1.42752 Y-0.88370
G01 X1.42939 Y-0.88770
G01 X1.43080 Y-0.89188
G01 X1.43174 Y-0.89620
G01 X1.43217 Y-0.90019
G01 X1.43217 Y-0.90460
G01 X1.43167 Y-0.90899
G01 X1.43068 Y-0.91329
G01 X1.42938 Y-0.91709
G01 X1.42750 Y-0.92109
G01 X1.42519 Y-0.92485
G01 X1.42247 Y-0.92833
G01 X1.41908 Y-0.93175
G01 X1.41530 Y-0.93473
G01 X1.41118 Y-0.93723
G01 X1.36101 Y-0.96226
G01 X1.35760 Y-0.96357
G01 X1.35409 Y-0.96455
G01 X1.35050 Y-0.96521
G01 X1.34686 Y-0.96553
G01 X1.24960 Y-0.96556
G01 X1.24595 Y-0.96535
G01 X1.24274 Y-0.96488
G01 X1.23764 Y-0.96357
G01 X1.23312 Y-0.96176
G01 X1.18442 Y-0.93741
G01 X1.18001 Y-0.93477
G01 X1.17748 Y-0.93287
G01 X1.17511 Y-0.93077
G01 X1.15073 Y-0.90641
G01 X1.14783 Y-0.90317
G01 X1.14552 Y-0.89996
G01 X1.14336 Y-0.89618
G01 X1.11902 Y-0.84746
G01 X1.11778 Y-0.84446
G01 X1.11680 Y-0.84137
G01 X1.11607 Y-0.83821
G01 X1.11560 Y-0.83500
G01 X1.11539 Y-0.83095
G01 X1.11539 Y-0.68810
G01 X1.11550 Y-0.68526
G01 X1.11580 Y-0.68244
G01 X1.11631 Y-0.67964
G01 X1.11714 Y-0.67651
G01 X1.11807 Y-0.67382
G01 X1.11919 Y-0.67122
G01 X1.14354 Y-0.62252
G01 X1.14618 Y-0.61810
G01 X1.14808 Y-0.61557
G01 X1.15018 Y-0.61320
G01 X1.17454 Y-0.58883
G01 X1.17748 Y-0.58617
G01 X1.18100 Y-0.58361
G01 X1.18478 Y-0.58145
G01 X1.23349 Y-0.55712
G01 X1.23649 Y-0.55588
G01 X1.23958 Y-0.55489
G01 X1.24274 Y-0.55416
G01 X1.24595 Y-0.55370
G01 X1.25000 Y-0.55349
G01 X1.34524 Y-0.55349
G01 X1.34929 Y-0.55370
G01 X1.35290 Y-0.55424
G01 X1.35760 Y-0.55548
G01 X1.36212 Y-0.55729
G01 X1.41082 Y-0.58163
G01 X1.41328 Y-0.58300
G01 X1.41563 Y-0.58455
G01 X1.41817 Y-0.58651
G01 X1.42026 Y-0.58839
G01 X1.42350 Y-0.59195
G01 X1.42650 Y-0.59622
G01 X1.42875 Y-0.60048
G01 X1.43045 Y-0.60498
G01 X1.43167 Y-0.61005
G01 X1.43219 Y-0.61484
G04 P0 ( dwell for no time -- G64 should not smooth over this point )
G00 Z0.08000 ( retract )

G00 X0.90111 Y-0.87805 ( rapid move to begin. )
G01 F180.00000
( Mill infeed pass 1/1 )
G01 Z-0.04000
G04 P0 ( dwell for no time -- G64 should not smooth over this point )
G01 F360.00000
G01 X0.90111 Y-0.87805
G01 X0.90111 Y-0.77421
G01 X0.89731 Y-0.77483
G01 X0.89326 Y-0.77508
G01 X0.78310 Y-0.77508
G01 X0.75554 Y-0.78887
G01 X0.74175 Y-0.81644
G01 X0.74175 Y-0.84547
G01 X0.75554 Y-0.87304
G01 X0.78310 Y-0.88682
G01 X0.88356 Y-0.88682
G01 X0.90111 Y-0.87805
G04 P0 ( dwell for no time -- G64 should not smooth over this point )
G00 Z0.08000 ( retract )

G00 X0.55128 Y-0.83095 ( rapid move to begin. )
G01 F180.00000
( Mill infeed pass 1/1 )
G01 Z-0.04000
G04 P0 ( dwell for no time -- G64 should not smooth over this point )
G01 F360.00000
G01 X0.55128 Y-0.83095
G01 X0.55127 Y-0.75871
G01 X0.55107 Y-0.75547
G01 X0.55067 Y-0.75266
G01 X0.54998 Y-0.74949
G01 X0.54916 Y-0.74678
G01 X0.54730 Y-0.74228
G01 X0.52331 Y-0.69430
G01 X0.52178 Y-0.69152
G01 X0.52026 Y-0.68921
G01 X0.51834 Y-0.68669
G01 X0.51621 Y-0.68434
G01 X0.49154 Y-0.65969
G01 X0.48751 Y-0.65630
G01 X0.48311 Y-0.65352
G01 X0.49375 Y-0.64277
G01 X0.49622 Y-0.63968
G01 X0.49838 Y-0.63636
G01 X0.52349 Y-0.58629
G01 X0.52479 Y-0.58332
G01 X0.52584 Y-0.58025
G01 X0.52700 Y-0.57511
G01 X0.52745 Y-0.57026
G01 X0.52747 Y-0.52143
G01 X0.52736 Y-0.51859
G01 X0.52706 Y-0.51577
G01 X0.52655 Y-0.51297
G01 X0.52572 Y-0.50984
G01 X0.52464 Y-0.50678
G01 X0.52349 Y-0.50418
G01 X0.49914 Y-0.45550
G01 X0.49755 Y-0.45276
G01 X0.49599 Y-0.45047
G01 X0.49240 Y-0.44625
G01 X0.46775 Y-0.42161
G01 X0.46507 Y-0.41926
G01 X0.46219 Y-0.41716
G01 X0.45809 Y-0.41479
G01 X0.41047 Y-0.39098
G01 X0.40637 Y-0.38921
G01 X0.40328 Y-0.38822
G01 X0.40012 Y-0.38749
G01 X0.39691 Y-0.38703
G01 X0.39326 Y-0.38682
G01 X0.22619 Y-0.38682
G01 X0.22178 Y-0.38707
G01 X0.21900 Y-0.38748
G01 X0.21357 Y-0.38890
G01 X0.20839 Y-0.39107
G01 X0.20593 Y-0.39243
G01 X0.20165 Y-0.39541
G01 X0.19779 Y-0.39892
G01 X0.19592 Y-0.40102
G01 X0.19420 Y-0.40324
G01 X0.19145 Y-0.40768
G01 X0.19021 Y-0.41020
G01 X0.18917 Y-0.41281
G01 X0.18809 Y-0.41626
G01 X0.18741 Y-0.41940
G01 X0.18695 Y-0.42298
G01 X0.18682 Y-0.42619
G01 X0.18683 Y-0.92699
G01 X0.18712 Y-0.93100
G01 X0.18772 Y-0.93456
G01 X0.18877 Y-0.93843
G01 X0.19021 Y-0.94218
G01 X0.19183 Y-0.94541
G01 X0.19397 Y-0.94881
G01 X0.19644 Y-0.95197
G01 X0.19922 Y-0.95487
G01 X0.20165 Y-0.95697
G01 X0.20457 Y-0.95909
G01 X0.20768 Y-0.96093
G01 X0.21094 Y-0.96249
G01 X0.21433 Y-0.96373
G01 X0.21782 Y-0.96466
G01 X0.22099 Y-0.96521
G01 X0.22459 Y-0.96553
G01 X0.41707 Y-0.96556
G01 X0.41991 Y-0.96543
G01 X0.42273 Y-0.96509
G01 X0.42552 Y-0.96455
G01 X0.42864 Y-0.96369
G01 X0.43132 Y-0.96273
G01 X0.43391 Y-0.96158
G01 X0.48260 Y-0.93723
G01 X0.48534 Y-0.93565
G01 X0.48763 Y-0.93409
G01 X0.49010 Y-0.93211
G01 X0.49212 Y-0.93022
G01 X0.51649 Y-0.90584
G01 X0.51884 Y-0.90317
G01 X0.52093 Y-0.90029
G01 X0.52331 Y-0.89618
G01 X0.54712 Y-0.84856
G01 X0.54889 Y-0.84446
G01 X0.54998 Y-0.84098
G01 X0.55067 Y-0.83781
G01 X0.55111 Y-0.83460
G01 X0.55128 Y-0.83095
G04 P0 ( dwell for no time -- G64 should not smooth over this point )
G00 Z0.08000 ( retract )

G00 X0.47253 Y-0.82166 ( rapid move to begin. )
G01 F180.00000
( Mill infeed pass 1/1 )
G01 Z-0.04000
G04 P0 ( dwell for no time -- G64 should not smooth over this point )
G01 F360.00000
G01 X0.47253 Y-0.82166
G01 X0.45574 Y-0.85525
G01 X0.44097 Y-0.87002
G01 X0.40737 Y-0.88682
G01 X0.26556 Y-0.88682
G01 X0.26556 Y-0.70366
G01 X0.38647 Y-0.70366
G01 X0.44302 Y-0.72250
G01 X0.45574 Y-0.73523
G01 X0.47253 Y-0.76882
G01 X0.47253 Y-0.82166
G01 X0.36180 Y-0.80060
G01 X0.36143 Y-0.80298
G01 X0.36059 Y-0.80523
G01 X0.35932 Y-0.80726
G01 X0.35765 Y-0.80900
G01 X0.35567 Y-0.81036
G01 X0.35384 Y-0.81117
G01 X0.35150 Y-0.81171
G01 X0.34910 Y-0.81178
G01 X0.34673 Y-0.81135
G01 X0.34486 Y-0.81063
G01 X0.34282 Y-0.80937
G01 X0.34107 Y-0.80773
G01 X0.33989 Y-0.80611
G01 X0.33886 Y-0.80393
G01 X0.33830 Y-0.80160
G01 X0.33820 Y-0.79960
G01 X0.33852 Y-0.79722
G01 X0.33932 Y-0.79495
G01 X0.34056 Y-0.79290
G01 X0.34220 Y-0.79113
G01 X0.34415 Y-0.78974
G01 X0.34597 Y-0.78890
G01 X0.34830 Y-0.78831
G01 X0.35070 Y-0.78821
G01 X0.35268 Y-0.78850
G01 X0.35496 Y-0.78928
G01 X0.35702 Y-0.79050
G01 X0.35880 Y-0.79212
G01 X0.36021 Y-0.79407
G01 X0.36107 Y-0.79588
G01 X0.36167 Y-0.79820
G01 X0.36180 Y-0.80060
G04 P0 ( dwell for no time -- G64 should not smooth over this point )
G00 Z0.08000 ( retract )

G00 X0.08340 Y-0.53675 ( rapid move to begin. )
G01 F180.00000
( Mill infeed pass 1/1 )
G01 Z-0.04000
G04 P0 ( dwell for no time -- G64 should not smooth over this point )
G01 F360.00000
G01 X0.08340 Y-0.53675
G01 X0.08292 Y-0.53480
G01 X0.08183 Y-0.53312
G01 X0.08092 Y-0.53233
G01 X0.07987 Y-0.53173
G01 X0.07792 Y-0.53126
G01 X0.07592 Y-0.53146
G01 X0.07411 Y-0.53232
G01 X0.07319 Y-0.53311
G01 X0.07246 Y-0.53407
G01 X0.07194 Y-0.53516
G01 X0.06344 Y-0.55896
G01 X0.05494 Y-0.53516
G01 X0.05396 Y-0.53341
G01 X0.05310 Y-0.53256
G01 X0.05173 Y-0.53173
G01 X0.05018 Y-0.53130
G01 X0.04857 Y-0.53130
G01 X0.04702 Y-0.53173
G01 X0.04565 Y-0.53257
G01 X0.04480 Y-0.53343
G01 X0.04396 Y-0.53480
G01 X0.04349 Y-0.53675
G01 X0.04370 Y-0.53875
G01 X0.05713 Y-0.57640
G01 X0.05279 Y-0.58726
G01 X0.05151 Y-0.58854
G01 X0.04674 Y-0.59092
G01 X0.04572 Y-0.59157
G01 X0.04461 Y-0.59273
G01 X0.04372 Y-0.59453
G01 X0.04350 Y-0.59571
G01 X0.04352 Y-0.59692
G01 X0.04393 Y-0.59848
G01 X0.04451 Y-0.59954
G01 X0.04559 Y-0.60073
G01 X0.04659 Y-0.60141
G01 X0.04771 Y-0.60186
G01 X0.04889 Y-0.60209
G01 X0.05010 Y-0.60206
G01 X0.05166 Y-0.60165
G01 X0.05830 Y-0.59829
G01 X0.06199 Y-0.59475
G01 X0.06314 Y-0.59314
G01 X0.06900 Y-0.57850
G01 X0.08319 Y-0.53875
G01 X0.08340 Y-0.53675
G04 P0 ( dwell for no time -- G64 should not smooth over this point )
G00 Z0.08000 ( retract )

G00 X0.10491 Y-0.50041 ( rapid move to begin. )
G01 F180.00000
( Mill infeed pass 1/1 )
G01 Z-0.04000
G04 P0 ( dwell for no time -- G64 should not smooth over this point )
G01 F360.00000
G01 X0.10491 Y-0.50041
G01 X0.10477 Y-0.50121
G01 X0.10433 Y-0.50234
G01 X0.10333 Y-0.50362
G01 X0.10198 Y-0.50451
G01 X0.10041 Y-0.50490
G01 X0.05000 Y-0.50492
G01 X0.04919 Y-0.50485
G01 X0.04802 Y-0.50451
G01 X0.04638 Y-0.50333
G01 X0.04549 Y-0.50198
G01 X0.04515 Y-0.50081
G01 X0.04508 Y-0.50000
G01 X0.04515 Y-0.49919
G01 X0.04549 Y-0.49802
G01 X0.04638 Y-0.49667
G01 X0.04766 Y-0.49567
G01 X0.04879 Y-0.49523
G01 X0.04959 Y-0.49510
G01 X0.10000 Y-0.49508
G01 X0.10081 Y-0.49515
G01 X0.10198 Y-0.49549
G01 X0.10302 Y-0.49612
G01 X0.10362 Y-0.49667
G01 X0.10433 Y-0.49766
G01 X0.10465 Y-0.49840
G01 X0.10485 Y-0.49919
G01 X0.10491 Y-0.50041
G04 P0 ( dwell for no time -- G64 should not smooth over this point )
G00 Z0.08000 ( retract )

G00 X0.15001 Y-0.56548 ( rapid move to begin. )
G01 F180.00000
( Mill infeed pass 1/1 )
G01 Z-0.04000
G04 P0 ( dwell for no time -- G64 should not smooth over this point )
G01 F360.00000
G01 X0.15001 Y-0.56548
G01 X0.15024 Y-0.56517
G01 X0.15085 Y-0.56326
G01 X0.15089 Y-0.54518
G01 X0.15085 Y-0.54639
G01 X0.15024 Y-0.54830
G01 X0.14903 Y-0.54990
G01 X0.14735 Y-0.55100
G01 X0.14540 Y-0.55148
G01 X0.10000 Y-0.55149
G01 X0.09880 Y-0.55136
G01 X0.09765 Y-0.55100
G01 X0.09597 Y-0.54990
G01 X0.09518 Y-0.54899
G01 X0.09458 Y-0.54794
G01 X0.09422 Y-0.54678
G01 X0.09410 Y-0.54558
G01 X0.09444 Y-0.54361
G01 X0.09542 Y-0.54186
G01 X0.09693 Y-0.54054
G01 X0.09802 Y-0.54002
G01 X0.09920 Y-0.53973
G01 X0.14499 Y-0.53968
G01 X0.14620 Y-0.53980
G01 X0.14735 Y-0.54017
G01 X0.14840 Y-0.54076
G01 X0.14958 Y-0.54186
G01 X0.15024 Y-0.54287
G01 X0.15068 Y-0.54399
G01 X0.15089 Y-0.54518
G01 X0.15089 Y-0.56205
G01 X0.15001 Y-0.56548
G01 X0.14903 Y-0.56677
G01 X0.14735 Y-0.56787
G01 X0.14540 Y-0.56835
G01 X0.10000 Y-0.56836
G01 X0.09880 Y-0.56824
G01 X0.09765 Y-0.56787
G01 X0.09659 Y-0.56728
G01 X0.09569 Y-0.56649
G01 X0.09458 Y-0.56481
G01 X0.09422 Y-0.56366
G01 X0.09410 Y-0.56246
G01 X0.09444 Y-0.56048
G01 X0.09542 Y-0.55873
G01 X0.09693 Y-0.55741
G01 X0.09802 Y-0.55689
G01 X0.09920 Y-0.55661
G01 X0.14499 Y-0.55655
G01 X0.14620 Y-0.55668
G01 X0.14735 Y-0.55704
G01 X0.14840 Y-0.55763
G01 X0.14958 Y-0.55873
G01 X0.15024 Y-0.55974
G01 X0.15068 Y-0.56086
G01 X0.15089 Y-0.56205
G01 X0.12137 Y-0.67691
G01 X0.12132 Y-0.63674
G01 X0.12103 Y-0.63556
G01 X0.12051 Y-0.63447
G01 X0.11919 Y-0.63296
G01 X0.11745 Y-0.63198
G01 X0.11547 Y-0.63164
G01 X0.11427 Y-0.63176
G01 X0.11312 Y-0.63213
G01 X0.11206 Y-0.63272
G01 X0.11115 Y-0.63351
G01 X0.11005 Y-0.63519
G01 X0.10969 Y-0.63634
G01 X0.10956 Y-0.63754
G01 X0.10962 Y-0.67772
G01 X0.11005 Y-0.67926
G01 X0.11115 Y-0.68094
G01 X0.11275 Y-0.68215
G01 X0.11466 Y-0.68276
G01 X0.11587 Y-0.68280
G01 X0.11706 Y-0.68260
G01 X0.11818 Y-0.68215
G01 X0.11919 Y-0.68149
G01 X0.12029 Y-0.68032
G01 X0.12088 Y-0.67926
G01 X0.12125 Y-0.67811
G01 X0.12415 Y-0.62127
G01 X0.12377 Y-0.62284
G01 X0.12298 Y-0.62424
G01 X0.11934 Y-0.62794
G01 X0.11834 Y-0.62864
G01 X0.11721 Y-0.62912
G01 X0.11601 Y-0.62936
G01 X0.11479 Y-0.62935
G01 X0.11330 Y-0.62897
G01 X0.11190 Y-0.62819
G01 X0.10795 Y-0.62424
G01 X0.10732 Y-0.62321
G01 X0.10684 Y-0.62167
G01 X0.10675 Y-0.62047
G01 X0.10692 Y-0.61927
G01 X0.10732 Y-0.61813
G01 X0.10795 Y-0.61710
G01 X0.11174 Y-0.61328
G01 X0.11257 Y-0.61271
G01 X0.11368 Y-0.61223
G01 X0.11486 Y-0.61198
G01 X0.11607 Y-0.61198
G01 X0.11745 Y-0.61229
G01 X0.11887 Y-0.61303
G01 X0.12273 Y-0.61679
G01 X0.12343 Y-0.61777
G01 X0.12391 Y-0.61888
G01 X0.12415 Y-0.62006
G01 X0.12415 Y-0.62127
G04 P0 ( dwell for no time -- G64 should not smooth over this point )
G00 Z0.08000 ( retract )

G00 X0.03979 Y-0.67470 ( rapid move to begin. )
G01 F180.00000
( Mill infeed pass 1/1 )
G01 Z-0.04000
G04 P0 ( dwell for no time -- G64 should not smooth over this point )
G01 F360.00000
G01 X0.03979 Y-0.67470
G01 X0.03941 Y-0.67627
G01 X0.03862 Y-0.67767
G01 X0.03499 Y-0.68136
G01 X0.03400 Y-0.68206
G01 X0.03289 Y-0.68254
G01 X0.03171 Y-0.68279
G01 X0.03050 Y-0.68279
G01 X0.02903 Y-0.68244
G01 X0.02763 Y-0.68169
G01 X0.02359 Y-0.67767
G01 X0.02296 Y-0.67664
G01 X0.02255 Y-0.67550
G01 X0.02239 Y-0.67430
G01 X0.02255 Y-0.67270
G01 X0.02296 Y-0.67156
G01 X0.02358 Y-0.67053
G01 X0.02738 Y-0.66671
G01 X0.02839 Y-0.66604
G01 X0.02951 Y-0.66560
G01 X0.03070 Y-0.66539
G01 X0.03171 Y-0.66541
G01 X0.03308 Y-0.66572
G01 X0.03451 Y-0.66646
G01 X0.03837 Y-0.67022
G01 X0.03906 Y-0.67121
G01 X0.03954 Y-0.67231
G01 X0.03979 Y-0.67350
G01 X0.03979 Y-0.67470
G04 P0 ( dwell for no time -- G64 should not smooth over this point )
G00 Z0.08000 ( retract )

G00 X0.09606 Y-0.65160 ( rapid move to begin. )
G01 F180.00000
( Mill infeed pass 1/1 )
G01 Z-0.04000
G04 P0 ( dwell for no time -- G64 should not smooth over this point )
G01 F360.00000
G01 X0.09606 Y-0.65160
G01 X0.09595 Y-0.65044
G01 X0.09560 Y-0.64932
G01 X0.09202 Y-0.64237
G01 X0.08783 Y-0.63827
G01 X0.08155 Y-0.63507
G01 X0.08046 Y-0.63465
G01 X0.07891 Y-0.63445
G01 X0.06485 Y-0.63445
G01 X0.06348 Y-0.63461
G01 X0.06457 Y-0.62376
G01 X0.08775 Y-0.62375
G01 X0.08970 Y-0.62327
G01 X0.09107 Y-0.62244
G01 X0.09217 Y-0.62126
G01 X0.09276 Y-0.62021
G01 X0.09320 Y-0.61866
G01 X0.09320 Y-0.61705
G01 X0.09276 Y-0.61550
G01 X0.09217 Y-0.61445
G01 X0.09107 Y-0.61328
G01 X0.09006 Y-0.61261
G01 X0.08894 Y-0.61217
G01 X0.08735 Y-0.61195
G01 X0.05883 Y-0.61196
G01 X0.05729 Y-0.61228
G01 X0.05588 Y-0.61299
G01 X0.05498 Y-0.61375
G01 X0.05404 Y-0.61502
G01 X0.05358 Y-0.61611
G01 X0.05335 Y-0.61727
G01 X0.05054 Y-0.64539
G01 X0.05054 Y-0.64660
G01 X0.05079 Y-0.64778
G01 X0.05171 Y-0.64955
G01 X0.05285 Y-0.65069
G01 X0.05425 Y-0.65147
G01 X0.05581 Y-0.65185
G01 X0.05702 Y-0.65185
G01 X0.05820 Y-0.65160
G01 X0.05931 Y-0.65112
G01 X0.06029 Y-0.65043
G01 X0.06272 Y-0.64802
G01 X0.06624 Y-0.64626
G01 X0.07752 Y-0.64626
G01 X0.08104 Y-0.64802
G01 X0.08249 Y-0.64948
G01 X0.08425 Y-0.65300
G01 X0.08425 Y-0.66427
G01 X0.08249 Y-0.66779
G01 X0.08104 Y-0.66925
G01 X0.07752 Y-0.67101
G01 X0.06624 Y-0.67101
G01 X0.06272 Y-0.66925
G01 X0.05965 Y-0.66635
G01 X0.05858 Y-0.66579
G01 X0.05742 Y-0.66547
G01 X0.05621 Y-0.66538
G01 X0.05463 Y-0.66566
G01 X0.05352 Y-0.66614
G01 X0.05224 Y-0.66711
G01 X0.05126 Y-0.66839
G01 X0.05068 Y-0.66989
G01 X0.05051 Y-0.67149
G01 X0.05078 Y-0.67307
G01 X0.05126 Y-0.67418
G01 X0.05196 Y-0.67517
G01 X0.05505 Y-0.67827
G01 X0.05625 Y-0.67920
G01 X0.06256 Y-0.68236
G01 X0.06407 Y-0.68276
G01 X0.07969 Y-0.68276
G01 X0.08155 Y-0.68219
G01 X0.08783 Y-0.67900
G01 X0.09152 Y-0.67546
G01 X0.09263 Y-0.67393
G01 X0.09560 Y-0.66795
G01 X0.09601 Y-0.66644
G01 X0.09606 Y-0.65160
G04 P0 ( dwell for no time -- G64 should not smooth over this point )
G00 Z0.08000 ( retract )

G00 X0.17480 Y-0.67691 ( rapid move to begin. )
G01 F180.00000
( Mill infeed pass 1/1 )
G01 Z-0.04000
G04 P0 ( dwell for no time -- G64 should not smooth over this point )
G01 F360.00000
G01 X0.17480 Y-0.67691
G01 X0.17458 Y-0.67851
G01 X0.17394 Y-0.67998
G01 X0.17293 Y-0.68123
G01 X0.17162 Y-0.68215
G01 X0.17010 Y-0.68269
G01 X0.16850 Y-0.68280
G01 X0.16692 Y-0.68248
G01 X0.16549 Y-0.68174
G01 X0.16432 Y-0.68064
G01 X0.16366 Y-0.67963
G01 X0.16321 Y-0.67851
G01 X0.16299 Y-0.67691
G01 X0.16299 Y-0.64737
G01 X0.16169 Y-0.64475
G01 X0.15907 Y-0.64345
G01 X0.15342 Y-0.64345
G01 X0.14990 Y-0.64521
G01 X0.14949 Y-0.64561
G01 X0.14949 Y-0.67691
G01 X0.14915 Y-0.67889
G01 X0.14841 Y-0.68032
G01 X0.14762 Y-0.68123
G01 X0.14666 Y-0.68196
G01 X0.14518 Y-0.68260
G01 X0.14359 Y-0.68282
G01 X0.14200 Y-0.68260
G01 X0.14052 Y-0.68196
G01 X0.13956 Y-0.68123
G01 X0.13877 Y-0.68032
G01 X0.13817 Y-0.67926
G01 X0.13781 Y-0.67811
G01 X0.13768 Y-0.67691
G01 X0.13768 Y-0.63754
G01 X0.13790 Y-0.63595
G01 X0.13854 Y-0.63447
G01 X0.13927 Y-0.63351
G01 X0.14018 Y-0.63272
G01 X0.14124 Y-0.63213
G01 X0.14278 Y-0.63169
G01 X0.14399 Y-0.63165
G01 X0.14518 Y-0.63186
G01 X0.14631 Y-0.63230
G01 X0.14756 Y-0.63317
G01 X0.14974 Y-0.63210
G01 X0.15125 Y-0.63169
G01 X0.16085 Y-0.63165
G01 X0.16275 Y-0.63210
G01 X0.16945 Y-0.63550
G01 X0.17041 Y-0.63633
G01 X0.17117 Y-0.63734
G01 X0.17434 Y-0.64369
G01 X0.17475 Y-0.64520
G01 X0.17480 Y-0.67691
G04 P0 ( dwell for no time -- G64 should not smooth over this point )
G00 Z0.08000 ( retract )

G00 X0.36180 Y-0.55060 ( rapid move to begin. )
G01 F180.00000
( Mill infeed pass 1/1 )
G01 Z-0.04000
G04 P0 ( dwell for no time -- G64 should not smooth over this point )
G01 F360.00000
G01 X0.36180 Y-0.55060
G01 X0.36167 Y-0.54820
G01 X0.36107 Y-0.54588
G01 X0.36021 Y-0.54407
G01 X0.35880 Y-0.54212
G01 X0.35702 Y-0.54050
G01 X0.35496 Y-0.53928
G01 X0.35268 Y-0.53850
G01 X0.35070 Y-0.53821
G01 X0.34830 Y-0.53831
G01 X0.34597 Y-0.53890
G01 X0.34415 Y-0.53974
G01 X0.34220 Y-0.54113
G01 X0.34056 Y-0.54290
G01 X0.33932 Y-0.54495
G01 X0.33852 Y-0.54722
G01 X0.33820 Y-0.54960
G01 X0.33830 Y-0.55160
G01 X0.33886 Y-0.55393
G01 X0.33989 Y-0.55611
G01 X0.34107 Y-0.55773
G01 X0.34282 Y-0.55937
G01 X0.34486 Y-0.56063
G01 X0.34673 Y-0.56135
G01 X0.34910 Y-0.56178
G01 X0.35150 Y-0.56171
G01 X0.35384 Y-0.56117
G01 X0.35567 Y-0.56036
G01 X0.35765 Y-0.55900
G01 X0.35932 Y-0.55726
G01 X0.36059 Y-0.55523
G01 X0.36143 Y-0.55298
G01 X0.36180 Y-0.55060
G01 X0.44873 Y-0.55975
G01 X0.44873 Y-0.53072
G01 X0.43193 Y-0.49713
G01 X0.41716 Y-0.48236
G01 X0.38356 Y-0.46556
G01 X0.26556 Y-0.46556
G01 X0.26556 Y-0.62491
G01 X0.38356 Y-0.62491
G01 X0.41716 Y-0.60812
G01 X0.43193 Y-0.59335
G01 X0.44873 Y-0.55975
G04 P0 ( dwell for no time -- G64 should not smooth over this point )
G00 Z0.08000 ( retract )

G00 X0.98340 Y0.00462 ( rapid move to begin. )
G01 F180.00000
( Mill infeed pass 1/1 )
G01 Z-0.04000
G04 P0 ( dwell for no time -- G64 should not smooth over this point )
G01 F360.00000
G01 X0.98340 Y0.00462
G01 X0.98335 Y0.00341
G01 X0.98275 Y0.00150
G01 X0.98153 Y-0.00010
G01 X0.97986 Y-0.00120
G01 X0.97791 Y-0.00167
G01 X0.93251 Y-0.00169
G01 X0.93131 Y-0.00156
G01 X0.93016 Y-0.00120
G01 X0.92848 Y-0.00010
G01 X0.92769 Y0.00081
G01 X0.92709 Y0.00186
G01 X0.92673 Y0.00302
G01 X0.92660 Y0.00422
G01 X0.92694 Y0.00619
G01 X0.92793 Y0.00794
G01 X0.92944 Y0.00926
G01 X0.93053 Y0.00978
G01 X0.93171 Y0.01007
G01 X0.97750 Y0.01012
G01 X0.97870 Y0.01000
G01 X0.97986 Y0.00963
G01 X0.98091 Y0.00904
G01 X0.98208 Y0.00794
G01 X0.98275 Y0.00693
G01 X0.98319 Y0.00581
G01 X0.98340 Y0.00462
G01 X0.98335 Y-0.01346
G01 X0.98275 Y-0.01537
G01 X0.98153 Y-0.01697
G01 X0.97986 Y-0.01807
G01 X0.97791 Y-0.01854
G01 X0.93251 Y-0.01856
G01 X0.93131 Y-0.01843
G01 X0.93016 Y-0.01807
G01 X0.92848 Y-0.01697
G01 X0.92769 Y-0.01606
G01 X0.92709 Y-0.01501
G01 X0.92673 Y-0.01385
G01 X0.92660 Y-0.01265
G01 X0.92694 Y-0.01068
G01 X0.92793 Y-0.00893
G01 X0.92944 Y-0.00761
G01 X0.93053 Y-0.00709
G01 X0.93171 Y-0.00680
G01 X0.97750 Y-0.00675
G01 X0.97870 Y-0.00687
G01 X0.97986 Y-0.00724
G01 X0.98091 Y-0.00783
G01 X0.98208 Y-0.00893
G01 X0.98275 Y-0.00994
G01 X0.98319 Y-0.01106
G01 X0.98340 Y-0.01225
G01 X0.97985 Y-0.66429
G01 X1.00492 Y-0.10000
G01 X1.00486 Y-0.10081
G01 X1.00451 Y-0.10198
G01 X1.00388 Y-0.10302
G01 X1.00333 Y-0.10362
G01 X1.00234 Y-0.10433
G01 X1.00081 Y-0.10485
G01 X0.99960 Y-0.10490
G01 X0.99879 Y-0.10477
G01 X0.99766 Y-0.10433
G01 X0.99638 Y-0.10333
G01 X0.99550 Y-0.10198
G01 X0.99510 Y-0.10041
G01 X0.99508 Y-0.05000
G01 X0.99515 Y-0.04919
G01 X0.99550 Y-0.04802
G01 X0.99612 Y-0.04698
G01 X0.99667 Y-0.04638
G01 X0.99802 Y-0.04549
G01 X0.99919 Y-0.04514
G01 X1.00000 Y-0.04508
G01 X1.00081 Y-0.04514
G01 X1.00198 Y-0.04549
G01 X1.00333 Y-0.04638
G01 X1.00433 Y-0.04766
G01 X1.00477 Y-0.04879
G01 X1.00490 Y-0.04959
G01 X1.00492 Y-0.10000
G01 X0.97985 Y-0.66429
G01 X0.91588 Y-0.02601
G01 X0.91585 Y-0.02762
G01 X0.91539 Y-0.02916
G01 X0.91453 Y-0.03052
G01 X0.91366 Y-0.03136
G01 X0.91264 Y-0.03200
G01 X0.91072 Y-0.03258
G01 X0.90871 Y-0.03247
G01 X0.90757 Y-0.03209
G01 X0.90653 Y-0.03148
G01 X0.90537 Y-0.03036
G01 X0.89454 Y-0.01659
G01 X0.88372 Y-0.03036
G01 X0.88257 Y-0.03148
G01 X0.88152 Y-0.03209
G01 X0.88038 Y-0.03247
G01 X0.87837 Y-0.03258
G01 X0.87645 Y-0.03200
G01 X0.87483 Y-0.03082
G01 X0.87388 Y-0.02952
G01 X0.87324 Y-0.02762
G01 X0.87322 Y-0.02601
G01 X0.87379 Y-0.02409
G01 X0.87444 Y-0.02307
G01 X0.88704 Y-0.00703
G01 X0.87444 Y0.00901
G01 X0.87379 Y0.01003
G01 X0.87328 Y0.01155
G01 X0.87319 Y0.01316
G04 P0 ( dwell for no time -- G64 should not smooth over this point )
G00 Z0.08000 ( retract )

G00 X0.87319 Y0.01316 ( rapid move to begin. )
G01 F180.00000
( Mill infeed pass 1/1 )
G01 Z-0.04000
G04 P0 ( dwell for no time -- G64 should not smooth over this point )
G01 F360.00000
G01 X0.87319 Y0.01316
G01 X0.87355 Y0.01473
G01 X0.87456 Y0.01646
G01 X0.87610 Y0.01775
G01 X0.87720 Y0.01825
G01 X0.87837 Y0.01852
G01 X0.87958 Y0.01854
G01 X0.88077 Y0.01831
G01 X0.88257 Y0.01742
G01 X0.88372 Y0.01630
G01 X0.89454 Y0.00253
G01 X0.90537 Y0.01630
G01 X0.90653 Y0.01742
G01 X0.90832 Y0.01831
G01 X0.91031 Y0.01855
G01 X0.91227 Y0.01811
G01 X0.91366 Y0.01730
G01 X0.91501 Y0.01581
G01 X0.91577 Y0.01395
G01 X0.91588 Y0.01195
G01 X0.91530 Y0.01003
G01 X0.91466 Y0.00901
G01 X0.90206 Y-0.00703
G01 X0.91466 Y-0.02307
G01 X0.91530 Y-0.02409
G01 X0.91588 Y-0.02601
G01 X0.97985 Y-0.66429
G01 X0.97984 Y-0.92699
G01 X0.97968 Y-0.92980
G01 X0.97933 Y-0.93259
G01 X0.97867 Y-0.93573
G01 X0.97790 Y-0.93843
G01 X0.97693 Y-0.94107
G01 X0.97577 Y-0.94363
G01 X0.97423 Y-0.94645
G01 X0.97270 Y-0.94881
G01 X0.97023 Y-0.95197
G01 X0.96716 Y-0.95514
G01 X0.96375 Y-0.95795
G01 X0.96005 Y-0.96035
G01 X0.95647 Y-0.96217
G01 X0.95234 Y-0.96373
G01 X0.94806 Y-0.96482
G01 X0.94369 Y-0.96543
G01 X0.94008 Y-0.96556
G01 X0.93687 Y-0.96539
G01 X0.93329 Y-0.96490
G01 X0.92977 Y-0.96408
G01 X0.92634 Y-0.96293
G01 X0.92339 Y-0.96166
G01 X0.92022 Y-0.95995
G01 X0.91728 Y-0.95800
G01 X0.90937 Y-0.96193
G01 X0.90522 Y-0.96357
G01 X0.90012 Y-0.96488
G01 X0.89489 Y-0.96551
G01 X0.77381 Y-0.96556
G01 X0.77097 Y-0.96546
G01 X0.76695 Y-0.96496
G01 X0.76339 Y-0.96415
G01 X0.75992 Y-0.96303
G01 X0.75657 Y-0.96158
G01 X0.70751 Y-0.93704
G01 X0.70475 Y-0.93540
G01 X0.70244 Y-0.93378
G01 X0.69996 Y-0.93174
G01 X0.69765 Y-0.92950
G01 X0.69431 Y-0.92548
G01 X0.69153 Y-0.92106
G01 X0.66664 Y-0.87127
G01 X0.66500 Y-0.86712
G01 X0.66393 Y-0.86321
G01 X0.66326 Y-0.85921
G01 X0.66301 Y-0.85517
G01 X0.66302 Y-0.80633
G01 X0.66342 Y-0.80148
G01 X0.66431 Y-0.79711
G01 X0.66554 Y-0.79325
G01 X0.66717 Y-0.78953
G01 X0.69116 Y-0.74156
G01 X0.69296 Y-0.73842
G01 X0.69528 Y-0.73514
G01 X0.69793 Y-0.73211
G01 X0.70087 Y-0.72937
G01 X0.70408 Y-0.72695
G01 X0.70751 Y-0.72486
G01 X0.75693 Y-0.70014
G01 X0.76106 Y-0.69846
G01 X0.76575 Y-0.69718
G01 X0.76936 Y-0.69660
G01 X0.77340 Y-0.69635
G01 X0.88356 Y-0.69634
G01 X0.90111 Y-0.68757
G01 X0.90111 Y-0.67358
G01 X0.88732 Y-0.64601
G01 X0.85976 Y-0.63223
G01 X0.78310 Y-0.63223
G01 X0.74344 Y-0.65206
G01 X0.74050 Y-0.65334
G01 X0.73746 Y-0.65439
G01 X0.73435 Y-0.65518
G01 X0.73118 Y-0.65572
G01 X0.72798 Y-0.65599
G01 X0.72477 Y-0.65601
G01 X0.72157 Y-0.65576
G01 X0.71839 Y-0.65526
G01 X0.71528 Y-0.65449
G01 X0.71223 Y-0.65348
G01 X0.70784 Y-0.65150
G01 X0.70405 Y-0.64922
G01 X0.70055 Y-0.64654
G01 X0.69736 Y-0.64348
G01 X0.69454 Y-0.64008
G01 X0.69212 Y-0.63639
G01 X0.69013 Y-0.63245
G01 X0.68859 Y-0.62832
G01 X0.68744 Y-0.62364
G01 X0.68691 Y-0.61926
G01 X0.68686 Y-0.61484
G01 X0.68731 Y-0.61045
G01 X0.68826 Y-0.60613
G01 X0.68967 Y-0.60195
G01 X0.69155 Y-0.59796
G01 X0.69386 Y-0.59420
G01 X0.69685 Y-0.59042
G01 X0.70027 Y-0.58703
G01 X0.70408 Y-0.58409
G01 X0.70787 Y-0.58182
G01 X0.75804 Y-0.55678
G01 X0.76145 Y-0.55548
G01 X0.76496 Y-0.55449
G01 X0.76855 Y-0.55384
G01 X0.77219 Y-0.55352
G01 X0.86945 Y-0.55349
G01 X0.87310 Y-0.55370
G01 X0.87631 Y-0.55416
G01 X0.88102 Y-0.55535
G01 X0.88593 Y-0.55729
G01 X0.93463 Y-0.58163
G01 X0.93911 Y-0.58432
G01 X0.94290 Y-0.58731
G01 X0.94629 Y-0.59074
G01 X0.94924 Y-0.59455
G01 X0.95151 Y-0.59834
G01 X0.97639 Y-0.64814
G01 X0.97759 Y-0.65116
G01 X0.97855 Y-0.65426
G01 X0.97924 Y-0.65742
G01 X0.97968 Y-0.66064
G01 X0.97985 Y-0.66429
G01 X1.04245 Y-0.02631
G01 X1.04224 Y-0.02831
G01 X1.04138 Y-0.03012
G01 X1.04028 Y-0.03130
G01 X1.03891 Y-0.03213
G01 X1.03696 Y-0.03261
G01 X1.00281 Y-0.03262
G01 X1.00084 Y-0.03228
G01 X0.99941 Y-0.03154
G01 X0.99823 Y-0.03044
G01 X0.99740 Y-0.02907
G01 X0.99703 Y-0.02792
G01 X0.99692 Y-0.02631
G01 X0.99725 Y-0.02474
G01 X0.99799 Y-0.02331
G01 X0.99878 Y-0.02240
G01 X1.00046 Y-0.02130
G01 X1.00201 Y-0.02086
G01 X1.01378 Y-0.02081
G01 X1.01378 Y0.01527
G01 X1.01234 Y0.01384
G01 X1.01141 Y0.01318
G01 X1.00545 Y0.01018
G01 X1.00393 Y0.00967
G01 X1.00233 Y0.00958
G01 X1.00114 Y0.00980
G01 X1.00002 Y0.01026
G01 X0.99902 Y0.01094
G01 X0.99794 Y0.01213
G01 X0.99736 Y0.01319
G01 X0.99695 Y0.01475
G01 X0.99693 Y0.01595
G01 X0.99715 Y0.01714
G01 X0.99781 Y0.01861
G01 X0.99884 Y0.01984
G01 X1.00017 Y0.02075
G01 X1.00494 Y0.02313
G01 X1.00947 Y0.02766
G01 X1.01477 Y0.03562
G01 X1.01585 Y0.03683
G01 X1.01686 Y0.03752
G01 X1.01838 Y0.03810
G01 X1.02000 Y0.03824
G01 X1.02120 Y0.03805
G01 X1.02304 Y0.03720
G01 X1.02424 Y0.03610
G01 X1.02524 Y0.03434
G01 X1.02558 Y0.03275
G01 X1.02559 Y-0.02081
G01 X1.03696 Y-0.02082
G01 X1.03891 Y-0.02130
G01 X1.03996 Y-0.02189
G01 X1.04087 Y-0.02268
G01 X1.04197 Y-0.02436
G01 X1.04245 Y-0.02631
G01 X1.11180 Y-0.45060
G01 X1.11143 Y-0.45298
G01 X1.11059 Y-0.45523
G01 X1.10932 Y-0.45726
G01 X1.10765 Y-0.45900
G01 X1.10567 Y-0.46036
G01 X1.10384 Y-0.46117
G01 X1.10150 Y-0.46171
G01 X1.09910 Y-0.46178
G01 X1.09673 Y-0.46135
G01 X1.09486 Y-0.46064
G01 X1.09282 Y-0.45937
G01 X1.09107 Y-0.45773
G01 X1.08989 Y-0.45611
G01 X1.08886 Y-0.45393
G01 X1.08830 Y-0.45160
G01 X1.08820 Y-0.44960
G01 X1.08852 Y-0.44722
G01 X1.08932 Y-0.44495
G01 X1.09056 Y-0.44290
G01 X1.09220 Y-0.44113
G01 X1.09415 Y-0.43974
G01 X1.09597 Y-0.43890
G01 X1.09830 Y-0.43831
G01 X1.10070 Y-0.43821
G01 X1.10269 Y-0.43850
G01 X1.10496 Y-0.43928
G01 X1.10702 Y-0.44050
G01 X1.10880 Y-0.44212
G01 X1.11021 Y-0.44406
G01 X1.11107 Y-0.44588
G01 X1.11146 Y-0.44739
G01 X1.11180 Y-0.45060
G01 X1.12121 Y-0.02671
G01 X1.12115 Y0.00500
G01 X1.12074 Y0.00650
G01 X1.11757 Y0.01285
G01 X1.11681 Y0.01387
G01 X1.11585 Y0.01469
G01 X1.10915 Y0.01810
G01 X1.10725 Y0.01855
G01 X1.09765 Y0.01851
G01 X1.09614 Y0.01810
G01 X1.09396 Y0.01702
G01 X1.09271 Y0.01790
G01 X1.09158 Y0.01834
G01 X1.09039 Y0.01854
G01 X1.08919 Y0.01850
G01 X1.08764 Y0.01807
G01 X1.08658 Y0.01748
G01 X1.08567 Y0.01668
G01 X1.08494 Y0.01572
G01 X1.08430 Y0.01425
G01 X1.08408 Y0.01265
G01 X1.08408 Y-0.02671
G01 X1.08421 Y-0.02792
G01 X1.08457 Y-0.02907
G01 X1.08516 Y-0.03012
G01 X1.08596 Y-0.03103
G01 X1.08692 Y-0.03176
G01 X1.08840 Y-0.03240
G01 X1.08999 Y-0.03262
G01 X1.09158 Y-0.03240
G01 X1.09306 Y-0.03176
G01 X1.09402 Y-0.03103
G01 X1.09481 Y-0.03012
G01 X1.09555 Y-0.02869
G01 X1.09590 Y-0.02671
G01 X1.09590 Y0.00458
G01 X1.09630 Y0.00499
G01 X1.09982 Y0.00675
G01 X1.10547 Y0.00675
G01 X1.10808 Y0.00544
G01 X1.10939 Y0.00282
G01 X1.10939 Y-0.02671
G01 X1.10961 Y-0.02831
G01 X1.11006 Y-0.02943
G01 X1.11072 Y-0.03044
G01 X1.11189 Y-0.03154
G01 X1.11332 Y-0.03228
G01 X1.11490 Y-0.03261
G01 X1.11650 Y-0.03250
G01 X1.11802 Y-0.03196
G01 X1.11933 Y-0.03103
G01 X1.12034 Y-0.02978
G01 X1.12099 Y-0.02831
G01 X1.12121 Y-0.02671
G01 X1.11180 Y-0.45060
G01 X1.11167 Y-0.44820
G01 X1.11146 Y-0.44739
G01 X1.06777 Y-0.02671
G01 X1.06772 Y0.01346
G01 X1.06743 Y0.01463
G01 X1.06691 Y0.01572
G01 X1.06560 Y0.01723
G01 X1.06385 Y0.01822
G01 X1.06187 Y0.01856
G01 X1.06067 Y0.01843
G01 X1.05952 Y0.01807
G01 X1.05846 Y0.01748
G01 X1.05755 Y0.01668
G01 X1.05645 Y0.01501
G01 X1.05609 Y0.01385
G01 X1.05596 Y0.01265
G01 X1.05602 Y-0.02752
G01 X1.05645 Y-0.02907
G01 X1.05755 Y-0.03075
G01 X1.05915 Y-0.03196
G01 X1.06106 Y-0.03256
G01 X1.06227 Y-0.03261
G01 X1.06346 Y-0.03240
G01 X1.06459 Y-0.03196
G01 X1.06560 Y-0.03130
G01 X1.06669 Y-0.03012
G01 X1.06729 Y-0.02907
G01 X1.06765 Y-0.02792
G01 X1.07058 Y0.02973
G01 X1.07042 Y0.03093
G01 X1.07001 Y0.03206
G01 X1.06939 Y0.03309
G01 X1.06544 Y0.03704
G01 X1.06422 Y0.03775
G01 X1.06287 Y0.03816
G01 X1.06167 Y0.03824
G01 X1.06047 Y0.03808
G01 X1.05952 Y0.03775
G01 X1.05846 Y0.03716
G01 X1.05461 Y0.03341
G01 X1.05391 Y0.03242
G01 X1.05343 Y0.03131
G01 X1.05318 Y0.03013
G01 X1.05324 Y0.02852
G01 X1.05372 Y0.02699
G01 X1.05435 Y0.02596
G01 X1.05830 Y0.02201
G01 X1.05943 Y0.02134
G01 X1.06095 Y0.02088
G01 X1.06213 Y0.02082
G01 X1.06331 Y0.02099
G01 X1.06443 Y0.02139
G01 X1.06545 Y0.02202
G01 X1.06939 Y0.02596
G01 X1.07001 Y0.02699
G01 X1.07050 Y0.02852
G01 X1.07058 Y0.02973

G04 P0 ( dwell for no time -- G64 should not smooth over this point )
G00 Z1.000000 ( retract )

M5 ( Spindle off. )
G04 P1.000000
M9 ( Coolant off. )
M2 ( Program end. )

