( pcb2gcode 2.5.0 )
( Software-independent Gcode )

G94 ( Inches per minute feed rate. )
G20 ( Units == INCHES. )

G90 ( Absolute coordinates. )
G00 S12000 ( RPM spindle speed. )
G64 P0.00040 ( set maximum deviation from commanded toolpath )
G01 F1.00000 ( Feedrate. )


G00 Z1.00000 (Retract to tool change height)
T1
M5      (Spindle stop.)
G04 P1.00000 (Wait for spindle to stop)
(MSG, Change tool bit to mill diameter 0.11811in)
M6      (Tool change.)
M0      (Temporary machine stop.)
M3 ( Spindle on clockwise. )
G04 P1.00000 (Wait for spindle to get up to speed)
G04 P0 ( dwell for no time -- G64 should not smooth over this point )
G00 Z0.08000 ( retract )

G00 X-3.25190 Y-2.84270 ( rapid move to begin. )
G01 F0.50000
( Mill infeed pass 1/1 )
G01 Z-0.04000
G04 P0 ( dwell for no time -- G64 should not smooth over this point )
G01 F1.00000
G01 X-3.25190 Y-2.84270
G01 X-3.24230 Y-2.85234
G01 X-3.24270 Y-2.85189
G01 X-3.24270 Y-2.84270
G01 X-3.25190 Y-2.84270
G01 X-3.25287 Y-2.84230
G04 P0 ( dwell for no time -- G64 should not smooth over this point )
G00 Z0.08000 ( retract )

G00 X-3.32455 Y-3.10343 ( rapid move to begin. )
G01 F0.50000
( Mill infeed pass 1/1 )
G01 Z-0.04000
G04 P0 ( dwell for no time -- G64 should not smooth over this point )
G01 F1.00000
G01 X-3.32455 Y-3.10343
G01 X-3.32456 Y-3.01421
G01 X-3.32766 Y-3.01038
G01 X-3.33077 Y-3.00619
G01 X-3.33281 Y-3.00314
G01 X-3.33690 Y-2.99617
G01 X-3.34087 Y-2.98777
G01 X-3.34379 Y-2.97980
G01 X-3.34599 Y-2.97161
G01 X-3.34749 Y-2.96326
G01 X-3.34809 Y-2.95735
G01 X-3.37090 Y-2.93454
G01 X-3.42599 Y-2.93464
G01 X-3.43240 Y-2.93425
G01 X-3.43598 Y-2.93372
G01 X-3.43990 Y-2.93288
G01 X-3.44376 Y-2.93178
G01 X-3.44717 Y-2.93056
G01 X-3.45085 Y-2.92897
G01 X-3.45477 Y-2.92693
G01 X-3.45851 Y-2.92462
G01 X-3.45849 Y-2.92413
G01 X-3.45851 Y-2.92460
G01 X-3.46351 Y-2.92711
G01 X-3.46948 Y-2.92953
G01 X-3.47402 Y-2.93103
G01 X-3.54626 Y-3.00326
G01 X-3.55129 Y-3.00775
G01 X-3.55551 Y-3.01094
G01 X-3.56203 Y-3.01507
G01 X-3.56933 Y-3.01864
G01 X-3.57274 Y-3.01997
G01 X-3.57737 Y-3.02151
G01 X-3.58419 Y-3.02315
G01 X-3.59042 Y-3.02832
G01 X-3.59674 Y-3.03274
G01 X-3.60064 Y-3.03507
G01 X-3.60963 Y-3.03974
G01 X-3.61679 Y-3.04263
G01 X-3.62340 Y-3.04474
G01 X-3.63056 Y-3.04647
G01 X-3.63733 Y-3.04758
G01 X-3.64696 Y-3.04836
G01 X-3.65258 Y-3.04837
G01 X-3.65652 Y-3.04816
G01 X-3.66405 Y-3.04736
G01 X-3.66761 Y-3.04682
G01 X-3.67113 Y-3.04606
G01 X-3.67926 Y-3.04394
G01 X-3.68343 Y-3.04253
G01 X-3.69046 Y-3.03965
G01 X-3.69622 Y-3.03685
G01 X-3.70580 Y-3.03105
G01 X-3.70871 Y-3.02893
G01 X-3.71416 Y-3.02455
G01 X-3.99580 Y-3.02455
G01 X-4.00326 Y-3.02415
G01 X-4.00804 Y-3.02354
G01 X-4.01237 Y-3.02264
G01 X-4.01859 Y-3.02098
G01 X-4.02384 Y-3.01906
G01 X-4.03041 Y-3.01599
G01 X-4.03430 Y-3.01385
G01 X-4.03969 Y-3.01026
G01 X-4.04387 Y-3.00697
G01 X-4.04852 Y-3.00272
G01 X-4.18777 Y-2.86346
G01 X-4.22526 Y-2.86346
G01 X-4.22566 Y-2.86306
G01 X-4.22526 Y-2.86346
G01 X-4.22523 Y-2.88304
G01 X-4.01182 Y-3.09645
G01 X-3.46525 Y-3.09645
G01 X-3.45914 Y-3.09319
G01 X-3.45443 Y-3.09109
G01 X-3.45097 Y-3.08978
G01 X-3.44343 Y-3.08744
G01 X-3.43788 Y-3.08618
G01 X-3.43397 Y-3.08554
G01 X-3.42674 Y-3.08485
G01 X-3.42267 Y-3.08465
G01 X-3.37653 Y-3.08467
G01 X-3.36831 Y-3.08525
G01 X-3.36284 Y-3.08606
G01 X-3.35554 Y-3.08770
G01 X-3.34761 Y-3.09029
G01 X-3.34420 Y-3.09168
G01 X-3.33967 Y-3.09379
G01 X-3.33498 Y-3.09630
G01 X-3.33027 Y-3.09923
G01 X-3.32734 Y-3.10126
G01 X-3.32455 Y-3.10343
G01 X-3.32415 Y-3.10426
G04 P0 ( dwell for no time -- G64 should not smooth over this point )
G00 Z0.08000 ( retract )

G00 X-3.50761 Y-3.24566 ( rapid move to begin. )
G01 F0.50000
( Mill infeed pass 1/1 )
G01 Z-0.04000
G04 P0 ( dwell for no time -- G64 should not smooth over this point )
G01 F1.00000
G01 X-3.50761 Y-3.24566
G01 X-3.50804 Y-3.24606
G01 X-3.67007 Y-3.24606
G01 X-3.67084 Y-3.24566
G01 X-3.67004 Y-3.24608
G01 X-3.66715 Y-3.25061
G01 X-3.65803 Y-3.25393
G01 X-3.50805 Y-3.25393
G01 X-3.50762 Y-3.25433
G01 X-3.50816 Y-3.25384
G01 X-3.50817 Y-3.25309
G01 X-3.50816 Y-3.24618
G01 X-3.50775 Y-3.24579
G04 P0 ( dwell for no time -- G64 should not smooth over this point )
G00 Z0.08000 ( retract )

G00 X-3.59300 Y-2.83954 ( rapid move to begin. )
G01 F0.50000
( Mill infeed pass 1/1 )
G01 Z-0.04000
G04 P0 ( dwell for no time -- G64 should not smooth over this point )
G01 F1.00000
G01 X-3.59300 Y-2.83954
G01 X-3.59355 Y-2.83968
G01 X-3.61278 Y-2.85892
G01 X-3.61694 Y-2.85734
G01 X-3.62535 Y-2.85473
G01 X-3.63397 Y-2.85295
G01 X-3.63832 Y-2.85229
G01 X-3.64672 Y-2.85168
G01 X-3.65083 Y-2.85160
G01 X-3.66011 Y-2.85215
G01 X-3.66502 Y-2.85276
G01 X-3.67179 Y-2.85404
G01 X-3.67846 Y-2.85580
G01 X-3.68535 Y-2.85817
G01 X-3.69164 Y-2.86084
G01 X-3.69550 Y-2.86280
G01 X-3.70390 Y-2.86767
G01 X-3.70986 Y-2.87190
G01 X-3.71420 Y-2.87544
G01 X-3.96492 Y-2.87544
G01 X-3.96831 Y-2.87206
G01 X-3.96927 Y-2.87166
G01 X-3.96831 Y-2.87206
G01 X-3.92949 Y-2.87203
G01 X-3.92309 Y-2.87151
G01 X-3.91679 Y-2.87029
G01 X-3.91216 Y-2.86894
G01 X-3.90767 Y-2.86721
G01 X-3.90368 Y-2.86531
G01 X-3.89951 Y-2.86290
G01 X-3.89555 Y-2.86015
G01 X-3.89182 Y-2.85710
G01 X-3.88864 Y-2.85404
G01 X-3.88543 Y-2.85044
G01 X-3.88300 Y-2.84726
G01 X-3.88078 Y-2.84391
G01 X-3.87879 Y-2.84042
G01 X-3.87705 Y-2.83680
G01 X-3.87556 Y-2.83307
G01 X-3.87432 Y-2.82925
G01 X-3.87327 Y-2.82496
G01 X-3.87259 Y-2.82101
G01 X-3.87218 Y-2.81701
G01 X-3.87204 Y-2.81300
G01 X-3.87204 Y-2.75395
G01 X-3.87244 Y-2.75355
G01 X-3.87204 Y-2.75395
G01 X-3.74610 Y-2.75395
G01 X-3.74089 Y-2.75372
G01 X-3.73650 Y-2.75317
G01 X-3.73179 Y-2.75219
G01 X-3.72716 Y-2.75084
G01 X-3.72304 Y-2.74926
G01 X-3.71868 Y-2.74721
G01 X-3.71451 Y-2.74480
G01 X-3.71087 Y-2.74230
G01 X-3.70720 Y-2.73933
G01 X-3.62539 Y-2.82114
G01 X-3.62132 Y-2.82485
G01 X-3.61850 Y-2.82717
G01 X-3.61553 Y-2.82932
G01 X-3.61145 Y-2.83199
G01 X-3.60755 Y-2.83417
G01 X-3.60279 Y-2.83647
G01 X-3.59863 Y-2.83812
G01 X-3.59375 Y-2.83974
G01 X-3.59277 Y-2.83948
G04 P0 ( dwell for no time -- G64 should not smooth over this point )
G00 Z0.08000 ( retract )

G00 X-3.85751 Y-2.47805 ( rapid move to begin. )
G01 F0.50000
( Mill infeed pass 1/1 )
G01 Z-0.04000
G04 P0 ( dwell for no time -- G64 should not smooth over this point )
G01 F1.00000
G01 X-3.85751 Y-2.47805
G01 X-3.83752 Y-2.49804
G01 X-3.80739 Y-2.49804
G01 X-3.80642 Y-2.49844
G01 X-3.80739 Y-2.49804
G01 X-3.82738 Y-2.47805
G01 X-3.85751 Y-2.47805
G01 X-3.85848 Y-2.47765
G04 P0 ( dwell for no time -- G64 should not smooth over this point )
G00 Z0.08000 ( retract )

G00 X-4.12755 Y-2.48243 ( rapid move to begin. )
G01 F0.50000
( Mill infeed pass 1/1 )
G01 Z-0.04000
G04 P0 ( dwell for no time -- G64 should not smooth over this point )
G01 F1.00000
G01 X-4.12755 Y-2.48243
G01 X-4.12795 Y-2.48339
G01 X-4.17395 Y-2.52939
G01 X-4.12795 Y-2.55239
G01 X-4.12755 Y-2.55303
G01 X-4.12795 Y-2.55239
G01 X-4.12795 Y-2.48339
G04 P0 ( dwell for no time -- G64 should not smooth over this point )
G00 Z0.08000 ( retract )

G00 X-4.12796 Y-2.72021 ( rapid move to begin. )
G01 F0.50000
( Mill infeed pass 1/1 )
G01 Z-0.04000
G04 P0 ( dwell for no time -- G64 should not smooth over this point )
G01 F1.00000
G01 X-4.12796 Y-2.72021
G01 X-4.12796 Y-2.71966
G01 X-4.27628 Y-2.64549
G01 X-4.28042 Y-2.64641
G01 X-4.28836 Y-2.64771
G01 X-4.29240 Y-2.64808
G01 X-4.29967 Y-2.64840
G01 X-4.30339 Y-2.64832
G01 X-4.31148 Y-2.64773
G01 X-4.32231 Y-2.64584
G01 X-4.32973 Y-2.64377
G01 X-4.33320 Y-2.64263
G01 X-4.34101 Y-2.63941
G01 X-4.34427 Y-2.63788
G01 X-4.35124 Y-2.63396
G01 X-4.35435 Y-2.63203
G01 X-4.36086 Y-2.62729
G01 X-4.36393 Y-2.62480
G01 X-4.63607 Y-2.62480
G01 X-4.64161 Y-2.62919
G01 X-4.64461 Y-2.63132
G01 X-4.64944 Y-2.63442
G01 X-4.65551 Y-2.63777
G01 X-4.66175 Y-2.64067
G01 X-4.66742 Y-2.64284
G01 X-4.67131 Y-2.64411
G01 X-4.67796 Y-2.64590
G01 X-4.68392 Y-2.64708
G01 X-4.68993 Y-2.64788
G01 X-4.69681 Y-2.64834
G01 X-4.70090 Y-2.64838
G01 X-4.70723 Y-2.64814
G01 X-4.71441 Y-2.64734
G01 X-4.72203 Y-2.64589
G01 X-4.72646 Y-2.64476
G01 X-4.73416 Y-2.64228
G01 X-4.74012 Y-2.63984
G01 X-4.74345 Y-2.63829
G01 X-4.75124 Y-2.63400
G01 X-4.75696 Y-2.63023
G01 X-4.76023 Y-2.62780
G01 X-4.76462 Y-2.62421
G01 X-4.76738 Y-2.62169
G01 X-4.77198 Y-2.61709
G01 X-4.77598 Y-2.61249
G01 X-4.77857 Y-2.60924
G01 X-4.78208 Y-2.60426
G01 X-4.78649 Y-2.59691
G01 X-4.78835 Y-2.59329
G01 X-4.79116 Y-2.58704
G01 X-4.79427 Y-2.57823
G01 X-4.79652 Y-2.56914
G01 X-4.79790 Y-2.55995
G01 X-4.79840 Y-2.55021
G01 X-4.79798 Y-2.54086
G01 X-4.79660 Y-2.53126
G01 X-4.79439 Y-2.52216
G01 X-4.79162 Y-2.51409
G01 X-4.78852 Y-2.50708
G01 X-4.78649 Y-2.50309
G01 X-4.78254 Y-2.49643
G01 X-4.77785 Y-2.48980
G01 X-4.77265 Y-2.48365
G01 X-4.76961 Y-2.48046
G01 X-4.76369 Y-2.47499
G01 X-4.75699 Y-2.46978
G01 X-4.75056 Y-2.46561
G01 X-4.74631 Y-2.46319
G01 X-4.73942 Y-2.45984
G01 X-4.73151 Y-2.45678
G01 X-4.72415 Y-2.45461
G01 X-4.71978 Y-2.45363
G01 X-4.71141 Y-2.45226
G01 X-4.70540 Y-2.45175
G01 X-4.70180 Y-2.45162
G01 X-4.69614 Y-2.45167
G01 X-4.69051 Y-2.45207
G01 X-4.68693 Y-2.45248
G01 X-4.68097 Y-2.45345
G01 X-4.67219 Y-2.45561
G01 X-4.66641 Y-2.45751
G01 X-4.66039 Y-2.45992
G01 X-4.65703 Y-2.46151
G01 X-4.65065 Y-2.46492
G01 X-4.64488 Y-2.46852
G01 X-4.63874 Y-2.47304
G01 X-4.63606 Y-2.47519
G01 X-4.36389 Y-2.47519
G01 X-4.35976 Y-2.47184
G01 X-4.35553 Y-2.46877
G01 X-4.35246 Y-2.46676
G01 X-4.34547 Y-2.46273
G01 X-4.33740 Y-2.45898
G01 X-4.32865 Y-2.45586
G01 X-4.32123 Y-2.45392
G01 X-4.31803 Y-2.45327
G01 X-4.31247 Y-2.45242
G01 X-4.30732 Y-2.45188
G01 X-4.20563 Y-2.35020
G01 X-4.20133 Y-2.34636
G01 X-4.19589 Y-2.34217
G01 X-4.18970 Y-2.33837
G01 X-4.18468 Y-2.33578
G01 X-4.17906 Y-2.33350
G01 X-4.17368 Y-2.33173
G01 X-4.16697 Y-2.33018
G01 X-4.16217 Y-2.32946
G01 X-4.15582 Y-2.32899
G01 X-3.79608 Y-2.32895
G01 X-3.79234 Y-2.32909
G01 X-3.78628 Y-2.32967
G01 X-3.78273 Y-2.33023
G01 X-3.77922 Y-2.33100
G01 X-3.77038 Y-2.33368
G01 X-3.76667 Y-2.33518
G01 X-3.76307 Y-2.33691
G01 X-3.75846 Y-2.33940
G01 X-3.75473 Y-2.34175
G01 X-3.75181 Y-2.34388
G01 X-3.74676 Y-2.34797
G01 X-3.74407 Y-2.35050
G01 X-3.64268 Y-2.45188
G01 X-3.63753 Y-2.45242
G01 X-3.63197 Y-2.45327
G01 X-3.62877 Y-2.45392
G01 X-3.62135 Y-2.45586
G01 X-3.61260 Y-2.45898
G01 X-3.60453 Y-2.46273
G01 X-3.59754 Y-2.46676
G01 X-3.59447 Y-2.46877
G01 X-3.59024 Y-2.47184
G01 X-3.58611 Y-2.47519
G01 X-3.31393 Y-2.47519
G01 X-3.31060 Y-2.47254
G01 X-3.30280 Y-2.46696
G01 X-3.29900 Y-2.46473
G01 X-3.29037 Y-2.46026
G01 X-3.28321 Y-2.45737
G01 X-3.27660 Y-2.45526
G01 X-3.26984 Y-2.45362
G01 X-3.26346 Y-2.45253
G01 X-3.25590 Y-2.45179
G01 X-3.25140 Y-2.45162
G01 X-3.24500 Y-2.45173
G01 X-3.23697 Y-2.45246
G01 X-3.22982 Y-2.45370
G01 X-3.22507 Y-2.45483
G01 X-3.21811 Y-2.45691
G01 X-3.21058 Y-2.45984
G01 X-3.20369 Y-2.46319
G01 X-3.19943 Y-2.46561
G01 X-3.19301 Y-2.46978
G01 X-3.18631 Y-2.47499
G01 X-3.18039 Y-2.48046
G01 X-3.17735 Y-2.48365
G01 X-3.17215 Y-2.48980
G01 X-3.16746 Y-2.49643
G01 X-3.16351 Y-2.50309
G01 X-3.16147 Y-2.50708
G01 X-3.15838 Y-2.51409
G01 X-3.15573 Y-2.52176
G01 X-3.15382 Y-2.52926
G01 X-3.15298 Y-2.53367
G01 X-3.15198 Y-2.54126
G01 X-3.15160 Y-2.54938
G01 X-3.15186 Y-2.55713
G01 X-3.15231 Y-2.56168
G01 X-3.15335 Y-2.56852
G01 X-3.15534 Y-2.57687
G01 X-3.15789 Y-2.58464
G01 X-3.16074 Y-2.59139
G01 X-3.16272 Y-2.59541
G01 X-3.16672 Y-2.60242
G01 X-3.17133 Y-2.60911
G01 X-3.17596 Y-2.61480
G01 X-3.17905 Y-2.61817
G01 X-3.18463 Y-2.62355
G01 X-3.19062 Y-2.62847
G01 X-3.19697 Y-2.63289
G01 X-3.20467 Y-2.63732
G01 X-3.20869 Y-2.63930
G01 X-3.21505 Y-2.64199
G01 X-3.22241 Y-2.64445
G01 X-3.22994 Y-2.64631
G01 X-3.23443 Y-2.64715
G01 X-3.24194 Y-2.64807
G01 X-3.24950 Y-2.64840
G01 X-3.25710 Y-2.64815
G01 X-3.26428 Y-2.64736
G01 X-3.27186 Y-2.64595
G01 X-3.27891 Y-2.64406
G01 X-3.28583 Y-2.64165
G01 X-3.29149 Y-2.63922
G01 X-3.29833 Y-2.63571
G01 X-3.30211 Y-2.63345
G01 X-3.30776 Y-2.62967
G01 X-3.31393 Y-2.62480
G01 X-3.58611 Y-2.62480
G01 X-3.58968 Y-2.62774
G01 X-3.59519 Y-2.63173
G01 X-3.60058 Y-2.63509
G01 X-3.60130 Y-2.63499
G01 X-3.60064 Y-2.63508
G01 X-3.54208 Y-2.69359
G01 X-3.21032 Y-2.69360
G01 X-3.20442 Y-2.69388
G01 X-3.20080 Y-2.69426
G01 X-3.19680 Y-2.69493
G01 X-3.19127 Y-2.69618
G01 X-3.18739 Y-2.69734
G01 X-3.18321 Y-2.69887
G01 X-3.17985 Y-2.70028
G01 X-3.17694 Y-2.70171
G01 X-3.17268 Y-2.70404
G01 X-3.16960 Y-2.70595
G01 X-3.16664 Y-2.70805
G01 X-3.16249 Y-2.71130
G01 X-3.15888 Y-2.71457
G01 X-3.11517 Y-2.75825
G01 X-3.10989 Y-2.76420
G01 X-3.10677 Y-2.76844
G01 X-3.10293 Y-2.77459
G01 X-3.10059 Y-2.77927
G01 X-3.09782 Y-2.78598
G01 X-3.09628 Y-2.79096
G01 X-3.09468 Y-2.79805
G01 X-3.09403 Y-2.80285
G01 X-3.09360 Y-2.80994
G01 X-3.09361 Y-3.21878
G01 X-3.09391 Y-3.22431
G01 X-3.09431 Y-3.22794
G01 X-3.09493 Y-3.23153
G01 X-3.09608 Y-3.23668
G01 X-3.09722 Y-3.24058
G01 X-3.09888 Y-3.24518
G01 X-3.10033 Y-3.24857
G01 X-3.10231 Y-3.25258
G01 X-3.10474 Y-3.25682
G01 X-3.10815 Y-3.26187
G01 X-3.11092 Y-3.26538
G01 X-3.11489 Y-3.26979
G01 X-3.29828 Y-3.45312
G01 X-3.30250 Y-3.45680
G01 X-3.30638 Y-3.45972
G01 X-3.31216 Y-3.46342
G01 X-3.31715 Y-3.46603
G01 X-3.32346 Y-3.46871
G01 X-3.32842 Y-3.47035
G01 X-3.33548 Y-3.47205
G01 X-3.34106 Y-3.47287
G01 X-3.34934 Y-3.47335
G01 X-3.82320 Y-3.47327
G01 X-3.82800 Y-3.47307
G01 X-3.83277 Y-3.47249
G01 X-3.83832 Y-3.47144
G01 X-3.84261 Y-3.47032
G01 X-3.84872 Y-3.46821
G01 X-3.85354 Y-3.46615
G01 X-3.85925 Y-3.46311
G01 X-3.86335 Y-3.46054
G01 X-3.86885 Y-3.45642
G01 X-3.87281 Y-3.45295
G01 X-3.90328 Y-3.42252
G01 X-3.90579 Y-3.41977
G01 X-3.90915 Y-3.41566
G01 X-3.91131 Y-3.41277
G01 X-3.91330 Y-3.40975
G01 X-3.91738 Y-3.40228
G01 X-3.92058 Y-3.39437
G01 X-3.92156 Y-3.39127
G01 X-3.92273 Y-3.38669
G01 X-3.92607 Y-3.38400
G01 X-3.92930 Y-3.38099
G01 X-3.93229 Y-3.37774
G01 X-3.93483 Y-3.37455
G01 X-3.96517 Y-3.37455
G01 X-3.96931 Y-3.37954
G01 X-3.97423 Y-3.38426
G01 X-3.97933 Y-3.38816
G01 X-3.98518 Y-3.39168
G01 X-3.99140 Y-3.39449
G01 X-3.99751 Y-3.39646
G01 X-4.00380 Y-3.39777
G01 X-4.01019 Y-3.39838
G01 X-4.08740 Y-3.39843
G01 X-4.09181 Y-3.39826
G01 X-4.09541 Y-3.39788
G01 X-4.09897 Y-3.39728
G01 X-4.10557 Y-3.39556
G01 X-4.10935 Y-3.39419
G01 X-4.11302 Y-3.39258
G01 X-4.11683 Y-3.39057
G01 X-4.11679 Y-3.39013
G01 X-4.11683 Y-3.39057
G01 X-4.11815 Y-3.39103
G01 X-4.12784 Y-3.39387
G01 X-4.13780 Y-3.39568
G01 X-4.14678 Y-3.39637
G01 X-4.15396 Y-3.39932
G01 X-4.16080 Y-3.40135
G01 X-4.16620 Y-3.40247
G01 X-4.17343 Y-3.40336
G01 X-4.17753 Y-3.40350
G01 X-4.43474 Y-3.40354
G01 X-4.43938 Y-3.40609
G01 X-4.44519 Y-3.40875
G01 X-4.44903 Y-3.41022
G01 X-4.45502 Y-3.41215
G01 X-4.46096 Y-3.41357
G01 X-4.46525 Y-3.41435
G01 X-4.47325 Y-3.41515
G01 X-4.47774 Y-3.41535
G01 X-4.52348 Y-3.41533
G01 X-4.52991 Y-3.41494
G01 X-4.53395 Y-3.41447
G01 X-4.53913 Y-3.41357
G01 X-4.54258 Y-3.41277
G01 X-4.54820 Y-3.41118
G01 X-4.55312 Y-3.40942
G01 X-4.55676 Y-3.40791
G01 X-4.56167 Y-3.40555
G01 X-4.56894 Y-3.40130
G01 X-4.57555 Y-3.39654
G01 X-4.58169 Y-3.39118
G01 X-4.58723 Y-3.38532
G01 X-4.59229 Y-3.37886
G01 X-4.59665 Y-3.37207
G01 X-4.60035 Y-3.36492
G01 X-4.60342 Y-3.35731
G01 X-4.60572 Y-3.34957
G01 X-4.60725 Y-3.34198
G01 X-4.60809 Y-3.33425
G01 X-4.60823 Y-3.32607
G01 X-4.60757 Y-3.31774
G01 X-4.60609 Y-3.30943
G01 X-4.60393 Y-3.30169
G01 X-4.60268 Y-3.29820
G01 X-4.60040 Y-3.29268
G01 X-4.59875 Y-3.28934
G01 X-4.59830 Y-3.28934
G01 X-4.59875 Y-3.28934
G01 X-4.60119 Y-3.28424
G01 X-4.60271 Y-3.28050
G01 X-4.60508 Y-3.27329
G01 X-4.60673 Y-3.26615
G01 X-4.60748 Y-3.26153
G01 X-4.60818 Y-3.25397
G01 X-4.60813 Y-3.24521
G01 X-4.60801 Y-3.24348
G01 X-4.60758 Y-3.24318
G01 X-4.60801 Y-3.24348
G01 X-4.60868 Y-3.24330
G01 X-4.61635 Y-3.24081
G01 X-4.62079 Y-3.23892
G01 X-4.62581 Y-3.23633
G01 X-4.62929 Y-3.23432
G01 X-4.63295 Y-3.23183
G01 X-4.63743 Y-3.22836
G01 X-4.64077 Y-3.22539
G01 X-4.82815 Y-3.03806
G01 X-4.83121 Y-3.03465
G01 X-4.83573 Y-3.02897
G01 X-4.83836 Y-3.02493
G01 X-4.84152 Y-3.01928
G01 X-4.84307 Y-3.01598
G01 X-4.84474 Y-3.01185
G01 X-4.84661 Y-3.00607
G01 X-4.84839 Y-2.99817
G01 X-4.84925 Y-2.99058
G01 X-4.84940 Y-2.98632
G01 X-4.84936 Y-2.91163
G01 X-4.84903 Y-2.90679
G01 X-4.84818 Y-2.90079
G01 X-4.84730 Y-2.89647
G01 X-4.84622 Y-2.89261
G01 X-4.84439 Y-2.88727
G01 X-4.84254 Y-2.88283
G01 X-4.84054 Y-2.87891
G01 X-4.83707 Y-2.87301
G01 X-4.83354 Y-2.86815
G01 X-4.83040 Y-2.86440
G01 X-4.82786 Y-2.86165
G01 X-4.70034 Y-2.73421
G01 X-4.69724 Y-2.73154
G01 X-4.69146 Y-2.72716
G01 X-4.68773 Y-2.72481
G01 X-4.68311 Y-2.72233
G01 X-4.67950 Y-2.72058
G01 X-4.67539 Y-2.71894
G01 X-4.67002 Y-2.71720
G01 X-4.66573 Y-2.71610
G01 X-4.65737 Y-2.71477
G01 X-4.65090 Y-2.71438
G01 X-4.15612 Y-2.71436
G01 X-4.14774 Y-2.71492
G01 X-4.14010 Y-2.71627
G01 X-4.13615 Y-2.71732
G01 X-4.13113 Y-2.71894
G01 X-4.12796 Y-2.72020
G01 X-4.12756 Y-2.72083
G04 P0 ( dwell for no time -- G64 should not smooth over this point )
G00 Z0.08000 ( retract )

G00 X-4.39787 Y-2.95384 ( rapid move to begin. )
G01 F0.50000
( Mill infeed pass 1/1 )
G01 Z-0.04000
G04 P0 ( dwell for no time -- G64 should not smooth over this point )
G01 F1.00000
G01 X-4.39787 Y-2.95384
G01 X-4.39830 Y-2.95285
G01 X-4.42197 Y-2.92919
G01 X-4.42267 Y-2.92904
G01 X-4.42180 Y-2.92922
G01 X-4.42014 Y-2.92859
G01 X-4.41199 Y-2.92481
G01 X-4.39512 Y-2.92481
G01 X-4.39706 Y-2.93398
G01 X-4.39771 Y-2.93840
G01 X-4.39834 Y-2.94636
G01 X-4.39830 Y-2.95285
G04 P0 ( dwell for no time -- G64 should not smooth over this point )
G00 Z0.08000 ( retract )

G00 X-4.63373 Y-3.02217 ( rapid move to begin. )
G01 F0.50000
( Mill infeed pass 1/1 )
G01 Z-0.04000
G04 P0 ( dwell for no time -- G64 should not smooth over this point )
G01 F1.00000
G01 X-4.63373 Y-3.02217
G01 X-4.63316 Y-3.02218
G01 X-4.62928 Y-3.01842
G01 X-4.62280 Y-3.01102
G01 X-4.61742 Y-3.00352
G01 X-4.61281 Y-2.99560
G01 X-4.60942 Y-2.98844
G01 X-4.60738 Y-2.98322
G01 X-4.60619 Y-2.97967
G01 X-4.60463 Y-2.97421
G01 X-4.60387 Y-2.97098
G01 X-4.60268 Y-2.96458
G01 X-4.60212 Y-2.95978
G01 X-4.48984 Y-3.07217
G01 X-4.48984 Y-3.08465
G01 X-4.48944 Y-3.08505
G01 X-4.48984 Y-3.08465
G01 X-4.52384 Y-3.08468
G01 X-4.52786 Y-3.08488
G01 X-4.53362 Y-3.08550
G01 X-4.53886 Y-3.08639
G01 X-4.54387 Y-3.08756
G01 X-4.54729 Y-3.08853
G01 X-4.55470 Y-3.09120
G01 X-4.56114 Y-3.09420
G01 X-4.63316 Y-3.02218
G04 P0 ( dwell for no time -- G64 should not smooth over this point )
G00 Z0.08000 ( retract )

G00 X-4.34170 Y-3.25434 ( rapid move to begin. )
G01 F0.50000
( Mill infeed pass 1/1 )
G01 Z-0.04000
G04 P0 ( dwell for no time -- G64 should not smooth over this point )
G01 F1.00000
G01 X-4.34170 Y-3.25434
G01 X-4.34125 Y-3.25393
G01 X-4.34116 Y-3.25321
G01 X-4.34084 Y-3.24957
G01 X-4.34075 Y-3.24632
G01 X-4.34073 Y-3.04131
G01 X-4.34076 Y-3.03952
G01 X-4.34120 Y-3.03886
G01 X-4.34076 Y-3.03952
G01 X-4.33674 Y-3.04129
G01 X-4.32953 Y-3.04385
G01 X-4.32603 Y-3.04489
G01 X-4.31584 Y-3.04712
G01 X-4.30670 Y-3.04814
G01 X-4.30070 Y-3.04838
G01 X-4.29105 Y-3.04800
G01 X-4.28187 Y-3.04671
G01 X-4.27480 Y-3.04505
G01 X-4.11239 Y-3.20747
G01 X-4.11168 Y-3.20761
G01 X-4.11290 Y-3.20736
G01 X-4.11684 Y-3.20943
G01 X-4.11680 Y-3.20987
G01 X-4.11684 Y-3.20943
G01 X-4.11762 Y-3.20914
G01 X-4.12527 Y-3.20678
G01 X-4.12915 Y-3.20583
G01 X-4.13545 Y-3.20466
G01 X-4.13942 Y-3.20414
G01 X-4.14580 Y-3.20364
G01 X-4.15498 Y-3.20368
G01 X-4.16042 Y-3.20415
G01 X-4.16633 Y-3.20495
G01 X-4.16978 Y-3.20560
G01 X-4.17819 Y-3.20776
G01 X-4.18603 Y-3.21056
G01 X-4.19164 Y-3.21303
G01 X-4.19701 Y-3.21579
G01 X-4.20054 Y-3.21786
G01 X-4.20823 Y-3.22310
G01 X-4.21536 Y-3.22909
G01 X-4.21916 Y-3.23281
G01 X-4.22320 Y-3.23721
G01 X-4.22569 Y-3.24022
G01 X-4.23077 Y-3.24727
G01 X-4.23463 Y-3.25382
G01 X-4.34119 Y-3.25387
G01 X-4.34164 Y-3.25428

G00 Z1.00000 (Retract to tool change height)
T2
M5      (Spindle stop.)
G04 P1.00000 (Wait for spindle to stop)
(MSG, Change tool bit to mill diameter 0.00787in)
M6      (Tool change.)
M0      (Temporary machine stop.)
M3 ( Spindle on clockwise. )
G04 P1.00000 (Wait for spindle to get up to speed)
G04 P0 ( dwell for no time -- G64 should not smooth over this point )
G00 Z0.08000 ( retract )

G00 X-3.28123 Y-2.57994 ( rapid move to begin. )
G01 F0.50000
( Mill infeed pass 1/1 )
G01 Z-0.04000
G04 P0 ( dwell for no time -- G64 should not smooth over this point )
G01 F1.00000
G01 X-3.28123 Y-2.57994
G01 X-3.28479 Y-2.57576
G01 X-3.28654 Y-2.57320
G01 X-3.28853 Y-2.56969
G01 X-3.30728 Y-2.56969
G04 P0 ( dwell for no time -- G64 should not smooth over this point )
G00 Z0.08000 ( retract )

G00 X-3.28124 Y-2.52006 ( rapid move to begin. )
G01 F0.50000
( Mill infeed pass 1/1 )
G01 Z-0.04000
G04 P0 ( dwell for no time -- G64 should not smooth over this point )
G01 F1.00000
G01 X-3.28124 Y-2.52006
G01 X-3.28480 Y-2.52426
G01 X-3.28677 Y-2.52716
G01 X-3.28853 Y-2.53031
G01 X-3.30729 Y-2.53031
G04 P0 ( dwell for no time -- G64 should not smooth over this point )
G00 Z0.08000 ( retract )

G00 X-3.54873 Y-2.74871 ( rapid move to begin. )
G01 F0.50000
( Mill infeed pass 1/1 )
G01 Z-0.04000
G04 P0 ( dwell for no time -- G64 should not smooth over this point )
G01 F1.00000
G01 X-3.54873 Y-2.74871
G01 X-3.56490 Y-2.74871
G01 X-3.70307 Y-2.61074
G01 X-3.70521 Y-2.60928
G01 X-3.70795 Y-2.60793
G01 X-3.71087 Y-2.60704
G01 X-3.71327 Y-2.60666
G01 X-3.74216 Y-2.60657
G01 X-3.74216 Y-2.55710
G01 X-3.74235 Y-2.55588
G01 X-3.74269 Y-2.55513
G01 X-3.74317 Y-2.55446
G01 X-3.74413 Y-2.55369
G01 X-3.74488 Y-2.55335
G01 X-3.74610 Y-2.55316
G01 X-3.86035 Y-2.55316
G01 X-3.91965 Y-2.49387
G01 X-3.92235 Y-2.49172
G01 X-3.92446 Y-2.49050
G01 X-3.92716 Y-2.48941
G01 X-3.92716 Y-2.43900
G01 X-3.92735 Y-2.43778
G01 X-3.92769 Y-2.43703
G01 X-3.92817 Y-2.43636
G01 X-3.92913 Y-2.43559
G01 X-3.92988 Y-2.43526
G01 X-3.93110 Y-2.43506
G01 X-4.06890 Y-2.43506
G01 X-4.07050 Y-2.43540
G01 X-4.07121 Y-2.43581
G01 X-4.07209 Y-2.43669
G01 X-4.07264 Y-2.43778
G01 X-4.07284 Y-2.43900
G01 X-4.07284 Y-2.57680
G01 X-4.07250 Y-2.57840
G01 X-4.07209 Y-2.57911
G01 X-4.07121 Y-2.57999
G01 X-4.07012 Y-2.58054
G01 X-4.06890 Y-2.58074
G01 X-3.93110 Y-2.58074
G01 X-3.92988 Y-2.58054
G01 X-3.92878 Y-2.57999
G01 X-3.92791 Y-2.57911
G01 X-3.92735 Y-2.57802
G01 X-3.92718 Y-2.57721
G01 X-3.92716 Y-2.54133
G01 X-3.88784 Y-2.58065
G01 X-3.88784 Y-2.69490
G01 X-3.88764 Y-2.69612
G01 X-3.88731 Y-2.69687
G01 X-3.88621 Y-2.69808
G01 X-3.88472 Y-2.69875
G01 X-3.88183 Y-2.69884
G01 X-3.92716 Y-2.74417
G01 X-3.92716 Y-2.67520
G01 X-3.92735 Y-2.67398
G01 X-3.92769 Y-2.67323
G01 X-3.92847 Y-2.67227
G01 X-3.92913 Y-2.67179
G01 X-3.92988 Y-2.67145
G01 X-3.93110 Y-2.67126
G01 X-4.01345 Y-2.67126
G01 X-4.14363 Y-2.60617
G01 X-4.15960 Y-2.43709
G01 X-4.14545 Y-2.42294
G01 X-3.80455 Y-2.42294
G01 X-3.69104 Y-2.53645
G01 X-3.69183 Y-2.53890
G01 X-3.69274 Y-2.54321
G01 X-3.69325 Y-2.54846
G01 X-3.69315 Y-2.55332
G01 X-3.69252 Y-2.55807
G01 X-3.69135 Y-2.56279
G01 X-3.68948 Y-2.56772
G01 X-3.68748 Y-2.57164
G01 X-3.68483 Y-2.57569
G01 X-3.68145 Y-2.57974
G01 X-3.67793 Y-2.58306
G01 X-3.67407 Y-2.58597
G01 X-3.66990 Y-2.58843
G01 X-3.66547 Y-2.59042
G01 X-3.66090 Y-2.59188
G01 X-3.65614 Y-2.59284
G01 X-3.65226 Y-2.59322
G01 X-3.64874 Y-2.59327
G01 X-3.64555 Y-2.59305
G01 X-3.64206 Y-2.59255
G01 X-3.63832 Y-2.59168
G01 X-3.63399 Y-2.59019
G01 X-3.59276 Y-2.56969
G01 X-3.61147 Y-2.56969
G01 X-3.61346 Y-2.57320
G01 X-3.61546 Y-2.57609
G01 X-3.61871 Y-2.57987
G04 P0 ( dwell for no time -- G64 should not smooth over this point )
G00 Z0.08000 ( retract )

G00 X-3.59275 Y-2.53031 ( rapid move to begin. )
G01 F0.50000
( Mill infeed pass 1/1 )
G01 Z-0.04000
G04 P0 ( dwell for no time -- G64 should not smooth over this point )
G01 F1.00000
G01 X-3.59275 Y-2.53031
G01 X-3.61150 Y-2.53031
G01 X-3.61228 Y-2.52877
G01 X-3.61439 Y-2.52540
G01 X-3.61681 Y-2.52222
G01 X-3.61873 Y-2.52012
G04 P0 ( dwell for no time -- G64 should not smooth over this point )
G00 Z0.08000 ( retract )

G00 X-3.65108 Y-2.50676 ( rapid move to begin. )
G01 F0.50000
( Mill infeed pass 1/1 )
G01 Z-0.04000
G04 P0 ( dwell for no time -- G64 should not smooth over this point )
G01 F1.00000
G01 X-3.65108 Y-2.50676
G01 X-3.65394 Y-2.50690
G01 X-3.65790 Y-2.50744
G01 X-3.66177 Y-2.50835
G01 X-3.66357 Y-2.50894
G01 X-3.67696 Y-2.49555
G04 P0 ( dwell for no time -- G64 should not smooth over this point )
G00 Z0.08000 ( retract )

G00 X-3.74249 Y-2.69648 ( rapid move to begin. )
G01 F0.50000
( Mill infeed pass 1/1 )
G01 Z-0.04000
G04 P0 ( dwell for no time -- G64 should not smooth over this point )
G01 F1.00000
G01 X-3.74249 Y-2.69648
G01 X-3.74216 Y-2.69490
G01 X-3.74216 Y-2.64544
G01 X-3.72315 Y-2.64544
G01 X-3.67293 Y-2.69565
G01 X-3.62963 Y-2.91181
G01 X-3.57350 Y-2.78756
G01 X-3.62963 Y-2.91181
G01 X-3.62670 Y-2.91352
G01 X-3.62346 Y-2.91580
G01 X-3.62072 Y-2.91813
G01 X-3.61821 Y-2.92063
G01 X-3.61572 Y-2.92358
G01 X-3.61364 Y-2.92652
G01 X-3.61135 Y-2.93056
G01 X-3.60648 Y-2.93056
G01 X-3.52783 Y-2.85192
G01 X-3.52794 Y-2.84972
G01 X-3.52761 Y-2.84558
G01 X-3.52670 Y-2.84152
G01 X-3.52545 Y-2.83813
G01 X-3.52322 Y-2.83398
G01 X-3.52108 Y-2.83108
G01 X-3.51820 Y-2.82808
G01 X-3.51446 Y-2.82522
G01 X-3.51085 Y-2.82322
G01 X-3.50740 Y-2.82188
G01 X-3.50378 Y-2.82097
G01 X-3.49968 Y-2.82050
G01 X-3.49595 Y-2.82058
G01 X-3.49239 Y-2.82111
G01 X-3.48879 Y-2.82210
G01 X-3.48538 Y-2.82352
G01 X-3.48176 Y-2.82563
G01 X-3.47882 Y-2.82793
G01 X-3.47593 Y-2.83088
G01 X-3.47370 Y-2.83387
G01 X-3.47169 Y-2.83747
G01 X-3.47034 Y-2.84091
G01 X-3.46952 Y-2.84401
G01 X-3.46897 Y-2.84810
G01 X-3.46896 Y-2.85183
G01 X-3.46934 Y-2.85505
G01 X-3.46995 Y-2.85779
G01 X-3.47081 Y-2.86045
G01 X-3.47231 Y-2.86377
G01 X-3.47397 Y-2.86654
G01 X-3.47591 Y-2.86910
G01 X-3.47783 Y-2.87115
G01 X-3.47974 Y-2.87285
G01 X-3.42929 Y-2.87693
G01 X-3.50828 Y-2.88735
G01 X-3.50036 Y-2.87942
G01 X-3.49598 Y-2.87942
G01 X-3.49361 Y-2.87908
G01 X-3.49598 Y-2.87942
G01 X-3.50036 Y-2.87942
G01 X-3.50828 Y-2.88735
G01 X-3.29323 Y-2.94881
G01 X-3.29312 Y-2.94628
G01 X-3.29259 Y-2.94232
G01 X-3.29160 Y-2.93804
G01 X-3.29106 Y-2.93643
G01 X-3.35805 Y-2.86944
G01 X-3.37047 Y-2.86944
G01 X-3.37056 Y-2.87641
G01 X-3.37122 Y-2.87790
G01 X-3.37253 Y-2.87905
G01 X-3.27981 Y-2.98134
G01 X-3.44093 Y-3.14636
G01 X-3.44358 Y-3.14865
G01 X-3.44620 Y-3.15157
G01 X-3.45861 Y-3.15157
G01 X-3.44620 Y-3.15157
G01 X-3.44358 Y-3.14865
G01 X-3.44093 Y-3.14636
G01 X-3.61803 Y-2.97914
G01 X-3.61494 Y-2.97538
G01 X-3.61300 Y-2.97247
G01 X-3.61134 Y-2.96944
G01 X-3.59820 Y-2.96943
G04 P0 ( dwell for no time -- G64 should not smooth over this point )
G00 Z0.08000 ( retract )

G00 X-3.68116 Y-2.97991 ( rapid move to begin. )
G01 F0.50000
( Mill infeed pass 1/1 )
G01 Z-0.04000
G04 P0 ( dwell for no time -- G64 should not smooth over this point )
G01 F1.00000
G01 X-3.68116 Y-2.97991
G01 X-3.68379 Y-2.97703
G01 X-3.68700 Y-2.97245
G01 X-3.68858 Y-2.96944
G01 X-3.70751 Y-2.96944
G04 P0 ( dwell for no time -- G64 should not smooth over this point )
G00 Z0.08000 ( retract )

G00 X-3.70755 Y-2.93056 ( rapid move to begin. )
G01 F0.50000
( Mill infeed pass 1/1 )
G01 Z-0.04000
G04 P0 ( dwell for no time -- G64 should not smooth over this point )
G01 F1.00000
G01 X-3.70755 Y-2.93056
G01 X-3.68866 Y-2.93056
G01 X-3.68677 Y-2.92718
G01 X-3.68352 Y-2.92262
G01 X-3.68105 Y-2.91998
G01 X-3.57350 Y-2.78756
G01 X-3.21876 Y-2.78759
G01 X-3.18759 Y-2.81876
G01 X-3.18759 Y-3.20957
G01 X-3.35738 Y-3.37936
G01 X-3.81352 Y-3.37936
G01 X-3.83056 Y-3.36232
G01 X-3.83056 Y-3.34331
G01 X-3.81219 Y-3.34328
G01 X-3.81100 Y-3.34297
G01 X-3.80996 Y-3.34230
G01 X-3.80919 Y-3.34134
G01 X-3.80875 Y-3.34019
G01 X-3.80866 Y-3.26063
G01 X-3.80875 Y-3.25981
G01 X-3.80919 Y-3.25866
G01 X-3.80996 Y-3.25770
G01 X-3.81100 Y-3.25703
G01 X-3.81260 Y-3.25669
G01 X-3.88740 Y-3.25669
G01 X-3.88862 Y-3.25689
G01 X-3.88971 Y-3.25744
G01 X-3.89033 Y-3.25800
G01 X-3.89100 Y-3.25903
G01 X-3.89132 Y-3.26022
G01 X-3.89134 Y-3.28056
G01 X-4.00866 Y-3.28056
G01 X-4.00868 Y-3.26022
G01 X-4.00900 Y-3.25903
G01 X-4.00967 Y-3.25800
G01 X-4.01028 Y-3.25744
G01 X-4.01138 Y-3.25689
G01 X-4.01260 Y-3.25669
G01 X-4.08652 Y-3.25669
G04 P0 ( dwell for no time -- G64 should not smooth over this point )
G00 Z0.08000 ( retract )

G00 X-4.09100 Y-3.34097 ( rapid move to begin. )
G01 F0.50000
( Mill infeed pass 1/1 )
G01 Z-0.04000
G04 P0 ( dwell for no time -- G64 should not smooth over this point )
G01 F1.00000
G01 X-4.09100 Y-3.34097
G01 X-4.09134 Y-3.33937
G01 X-4.09134 Y-3.26063
G01 X-4.09100 Y-3.25903
G04 P0 ( dwell for no time -- G64 should not smooth over this point )
G00 Z0.08000 ( retract )

G00 X-4.04610 Y-3.14012 ( rapid move to begin. )
G01 F0.50000
( Mill infeed pass 1/1 )
G01 Z-0.04000
G04 P0 ( dwell for no time -- G64 should not smooth over this point )
G01 F1.00000
G01 X-4.04610 Y-3.14012
G01 X-4.03465 Y-3.15157
G01 X-4.01846 Y-3.15157
G04 P0 ( dwell for no time -- G64 should not smooth over this point )
G00 Z0.08000 ( retract )

G00 X-3.89126 Y-3.34015 ( rapid move to begin. )
G01 F0.50000
( Mill infeed pass 1/1 )
G01 Z-0.04000
G04 P0 ( dwell for no time -- G64 should not smooth over this point )
G01 F1.00000
G01 X-3.89126 Y-3.34015
G01 X-3.89134 Y-3.31944
G01 X-3.92818 Y-3.31944
G01 X-4.00874 Y-3.34015
G01 X-4.00866 Y-3.31944
G01 X-3.97182 Y-3.31944
G01 X-3.88819 Y-3.34322
G01 X-3.86943 Y-3.34331
G01 X-3.86941 Y-3.37122
G04 P0 ( dwell for no time -- G64 should not smooth over this point )
G00 Z0.08000 ( retract )

G00 X-3.71251 Y-3.28262 ( rapid move to begin. )
G01 F0.50000
( Mill infeed pass 1/1 )
G01 Z-0.04000
G04 P0 ( dwell for no time -- G64 should not smooth over this point )
G01 F1.00000
G01 X-3.71251 Y-3.28262
G01 X-3.71121 Y-3.28573
G01 X-3.71012 Y-3.28912
G01 X-3.70914 Y-3.29396
G01 X-3.69229 Y-3.30011
G01 X-3.66467 Y-3.30905
G01 X-3.66778 Y-3.30905
G01 X-3.67069 Y-3.30799
G01 X-3.71969 Y-3.27196
G01 X-3.72126 Y-3.27029
G01 X-3.72424 Y-3.26768
G01 X-3.72682 Y-3.26578
G01 X-3.72983 Y-3.26392
G01 X-3.73329 Y-3.26219
G01 X-3.73659 Y-3.26090
G01 X-3.73998 Y-3.25990
G01 X-3.74347 Y-3.25918
G01 X-3.74705 Y-3.25877
G01 X-3.75185 Y-3.25871
G01 X-3.75543 Y-3.25902
G01 X-3.75935 Y-3.25974
G01 X-3.76358 Y-3.26096
G01 X-3.76767 Y-3.26263
G01 X-3.77155 Y-3.26472
G01 X-3.77519 Y-3.26723
G01 X-3.77855 Y-3.27011
G01 X-3.78156 Y-3.27331
G01 X-3.78398 Y-3.27647
G01 X-3.78590 Y-3.27952
G01 X-3.78788 Y-3.28345
G01 X-3.78942 Y-3.28757
G01 X-3.79052 Y-3.29186
G01 X-3.79112 Y-3.29581
G01 X-3.79133 Y-3.29981
G01 X-3.79121 Y-3.30324
G01 X-3.79085 Y-3.30632
G01 X-3.79033 Y-3.30907
G01 X-3.78945 Y-3.31234
G01 X-3.78841 Y-3.31526
G01 X-3.78729 Y-3.31783
G01 X-3.78585 Y-3.32057
G01 X-3.78421 Y-3.32320
G01 X-3.78220 Y-3.32592
G01 X-3.78017 Y-3.32826
G01 X-3.77818 Y-3.33024
G01 X-3.77584 Y-3.33227
G01 X-3.77335 Y-3.33411
G01 X-3.77073 Y-3.33576
G01 X-3.76800 Y-3.33721
G01 X-3.76477 Y-3.33860
G01 X-3.75939 Y-3.34025
G01 X-3.75664 Y-3.34080
G01 X-3.75357 Y-3.34118
G01 X-3.75018 Y-3.34133
G01 X-3.74696 Y-3.34122
G01 X-3.74128 Y-3.34040
G01 X-3.73627 Y-3.33898
G01 X-3.73300 Y-3.33768
G01 X-3.73049 Y-3.33644
G01 X-3.72782 Y-3.33488
G01 X-3.72527 Y-3.33312
G01 X-3.72270 Y-3.33092
G01 X-3.67801 Y-3.34723
G01 X-3.67589 Y-3.34787
G01 X-3.67303 Y-3.34834
G01 X-3.44619 Y-3.34843
G01 X-3.44321 Y-3.35170
G01 X-3.44087 Y-3.35369
G01 X-3.43835 Y-3.35544
G01 X-3.43567 Y-3.35694
G01 X-3.43286 Y-3.35817
G01 X-3.42994 Y-3.35912
G01 X-3.42697 Y-3.35978
G01 X-3.42442 Y-3.36011
G01 X-3.42176 Y-3.36023
G01 X-3.37722 Y-3.36021
G01 X-3.37444 Y-3.35999
G01 X-3.37166 Y-3.35952
G01 X-3.36894 Y-3.35880
G01 X-3.36607 Y-3.35774
G01 X-3.36321 Y-3.35636
G01 X-3.36080 Y-3.35489
G01 X-3.35853 Y-3.35321
G01 X-3.35651 Y-3.35143
G01 X-3.35440 Y-3.34920
G01 X-3.35246 Y-3.34668
G01 X-3.35096 Y-3.34430
G01 X-3.34968 Y-3.34179
G01 X-3.34863 Y-3.33918
G01 X-3.34782 Y-3.33647
G01 X-3.34727 Y-3.33384
G01 X-3.34694 Y-3.33102
G01 X-3.34686 Y-3.32797
G01 X-3.34709 Y-3.32491
G01 X-3.34769 Y-3.32151
G01 X-3.34855 Y-3.31856
G01 X-3.34968 Y-3.31570
G01 X-3.35108 Y-3.31297
G01 X-3.35253 Y-3.31071
G01 X-3.35483 Y-3.30780
G01 X-3.35699 Y-3.30560
G01 X-3.35922 Y-3.30372
G01 X-3.36209 Y-3.30177
G01 X-3.36480 Y-3.30031
G01 X-3.36749 Y-3.29918
G01 X-3.37043 Y-3.29826
G01 X-3.37344 Y-3.29763
G01 X-3.37689 Y-3.29728
G01 X-3.42223 Y-3.29726
G01 X-3.42669 Y-3.29766
G01 X-3.42981 Y-3.29832
G01 X-3.43274 Y-3.29926
G01 X-3.43577 Y-3.30059
G01 X-3.43846 Y-3.30211
G01 X-3.44127 Y-3.30411
G01 X-3.44358 Y-3.30613
G01 X-3.44620 Y-3.30905
G01 X-3.49823 Y-3.30905
G01 X-3.45231 Y-3.25719
G01 X-3.45091 Y-3.26163
G01 X-3.44877 Y-3.26600
G01 X-3.44599 Y-3.26998
G01 X-3.44263 Y-3.27348
G01 X-3.43877 Y-3.27643
G01 X-3.43417 Y-3.27889
G01 X-3.42958 Y-3.28047
G01 X-3.42489 Y-3.28132
G01 X-3.42177 Y-3.28150
G01 X-3.37835 Y-3.28150
G01 X-3.37431 Y-3.28123
G01 X-3.37104 Y-3.28063
G01 X-3.36785 Y-3.27969
G01 X-3.36477 Y-3.27842
G01 X-3.36221 Y-3.27704
G01 X-3.35945 Y-3.27519
G01 X-3.35690 Y-3.27306
G01 X-3.35458 Y-3.27067
G01 X-3.35361 Y-3.26944
G01 X-3.31897 Y-3.26941
G01 X-3.31476 Y-3.26877
G01 X-3.31101 Y-3.26734
G01 X-3.30836 Y-3.26572
G01 X-3.30604 Y-3.26374
G01 X-3.23597 Y-3.19367
G01 X-3.23371 Y-3.19082
G01 X-3.23238 Y-3.18839
G01 X-3.23132 Y-3.18554
G01 X-3.23065 Y-3.18183
G01 X-3.23056 Y-2.98863
G01 X-3.22897 Y-2.98783
G01 X-3.22590 Y-2.98595
G01 X-3.22239 Y-2.98333
G01 X-3.21944 Y-2.98066
G01 X-3.21677 Y-2.97774
G01 X-3.21414 Y-2.97424
G01 X-3.21206 Y-2.97084
G01 X-3.21015 Y-2.96690
G01 X-3.20865 Y-2.96281
G01 X-3.20765 Y-2.95894
G01 X-3.20701 Y-2.95501
G01 X-3.20672 Y-2.95064
G01 X-3.20684 Y-2.94666
G01 X-3.20740 Y-2.94232
G01 X-3.20840 Y-2.93804
G01 X-3.20968 Y-2.93427
G01 X-3.21147 Y-2.93027
G01 X-3.21345 Y-2.92682
G01 X-3.21595 Y-2.92328
G01 X-3.21884 Y-2.91996
G01 X-3.22203 Y-2.91696
G01 X-3.22519 Y-2.91453
G01 X-3.22857 Y-2.91240
G01 X-3.23284 Y-2.91026
G01 X-3.23656 Y-2.90885
G01 X-3.24031 Y-2.90782
G01 X-3.29817 Y-2.87439
G01 X-3.33746 Y-2.83517
G01 X-3.34002 Y-2.83333
G01 X-3.34285 Y-2.83194
G01 X-3.34571 Y-2.83105
G01 X-3.34804 Y-2.83066
G01 X-3.37047 Y-2.83058
G01 X-3.37047 Y-2.82441
G01 X-3.37066 Y-2.82319
G01 X-3.37100 Y-2.82244
G01 X-3.37177 Y-2.82148
G01 X-3.37244 Y-2.82100
G01 X-3.37359 Y-2.82056
G01 X-3.42559 Y-2.82047
G01 X-3.42719 Y-2.82081
G01 X-3.42852 Y-2.82178
G01 X-3.42919 Y-2.82281
G01 X-3.42953 Y-2.82441
G01 X-3.42953 Y-2.87559
G01 X-3.42929 Y-2.87693
G04 P0 ( dwell for no time -- G64 should not smooth over this point )
G00 Z0.08000 ( retract )

G00 X-3.27632 Y-2.89622 ( rapid move to begin. )
G01 F0.50000
( Mill infeed pass 1/1 )
G01 Z-0.04000
G04 P0 ( dwell for no time -- G64 should not smooth over this point )
G01 F1.00000
G01 X-3.27632 Y-2.89622
G01 X-3.26357 Y-2.90895
G01 X-3.26175 Y-2.90834
G01 X-3.25786 Y-2.90744
G01 X-3.25297 Y-2.90682
G04 P0 ( dwell for no time -- G64 should not smooth over this point )
G00 Z0.08000 ( retract )

G00 X-3.27981 Y-2.98134 ( rapid move to begin. )
G01 F0.50000
( Mill infeed pass 1/1 )
G01 Z-0.04000
G04 P0 ( dwell for no time -- G64 should not smooth over this point )
G01 F1.00000
G01 X-3.27981 Y-2.98134
G01 X-3.27761 Y-2.98333
G01 X-3.27442 Y-2.98574
G01 X-3.27103 Y-2.98783
G01 X-3.26944 Y-2.98863
G01 X-3.26944 Y-3.17216
G01 X-3.32784 Y-3.23056
G01 X-3.35361 Y-3.23056
G01 X-3.35451 Y-3.22942
G01 X-3.35700 Y-3.22685
G01 X-3.35977 Y-3.22457
G01 X-3.36278 Y-3.22263
G01 X-3.36598 Y-3.22104
G01 X-3.36935 Y-3.21982
G01 X-3.37284 Y-3.21899
G01 X-3.37595 Y-3.21860
G01 X-3.42421 Y-3.21861
G01 X-3.42824 Y-3.21921
G01 X-3.43195 Y-3.22024
G01 X-3.43527 Y-3.22160
G01 X-3.43909 Y-3.22378
G01 X-3.44246 Y-3.22637
G01 X-3.44585 Y-3.22985
G01 X-3.44854 Y-3.23360
G01 X-3.45073 Y-3.23792
G01 X-3.45231 Y-3.24283
G04 P0 ( dwell for no time -- G64 should not smooth over this point )
G00 Z0.08000 ( retract )

G00 X-3.35445 Y-3.15078 ( rapid move to begin. )
G01 F0.50000
( Mill infeed pass 1/1 )
G01 Z-0.04000
G04 P0 ( dwell for no time -- G64 should not smooth over this point )
G01 F1.00000
G01 X-3.35445 Y-3.15078
G01 X-3.35251 Y-3.15326
G01 X-3.35085 Y-3.15591
G01 X-3.34928 Y-3.15914
G01 X-3.34809 Y-3.16251
G01 X-3.34722 Y-3.16645
G01 X-3.34688 Y-3.17001
G01 X-3.34691 Y-3.17315
G01 X-3.34733 Y-3.17670
G01 X-3.34831 Y-3.18071
G01 X-3.35008 Y-3.18516
G01 X-3.35256 Y-3.18935
G01 X-3.35582 Y-3.19327
G01 X-3.35949 Y-3.19649
G01 X-3.36354 Y-3.19904
G01 X-3.36859 Y-3.20119
G01 X-3.37324 Y-3.20234
G01 X-3.37812 Y-3.20275
G01 X-3.42199 Y-3.20275
G01 X-3.42732 Y-3.20224
G01 X-3.43031 Y-3.20154
G01 X-3.43286 Y-3.20069
G01 X-3.43567 Y-3.19946
G01 X-3.43835 Y-3.19796
G01 X-3.44087 Y-3.19621
G01 X-3.44321 Y-3.19422
G01 X-3.44619 Y-3.19095
G01 X-4.04280 Y-3.19095
G01 X-4.04558 Y-3.19074
G01 X-4.04815 Y-3.19020
G01 X-4.05057 Y-3.18934
G01 X-4.05326 Y-3.18793
G01 X-4.05499 Y-3.18671
G01 X-4.05672 Y-3.18518
G01 X-4.06635 Y-3.17556
G01 X-4.08652 Y-3.25669
G01 X-4.13023 Y-3.26374
G01 X-4.12866 Y-3.26460
G01 X-4.12566 Y-3.26659
G01 X-4.12194 Y-3.26965
G01 X-4.11913 Y-3.27251
G01 X-4.11662 Y-3.27562
G01 X-4.11422 Y-3.27931
G01 X-4.11222 Y-3.28323
G01 X-4.11065 Y-3.28734
G01 X-4.10961 Y-3.29121
G01 X-4.10895 Y-3.29515
G01 X-4.10867 Y-3.29957
G01 X-4.10895 Y-3.30482
G01 X-4.10980 Y-3.30963
G01 X-4.11121 Y-3.31429
G01 X-4.11339 Y-3.31917
G01 X-4.11613 Y-3.32369
G01 X-4.11915 Y-3.32750
G01 X-4.12261 Y-3.33095
G01 X-4.12638 Y-3.33392
G01 X-4.13020 Y-3.33626
G01 X-4.09100 Y-3.34097
G01 X-4.15280 Y-3.34118
G01 X-4.15498 Y-3.34103
G01 X-4.15931 Y-3.34027
G01 X-4.16174 Y-3.33957
G01 X-4.16540 Y-3.34322
G01 X-4.16756 Y-3.34489
G04 P0 ( dwell for no time -- G64 should not smooth over this point )
G00 Z0.08000 ( retract )

G00 X-4.18811 Y-3.28412 ( rapid move to begin. )
G01 F0.50000
( Mill infeed pass 1/1 )
G01 Z-0.04000
G04 P0 ( dwell for no time -- G64 should not smooth over this point )
G01 F1.00000
G01 X-4.18811 Y-3.28412
G01 X-4.18886 Y-3.28592
G01 X-4.19014 Y-3.29013
G01 X-4.19107 Y-3.29537
G01 X-4.19133 Y-3.29977
G01 X-4.19112 Y-3.30421
G01 X-4.19032 Y-3.30905
G01 X-4.45381 Y-3.30905
G01 X-4.45679 Y-3.30578
G01 X-4.45913 Y-3.30379
G01 X-4.46165 Y-3.30204
G01 X-4.46433 Y-3.30054
G01 X-4.46714 Y-3.29931
G01 X-4.47006 Y-3.29836
G01 X-4.47304 Y-3.29770
G01 X-4.47549 Y-3.29738
G01 X-4.47824 Y-3.29724
G01 X-4.52300 Y-3.29728
G01 X-4.52643 Y-3.29761
G01 X-4.52944 Y-3.29823
G01 X-4.53239 Y-3.29914
G01 X-4.53544 Y-3.30043
G01 X-4.53815 Y-3.30191
G01 X-4.54087 Y-3.30379
G01 X-4.54321 Y-3.30578
G01 X-4.54509 Y-3.30770
G01 X-4.54659 Y-3.30954
G01 X-4.54654 Y-3.26927
G01 X-4.54314 Y-3.27302
G01 X-4.53955 Y-3.27591
G01 X-4.53610 Y-3.27798
G01 X-4.53132 Y-3.27997
G01 X-4.52686 Y-3.28105
G01 X-4.52266 Y-3.28148
G01 X-4.47835 Y-3.28150
G01 X-4.47475 Y-3.28128
G01 X-4.47144 Y-3.28072
G01 X-4.46824 Y-3.27983
G01 X-4.46515 Y-3.27859
G01 X-4.46221 Y-3.27704
G01 X-4.45945 Y-3.27519
G01 X-4.45690 Y-3.27306
G01 X-4.45458 Y-3.27067
G01 X-4.45361 Y-3.26944
G01 X-4.41938 Y-3.26943
G01 X-4.41624 Y-3.26911
G01 X-4.41327 Y-3.26831
G01 X-4.41009 Y-3.26684
G01 X-4.40725 Y-3.26483
G01 X-4.40021 Y-3.25777
G01 X-4.39862 Y-3.25548
G01 X-4.39726 Y-3.25275
G01 X-4.39719 Y-3.25257
G01 X-4.39862 Y-3.25548
G01 X-4.40021 Y-3.25777
G01 X-4.40725 Y-3.26483
G01 X-4.41009 Y-3.26684
G01 X-4.41327 Y-3.26831
G01 X-4.41624 Y-3.26911
G01 X-4.41938 Y-3.26943
G01 X-4.45361 Y-3.26944
G01 X-4.45458 Y-3.27067
G01 X-4.45690 Y-3.27306
G01 X-4.45945 Y-3.27519
G01 X-4.46221 Y-3.27704
G01 X-4.46515 Y-3.27859
G01 X-4.46824 Y-3.27983
G01 X-4.47144 Y-3.28072
G01 X-4.47475 Y-3.28128
G01 X-4.47835 Y-3.28150
G01 X-4.52266 Y-3.28148
G01 X-4.52686 Y-3.28105
G01 X-4.53132 Y-3.27997
G01 X-4.53610 Y-3.27798
G01 X-4.53955 Y-3.27591
G01 X-4.54314 Y-3.27302
G01 X-4.54654 Y-3.26927
G01 X-4.54659 Y-3.30954
G01 X-4.58961 Y-3.19065
G01 X-4.54639 Y-3.19069
G01 X-4.54320 Y-3.19423
G01 X-4.54065 Y-3.19637
G01 X-4.53790 Y-3.19824
G01 X-4.53496 Y-3.19980
G01 X-4.53188 Y-3.20104
G01 X-4.52868 Y-3.20196
G01 X-4.52537 Y-3.20253
G01 X-4.52176 Y-3.20275
G01 X-4.47700 Y-3.20272
G01 X-4.47171 Y-3.20204
G01 X-4.46728 Y-3.20074
G01 X-4.46341 Y-3.19898
G01 X-4.45951 Y-3.19649
G01 X-4.45587 Y-3.19331
G01 X-4.45274 Y-3.18959
G01 X-4.45007 Y-3.18512
G01 X-4.44828 Y-3.18060
G01 X-4.44720 Y-3.17587
G01 X-4.44686 Y-3.17163
G01 X-4.44715 Y-3.16702
G01 X-4.44817 Y-3.16228
G01 X-4.44991 Y-3.15775
G01 X-4.45232 Y-3.15354
G01 X-4.45560 Y-3.14949
G01 X-4.45919 Y-3.14627
G01 X-4.46283 Y-3.14386
G01 X-4.46646 Y-3.14210
G01 X-4.47084 Y-3.14068
G01 X-4.47559 Y-3.13989
G01 X-4.48002 Y-3.13977
G04 P0 ( dwell for no time -- G64 should not smooth over this point )
G00 Z0.08000 ( retract )

G00 X-4.44140 Y-3.34842 ( rapid move to begin. )
G01 F0.50000
( Mill infeed pass 1/1 )
G01 Z-0.04000
G04 P0 ( dwell for no time -- G64 should not smooth over this point )
G01 F1.00000
G01 X-4.44140 Y-3.34842
G01 X-4.45380 Y-3.34843
G01 X-4.45642 Y-3.35134
G01 X-4.45906 Y-3.35363
G04 P0 ( dwell for no time -- G64 should not smooth over this point )
G00 Z0.08000 ( retract )

G00 X-4.55208 Y-3.24189 ( rapid move to begin. )
G01 F0.50000
( Mill infeed pass 1/1 )
G01 Z-0.04000
G04 P0 ( dwell for no time -- G64 should not smooth over this point )
G01 F1.00000
G01 X-4.55208 Y-3.24189
G01 X-4.55102 Y-3.23863
G01 X-4.54946 Y-3.23522
G01 X-4.54785 Y-3.23252
G01 X-4.54585 Y-3.22985
G01 X-4.54328 Y-3.22711
G01 X-4.54054 Y-3.22480
G01 X-4.53794 Y-3.22305
G01 X-4.53461 Y-3.22130
G01 X-4.53151 Y-3.22009
G01 X-4.52871 Y-3.21931
G01 X-4.52502 Y-3.21869
G01 X-4.52188 Y-3.21850
G01 X-4.47823 Y-3.21850
G01 X-4.47444 Y-3.21875
G01 X-4.47116 Y-3.21934
G01 X-4.46795 Y-3.22027
G01 X-4.46505 Y-3.22145
G01 X-4.46210 Y-3.22302
G01 X-4.45934 Y-3.22489
G01 X-4.45680 Y-3.22703
G01 X-4.45361 Y-3.23056
G01 X-4.43472 Y-3.23056
G01 X-4.43472 Y-3.04935
G01 X-4.56586 Y-2.91775
G01 X-4.56695 Y-2.91608
G01 X-4.56806 Y-2.91374
G01 X-4.56882 Y-2.91142
G01 X-4.56934 Y-2.90842
G01 X-4.56943 Y-2.87953
G01 X-4.57600 Y-2.87950
G01 X-4.57719 Y-2.87919
G01 X-4.57822 Y-2.87852
G01 X-4.57900 Y-2.87756
G01 X-4.57951 Y-2.87600
G01 X-4.57953 Y-2.86944
G01 X-4.59195 Y-2.86944
G01 X-4.65893 Y-2.93642
G01 X-4.65757 Y-2.94143
G01 X-4.65697 Y-2.94533
G01 X-4.65674 Y-2.94983
G01 X-4.53945 Y-3.14531
G01 X-4.54304 Y-3.14815
G01 X-4.54523 Y-3.15039
G01 X-4.54637 Y-3.15182
G01 X-4.58147 Y-3.15182
G01 X-4.75541 Y-2.97788
G01 X-4.75541 Y-2.92212
G01 X-4.64163 Y-2.80835
G01 X-4.16494 Y-2.80835
G01 X-4.15350 Y-2.81978
G01 X-4.26890 Y-2.91732
G01 X-4.28031 Y-2.90591
G01 X-4.28040 Y-2.84837
G01 X-4.28089 Y-2.84528
G01 X-4.28156 Y-2.84316
G01 X-4.28312 Y-2.83987
G01 X-4.28555 Y-2.83663
G01 X-4.28880 Y-2.83381
G01 X-4.29102 Y-2.83249
G01 X-4.29325 Y-2.83152
G01 X-4.29617 Y-2.83070
G01 X-4.29959 Y-2.83032
G01 X-4.42962 Y-2.83031
G01 X-4.43067 Y-2.82916
G01 X-4.43344 Y-2.82671
G01 X-4.43647 Y-2.82463
G01 X-4.43936 Y-2.82312
G01 X-4.44235 Y-2.82196
G01 X-4.44550 Y-2.82111
G01 X-4.44913 Y-2.82058
G01 X-4.45240 Y-2.82049
G01 X-4.45751 Y-2.82109
G01 X-4.46195 Y-2.82237
G01 X-4.46613 Y-2.82432
G01 X-4.46996 Y-2.82691
G01 X-4.47292 Y-2.82961
G01 X-4.47618 Y-2.83370
G01 X-4.47842 Y-2.83774
G01 X-4.47999 Y-2.84199
G01 X-4.48069 Y-2.84512
G01 X-4.48102 Y-2.84790
G01 X-4.48109 Y-2.85071
G01 X-4.48077 Y-2.85436
G01 X-4.48012 Y-2.85753
G01 X-4.47912 Y-2.86061
G01 X-4.47780 Y-2.86356
G01 X-4.47615 Y-2.86635
G01 X-4.47449 Y-2.86861
G01 X-4.47232 Y-2.87101
G01 X-4.47023 Y-2.87288
G01 X-4.46764 Y-2.87477
G01 X-4.46483 Y-2.87638
G01 X-4.46186 Y-2.87767
G01 X-4.45877 Y-2.87863
G01 X-4.45559 Y-2.87925
G01 X-4.45240 Y-2.87951
G01 X-4.44775 Y-2.87927
G01 X-4.38847 Y-2.86969
G01 X-4.31969 Y-2.86969
G01 X-4.31969 Y-2.91154
G01 X-4.32262 Y-2.91310
G01 X-4.32688 Y-2.91608
G01 X-4.33146 Y-2.92028
G01 X-4.33486 Y-2.92434
G01 X-4.33768 Y-2.92871
G01 X-4.34000 Y-2.93347
G01 X-4.34055 Y-2.93502
G01 X-4.41864 Y-2.86969
G01 X-4.42964 Y-2.86969
G01 X-4.43100 Y-2.87117
G01 X-4.43342 Y-2.87328
G01 X-4.43460 Y-2.87410
G01 X-4.34252 Y-2.95808
G04 P0 ( dwell for no time -- G64 should not smooth over this point )
G00 Z0.08000 ( retract )

G00 X-4.67558 Y-2.98570 ( rapid move to begin. )
G01 F0.50000
( Mill infeed pass 1/1 )
G01 Z-0.04000
G04 P0 ( dwell for no time -- G64 should not smooth over this point )
G01 F1.00000
G01 X-4.67558 Y-2.98570
G01 X-4.67779 Y-2.98715
G01 X-4.68207 Y-2.98940
G01 X-4.68658 Y-2.99115
G01 X-4.69083 Y-2.99230
G01 X-4.69604 Y-2.99310
G01 X-4.70088 Y-2.99327
G01 X-4.70568 Y-2.99291
G01 X-4.71003 Y-2.99210
G01 X-4.71467 Y-2.99072
G01 X-4.71912 Y-2.98883
G01 X-4.72296 Y-2.98669
G01 X-4.72725 Y-2.98362
G01 X-4.73084 Y-2.98037
G01 X-4.73376 Y-2.97708
G01 X-4.73635 Y-2.97350
G01 X-4.73873 Y-2.96931
G01 X-4.74078 Y-2.96452
G01 X-4.74182 Y-2.96117
G01 X-4.74251 Y-2.95815
G01 X-4.74303 Y-2.95469
G01 X-4.74324 Y-2.95190
G01 X-4.74327 Y-2.94882
G01 X-4.74303 Y-2.94533
G01 X-4.74251 Y-2.94185
G01 X-4.74174 Y-2.93854
G01 X-4.74068 Y-2.93520
G01 X-4.73951 Y-2.93233
G01 X-4.73810 Y-2.92946
G01 X-4.73653 Y-2.92678
G01 X-4.73461 Y-2.92400
G01 X-4.73230 Y-2.92119
G01 X-4.72790 Y-2.91691
G01 X-4.72330 Y-2.91353
G01 X-4.71829 Y-2.91077
G01 X-4.71294 Y-2.90870
G01 X-4.70697 Y-2.90728
G01 X-4.70126 Y-2.90674
G01 X-4.69513 Y-2.90700
G01 X-4.69001 Y-2.90789
G01 X-4.68647 Y-2.90898
G01 X-4.61254 Y-2.83517
G01 X-4.60998 Y-2.83333
G01 X-4.60767 Y-2.83215
G01 X-4.60483 Y-2.83118
G01 X-4.60196 Y-2.83066
G01 X-4.57953 Y-2.83058
G01 X-4.57953 Y-2.82441
G01 X-4.57933 Y-2.82319
G01 X-4.57900 Y-2.82244
G01 X-4.57822 Y-2.82148
G01 X-4.57719 Y-2.82081
G01 X-4.57600 Y-2.82049
G01 X-4.52441 Y-2.82047
G01 X-4.52281 Y-2.82081
G01 X-4.52177 Y-2.82148
G01 X-4.52100 Y-2.82244
G01 X-4.52049 Y-2.82400
G01 X-4.52049 Y-2.87600
G01 X-4.52081 Y-2.87719
G01 X-4.52148 Y-2.87822
G01 X-4.52244 Y-2.87900
G01 X-4.52319 Y-2.87933
G01 X-4.52441 Y-2.87953
G01 X-4.53056 Y-2.87953
G01 X-4.53056 Y-2.89854
G01 X-4.40154 Y-3.02756
G01 X-4.40003 Y-3.02928
G01 X-4.39867 Y-3.03121
G01 X-4.39712 Y-3.03443
G01 X-4.39663 Y-3.03603
G01 X-4.24054 Y-3.00137
G01 X-4.26562 Y-2.97629
G01 X-4.26918 Y-2.98038
G01 X-4.27309 Y-2.98390
G01 X-4.27706 Y-2.98670
G01 X-4.28126 Y-2.98901
G01 X-4.28468 Y-2.99042
G01 X-4.28126 Y-2.98901
G01 X-4.27706 Y-2.98670
G01 X-4.27309 Y-2.98390
G01 X-4.26918 Y-2.98038
G01 X-4.26562 Y-2.97629
G01 X-4.24054 Y-3.00137
G01 X-4.39663 Y-3.03603
G01 X-4.34252 Y-2.95808
G01 X-4.34148 Y-2.96235
G01 X-4.34001 Y-2.96651
G01 X-4.33812 Y-2.97049
G01 X-4.33584 Y-2.97427
G01 X-4.33290 Y-2.97811
G01 X-4.32959 Y-2.98158
G01 X-4.32587 Y-2.98470
G01 X-4.32358 Y-2.98621
G04 P0 ( dwell for no time -- G64 should not smooth over this point )
G00 Z0.08000 ( retract )

G00 X-3.97156 Y-2.93056 ( rapid move to begin. )
G01 F0.50000
( Mill infeed pass 1/1 )
G01 Z-0.04000
G04 P0 ( dwell for no time -- G64 should not smooth over this point )
G01 F1.00000
G01 X-3.97156 Y-2.93056
G01 X-3.98775 Y-2.93056
G01 X-4.14314 Y-2.77516
G01 X-4.14504 Y-2.77351
G01 X-4.28534 Y-2.59072
G01 X-4.28049 Y-2.58863
G01 X-4.27667 Y-2.58645
G01 X-4.27440 Y-2.58481
G01 X-4.07284 Y-2.68559
G01 X-4.07284 Y-2.81300
G01 X-4.07250 Y-2.81460
G01 X-4.07209 Y-2.81531
G01 X-4.07121 Y-2.81618
G01 X-4.07012 Y-2.81674
G01 X-4.06890 Y-2.81694
G01 X-3.97866 Y-2.81694
G04 P0 ( dwell for no time -- G64 should not smooth over this point )
G00 Z0.08000 ( retract )

G00 X-4.07284 Y-2.56242 ( rapid move to begin. )
G01 F0.50000
( Mill infeed pass 1/1 )
G01 Z-0.04000
G04 P0 ( dwell for no time -- G64 should not smooth over this point )
G01 F1.00000
G01 X-4.07284 Y-2.56242
G01 X-4.20455 Y-2.57572
G01 X-4.25676 Y-2.54961
G01 X-4.25679 Y-2.54758
G01 X-4.25733 Y-2.54277
G01 X-4.25828 Y-2.53848
G01 X-4.25895 Y-2.53644
G01 X-4.21763 Y-2.49512
G04 P0 ( dwell for no time -- G64 should not smooth over this point )
G00 Z0.08000 ( retract )

G00 X-4.27305 Y-2.49556 ( rapid move to begin. )
G01 F0.50000
( Mill infeed pass 1/1 )
G01 Z-0.04000
G04 P0 ( dwell for no time -- G64 should not smooth over this point )
G01 F1.00000
G01 X-4.27305 Y-2.49556
G01 X-4.28643 Y-2.50894
G01 X-4.28823 Y-2.50835
G01 X-4.29210 Y-2.50744
G01 X-4.29606 Y-2.50690
G01 X-4.29892 Y-2.50676
G04 P0 ( dwell for no time -- G64 should not smooth over this point )
G00 Z0.08000 ( retract )

G00 X-4.33127 Y-2.52012 ( rapid move to begin. )
G01 F0.50000
( Mill infeed pass 1/1 )
G01 Z-0.04000
G04 P0 ( dwell for no time -- G64 should not smooth over this point )
G01 F1.00000
G01 X-4.33127 Y-2.52012
G01 X-4.33319 Y-2.52222
G01 X-4.33561 Y-2.52540
G01 X-4.33772 Y-2.52877
G01 X-4.33850 Y-2.53031
G01 X-4.35724 Y-2.53031
G04 P0 ( dwell for no time -- G64 should not smooth over this point )
G00 Z0.08000 ( retract )

G00 X-4.33131 Y-2.57988 ( rapid move to begin. )
G01 F0.50000
( Mill infeed pass 1/1 )
G01 Z-0.04000
G04 P0 ( dwell for no time -- G64 should not smooth over this point )
G01 F1.00000
G01 X-4.33131 Y-2.57988
G01 X-4.33483 Y-2.57569
G01 X-4.33726 Y-2.57202
G01 X-4.33847 Y-2.56969
G01 X-4.35728 Y-2.56969
G04 P0 ( dwell for no time -- G64 should not smooth over this point )
G00 Z0.08000 ( retract )

G00 X-4.64271 Y-2.53031 ( rapid move to begin. )
G01 F0.50000
( Mill infeed pass 1/1 )
G01 Z-0.04000
G04 P0 ( dwell for no time -- G64 should not smooth over this point )
G01 F1.00000
G01 X-4.64271 Y-2.53031
G01 X-4.66147 Y-2.53031
G01 X-4.66323 Y-2.52716
G01 X-4.66520 Y-2.52426
G01 X-4.66876 Y-2.52006
G04 P0 ( dwell for no time -- G64 should not smooth over this point )
G00 Z0.08000 ( retract )

G00 X-4.64272 Y-2.56969 ( rapid move to begin. )
G01 F0.50000
( Mill infeed pass 1/1 )
G01 Z-0.04000
G04 P0 ( dwell for no time -- G64 should not smooth over this point )
G01 F1.00000
G01 X-4.64272 Y-2.56969
G01 X-4.66147 Y-2.56969
G01 X-4.66346 Y-2.57320
G01 X-4.66521 Y-2.57576
G01 X-4.66877 Y-2.57994

G04 P0 ( dwell for no time -- G64 should not smooth over this point )
G00 Z1.000000 ( retract )

M5 ( Spindle off. )
G04 P1.000000
M9 ( Coolant off. )
M2 ( Program end. )

