( pcb2gcode 2.5.0 )
( Software-independent Gcode )

G94 ( Inches per minute feed rate. )
G20 ( Units == INCHES. )

G90 ( Absolute coordinates. )
G00 S12000 ( RPM spindle speed. )
G64 P0.00040 ( set maximum deviation from commanded toolpath )
G01 F360.00000 ( Feedrate. )


G00 Z1.00000 (Retract to tool change height)
T2
M5      (Spindle stop.)
G04 P1.00000 (Wait for spindle to stop)
(MSG, Change tool bit to mill diameter 0.00472in)
M6      (Tool change.)
M0      (Temporary machine stop.)
M3 ( Spindle on clockwise. )
G04 P1.00000 (Wait for spindle to get up to speed)
G04 P0 ( dwell for no time -- G64 should not smooth over this point )
G00 Z0.08000 ( retract )

G00 X3.35674 Y-3.15723 ( rapid move to begin. )
G01 F180.00000
( Mill infeed pass 1/1 )
G01 Z-0.04000
G04 P0 ( dwell for no time -- G64 should not smooth over this point )
G01 F360.00000
G01 X3.35674 Y-3.15723
G01 X3.35034 Y-3.16049
G01 X3.34419 Y-3.16419
G01 X3.33799 Y-3.16856
G01 X3.33243 Y-3.17311
G01 X3.32721 Y-3.17803
G01 X3.32234 Y-3.18331
G01 X3.31786 Y-3.18892
G01 X3.31378 Y-3.19483
G01 X3.30993 Y-3.20136
G01 X3.30691 Y-3.20744
G01 X3.30415 Y-3.21407
G01 X3.30187 Y-3.22088
G01 X3.29998 Y-3.22822
G01 X3.29870 Y-3.23529
G01 X3.29789 Y-3.24282
G01 X3.29764 Y-3.25000
G01 X3.29789 Y-3.25718
G01 X3.29870 Y-3.26471
G01 X3.29998 Y-3.27178
G01 X3.30187 Y-3.27912
G01 X3.30415 Y-3.28593
G01 X3.30691 Y-3.29256
G01 X3.30993 Y-3.29863
G01 X3.31378 Y-3.30517
G01 X3.31786 Y-3.31108
G01 X3.32234 Y-3.31669
G01 X3.32721 Y-3.32197
G01 X3.33243 Y-3.32689
G01 X3.33799 Y-3.33144
G01 X3.34419 Y-3.33581
G01 X3.35034 Y-3.33951
G01 X3.35674 Y-3.34277
G04 P0 ( dwell for no time -- G64 should not smooth over this point )
G00 Z0.08000 ( retract )

G00 X3.44420 Y-3.34150 ( rapid move to begin. )
G01 F180.00000
( Mill infeed pass 1/1 )
G01 Z-0.04000
G04 P0 ( dwell for no time -- G64 should not smooth over this point )
G01 F360.00000
G01 X3.44420 Y-3.34150
G01 X3.45193 Y-3.33735
G01 X3.45926 Y-3.33255
G01 X3.46308 Y-3.32967
G01 X3.46646 Y-3.32688
G01 X3.47283 Y-3.32087
G01 X3.47283 Y-3.17913
G01 X3.46646 Y-3.17312
G01 X3.46308 Y-3.17033
G01 X3.45926 Y-3.16745
G01 X3.45193 Y-3.16265
G01 X3.44420 Y-3.15850
G04 P0 ( dwell for no time -- G64 should not smooth over this point )
G00 Z0.08000 ( retract )

G00 X3.84764 Y-2.75236 ( rapid move to begin. )
G01 F180.00000
( Mill infeed pass 1/1 )
G01 Z-0.04000
G04 P0 ( dwell for no time -- G64 should not smooth over this point )
G01 F360.00000
G01 X3.84764 Y-2.75236
G01 X3.84764 Y-2.65000
G01 X3.95236 Y-2.65000
G01 X3.95236 Y-2.75236
G01 X3.84764 Y-2.75236
G04 P0 ( dwell for no time -- G64 should not smooth over this point )
G00 Z0.08000 ( retract )

G00 X3.84764 Y-2.60000 ( rapid move to begin. )
G01 F180.00000
( Mill infeed pass 1/1 )
G01 Z-0.04000
G04 P0 ( dwell for no time -- G64 should not smooth over this point )
G01 F360.00000
G01 X3.84764 Y-2.60000
G01 X3.84764 Y-2.54764
G01 X3.90000 Y-2.54764
G04 P0 ( dwell for no time -- G64 should not smooth over this point )
G00 Z0.08000 ( retract )

G00 X4.35674 Y-3.15723 ( rapid move to begin. )
G01 F180.00000
( Mill infeed pass 1/1 )
G01 Z-0.04000
G04 P0 ( dwell for no time -- G64 should not smooth over this point )
G01 F360.00000
G01 X4.35674 Y-3.15723
G01 X4.35034 Y-3.16049
G01 X4.34419 Y-3.16419
G01 X4.33799 Y-3.16856
G01 X4.33243 Y-3.17311
G01 X4.32721 Y-3.17803
G01 X4.32234 Y-3.18331
G01 X4.31786 Y-3.18892
G01 X4.31377 Y-3.19483
G01 X4.30993 Y-3.20136
G01 X4.30691 Y-3.20744
G01 X4.30415 Y-3.21407
G01 X4.30187 Y-3.22088
G01 X4.29998 Y-3.22822
G01 X4.29870 Y-3.23529
G01 X4.29789 Y-3.24282
G01 X4.29764 Y-3.25000
G01 X4.29789 Y-3.25718
G01 X4.29870 Y-3.26471
G01 X4.29998 Y-3.27178
G01 X4.30187 Y-3.27912
G01 X4.30415 Y-3.28593
G01 X4.30691 Y-3.29256
G01 X4.30993 Y-3.29863
G01 X4.31377 Y-3.30517
G01 X4.31786 Y-3.31108
G01 X4.32234 Y-3.31669
G01 X4.32721 Y-3.32197
G01 X4.33243 Y-3.32689
G01 X4.33799 Y-3.33144
G01 X4.34419 Y-3.33581
G01 X4.35034 Y-3.33951
G01 X4.35674 Y-3.34277
G04 P0 ( dwell for no time -- G64 should not smooth over this point )
G00 Z0.08000 ( retract )

G00 X4.44420 Y-3.34150 ( rapid move to begin. )
G01 F180.00000
( Mill infeed pass 1/1 )
G01 Z-0.04000
G04 P0 ( dwell for no time -- G64 should not smooth over this point )
G01 F360.00000
G01 X4.44420 Y-3.34150
G01 X4.45193 Y-3.33735
G01 X4.45926 Y-3.33255
G01 X4.46308 Y-3.32967
G01 X4.46646 Y-3.32688
G01 X4.47283 Y-3.32087
G01 X4.47283 Y-3.17913
G01 X4.46646 Y-3.17312
G01 X4.46308 Y-3.17033
G01 X4.45926 Y-3.16745
G01 X4.45193 Y-3.16265
G01 X4.44420 Y-3.15850

G00 Z1.00000 (Retract to tool change height)
T3
M5      (Spindle stop.)
G04 P1.00000 (Wait for spindle to stop)
(MSG, Change tool bit to mill diameter 0.00591in)
M6      (Tool change.)
M0      (Temporary machine stop.)
M3 ( Spindle on clockwise. )
G04 P1.00000 (Wait for spindle to get up to speed)
G04 P0 ( dwell for no time -- G64 should not smooth over this point )
G00 Z0.08000 ( retract )

G00 X3.25000 Y-2.60000 ( rapid move to begin. )
G01 F180.00000
( Mill infeed pass 1/1 )
G01 Z-0.04000
G04 P0 ( dwell for no time -- G64 should not smooth over this point )
G01 F360.00000
G01 X3.25000 Y-2.60000
G01 X3.25000 Y-2.65000
G01 X3.30000 Y-2.65000
G01 X3.30000 Y-2.85000
G01 X3.25000 Y-2.85000
G01 X3.25000 Y-2.90000
G01 X3.25000 Y-2.85000
G01 X3.20000 Y-2.85000
G01 X3.20000 Y-2.65000
G01 X3.25000 Y-2.65000
G04 P0 ( dwell for no time -- G64 should not smooth over this point )
G00 Z0.08000 ( retract )

G00 X3.33969 Y-2.74156 ( rapid move to begin. )
G01 F180.00000
( Mill infeed pass 1/1 )
G01 Z-0.04000
G04 P0 ( dwell for no time -- G64 should not smooth over this point )
G01 F360.00000
G01 X3.33969 Y-2.74156
G01 X3.33781 Y-2.73781
G01 X3.33406 Y-2.73406
G01 X3.32844 Y-2.73031
G01 X3.36781 Y-2.73031
G01 X3.36781 Y-2.71907
G01 X3.36781 Y-2.74156
G04 P0 ( dwell for no time -- G64 should not smooth over this point )
G00 Z0.08000 ( retract )

G00 X3.36781 Y-2.75656 ( rapid move to begin. )
G01 F180.00000
( Mill infeed pass 1/1 )
G01 Z-0.04000
G04 P0 ( dwell for no time -- G64 should not smooth over this point )
G01 F360.00000
G01 X3.36781 Y-2.75656
G01 X3.34906 Y-2.76968
G01 X3.34906 Y-2.77906
G01 X3.32844 Y-2.77906
G01 X3.32844 Y-2.76406
G01 X3.33031 Y-2.76031
G01 X3.33219 Y-2.75844
G01 X3.33594 Y-2.75656
G01 X3.34156 Y-2.75656
G01 X3.34531 Y-2.75844
G01 X3.34719 Y-2.76031
G01 X3.34906 Y-2.76406
G01 X3.34906 Y-2.77906
G01 X3.36781 Y-2.77906
G04 P0 ( dwell for no time -- G64 should not smooth over this point )
G00 Z0.08000 ( retract )

G00 X3.44344 Y-2.81406 ( rapid move to begin. )
G01 F180.00000
( Mill infeed pass 1/1 )
G01 Z-0.04000
G04 P0 ( dwell for no time -- G64 should not smooth over this point )
G01 F360.00000
G01 X3.44344 Y-2.81406
G01 X3.44156 Y-2.81594
G01 X3.43594 Y-2.81781
G01 X3.43219 Y-2.81781
G01 X3.42657 Y-2.81594
G01 X3.42281 Y-2.81218
G01 X3.42094 Y-2.80844
G01 X3.41907 Y-2.80094
G01 X3.41907 Y-2.79531
G01 X3.42094 Y-2.78781
G01 X3.42281 Y-2.78406
G01 X3.42657 Y-2.78031
G01 X3.43219 Y-2.77844
G01 X3.43594 Y-2.77844
G01 X3.44156 Y-2.78031
G01 X3.44344 Y-2.78219
G04 P0 ( dwell for no time -- G64 should not smooth over this point )
G00 Z0.08000 ( retract )

G00 X3.45844 Y-2.78969 ( rapid move to begin. )
G01 F180.00000
( Mill infeed pass 1/1 )
G01 Z-0.04000
G04 P0 ( dwell for no time -- G64 should not smooth over this point )
G01 F360.00000
G01 X3.45844 Y-2.78969
G01 X3.46218 Y-2.78781
G01 X3.46593 Y-2.78406
G01 X3.46969 Y-2.77844
G01 X3.46969 Y-2.81781
G01 X3.48093 Y-2.81781
G01 X3.45844 Y-2.81781
G04 P0 ( dwell for no time -- G64 should not smooth over this point )
G00 Z0.08000 ( retract )

G00 X3.45216 Y-2.85161 ( rapid move to begin. )
G01 F180.00000
( Mill infeed pass 1/1 )
G01 Z-0.04000
G04 P0 ( dwell for no time -- G64 should not smooth over this point )
G01 F360.00000
G01 X3.45216 Y-2.85161
G01 X3.45216 Y-3.04839
G04 P0 ( dwell for no time -- G64 should not smooth over this point )
G00 Z0.08000 ( retract )

G00 X3.34931 Y-2.95040 ( rapid move to begin. )
G01 F180.00000
( Mill infeed pass 1/1 )
G01 Z-0.04000
G04 P0 ( dwell for no time -- G64 should not smooth over this point )
G01 F360.00000
G01 X3.34931 Y-2.95040
G01 X3.34941 Y-2.94560
G01 X3.34977 Y-2.94042
G01 X3.35040 Y-2.93526
G01 X3.35122 Y-2.93053
G01 X3.35237 Y-2.92546
G01 X3.35366 Y-2.92084
G01 X3.35517 Y-2.91629
G01 X3.35690 Y-2.91181
G01 X3.35884 Y-2.90743
G01 X3.36098 Y-2.90314
G01 X3.36334 Y-2.89896
G01 X3.36611 Y-2.89456
G01 X3.36886 Y-2.89063
G01 X3.37181 Y-2.88685
G01 X3.37519 Y-2.88291
G01 X3.37850 Y-2.87943
G01 X3.38197 Y-2.87612
G01 X3.38559 Y-2.87297
G01 X3.38937 Y-2.87001
G01 X3.39361 Y-2.86700
G01 X3.39800 Y-2.86422
G01 X3.40217 Y-2.86186
G01 X3.40646 Y-2.85971
G01 X3.41084 Y-2.85776
G01 X3.41532 Y-2.85602
G01 X3.41987 Y-2.85451
G01 X3.42448 Y-2.85321
G01 X3.42955 Y-2.85205
G01 X3.43427 Y-2.85122
G01 X3.43943 Y-2.85058
G01 X3.44422 Y-2.85022
G01 X3.44901 Y-2.85010
G01 X3.45381 Y-2.85020
G01 X3.45859 Y-2.85054
G01 X3.46336 Y-2.85110
G01 X3.46848 Y-2.85197
G01 X3.47316 Y-2.85301
G01 X3.47818 Y-2.85439
G01 X3.48273 Y-2.85589
G01 X3.48721 Y-2.85761
G01 X3.49160 Y-2.85954
G01 X3.49590 Y-2.86168
G01 X3.50043 Y-2.86422
G01 X3.50449 Y-2.86678
G01 X3.50842 Y-2.86953
G01 X3.51221 Y-2.87247
G01 X3.51616 Y-2.87585
G01 X3.51964 Y-2.87915
G01 X3.52296 Y-2.88261
G01 X3.52611 Y-2.88623
G01 X3.52908 Y-2.88999
G01 X3.53210 Y-2.89423
G01 X3.53468 Y-2.89827
G01 X3.53725 Y-2.90279
G01 X3.53942 Y-2.90707
G01 X3.54137 Y-2.91145
G01 X3.54325 Y-2.91629
G01 X3.54476 Y-2.92084
G01 X3.54605 Y-2.92546
G01 X3.54712 Y-2.93014
G01 X3.54796 Y-2.93486
G01 X3.54861 Y-2.94002
G01 X3.54898 Y-2.94480
G01 X3.54911 Y-2.94960
G01 X3.54902 Y-2.95440
G01 X3.54865 Y-2.95958
G01 X3.54808 Y-2.96434
G01 X3.54720 Y-2.96947
G01 X3.54615 Y-2.97415
G01 X3.54476 Y-2.97915
G01 X3.54325 Y-2.98371
G01 X3.54153 Y-2.98818
G01 X3.53959 Y-2.99257
G01 X3.53725 Y-2.99721
G01 X3.53488 Y-3.00139
G01 X3.53232 Y-3.00544
G01 X3.52956 Y-3.00936
G01 X3.52637 Y-3.01346
G01 X3.52323 Y-3.01709
G01 X3.51992 Y-3.02057
G01 X3.51646 Y-3.02388
G01 X3.51283 Y-3.02703
G01 X3.50906 Y-3.02999
G01 X3.50482 Y-3.03300
G01 X3.50077 Y-3.03557
G01 X3.49660 Y-3.03795
G01 X3.49196 Y-3.04029
G01 X3.48758 Y-3.04224
G01 X3.48311 Y-3.04398
G01 X3.47856 Y-3.04549
G01 X3.47394 Y-3.04679
G01 X3.46887 Y-3.04795
G01 X3.46415 Y-3.04878
G01 X3.45899 Y-3.04942
G01 X3.45421 Y-3.04978
G01 X3.44941 Y-3.04990
G01 X3.44462 Y-3.04980
G01 X3.43983 Y-3.04946
G01 X3.43507 Y-3.04889
G01 X3.42994 Y-3.04802
G01 X3.42526 Y-3.04699
G01 X3.42025 Y-3.04561
G01 X3.41569 Y-3.04411
G01 X3.41121 Y-3.04239
G01 X3.40682 Y-3.04046
G01 X3.40253 Y-3.03832
G01 X3.39800 Y-3.03578
G01 X3.39394 Y-3.03322
G01 X3.39001 Y-3.03047
G01 X3.38621 Y-3.02753
G01 X3.38227 Y-3.02415
G01 X3.37878 Y-3.02085
G01 X3.37546 Y-3.01739
G01 X3.37231 Y-3.01377
G01 X3.36934 Y-3.01001
G01 X3.36633 Y-3.00577
G01 X3.36375 Y-3.00173
G01 X3.36136 Y-2.99757
G01 X3.35918 Y-2.99329
G01 X3.35705 Y-2.98855
G01 X3.35530 Y-2.98408
G01 X3.35378 Y-2.97954
G01 X3.35237 Y-2.97453
G01 X3.35130 Y-2.96986
G01 X3.35040 Y-2.96474
G01 X3.34981 Y-2.95998
G01 X3.34945 Y-2.95519
G01 X3.34931 Y-2.95040
G04 P0 ( dwell for no time -- G64 should not smooth over this point )
G00 Z0.08000 ( retract )

G00 X3.45768 Y-3.04807 ( rapid move to begin. )
G01 F180.00000
( Mill infeed pass 1/1 )
G01 Z-0.04000
G04 P0 ( dwell for no time -- G64 should not smooth over this point )
G01 F360.00000
G01 X3.45768 Y-3.04807
G01 X3.45768 Y-2.85193
G04 P0 ( dwell for no time -- G64 should not smooth over this point )
G00 Z0.08000 ( retract )

G00 X3.46319 Y-2.85256 ( rapid move to begin. )
G01 F180.00000
( Mill infeed pass 1/1 )
G01 Z-0.04000
G04 P0 ( dwell for no time -- G64 should not smooth over this point )
G01 F360.00000
G01 X3.46319 Y-2.85256
G01 X3.46319 Y-2.94626
G04 P0 ( dwell for no time -- G64 should not smooth over this point )
G00 Z0.08000 ( retract )

G00 X3.46870 Y-2.93071 ( rapid move to begin. )
G01 F180.00000
( Mill infeed pass 1/1 )
G01 Z-0.04000
G04 P0 ( dwell for no time -- G64 should not smooth over this point )
G01 F360.00000
G01 X3.46870 Y-2.93071
G01 X3.46870 Y-2.85350
G04 P0 ( dwell for no time -- G64 should not smooth over this point )
G00 Z0.08000 ( retract )

G00 X3.47421 Y-2.85480 ( rapid move to begin. )
G01 F180.00000
( Mill infeed pass 1/1 )
G01 Z-0.04000
G04 P0 ( dwell for no time -- G64 should not smooth over this point )
G01 F360.00000
G01 X3.47421 Y-2.85480
G01 X3.47421 Y-2.92413
G04 P0 ( dwell for no time -- G64 should not smooth over this point )
G00 Z0.08000 ( retract )

G00 X3.47972 Y-2.91992 ( rapid move to begin. )
G01 F180.00000
( Mill infeed pass 1/1 )
G01 Z-0.04000
G04 P0 ( dwell for no time -- G64 should not smooth over this point )
G01 F360.00000
G01 X3.47972 Y-2.91992
G01 X3.47972 Y-2.85642
G04 P0 ( dwell for no time -- G64 should not smooth over this point )
G00 Z0.08000 ( retract )

G00 X3.48524 Y-2.85839 ( rapid move to begin. )
G01 F180.00000
( Mill infeed pass 1/1 )
G01 Z-0.04000
G04 P0 ( dwell for no time -- G64 should not smooth over this point )
G01 F360.00000
G01 X3.48524 Y-2.85839
G01 X3.48524 Y-2.91712
G04 P0 ( dwell for no time -- G64 should not smooth over this point )
G00 Z0.08000 ( retract )

G00 X3.49075 Y-2.91539 ( rapid move to begin. )
G01 F180.00000
( Mill infeed pass 1/1 )
G01 Z-0.04000
G04 P0 ( dwell for no time -- G64 should not smooth over this point )
G01 F360.00000
G01 X3.49075 Y-2.91539
G01 X3.49075 Y-2.86079
G04 P0 ( dwell for no time -- G64 should not smooth over this point )
G00 Z0.08000 ( retract )

G00 X3.49626 Y-2.86354 ( rapid move to begin. )
G01 F180.00000
( Mill infeed pass 1/1 )
G01 Z-0.04000
G04 P0 ( dwell for no time -- G64 should not smooth over this point )
G01 F360.00000
G01 X3.49626 Y-2.86354
G01 X3.49626 Y-2.91465
G04 P0 ( dwell for no time -- G64 should not smooth over this point )
G00 Z0.08000 ( retract )

G00 X3.50177 Y-2.91472 ( rapid move to begin. )
G01 F180.00000
( Mill infeed pass 1/1 )
G01 Z-0.04000
G04 P0 ( dwell for no time -- G64 should not smooth over this point )
G01 F360.00000
G01 X3.50177 Y-2.91472
G01 X3.50177 Y-2.86677
G04 P0 ( dwell for no time -- G64 should not smooth over this point )
G00 Z0.08000 ( retract )

G00 X3.50728 Y-2.87051 ( rapid move to begin. )
G01 F180.00000
( Mill infeed pass 1/1 )
G01 Z-0.04000
G04 P0 ( dwell for no time -- G64 should not smooth over this point )
G01 F360.00000
G01 X3.50728 Y-2.87051
G01 X3.50728 Y-2.91571
G04 P0 ( dwell for no time -- G64 should not smooth over this point )
G00 Z0.08000 ( retract )

G00 X3.51280 Y-2.91760 ( rapid move to begin. )
G01 F180.00000
( Mill infeed pass 1/1 )
G01 Z-0.04000
G04 P0 ( dwell for no time -- G64 should not smooth over this point )
G01 F360.00000
G01 X3.51280 Y-2.91760
G01 X3.51280 Y-2.87488
G04 P0 ( dwell for no time -- G64 should not smooth over this point )
G00 Z0.08000 ( retract )

G00 X3.51831 Y-2.87992 ( rapid move to begin. )
G01 F180.00000
( Mill infeed pass 1/1 )
G01 Z-0.04000
G04 P0 ( dwell for no time -- G64 should not smooth over this point )
G01 F360.00000
G01 X3.51831 Y-2.87992
G01 X3.51831 Y-2.92067
G04 P0 ( dwell for no time -- G64 should not smooth over this point )
G00 Z0.08000 ( retract )

G00 X3.52382 Y-2.92528 ( rapid move to begin. )
G01 F180.00000
( Mill infeed pass 1/1 )
G01 Z-0.04000
G04 P0 ( dwell for no time -- G64 should not smooth over this point )
G01 F360.00000
G01 X3.52382 Y-2.92528
G01 X3.52382 Y-2.88579
G04 P0 ( dwell for no time -- G64 should not smooth over this point )
G00 Z0.08000 ( retract )

G00 X3.52933 Y-2.89283 ( rapid move to begin. )
G01 F180.00000
( Mill infeed pass 1/1 )
G01 Z-0.04000
G04 P0 ( dwell for no time -- G64 should not smooth over this point )
G01 F360.00000
G01 X3.52933 Y-2.89283
G01 X3.52933 Y-2.93268
G04 P0 ( dwell for no time -- G64 should not smooth over this point )
G00 Z0.08000 ( retract )

G00 X3.54587 Y-2.93142 ( rapid move to begin. )
G01 F180.00000
( Mill infeed pass 1/1 )
G01 Z-0.04000
G04 P0 ( dwell for no time -- G64 should not smooth over this point )
G01 F360.00000
G01 X3.54587 Y-2.93142
G01 X3.54587 Y-2.96858
G04 P0 ( dwell for no time -- G64 should not smooth over this point )
G00 Z0.08000 ( retract )

G00 X3.54035 Y-2.98717 ( rapid move to begin. )
G01 F180.00000
( Mill infeed pass 1/1 )
G01 Z-0.04000
G04 P0 ( dwell for no time -- G64 should not smooth over this point )
G01 F360.00000
G01 X3.54035 Y-2.98717
G01 X3.54035 Y-2.91283
G04 P0 ( dwell for no time -- G64 should not smooth over this point )
G00 Z0.08000 ( retract )

G00 X3.53484 Y-2.90146 ( rapid move to begin. )
G01 F180.00000
( Mill infeed pass 1/1 )
G01 Z-0.04000
G04 P0 ( dwell for no time -- G64 should not smooth over this point )
G01 F360.00000
G01 X3.53484 Y-2.90146
G01 X3.53484 Y-2.99854
G04 P0 ( dwell for no time -- G64 should not smooth over this point )
G00 Z0.08000 ( retract )

G00 X3.52933 Y-3.00717 ( rapid move to begin. )
G01 F180.00000
( Mill infeed pass 1/1 )
G01 Z-0.04000
G04 P0 ( dwell for no time -- G64 should not smooth over this point )
G01 F360.00000
G01 X3.52933 Y-3.00717
G01 X3.52933 Y-2.96732
G04 P0 ( dwell for no time -- G64 should not smooth over this point )
G00 Z0.08000 ( retract )

G00 X3.52382 Y-2.97472 ( rapid move to begin. )
G01 F180.00000
( Mill infeed pass 1/1 )
G01 Z-0.04000
G04 P0 ( dwell for no time -- G64 should not smooth over this point )
G01 F360.00000
G01 X3.52382 Y-2.97472
G01 X3.52382 Y-3.01421
G04 P0 ( dwell for no time -- G64 should not smooth over this point )
G00 Z0.08000 ( retract )

G00 X3.51831 Y-3.02008 ( rapid move to begin. )
G01 F180.00000
( Mill infeed pass 1/1 )
G01 Z-0.04000
G04 P0 ( dwell for no time -- G64 should not smooth over this point )
G01 F360.00000
G01 X3.51831 Y-3.02008
G01 X3.51831 Y-2.97933
G04 P0 ( dwell for no time -- G64 should not smooth over this point )
G00 Z0.08000 ( retract )

G00 X3.51280 Y-2.98240 ( rapid move to begin. )
G01 F180.00000
( Mill infeed pass 1/1 )
G01 Z-0.04000
G04 P0 ( dwell for no time -- G64 should not smooth over this point )
G01 F360.00000
G01 X3.51280 Y-2.98240
G01 X3.51280 Y-3.02512
G04 P0 ( dwell for no time -- G64 should not smooth over this point )
G00 Z0.08000 ( retract )

G00 X3.49075 Y-2.98461 ( rapid move to begin. )
G01 F180.00000
( Mill infeed pass 1/1 )
G01 Z-0.04000
G04 P0 ( dwell for no time -- G64 should not smooth over this point )
G01 F360.00000
G01 X3.49075 Y-2.98461
G01 X3.49075 Y-3.03921
G04 P0 ( dwell for no time -- G64 should not smooth over this point )
G00 Z0.08000 ( retract )

G00 X3.50728 Y-3.02949 ( rapid move to begin. )
G01 F180.00000
( Mill infeed pass 1/1 )
G01 Z-0.04000
G04 P0 ( dwell for no time -- G64 should not smooth over this point )
G01 F360.00000
G01 X3.50728 Y-3.02949
G01 X3.50728 Y-2.98429
G04 P0 ( dwell for no time -- G64 should not smooth over this point )
G00 Z0.08000 ( retract )

G00 X3.50177 Y-2.98528 ( rapid move to begin. )
G01 F180.00000
( Mill infeed pass 1/1 )
G01 Z-0.04000
G04 P0 ( dwell for no time -- G64 should not smooth over this point )
G01 F360.00000
G01 X3.50177 Y-2.98528
G01 X3.50177 Y-3.03323
G04 P0 ( dwell for no time -- G64 should not smooth over this point )
G00 Z0.08000 ( retract )

G00 X3.48524 Y-3.04161 ( rapid move to begin. )
G01 F180.00000
( Mill infeed pass 1/1 )
G01 Z-0.04000
G04 P0 ( dwell for no time -- G64 should not smooth over this point )
G01 F360.00000
G01 X3.48524 Y-3.04161
G01 X3.48524 Y-2.98287
G04 P0 ( dwell for no time -- G64 should not smooth over this point )
G00 Z0.08000 ( retract )

G00 X3.47972 Y-2.98008 ( rapid move to begin. )
G01 F180.00000
( Mill infeed pass 1/1 )
G01 Z-0.04000
G04 P0 ( dwell for no time -- G64 should not smooth over this point )
G01 F360.00000
G01 X3.47972 Y-2.98008
G01 X3.47972 Y-3.04358
G01 X3.47972 Y-2.98010
G01 X3.47694 Y-2.97818
G01 X3.47421 Y-2.97587
G01 X3.47068 Y-2.97204
G01 X3.46775 Y-2.96774
G01 X3.46645 Y-2.96527
G01 X3.46535 Y-2.96270
G01 X3.46385 Y-2.95773
G01 X3.46309 Y-2.95260
G01 X3.46299 Y-2.94980
G01 X3.46312 Y-2.94700
G01 X3.46394 Y-2.94188
G01 X3.46468 Y-2.93918
G01 X3.46564 Y-2.93655
G01 X3.46756 Y-2.93260
G01 X3.46971 Y-2.92924
G01 X3.47250 Y-2.92584
G01 X3.47569 Y-2.92282
G01 X3.47923 Y-2.92022
G01 X3.48306 Y-2.91807
G01 X3.48676 Y-2.91654
G01 X3.49099 Y-2.91536
G01 X3.49533 Y-2.91470
G01 X3.49972 Y-2.91459
G01 X3.50370 Y-2.91496
G01 X3.50800 Y-2.91588
G01 X3.51215 Y-2.91733
G01 X3.51608 Y-2.91928
G01 X3.51975 Y-2.92170
G01 X3.52280 Y-2.92428
G01 X3.52528 Y-2.92688
G01 X3.52748 Y-2.92973
G01 X3.52919 Y-2.93243
G01 X3.53082 Y-2.93564
G01 X3.53198 Y-2.93861
G01 X3.53296 Y-2.94207
G01 X3.53358 Y-2.94561
G01 X3.53385 Y-2.94920
G01 X3.53378 Y-2.95240
G01 X3.53335 Y-2.95597
G01 X3.53257 Y-2.95948
G01 X3.53143 Y-2.96289
G01 X3.52996 Y-2.96617
G01 X3.52837 Y-2.96894
G01 X3.52630 Y-2.97188
G01 X3.52421 Y-2.97430
G01 X3.52162 Y-2.97679
G01 X3.51911 Y-2.97877
G01 X3.51608 Y-2.98072
G01 X3.51324 Y-2.98218
G01 X3.50990 Y-2.98352
G01 X3.50645 Y-2.98451
G01 X3.50291 Y-2.98515
G01 X3.49972 Y-2.98541
G01 X3.49626 Y-2.98535
G01 X3.49626 Y-3.03646
G01 X3.49626 Y-2.98536
G01 X3.49256 Y-2.98494
G01 X3.48904 Y-2.98417
G01 X3.48600 Y-2.98318
G01 X3.48271 Y-2.98175
G01 X3.47972 Y-2.98010
G01 X3.47694 Y-2.97818
G01 X3.47421 Y-2.97587
G01 X3.47421 Y-3.04520
G04 P0 ( dwell for no time -- G64 should not smooth over this point )
G00 Z0.08000 ( retract )

G00 X3.46870 Y-3.04650 ( rapid move to begin. )
G01 F180.00000
( Mill infeed pass 1/1 )
G01 Z-0.04000
G04 P0 ( dwell for no time -- G64 should not smooth over this point )
G01 F360.00000
G01 X3.46870 Y-3.04650
G01 X3.46870 Y-2.96929
G04 P0 ( dwell for no time -- G64 should not smooth over this point )
G00 Z0.08000 ( retract )

G00 X3.46319 Y-2.95374 ( rapid move to begin. )
G01 F180.00000
( Mill infeed pass 1/1 )
G01 Z-0.04000
G04 P0 ( dwell for no time -- G64 should not smooth over this point )
G01 F360.00000
G01 X3.46319 Y-2.95374
G01 X3.46319 Y-3.04744
G04 P0 ( dwell for no time -- G64 should not smooth over this point )
G00 Z0.08000 ( retract )

G00 X3.27765 Y-3.24063 ( rapid move to begin. )
G01 F180.00000
( Mill infeed pass 1/1 )
G01 Z-0.04000
G04 P0 ( dwell for no time -- G64 should not smooth over this point )
G01 F360.00000
G01 X3.27765 Y-3.24063
G01 X3.27765 Y-3.21813
G01 X3.27765 Y-3.22938
G01 X3.23828 Y-3.22938
G01 X3.24391 Y-3.23313
G01 X3.24766 Y-3.23688
G01 X3.24953 Y-3.24063
G04 P0 ( dwell for no time -- G64 should not smooth over this point )
G00 Z0.08000 ( retract )

G00 X3.28140 Y-3.25375 ( rapid move to begin. )
G01 F180.00000
( Mill infeed pass 1/1 )
G01 Z-0.04000
G04 P0 ( dwell for no time -- G64 should not smooth over this point )
G01 F360.00000
G01 X3.28140 Y-3.25375
G01 X3.27953 Y-3.25750
G01 X3.27578 Y-3.26125
G01 X3.27203 Y-3.25750
G01 X3.26453 Y-3.25562
G01 X3.25141 Y-3.25562
G01 X3.24391 Y-3.25750
G01 X3.24016 Y-3.26125
G01 X3.23828 Y-3.26500
G01 X3.23828 Y-3.27250
G01 X3.24016 Y-3.27625
G01 X3.24391 Y-3.28000
G01 X3.25141 Y-3.28187
G01 X3.26453 Y-3.28187
G01 X3.27203 Y-3.28000
G01 X3.27578 Y-3.27625
G01 X3.27765 Y-3.27250
G01 X3.27765 Y-3.26500
G01 X3.27578 Y-3.26125
G01 X3.27015 Y-3.26687
G01 X3.26828 Y-3.27062
G01 X3.26828 Y-3.27437
G04 P0 ( dwell for no time -- G64 should not smooth over this point )
G00 Z0.08000 ( retract )

G00 X3.10000 Y-3.50000 ( rapid move to begin. )
G01 F180.00000
( Mill infeed pass 1/1 )
G01 Z-0.04000
G04 P0 ( dwell for no time -- G64 should not smooth over this point )
G01 F360.00000
G01 X3.10000 Y-3.50000
G01 X3.10000 Y-2.45000
G01 X4.65000 Y-2.45000
G01 X4.70000 Y-2.50000
G01 X4.70000 Y-3.50000
G01 X3.10000 Y-3.50000
G04 P0 ( dwell for no time -- G64 should not smooth over this point )
G00 Z0.08000 ( retract )

G00 X3.72094 Y-3.46781 ( rapid move to begin. )
G01 F180.00000
( Mill infeed pass 1/1 )
G01 Z-0.04000
G04 P0 ( dwell for no time -- G64 should not smooth over this point )
G01 F360.00000
G01 X3.72094 Y-3.46781
G01 X3.72094 Y-3.42844
G01 X3.73031 Y-3.42844
G01 X3.73594 Y-3.43031
G01 X3.73969 Y-3.43406
G01 X3.74156 Y-3.43781
G01 X3.74344 Y-3.44531
G01 X3.74344 Y-3.45094
G01 X3.74156 Y-3.45844
G01 X3.73969 Y-3.46218
G01 X3.73594 Y-3.46593
G01 X3.73031 Y-3.46781
G01 X3.72094 Y-3.46781
G04 P0 ( dwell for no time -- G64 should not smooth over this point )
G00 Z0.08000 ( retract )

G00 X3.75844 Y-3.46781 ( rapid move to begin. )
G01 F180.00000
( Mill infeed pass 1/1 )
G01 Z-0.04000
G04 P0 ( dwell for no time -- G64 should not smooth over this point )
G01 F360.00000
G01 X3.75844 Y-3.46781
G01 X3.78093 Y-3.46781
G01 X3.76968 Y-3.46781
G01 X3.76968 Y-3.42844
G01 X3.76593 Y-3.43406
G01 X3.76219 Y-3.43781
G01 X3.75844 Y-3.43969
G04 P0 ( dwell for no time -- G64 should not smooth over this point )
G00 Z0.08000 ( retract )

G00 X3.88719 Y-3.24281 ( rapid move to begin. )
G01 F180.00000
( Mill infeed pass 1/1 )
G01 Z-0.04000
G04 P0 ( dwell for no time -- G64 should not smooth over this point )
G01 F360.00000
G01 X3.88719 Y-3.24281
G01 X3.87031 Y-3.22031
G04 P0 ( dwell for no time -- G64 should not smooth over this point )
G00 Z0.08000 ( retract )

G00 X3.88719 Y-3.20344 ( rapid move to begin. )
G01 F180.00000
( Mill infeed pass 1/1 )
G01 Z-0.04000
G04 P0 ( dwell for no time -- G64 should not smooth over this point )
G01 F360.00000
G01 X3.88719 Y-3.20344
G01 X3.86469 Y-3.22594
G01 X3.86469 Y-3.24281
G01 X3.86469 Y-3.20344
G04 P0 ( dwell for no time -- G64 should not smooth over this point )
G00 Z0.08000 ( retract )

G00 X3.84783 Y-3.23996 ( rapid move to begin. )
G01 F180.00000
( Mill infeed pass 1/1 )
G01 Z-0.04000
G04 P0 ( dwell for no time -- G64 should not smooth over this point )
G01 F360.00000
G01 X3.84783 Y-3.23996
G01 X3.84479 Y-3.23526
G01 X3.84152 Y-3.23072
G01 X3.83803 Y-3.22634
G01 X3.83433 Y-3.22213
G01 X3.83015 Y-3.21783
G01 X3.82605 Y-3.21402
G01 X3.82176 Y-3.21042
G01 X3.81731 Y-3.20702
G01 X3.81269 Y-3.20385
G01 X3.80793 Y-3.20091
G01 X3.80303 Y-3.19820
G01 X3.79800 Y-3.19574
G01 X3.79286 Y-3.19352
G01 X3.78762 Y-3.19156
G01 X3.78228 Y-3.18985
G01 X3.77687 Y-3.18841
G01 X3.77100 Y-3.18716
G01 X3.76548 Y-3.18627
G01 X3.75991 Y-3.18565
G01 X3.75432 Y-3.18530
G01 X3.74872 Y-3.18522
G01 X3.74313 Y-3.18542
G01 X3.73755 Y-3.18589
G01 X3.73200 Y-3.18664
G01 X3.72649 Y-3.18765
G01 X3.72104 Y-3.18893
G01 X3.71528 Y-3.19060
G01 X3.70998 Y-3.19242
G01 X3.70515 Y-3.19434
G01 X3.70005 Y-3.19665
G01 X3.69507 Y-3.19921
G01 X3.69022 Y-3.20201
G01 X3.68551 Y-3.20504
G01 X3.68096 Y-3.20830
G01 X3.67657 Y-3.21178
G01 X3.67236 Y-3.21546
G01 X3.66832 Y-3.21935
G01 X3.66449 Y-3.22343
G01 X3.66060 Y-3.22800
G01 X3.65720 Y-3.23245
G01 X3.65402 Y-3.23705
G01 X3.65106 Y-3.24181
G01 X3.64834 Y-3.24670
G01 X3.64586 Y-3.25172
G01 X3.64363 Y-3.25686
G01 X3.64166 Y-3.26210
G01 X3.63994 Y-3.26743
G01 X3.63848 Y-3.27283
G01 X3.63721 Y-3.27870
G01 X3.63631 Y-3.28422
G01 X3.63567 Y-3.28979
G01 X3.63531 Y-3.29537
G01 X3.63522 Y-3.30097
G01 X3.63540 Y-3.30657
G01 X3.63586 Y-3.31215
G01 X3.63659 Y-3.31770
G01 X3.63759 Y-3.32321
G01 X3.63885 Y-3.32867
G01 X3.64038 Y-3.33405
G01 X3.64231 Y-3.33973
G01 X3.64438 Y-3.34494
G01 X3.64670 Y-3.35003
G01 X3.64926 Y-3.35501
G01 X3.65185 Y-3.35952
G01 X3.65487 Y-3.36423
G01 X3.65812 Y-3.36880
G01 X3.66184 Y-3.37350
G01 X3.66553 Y-3.37771
G01 X3.66942 Y-3.38174
G01 X3.67350 Y-3.38557
G01 X3.67777 Y-3.38920
G01 X3.68220 Y-3.39262
G01 X3.68680 Y-3.39582
G01 X3.69155 Y-3.39878
G01 X3.69644 Y-3.40152
G01 X3.70145 Y-3.40401
G01 X3.70658 Y-3.40625
G01 X3.71181 Y-3.40824
G01 X3.71714 Y-3.40998
G01 X3.72254 Y-3.41145
G01 X3.72801 Y-3.41266
G01 X3.73392 Y-3.41365
G01 X3.73949 Y-3.41430
G01 X3.74507 Y-3.41468
G01 X3.75067 Y-3.41478
G01 X3.75627 Y-3.41461
G01 X3.76185 Y-3.41417
G01 X3.76740 Y-3.41345
G01 X3.77291 Y-3.41247
G01 X3.77837 Y-3.41122
G01 X3.78376 Y-3.40970
G01 X3.78907 Y-3.40793
G01 X3.79429 Y-3.40589
G01 X3.79940 Y-3.40361
G01 X3.80439 Y-3.40107
G01 X3.80926 Y-3.39830
G01 X3.81498 Y-3.39462
G01 X3.82078 Y-3.39036
G01 X3.82631 Y-3.38575
G01 X3.83125 Y-3.38108
G01 X3.83617 Y-3.37583
G01 X3.84051 Y-3.37059
G01 X3.84476 Y-3.36478
G01 X3.84843 Y-3.35906
G01 X3.84843 Y-3.31150
G01 X3.84797 Y-3.31513
G01 X3.84696 Y-3.32064
G01 X3.84564 Y-3.32607
G01 X3.84414 Y-3.33105
G01 X3.84224 Y-3.33631
G01 X3.84004 Y-3.34146
G01 X3.83756 Y-3.34648
G01 X3.83501 Y-3.35100
G01 X3.83222 Y-3.35539
G01 X3.82896 Y-3.35994
G01 X3.82571 Y-3.36399
G01 X3.82198 Y-3.36816
G01 X3.81802 Y-3.37211
G01 X3.81414 Y-3.37558
G01 X3.80978 Y-3.37908
G01 X3.80555 Y-3.38210
G01 X3.80117 Y-3.38490
G01 X3.79630 Y-3.38765
G01 X3.79164 Y-3.38996
G01 X3.78650 Y-3.39217
G01 X3.78162 Y-3.39395
G01 X3.77665 Y-3.39548
G01 X3.77122 Y-3.39683
G01 X3.76572 Y-3.39788
G01 X3.76018 Y-3.39861
G01 X3.75500 Y-3.39900
G01 X3.74940 Y-3.39913
G01 X3.74381 Y-3.39894
G01 X3.73863 Y-3.39848
G01 X3.73309 Y-3.39768
G01 X3.72761 Y-3.39657
G01 X3.72258 Y-3.39526
G01 X3.71762 Y-3.39370
G01 X3.71239 Y-3.39172
G01 X3.70727 Y-3.38945
G01 X3.70264 Y-3.38709
G01 X3.69814 Y-3.38449
G01 X3.69346 Y-3.38143
G01 X3.68927 Y-3.37835
G01 X3.68494 Y-3.37480
G01 X3.68083 Y-3.37101
G01 X3.67693 Y-3.36699
G01 X3.67327 Y-3.36276
G01 X3.67008 Y-3.35866
G01 X3.66712 Y-3.35439
G01 X3.66438 Y-3.34997
G01 X3.66170 Y-3.34506
G01 X3.65930 Y-3.34000
G01 X3.65733 Y-3.33520
G01 X3.65549 Y-3.32991
G01 X3.65395 Y-3.32453
G01 X3.65280 Y-3.31946
G01 X3.65191 Y-3.31434
G01 X3.65126 Y-3.30878
G01 X3.65093 Y-3.30360
G01 X3.65089 Y-3.29800
G01 X3.65113 Y-3.29281
G01 X3.65169 Y-3.28724
G01 X3.65257 Y-3.28172
G01 X3.65376 Y-3.27625
G01 X3.65573 Y-3.26933
G01 X3.65821 Y-3.26257
G01 X3.66116 Y-3.25601
G01 X3.66438 Y-3.25003
G01 X3.66823 Y-3.24395
G01 X3.67251 Y-3.23817
G01 X3.67693 Y-3.23301
G01 X3.68198 Y-3.22788
G01 X3.68739 Y-3.22314
G01 X3.69313 Y-3.21880
G01 X3.69951 Y-3.21469
G01 X3.70548 Y-3.21143
G01 X3.71202 Y-3.20843
G01 X3.71838 Y-3.20605
G01 X3.72528 Y-3.20400
G01 X3.73231 Y-3.20246
G01 X3.73744 Y-3.20167
G01 X3.74261 Y-3.20114
G01 X3.74740 Y-3.20090
G01 X3.75260 Y-3.20090
G01 X3.75739 Y-3.20114
G01 X3.76256 Y-3.20167
G01 X3.76769 Y-3.20246
G01 X3.77239 Y-3.20343
G01 X3.77742 Y-3.20474
G01 X3.78238 Y-3.20630
G01 X3.78687 Y-3.20798
G01 X3.79164 Y-3.21004
G01 X3.79595 Y-3.21216
G01 X3.80049 Y-3.21469
G01 X3.80489 Y-3.21745
G01 X3.80882 Y-3.22020
G01 X3.81292 Y-3.22339
G01 X3.81655 Y-3.22653
G01 X3.82031 Y-3.23012
G01 X3.82361 Y-3.23360
G01 X3.82673 Y-3.23724
G01 X3.82992 Y-3.24134
G01 X3.83288 Y-3.24561
G01 X3.83562 Y-3.25003
G01 X3.83793 Y-3.25423
G01 X3.84021 Y-3.25890
G01 X3.84224 Y-3.26369
G01 X3.84389 Y-3.26819
G01 X3.84532 Y-3.27277
G01 X3.84661 Y-3.27780
G01 X3.84764 Y-3.28289
G01 X3.84843 Y-3.28819
G01 X3.84892 Y-3.29361
G01 X3.84912 Y-3.29880
G01 X3.84905 Y-3.30400
G01 X3.84843 Y-3.31150
G01 X3.84843 Y-3.24094
G04 P0 ( dwell for no time -- G64 should not smooth over this point )
G00 Z0.08000 ( retract )

G00 X3.95157 Y-3.35906 ( rapid move to begin. )
G01 F180.00000
( Mill infeed pass 1/1 )
G01 Z-0.04000
G04 P0 ( dwell for no time -- G64 should not smooth over this point )
G01 F360.00000
G01 X3.95157 Y-3.35906
G01 X3.95157 Y-3.28849
G01 X3.95203 Y-3.28487
G01 X3.95304 Y-3.27936
G01 X3.95436 Y-3.27392
G01 X3.95586 Y-3.26895
G01 X3.95776 Y-3.26369
G01 X3.95995 Y-3.25854
G01 X3.96244 Y-3.25352
G01 X3.96499 Y-3.24900
G01 X3.96778 Y-3.24461
G01 X3.97104 Y-3.24006
G01 X3.97429 Y-3.23601
G01 X3.97802 Y-3.23184
G01 X3.98198 Y-3.22788
G01 X3.98585 Y-3.22442
G01 X3.99022 Y-3.22092
G01 X3.99445 Y-3.21789
G01 X3.99883 Y-3.21510
G01 X4.00370 Y-3.21235
G01 X4.00836 Y-3.21004
G01 X4.01350 Y-3.20783
G01 X4.01838 Y-3.20605
G01 X4.02335 Y-3.20452
G01 X4.02878 Y-3.20317
G01 X4.03428 Y-3.20212
G01 X4.03982 Y-3.20139
G01 X4.04500 Y-3.20099
G01 X4.05060 Y-3.20087
G01 X4.05619 Y-3.20106
G01 X4.06137 Y-3.20152
G01 X4.06691 Y-3.20232
G01 X4.07239 Y-3.20343
G01 X4.07742 Y-3.20474
G01 X4.08238 Y-3.20630
G01 X4.08761 Y-3.20828
G01 X4.09273 Y-3.21055
G01 X4.09736 Y-3.21291
G01 X4.10185 Y-3.21551
G01 X4.10654 Y-3.21857
G01 X4.11073 Y-3.22165
G01 X4.11505 Y-3.22520
G01 X4.11917 Y-3.22899
G01 X4.12307 Y-3.23301
G01 X4.12673 Y-3.23724
G01 X4.12991 Y-3.24134
G01 X4.13288 Y-3.24561
G01 X4.13561 Y-3.25003
G01 X4.13830 Y-3.25494
G01 X4.14070 Y-3.26000
G01 X4.14267 Y-3.26480
G01 X4.14451 Y-3.27009
G01 X4.14605 Y-3.27547
G01 X4.14720 Y-3.28054
G01 X4.14809 Y-3.28566
G01 X4.14874 Y-3.29122
G01 X4.14907 Y-3.29640
G01 X4.14911 Y-3.30200
G01 X4.14887 Y-3.30719
G01 X4.14831 Y-3.31276
G01 X4.14743 Y-3.31828
G01 X4.14624 Y-3.32375
G01 X4.14427 Y-3.33067
G01 X4.14179 Y-3.33743
G01 X4.13884 Y-3.34399
G01 X4.13561 Y-3.34997
G01 X4.13177 Y-3.35605
G01 X4.12749 Y-3.36183
G01 X4.12307 Y-3.36699
G01 X4.11802 Y-3.37211
G01 X4.11261 Y-3.37686
G01 X4.10687 Y-3.38120
G01 X4.10049 Y-3.38531
G01 X4.09452 Y-3.38857
G01 X4.08798 Y-3.39157
G01 X4.08162 Y-3.39395
G01 X4.07472 Y-3.39600
G01 X4.06769 Y-3.39754
G01 X4.06256 Y-3.39833
G01 X4.05739 Y-3.39886
G01 X4.05260 Y-3.39910
G01 X4.04740 Y-3.39910
G01 X4.04261 Y-3.39886
G01 X4.03744 Y-3.39833
G01 X4.03231 Y-3.39754
G01 X4.02761 Y-3.39657
G01 X4.02258 Y-3.39526
G01 X4.01762 Y-3.39370
G01 X4.01313 Y-3.39202
G01 X4.00836 Y-3.38996
G01 X4.00405 Y-3.38784
G01 X3.99951 Y-3.38531
G01 X3.99511 Y-3.38255
G01 X3.99118 Y-3.37980
G01 X3.98708 Y-3.37661
G01 X3.98345 Y-3.37347
G01 X3.97969 Y-3.36988
G01 X3.97639 Y-3.36640
G01 X3.97327 Y-3.36276
G01 X3.97008 Y-3.35866
G01 X3.96712 Y-3.35439
G01 X3.96438 Y-3.34997
G01 X3.96207 Y-3.34577
G01 X3.95979 Y-3.34110
G01 X3.95776 Y-3.33631
G01 X3.95611 Y-3.33181
G01 X3.95468 Y-3.32723
G01 X3.95338 Y-3.32220
G01 X3.95235 Y-3.31710
G01 X3.95157 Y-3.31181
G01 X3.95107 Y-3.30639
G01 X3.95087 Y-3.30120
G01 X3.95095 Y-3.29600
G01 X3.95157 Y-3.28849
G01 X3.95157 Y-3.24094
G01 X3.95524 Y-3.23522
G01 X3.95949 Y-3.22941
G01 X3.96383 Y-3.22417
G01 X3.96875 Y-3.21892
G01 X3.97369 Y-3.21425
G01 X3.97922 Y-3.20964
G01 X3.98502 Y-3.20538
G01 X3.99074 Y-3.20170
G01 X3.99560 Y-3.19893
G01 X4.00060 Y-3.19639
G01 X4.00571 Y-3.19411
G01 X4.01093 Y-3.19207
G01 X4.01624 Y-3.19029
G01 X4.02163 Y-3.18878
G01 X4.02708 Y-3.18753
G01 X4.03260 Y-3.18654
G01 X4.03815 Y-3.18583
G01 X4.04373 Y-3.18539
G01 X4.04933 Y-3.18522
G01 X4.05493 Y-3.18532
G01 X4.06051 Y-3.18570
G01 X4.06607 Y-3.18635
G01 X4.07199 Y-3.18734
G01 X4.07746 Y-3.18855
G01 X4.08286 Y-3.19002
G01 X4.08819 Y-3.19176
G01 X4.09342 Y-3.19375
G01 X4.09855 Y-3.19599
G01 X4.10356 Y-3.19848
G01 X4.10845 Y-3.20121
G01 X4.11320 Y-3.20418
G01 X4.11780 Y-3.20738
G01 X4.12223 Y-3.21080
G01 X4.12650 Y-3.21442
G01 X4.13058 Y-3.21826
G01 X4.13447 Y-3.22228
G01 X4.13816 Y-3.22650
G01 X4.14188 Y-3.23120
G01 X4.14513 Y-3.23576
G01 X4.14815 Y-3.24048
G01 X4.15074 Y-3.24499
G01 X4.15330 Y-3.24996
G01 X4.15562 Y-3.25506
G01 X4.15769 Y-3.26027
G01 X4.15961 Y-3.26595
G01 X4.16115 Y-3.27133
G01 X4.16241 Y-3.27679
G01 X4.16341 Y-3.28230
G01 X4.16414 Y-3.28785
G01 X4.16459 Y-3.29343
G01 X4.16478 Y-3.29903
G01 X4.16469 Y-3.30463
G01 X4.16433 Y-3.31021
G01 X4.16369 Y-3.31578
G01 X4.16279 Y-3.32130
G01 X4.16152 Y-3.32716
G01 X4.16006 Y-3.33257
G01 X4.15834 Y-3.33790
G01 X4.15637 Y-3.34314
G01 X4.15414 Y-3.34828
G01 X4.15166 Y-3.35330
G01 X4.14894 Y-3.35819
G01 X4.14598 Y-3.36295
G01 X4.14280 Y-3.36755
G01 X4.13939 Y-3.37200
G01 X4.13551 Y-3.37657
G01 X4.13167 Y-3.38065
G01 X4.12764 Y-3.38454
G01 X4.12343 Y-3.38822
G01 X4.11904 Y-3.39170
G01 X4.11449 Y-3.39496
G01 X4.10978 Y-3.39799
G01 X4.10493 Y-3.40079
G01 X4.09995 Y-3.40334
G01 X4.09485 Y-3.40566
G01 X4.09002 Y-3.40758
G01 X4.08472 Y-3.40940
G01 X4.07896 Y-3.41107
G01 X4.07351 Y-3.41235
G01 X4.06800 Y-3.41336
G01 X4.06245 Y-3.41411
G01 X4.05687 Y-3.41458
G01 X4.05128 Y-3.41478
G01 X4.04568 Y-3.41470
G01 X4.04009 Y-3.41435
G01 X4.03452 Y-3.41373
G01 X4.02900 Y-3.41284
G01 X4.02313 Y-3.41159
G01 X4.01772 Y-3.41015
G01 X4.01238 Y-3.40844
G01 X4.00714 Y-3.40648
G01 X4.00200 Y-3.40426
G01 X3.99697 Y-3.40180
G01 X3.99207 Y-3.39909
G01 X3.98731 Y-3.39615
G01 X3.98269 Y-3.39298
G01 X3.97824 Y-3.38958
G01 X3.97395 Y-3.38598
G01 X3.96985 Y-3.38217
G01 X3.96567 Y-3.37787
G01 X3.96197 Y-3.37366
G01 X3.95848 Y-3.36928
G01 X3.95521 Y-3.36474
G01 X3.95217 Y-3.36003
G04 P0 ( dwell for no time -- G64 should not smooth over this point )
G00 Z0.08000 ( retract )

G00 X3.93718 Y-3.35344 ( rapid move to begin. )
G01 F180.00000
( Mill infeed pass 1/1 )
G01 Z-0.04000
G04 P0 ( dwell for no time -- G64 should not smooth over this point )
G01 F360.00000
G01 X3.93718 Y-3.35344
G01 X3.91469 Y-3.37594
G01 X3.91469 Y-3.39281
G01 X3.91469 Y-3.35344
G04 P0 ( dwell for no time -- G64 should not smooth over this point )
G00 Z0.08000 ( retract )

G00 X3.92031 Y-3.37031 ( rapid move to begin. )
G01 F180.00000
( Mill infeed pass 1/1 )
G01 Z-0.04000
G04 P0 ( dwell for no time -- G64 should not smooth over this point )
G01 F360.00000
G01 X3.92031 Y-3.37031
G01 X3.93718 Y-3.39281
G04 P0 ( dwell for no time -- G64 should not smooth over this point )
G00 Z0.08000 ( retract )

G00 X4.02094 Y-3.46781 ( rapid move to begin. )
G01 F180.00000
( Mill infeed pass 1/1 )
G01 Z-0.04000
G04 P0 ( dwell for no time -- G64 should not smooth over this point )
G01 F360.00000
G01 X4.02094 Y-3.46781
G01 X4.02094 Y-3.42844
G01 X4.03031 Y-3.42844
G01 X4.03594 Y-3.43031
G01 X4.03969 Y-3.43406
G01 X4.04156 Y-3.43781
G01 X4.04344 Y-3.44531
G01 X4.04344 Y-3.45094
G01 X4.04156 Y-3.45844
G01 X4.03969 Y-3.46218
G01 X4.03594 Y-3.46593
G01 X4.03031 Y-3.46781
G01 X4.02094 Y-3.46781
G04 P0 ( dwell for no time -- G64 should not smooth over this point )
G00 Z0.08000 ( retract )

G00 X4.08093 Y-3.46781 ( rapid move to begin. )
G01 F180.00000
( Mill infeed pass 1/1 )
G01 Z-0.04000
G04 P0 ( dwell for no time -- G64 should not smooth over this point )
G01 F360.00000
G01 X4.08093 Y-3.46781
G01 X4.05656 Y-3.46781
G01 X4.07906 Y-3.44531
G01 X4.08093 Y-3.43969
G01 X4.08093 Y-3.43594
G01 X4.07906 Y-3.43219
G01 X4.07718 Y-3.43031
G01 X4.07343 Y-3.42844
G01 X4.06406 Y-3.42844
G01 X4.06031 Y-3.43031
G01 X4.05844 Y-3.43219
G04 P0 ( dwell for no time -- G64 should not smooth over this point )
G00 Z0.08000 ( retract )

G00 X4.24203 Y-3.24063 ( rapid move to begin. )
G01 F180.00000
( Mill infeed pass 1/1 )
G01 Z-0.04000
G04 P0 ( dwell for no time -- G64 should not smooth over this point )
G01 F360.00000
G01 X4.24203 Y-3.24063
G01 X4.24016 Y-3.23875
G01 X4.23828 Y-3.23500
G01 X4.23828 Y-3.22563
G01 X4.24016 Y-3.22188
G01 X4.24203 Y-3.22000
G01 X4.24578 Y-3.21813
G01 X4.24953 Y-3.21813
G01 X4.25516 Y-3.22000
G01 X4.27765 Y-3.24250
G01 X4.27765 Y-3.21813
G04 P0 ( dwell for no time -- G64 should not smooth over this point )
G00 Z0.08000 ( retract )

G00 X4.26828 Y-3.27437 ( rapid move to begin. )
G01 F180.00000
( Mill infeed pass 1/1 )
G01 Z-0.04000
G04 P0 ( dwell for no time -- G64 should not smooth over this point )
G01 F360.00000
G01 X4.26828 Y-3.27437
G01 X4.26828 Y-3.27062
G01 X4.27015 Y-3.26687
G01 X4.27578 Y-3.26125
G01 X4.27765 Y-3.26500
G01 X4.27765 Y-3.27250
G01 X4.27578 Y-3.27625
G01 X4.27203 Y-3.28000
G01 X4.26453 Y-3.28187
G01 X4.25141 Y-3.28187
G01 X4.24391 Y-3.28000
G01 X4.24016 Y-3.27625
G01 X4.23828 Y-3.27250
G01 X4.23828 Y-3.26500
G01 X4.24016 Y-3.26125
G01 X4.24391 Y-3.25750
G01 X4.25141 Y-3.25562
G01 X4.26453 Y-3.25562
G01 X4.27203 Y-3.25750
G01 X4.27578 Y-3.26125
G01 X4.27953 Y-3.25750
G01 X4.28140 Y-3.25375
G04 P0 ( dwell for no time -- G64 should not smooth over this point )
G00 Z0.08000 ( retract )

G00 X4.32027 Y-3.04358 ( rapid move to begin. )
G01 F180.00000
( Mill infeed pass 1/1 )
G01 Z-0.04000
G04 P0 ( dwell for no time -- G64 should not smooth over this point )
G01 F360.00000
G01 X4.32027 Y-3.04358
G01 X4.32027 Y-2.98008
G04 P0 ( dwell for no time -- G64 should not smooth over this point )
G00 Z0.08000 ( retract )

G00 X4.32579 Y-2.97587 ( rapid move to begin. )
G01 F180.00000
( Mill infeed pass 1/1 )
G01 Z-0.04000
G04 P0 ( dwell for no time -- G64 should not smooth over this point )
G01 F360.00000
G01 X4.32579 Y-2.97587
G01 X4.32579 Y-3.04520
G04 P0 ( dwell for no time -- G64 should not smooth over this point )
G00 Z0.08000 ( retract )

G00 X4.33130 Y-3.04650 ( rapid move to begin. )
G01 F180.00000
( Mill infeed pass 1/1 )
G01 Z-0.04000
G04 P0 ( dwell for no time -- G64 should not smooth over this point )
G01 F360.00000
G01 X4.33130 Y-3.04650
G01 X4.33130 Y-2.96929
G04 P0 ( dwell for no time -- G64 should not smooth over this point )
G00 Z0.08000 ( retract )

G00 X4.31476 Y-2.98287 ( rapid move to begin. )
G01 F180.00000
( Mill infeed pass 1/1 )
G01 Z-0.04000
G04 P0 ( dwell for no time -- G64 should not smooth over this point )
G01 F360.00000
G01 X4.31476 Y-2.98287
G01 X4.31476 Y-3.04161
G04 P0 ( dwell for no time -- G64 should not smooth over this point )
G00 Z0.08000 ( retract )

G00 X4.30925 Y-3.03921 ( rapid move to begin. )
G01 F180.00000
( Mill infeed pass 1/1 )
G01 Z-0.04000
G04 P0 ( dwell for no time -- G64 should not smooth over this point )
G01 F360.00000
G01 X4.30925 Y-3.03921
G01 X4.30925 Y-2.98461
G04 P0 ( dwell for no time -- G64 should not smooth over this point )
G00 Z0.08000 ( retract )

G00 X4.30374 Y-2.98535 ( rapid move to begin. )
G01 F180.00000
( Mill infeed pass 1/1 )
G01 Z-0.04000
G04 P0 ( dwell for no time -- G64 should not smooth over this point )
G01 F360.00000
G01 X4.30374 Y-2.98535
G01 X4.30374 Y-3.03646
G04 P0 ( dwell for no time -- G64 should not smooth over this point )
G00 Z0.08000 ( retract )

G00 X4.29823 Y-3.03323 ( rapid move to begin. )
G01 F180.00000
( Mill infeed pass 1/1 )
G01 Z-0.04000
G04 P0 ( dwell for no time -- G64 should not smooth over this point )
G01 F360.00000
G01 X4.29823 Y-3.03323
G01 X4.29823 Y-2.98528
G04 P0 ( dwell for no time -- G64 should not smooth over this point )
G00 Z0.08000 ( retract )

G00 X4.29272 Y-3.02949 ( rapid move to begin. )
G01 F180.00000
( Mill infeed pass 1/1 )
G01 Z-0.04000
G04 P0 ( dwell for no time -- G64 should not smooth over this point )
G01 F360.00000
G01 X4.29272 Y-3.02949
G01 X4.29272 Y-2.98429
G01 X4.28878 Y-2.98304
G01 X4.28514 Y-2.98139
G01 X4.28169 Y-2.97933
G01 X4.28169 Y-3.02008
G01 X4.28169 Y-2.97933
G01 X4.28514 Y-2.98139
G01 X4.28878 Y-2.98304
G01 X4.29272 Y-2.98430
G01 X4.29650 Y-2.98507
G01 X4.30047 Y-2.98542
G01 X4.30407 Y-2.98535
G01 X4.30803 Y-2.98484
G01 X4.31191 Y-2.98389
G01 X4.31566 Y-2.98251
G01 X4.31923 Y-2.98072
G01 X4.32226 Y-2.97877
G01 X4.32536 Y-2.97626
G01 X4.32817 Y-2.97342
G01 X4.33063 Y-2.97027
G01 X4.33273 Y-2.96687
G01 X4.33443 Y-2.96326
G01 X4.33538 Y-2.96062
G01 X4.33620 Y-2.95754
G01 X4.33674 Y-2.95438
G01 X4.33697 Y-2.95160
G01 X4.33699 Y-2.94880
G01 X4.33674 Y-2.94561
G01 X4.33620 Y-2.94246
G01 X4.33549 Y-2.93976
G01 X4.33458 Y-2.93711
G01 X4.33329 Y-2.93419
G01 X4.33173 Y-2.93140
G01 X4.33017 Y-2.92908
G01 X4.32817 Y-2.92658
G01 X4.32624 Y-2.92456
G01 X4.32385 Y-2.92244
G01 X4.32160 Y-2.92077
G01 X4.31854 Y-2.91889
G01 X4.31529 Y-2.91733
G01 X4.31229 Y-2.91623
G01 X4.30882 Y-2.91532
G01 X4.30527 Y-2.91476
G01 X4.30207 Y-2.91457
G01 X4.29888 Y-2.91467
G01 X4.29531 Y-2.91512
G01 X4.29181 Y-2.91594
G01 X4.28841 Y-2.91710
G01 X4.28514 Y-2.91861
G01 X4.28238 Y-2.92022
G01 X4.27946 Y-2.92232
G01 X4.27677 Y-2.92470
G01 X4.27433 Y-2.92734
G01 X4.27240 Y-2.92989
G01 X4.27067 Y-2.93268
G01 X4.27067 Y-2.89283
G01 X4.27067 Y-2.93268
G01 X4.26910 Y-2.93582
G01 X4.26783 Y-2.93918
G01 X4.26691 Y-2.94266
G01 X4.26639 Y-2.94581
G01 X4.26615 Y-2.94940
G01 X4.26627 Y-2.95299
G01 X4.26675 Y-2.95656
G01 X4.26760 Y-2.96005
G01 X4.26864 Y-2.96307
G01 X4.27014 Y-2.96634
G01 X4.27195 Y-2.96945
G01 X4.27383 Y-2.97204
G01 X4.27620 Y-2.97473
G01 X4.27884 Y-2.97718
G01 X4.28169 Y-2.97933
G04 P0 ( dwell for no time -- G64 should not smooth over this point )
G00 Z0.08000 ( retract )

G00 X4.28720 Y-2.98240 ( rapid move to begin. )
G01 F180.00000
( Mill infeed pass 1/1 )
G01 Z-0.04000
G04 P0 ( dwell for no time -- G64 should not smooth over this point )
G01 F360.00000
G01 X4.28720 Y-2.98240
G01 X4.28720 Y-3.02512
G04 P0 ( dwell for no time -- G64 should not smooth over this point )
G00 Z0.08000 ( retract )

G00 X4.27618 Y-3.01421 ( rapid move to begin. )
G01 F180.00000
( Mill infeed pass 1/1 )
G01 Z-0.04000
G04 P0 ( dwell for no time -- G64 should not smooth over this point )
G01 F360.00000
G01 X4.27618 Y-3.01421
G01 X4.27618 Y-2.97472
G04 P0 ( dwell for no time -- G64 should not smooth over this point )
G00 Z0.08000 ( retract )

G00 X4.27067 Y-2.96732 ( rapid move to begin. )
G01 F180.00000
( Mill infeed pass 1/1 )
G01 Z-0.04000
G04 P0 ( dwell for no time -- G64 should not smooth over this point )
G01 F360.00000
G01 X4.27067 Y-2.96732
G01 X4.27067 Y-3.00717
G04 P0 ( dwell for no time -- G64 should not smooth over this point )
G00 Z0.08000 ( retract )

G00 X4.26516 Y-2.99854 ( rapid move to begin. )
G01 F180.00000
( Mill infeed pass 1/1 )
G01 Z-0.04000
G04 P0 ( dwell for no time -- G64 should not smooth over this point )
G01 F360.00000
G01 X4.26516 Y-2.99854
G01 X4.26516 Y-2.90146
G04 P0 ( dwell for no time -- G64 should not smooth over this point )
G00 Z0.08000 ( retract )

G00 X4.25964 Y-2.91283 ( rapid move to begin. )
G01 F180.00000
( Mill infeed pass 1/1 )
G01 Z-0.04000
G04 P0 ( dwell for no time -- G64 should not smooth over this point )
G01 F360.00000
G01 X4.25964 Y-2.91283
G01 X4.25964 Y-2.98717
G04 P0 ( dwell for no time -- G64 should not smooth over this point )
G00 Z0.08000 ( retract )

G00 X4.25413 Y-2.96858 ( rapid move to begin. )
G01 F180.00000
( Mill infeed pass 1/1 )
G01 Z-0.04000
G04 P0 ( dwell for no time -- G64 should not smooth over this point )
G01 F360.00000
G01 X4.25413 Y-2.96858
G01 X4.25413 Y-2.93142
G04 P0 ( dwell for no time -- G64 should not smooth over this point )
G00 Z0.08000 ( retract )

G00 X4.25089 Y-2.95000 ( rapid move to begin. )
G01 F180.00000
( Mill infeed pass 1/1 )
G01 Z-0.04000
G04 P0 ( dwell for no time -- G64 should not smooth over this point )
G01 F360.00000
G01 X4.25089 Y-2.95000
G01 X4.25102 Y-2.94480
G01 X4.25138 Y-2.94002
G01 X4.25192 Y-2.93566
G01 X4.25280 Y-2.93053
G01 X4.25385 Y-2.92585
G01 X4.25523 Y-2.92084
G01 X4.25674 Y-2.91629
G01 X4.25847 Y-2.91181
G01 X4.26041 Y-2.90743
G01 X4.26275 Y-2.90279
G01 X4.26511 Y-2.89861
G01 X4.26768 Y-2.89456
G01 X4.27044 Y-2.89063
G01 X4.27363 Y-2.88654
G01 X4.27677 Y-2.88291
G01 X4.28008 Y-2.87943
G01 X4.28354 Y-2.87612
G01 X4.28717 Y-2.87297
G01 X4.29094 Y-2.87001
G01 X4.29518 Y-2.86700
G01 X4.29923 Y-2.86443
G01 X4.30340 Y-2.86205
G01 X4.30803 Y-2.85971
G01 X4.31242 Y-2.85776
G01 X4.31689 Y-2.85602
G01 X4.32144 Y-2.85451
G01 X4.32606 Y-2.85321
G01 X4.33113 Y-2.85205
G01 X4.33585 Y-2.85122
G01 X4.34101 Y-2.85058
G01 X4.34579 Y-2.85022
G01 X4.35059 Y-2.85010
G01 X4.35538 Y-2.85020
G01 X4.36017 Y-2.85054
G01 X4.36493 Y-2.85110
G01 X4.37006 Y-2.85197
G01 X4.37474 Y-2.85301
G01 X4.37975 Y-2.85439
G01 X4.38431 Y-2.85589
G01 X4.38879 Y-2.85761
G01 X4.39318 Y-2.85954
G01 X4.39747 Y-2.86168
G01 X4.40200 Y-2.86422
G01 X4.40606 Y-2.86678
G01 X4.40999 Y-2.86953
G01 X4.41379 Y-2.87247
G01 X4.41773 Y-2.87585
G01 X4.42122 Y-2.87915
G01 X4.42454 Y-2.88261
G01 X4.42769 Y-2.88623
G01 X4.43066 Y-2.88999
G01 X4.43367 Y-2.89423
G01 X4.43625 Y-2.89827
G01 X4.43864 Y-2.90243
G01 X4.44082 Y-2.90671
G01 X4.44295 Y-2.91145
G01 X4.44469 Y-2.91592
G01 X4.44622 Y-2.92046
G01 X4.44763 Y-2.92546
G01 X4.44869 Y-2.93014
G01 X4.44960 Y-2.93526
G01 X4.45019 Y-2.94002
G01 X4.45055 Y-2.94480
G01 X4.45069 Y-2.94960
G01 X4.45059 Y-2.95440
G01 X4.45023 Y-2.95958
G01 X4.44960 Y-2.96474
G01 X4.44877 Y-2.96947
G01 X4.44763 Y-2.97453
G01 X4.44634 Y-2.97915
G01 X4.44483 Y-2.98371
G01 X4.44310 Y-2.98818
G01 X4.44116 Y-2.99257
G01 X4.43902 Y-2.99686
G01 X4.43666 Y-3.00104
G01 X4.43389 Y-3.00544
G01 X4.43114 Y-3.00936
G01 X4.42819 Y-3.01315
G01 X4.42481 Y-3.01709
G01 X4.42150 Y-3.02057
G01 X4.41803 Y-3.02388
G01 X4.41441 Y-3.02703
G01 X4.41063 Y-3.02999
G01 X4.40639 Y-3.03300
G01 X4.40200 Y-3.03578
G01 X4.39783 Y-3.03813
G01 X4.39354 Y-3.04029
G01 X4.38916 Y-3.04224
G01 X4.38468 Y-3.04398
G01 X4.38013 Y-3.04549
G01 X4.37552 Y-3.04679
G01 X4.37045 Y-3.04795
G01 X4.36572 Y-3.04878
G01 X4.36057 Y-3.04942
G01 X4.35578 Y-3.04978
G01 X4.35099 Y-3.04990
G01 X4.34619 Y-3.04980
G01 X4.34140 Y-3.04946
G01 X4.33664 Y-3.04889
G01 X4.33152 Y-3.04802
G01 X4.32683 Y-3.04699
G01 X4.32182 Y-3.04561
G01 X4.31727 Y-3.04411
G01 X4.31279 Y-3.04239
G01 X4.30840 Y-3.04046
G01 X4.30410 Y-3.03832
G01 X4.29957 Y-3.03578
G01 X4.29551 Y-3.03322
G01 X4.29158 Y-3.03047
G01 X4.28748 Y-3.02728
G01 X4.28354 Y-3.02388
G01 X4.28008 Y-3.02057
G01 X4.27677 Y-3.01709
G01 X4.27363 Y-3.01346
G01 X4.27044 Y-3.00936
G01 X4.26768 Y-3.00544
G01 X4.26511 Y-3.00139
G01 X4.26275 Y-2.99721
G01 X4.26041 Y-2.99257
G01 X4.25847 Y-2.98818
G01 X4.25674 Y-2.98371
G01 X4.25523 Y-2.97915
G01 X4.25385 Y-2.97415
G01 X4.25280 Y-2.96947
G01 X4.25192 Y-2.96434
G01 X4.25138 Y-2.95998
G01 X4.25102 Y-2.95519
G01 X4.25089 Y-2.95000
G04 P0 ( dwell for no time -- G64 should not smooth over this point )
G00 Z0.08000 ( retract )

G00 X4.27618 Y-2.92528 ( rapid move to begin. )
G01 F180.00000
( Mill infeed pass 1/1 )
G01 Z-0.04000
G04 P0 ( dwell for no time -- G64 should not smooth over this point )
G01 F360.00000
G01 X4.27618 Y-2.92528
G01 X4.27618 Y-2.88579
G04 P0 ( dwell for no time -- G64 should not smooth over this point )
G00 Z0.08000 ( retract )

G00 X4.28169 Y-2.87992 ( rapid move to begin. )
G01 F180.00000
( Mill infeed pass 1/1 )
G01 Z-0.04000
G04 P0 ( dwell for no time -- G64 should not smooth over this point )
G01 F360.00000
G01 X4.28169 Y-2.87992
G01 X4.28169 Y-2.92067
G04 P0 ( dwell for no time -- G64 should not smooth over this point )
G00 Z0.08000 ( retract )

G00 X4.28720 Y-2.91760 ( rapid move to begin. )
G01 F180.00000
( Mill infeed pass 1/1 )
G01 Z-0.04000
G04 P0 ( dwell for no time -- G64 should not smooth over this point )
G01 F360.00000
G01 X4.28720 Y-2.91760
G01 X4.28720 Y-2.87488
G04 P0 ( dwell for no time -- G64 should not smooth over this point )
G00 Z0.08000 ( retract )

G00 X4.29272 Y-2.87051 ( rapid move to begin. )
G01 F180.00000
( Mill infeed pass 1/1 )
G01 Z-0.04000
G04 P0 ( dwell for no time -- G64 should not smooth over this point )
G01 F360.00000
G01 X4.29272 Y-2.87051
G01 X4.29272 Y-2.91571
G04 P0 ( dwell for no time -- G64 should not smooth over this point )
G00 Z0.08000 ( retract )

G00 X4.29823 Y-2.91472 ( rapid move to begin. )
G01 F180.00000
( Mill infeed pass 1/1 )
G01 Z-0.04000
G04 P0 ( dwell for no time -- G64 should not smooth over this point )
G01 F360.00000
G01 X4.29823 Y-2.91472
G01 X4.29823 Y-2.86677
G04 P0 ( dwell for no time -- G64 should not smooth over this point )
G00 Z0.08000 ( retract )

G00 X4.30374 Y-2.86354 ( rapid move to begin. )
G01 F180.00000
( Mill infeed pass 1/1 )
G01 Z-0.04000
G04 P0 ( dwell for no time -- G64 should not smooth over this point )
G01 F360.00000
G01 X4.30374 Y-2.86354
G01 X4.30374 Y-2.91465
G04 P0 ( dwell for no time -- G64 should not smooth over this point )
G00 Z0.08000 ( retract )

G00 X4.30925 Y-2.91539 ( rapid move to begin. )
G01 F180.00000
( Mill infeed pass 1/1 )
G01 Z-0.04000
G04 P0 ( dwell for no time -- G64 should not smooth over this point )
G01 F360.00000
G01 X4.30925 Y-2.91539
G01 X4.30925 Y-2.86079
G04 P0 ( dwell for no time -- G64 should not smooth over this point )
G00 Z0.08000 ( retract )

G00 X4.31476 Y-2.85839 ( rapid move to begin. )
G01 F180.00000
( Mill infeed pass 1/1 )
G01 Z-0.04000
G04 P0 ( dwell for no time -- G64 should not smooth over this point )
G01 F360.00000
G01 X4.31476 Y-2.85839
G01 X4.31476 Y-2.91712
G04 P0 ( dwell for no time -- G64 should not smooth over this point )
G00 Z0.08000 ( retract )

G00 X4.32027 Y-2.91992 ( rapid move to begin. )
G01 F180.00000
( Mill infeed pass 1/1 )
G01 Z-0.04000
G04 P0 ( dwell for no time -- G64 should not smooth over this point )
G01 F360.00000
G01 X4.32027 Y-2.91992
G01 X4.32027 Y-2.85642
G04 P0 ( dwell for no time -- G64 should not smooth over this point )
G00 Z0.08000 ( retract )

G00 X4.32579 Y-2.85480 ( rapid move to begin. )
G01 F180.00000
( Mill infeed pass 1/1 )
G01 Z-0.04000
G04 P0 ( dwell for no time -- G64 should not smooth over this point )
G01 F360.00000
G01 X4.32579 Y-2.85480
G01 X4.32579 Y-2.92413
G04 P0 ( dwell for no time -- G64 should not smooth over this point )
G00 Z0.08000 ( retract )

G00 X4.33130 Y-2.93071 ( rapid move to begin. )
G01 F180.00000
( Mill infeed pass 1/1 )
G01 Z-0.04000
G04 P0 ( dwell for no time -- G64 should not smooth over this point )
G01 F360.00000
G01 X4.33130 Y-2.93071
G01 X4.33130 Y-2.85350
G04 P0 ( dwell for no time -- G64 should not smooth over this point )
G00 Z0.08000 ( retract )

G00 X4.33681 Y-2.85256 ( rapid move to begin. )
G01 F180.00000
( Mill infeed pass 1/1 )
G01 Z-0.04000
G04 P0 ( dwell for no time -- G64 should not smooth over this point )
G01 F360.00000
G01 X4.33681 Y-2.85256
G01 X4.33681 Y-2.94626
G04 P0 ( dwell for no time -- G64 should not smooth over this point )
G00 Z0.08000 ( retract )

G00 X4.33681 Y-2.95374 ( rapid move to begin. )
G01 F180.00000
( Mill infeed pass 1/1 )
G01 Z-0.04000
G04 P0 ( dwell for no time -- G64 should not smooth over this point )
G01 F360.00000
G01 X4.33681 Y-2.95374
G01 X4.33681 Y-3.04744
G04 P0 ( dwell for no time -- G64 should not smooth over this point )
G00 Z0.08000 ( retract )

G00 X4.34232 Y-3.04807 ( rapid move to begin. )
G01 F180.00000
( Mill infeed pass 1/1 )
G01 Z-0.04000
G04 P0 ( dwell for no time -- G64 should not smooth over this point )
G01 F360.00000
G01 X4.34232 Y-3.04807
G01 X4.34232 Y-2.85193
G04 P0 ( dwell for no time -- G64 should not smooth over this point )
G00 Z0.08000 ( retract )

G00 X4.34783 Y-2.85161 ( rapid move to begin. )
G01 F180.00000
( Mill infeed pass 1/1 )
G01 Z-0.04000
G04 P0 ( dwell for no time -- G64 should not smooth over this point )
G01 F360.00000
G01 X4.34783 Y-2.85161
G01 X4.34783 Y-3.04839
G04 P0 ( dwell for no time -- G64 should not smooth over this point )
G00 Z0.08000 ( retract )

G00 X4.66781 Y-2.77906 ( rapid move to begin. )
G01 F180.00000
( Mill infeed pass 1/1 )
G01 Z-0.04000
G04 P0 ( dwell for no time -- G64 should not smooth over this point )
G01 F360.00000
G01 X4.66781 Y-2.77906
G01 X4.64906 Y-2.77906
G01 X4.64906 Y-2.76406
G01 X4.64719 Y-2.76031
G01 X4.64531 Y-2.75844
G01 X4.64156 Y-2.75656
G01 X4.63594 Y-2.75656
G01 X4.63219 Y-2.75844
G01 X4.63031 Y-2.76031
G01 X4.62844 Y-2.76406
G01 X4.62844 Y-2.77906
G01 X4.64906 Y-2.77906
G01 X4.64906 Y-2.76968
G01 X4.66781 Y-2.75656
G04 P0 ( dwell for no time -- G64 should not smooth over this point )
G00 Z0.08000 ( retract )

G00 X4.64156 Y-2.72282 ( rapid move to begin. )
G01 F180.00000
( Mill infeed pass 1/1 )
G01 Z-0.04000
G04 P0 ( dwell for no time -- G64 should not smooth over this point )
G01 F360.00000
G01 X4.64156 Y-2.72282
G01 X4.66781 Y-2.72282
G01 X4.65469 Y-2.72282
G01 X4.65469 Y-2.71719
G01 X4.65469 Y-2.74156
G01 X4.62657 Y-2.73219
G04 P0 ( dwell for no time -- G64 should not smooth over this point )
G00 Z0.08000 ( retract )

G00 X4.55000 Y-2.65000 ( rapid move to begin. )
G01 F180.00000
( Mill infeed pass 1/1 )
G01 Z-0.04000
G04 P0 ( dwell for no time -- G64 should not smooth over this point )
G01 F360.00000
G01 X4.55000 Y-2.65000
G01 X4.50000 Y-2.65000
G01 X4.50000 Y-2.85000
G01 X4.55000 Y-2.85000
G01 X4.55000 Y-2.90000
G01 X4.55000 Y-2.85000
G01 X4.60000 Y-2.85000
G01 X4.60000 Y-2.65000
G01 X4.55000 Y-2.65000
G01 X4.55000 Y-2.60000
G04 P0 ( dwell for no time -- G64 should not smooth over this point )
G00 Z0.08000 ( retract )

G00 X4.35844 Y-2.78219 ( rapid move to begin. )
G01 F180.00000
( Mill infeed pass 1/1 )
G01 Z-0.04000
G04 P0 ( dwell for no time -- G64 should not smooth over this point )
G01 F360.00000
G01 X4.35844 Y-2.78219
G01 X4.36031 Y-2.78031
G01 X4.36406 Y-2.77844
G01 X4.37343 Y-2.77844
G01 X4.37718 Y-2.78031
G01 X4.37906 Y-2.78219
G01 X4.38093 Y-2.78594
G01 X4.38093 Y-2.78969
G01 X4.37906 Y-2.79531
G01 X4.35656 Y-2.81781
G01 X4.38093 Y-2.81781
G04 P0 ( dwell for no time -- G64 should not smooth over this point )
G00 Z0.08000 ( retract )

G00 X4.34344 Y-2.81406 ( rapid move to begin. )
G01 F180.00000
( Mill infeed pass 1/1 )
G01 Z-0.04000
G04 P0 ( dwell for no time -- G64 should not smooth over this point )
G01 F360.00000
G01 X4.34344 Y-2.81406
G01 X4.34156 Y-2.81594
G01 X4.33594 Y-2.81781
G01 X4.33219 Y-2.81781
G01 X4.32657 Y-2.81594
G01 X4.32282 Y-2.81218
G01 X4.32094 Y-2.80844
G01 X4.31907 Y-2.80094
G01 X4.31907 Y-2.79531
G01 X4.32094 Y-2.78781
G01 X4.32282 Y-2.78406
G01 X4.32657 Y-2.78031
G01 X4.33219 Y-2.77844
G01 X4.33594 Y-2.77844
G01 X4.34156 Y-2.78031
G01 X4.34344 Y-2.78219
G04 P0 ( dwell for no time -- G64 should not smooth over this point )
G00 Z0.08000 ( retract )

G00 X4.26781 Y-2.77906 ( rapid move to begin. )
G01 F180.00000
( Mill infeed pass 1/1 )
G01 Z-0.04000
G04 P0 ( dwell for no time -- G64 should not smooth over this point )
G01 F360.00000
G01 X4.26781 Y-2.77906
G01 X4.24906 Y-2.77906
G01 X4.24906 Y-2.76406
G01 X4.24719 Y-2.76031
G01 X4.24531 Y-2.75844
G01 X4.24156 Y-2.75656
G01 X4.23594 Y-2.75656
G01 X4.23219 Y-2.75844
G01 X4.23031 Y-2.76031
G01 X4.22844 Y-2.76406
G01 X4.22844 Y-2.77906
G01 X4.24906 Y-2.77906
G01 X4.24906 Y-2.76968
G01 X4.26781 Y-2.75656
G04 P0 ( dwell for no time -- G64 should not smooth over this point )
G00 Z0.08000 ( retract )

G00 X4.26406 Y-2.74344 ( rapid move to begin. )
G01 F180.00000
( Mill infeed pass 1/1 )
G01 Z-0.04000
G04 P0 ( dwell for no time -- G64 should not smooth over this point )
G01 F360.00000
G01 X4.26406 Y-2.74344
G01 X4.26593 Y-2.74156
G01 X4.26781 Y-2.73781
G01 X4.26781 Y-2.72656
G01 X4.26593 Y-2.72282
G01 X4.26406 Y-2.72094
G01 X4.26031 Y-2.71907
G01 X4.25094 Y-2.71907
G01 X4.24719 Y-2.72094
G01 X4.24531 Y-2.72282
G01 X4.24344 Y-2.72656
G01 X4.24344 Y-2.73219
G01 X4.22844 Y-2.71907
G01 X4.22844 Y-2.74344
G04 P0 ( dwell for no time -- G64 should not smooth over this point )
G00 Z0.08000 ( retract )

G00 X4.15000 Y-2.65000 ( rapid move to begin. )
G01 F180.00000
( Mill infeed pass 1/1 )
G01 Z-0.04000
G04 P0 ( dwell for no time -- G64 should not smooth over this point )
G01 F360.00000
G01 X4.15000 Y-2.65000
G01 X4.10000 Y-2.65000
G01 X4.10000 Y-2.85000
G01 X4.15000 Y-2.85000
G01 X4.15000 Y-2.90000
G01 X4.15000 Y-2.85000
G01 X4.20000 Y-2.85000
G01 X4.20000 Y-2.65000
G01 X4.15000 Y-2.65000
G01 X4.15000 Y-2.60000
G04 P0 ( dwell for no time -- G64 should not smooth over this point )
G00 Z0.08000 ( retract )

G00 X3.90844 Y-2.49796 ( rapid move to begin. )
G01 F180.00000
( Mill infeed pass 1/1 )
G01 Z-0.04000
G04 P0 ( dwell for no time -- G64 should not smooth over this point )
G01 F360.00000
G01 X3.90844 Y-2.49796
G01 X3.91219 Y-2.49608
G01 X3.91594 Y-2.49233
G01 X3.91968 Y-2.48671
G01 X3.91968 Y-2.52608
G01 X3.93093 Y-2.52608
G01 X3.90844 Y-2.52608
G04 P0 ( dwell for no time -- G64 should not smooth over this point )
G00 Z0.08000 ( retract )

G00 X3.87094 Y-2.50733 ( rapid move to begin. )
G01 F180.00000
( Mill infeed pass 1/1 )
G01 Z-0.04000
G04 P0 ( dwell for no time -- G64 should not smooth over this point )
G01 F360.00000
G01 X3.87094 Y-2.50733
G01 X3.87094 Y-2.48671
G01 X3.88594 Y-2.48671
G01 X3.88969 Y-2.48858
G01 X3.89156 Y-2.49046
G01 X3.89344 Y-2.49421
G01 X3.89344 Y-2.49983
G01 X3.89156 Y-2.50358
G01 X3.88969 Y-2.50545
G01 X3.88594 Y-2.50733
G01 X3.87094 Y-2.50733
G01 X3.87094 Y-2.52608
G04 P0 ( dwell for no time -- G64 should not smooth over this point )
G00 Z0.08000 ( retract )

G00 X3.76781 Y-2.71907 ( rapid move to begin. )
G01 F180.00000
( Mill infeed pass 1/1 )
G01 Z-0.04000
G04 P0 ( dwell for no time -- G64 should not smooth over this point )
G01 F360.00000
G01 X3.76781 Y-2.71907
G01 X3.76781 Y-2.74344
G01 X3.74531 Y-2.72094
G01 X3.73969 Y-2.71907
G01 X3.73594 Y-2.71907
G01 X3.73219 Y-2.72094
G01 X3.73031 Y-2.72282
G01 X3.72844 Y-2.72656
G01 X3.72844 Y-2.73594
G01 X3.73031 Y-2.73969
G01 X3.73219 Y-2.74156
G04 P0 ( dwell for no time -- G64 should not smooth over this point )
G00 Z0.08000 ( retract )

G00 X3.76781 Y-2.77906 ( rapid move to begin. )
G01 F180.00000
( Mill infeed pass 1/1 )
G01 Z-0.04000
G04 P0 ( dwell for no time -- G64 should not smooth over this point )
G01 F360.00000
G01 X3.76781 Y-2.77906
G01 X3.74906 Y-2.77906
G01 X3.74906 Y-2.76406
G01 X3.74719 Y-2.76031
G01 X3.74531 Y-2.75844
G01 X3.74156 Y-2.75656
G01 X3.73594 Y-2.75656
G01 X3.73219 Y-2.75844
G01 X3.73031 Y-2.76031
G01 X3.72844 Y-2.76406
G01 X3.72844 Y-2.77906
G01 X3.74906 Y-2.77906
G01 X3.74906 Y-2.76968
G01 X3.76781 Y-2.75656
G04 P0 ( dwell for no time -- G64 should not smooth over this point )
G00 Z0.08000 ( retract )

G00 X3.65000 Y-2.65000 ( rapid move to begin. )
G01 F180.00000
( Mill infeed pass 1/1 )
G01 Z-0.04000
G04 P0 ( dwell for no time -- G64 should not smooth over this point )
G01 F360.00000
G01 X3.65000 Y-2.65000
G01 X3.60000 Y-2.65000
G01 X3.60000 Y-2.85000
G01 X3.65000 Y-2.85000
G01 X3.65000 Y-2.90000
G01 X3.65000 Y-2.85000
G01 X3.70000 Y-2.85000
G01 X3.70000 Y-2.65000
G01 X3.65000 Y-2.65000
G01 X3.65000 Y-2.60000

G04 P0 ( dwell for no time -- G64 should not smooth over this point )
G00 Z1.000000 ( retract )

M5 ( Spindle off. )
G04 P1.000000
M9 ( Coolant off. )
M2 ( Program end. )

