( pcb2gcode 2.5.0 )
( Software-independent Gcode )

G94 ( Inches per minute feed rate. )
G20 ( Units == INCHES. )

G90 ( Absolute coordinates. )
G00 S12000 ( RPM spindle speed. )
G64 P0.00040 ( set maximum deviation from commanded toolpath )
G01 F360.00000 ( Feedrate. )


G00 Z1.00000 (Retract to tool change height)
T1
M5      (Spindle stop.)
G04 P1.00000 (Wait for spindle to stop)
(MSG, Change tool bit to mill diameter 0.01969in)
M6      (Tool change.)
M0      (Temporary machine stop.)
M3 ( Spindle on clockwise. )
G04 P1.00000 (Wait for spindle to get up to speed)
( Piece #1, position [0;0] )

G04 P0 ( dwell for no time -- G64 should not smooth over this point )
G00 Z0.08000 ( retract )

G00 X3.16249 Y-3.21730 ( rapid move to begin. )
G01 F180.00000
( Mill infeed pass 1/1 )
G01 Z-0.04000
G04 P0 ( dwell for no time -- G64 should not smooth over this point )
G01 F360.00000
G01 X3.16249 Y-3.21730
G01 X3.16259 Y-2.80983
G01 X3.16324 Y-2.80797
G01 X3.16438 Y-2.80648
G01 X3.20684 Y-2.76405
G01 X3.20848 Y-2.76298
G01 X3.21004 Y-2.76256
G01 X3.21103 Y-2.76249
G01 X3.56653 Y-2.76249
G01 X3.56855 Y-2.76228
G01 X3.57010 Y-2.76182
G01 X3.57191 Y-2.76089
G01 X3.57349 Y-2.75961
G01 X3.71171 Y-2.62151
G01 X3.71295 Y-2.62080
G01 X3.71467 Y-2.62039
G01 X3.74733 Y-2.62026
G01 X3.74931 Y-2.61980
G01 X3.75079 Y-2.61915
G01 X3.75215 Y-2.61826
G01 X3.75335 Y-2.61716
G01 X3.75434 Y-2.61588
G01 X3.75511 Y-2.61445
G01 X3.75573 Y-2.61252
G01 X3.75593 Y-2.61091
G01 X3.75594 Y-2.56694
G01 X3.86198 Y-2.56694
G01 X3.86360 Y-2.56681
G01 X3.86479 Y-2.56653
G01 X3.86593 Y-2.56611
G01 X3.86736 Y-2.56534
G01 X3.86894 Y-2.56406
G01 X3.92903 Y-2.50398
G01 X3.93068 Y-2.50282
G01 X3.93431 Y-2.50183
G01 X3.93615 Y-2.50098
G01 X3.93807 Y-2.49948
G01 X3.93934 Y-2.49791
G01 X3.93994 Y-2.49685
G01 X3.94053 Y-2.49533
G01 X3.94093 Y-2.49294
G01 X3.94094 Y-2.44884
G01 X4.05906 Y-2.44884
G01 X4.05906 Y-2.56696
G01 X3.94094 Y-2.56696
G01 X3.94094 Y-2.53182
G01 X3.94081 Y-2.53020
G01 X3.94041 Y-2.52862
G01 X3.93934 Y-2.52644
G01 X3.93806 Y-2.52486
G01 X3.93648 Y-2.52358
G01 X3.93430 Y-2.52251
G01 X3.93232 Y-2.52205
G01 X3.92988 Y-2.52205
G01 X3.92752 Y-2.52265
G01 X3.92572 Y-2.52358
G01 X3.92414 Y-2.52486
G01 X3.87694 Y-2.57206
G01 X3.87544 Y-2.57398
G01 X3.87447 Y-2.57621
G01 X3.87419 Y-2.57740
G01 X3.87406 Y-2.57902
G01 X3.87406 Y-2.68506
G01 X3.75594 Y-2.68506
G01 X3.75593 Y-2.64109
G01 X3.75573 Y-2.63948
G01 X3.75541 Y-2.63830
G01 X3.75434 Y-2.63612
G01 X3.75277 Y-2.63426
G01 X3.75114 Y-2.63304
G01 X3.74930 Y-2.63219
G01 X3.74732 Y-2.63173
G01 X3.72030 Y-2.63173
G01 X3.71871 Y-2.63207
G01 X3.71720 Y-2.63266
G01 X3.71580 Y-2.63349
G01 X3.71456 Y-2.63454
G01 X3.57718 Y-2.77192
G01 X3.57577 Y-2.77303
G01 X3.57441 Y-2.77359
G01 X3.57263 Y-2.77381
G01 X3.21713 Y-2.77381
G01 X3.21511 Y-2.77401
G01 X3.21355 Y-2.77448
G01 X3.21209 Y-2.77519
G01 X3.21077 Y-2.77614
G01 X3.17641 Y-2.81047
G01 X3.17541 Y-2.81175
G01 X3.17463 Y-2.81318
G01 X3.17411 Y-2.81472
G01 X3.17384 Y-2.81632
G01 X3.17381 Y-3.21161
G01 X3.17401 Y-3.21322
G01 X3.17463 Y-3.21516
G01 X3.17541 Y-3.21658
G01 X3.17669 Y-3.21816
G01 X3.34879 Y-3.39026
G01 X3.35003 Y-3.39131
G01 X3.35142 Y-3.39214
G01 X3.35294 Y-3.39273
G01 X3.35453 Y-3.39306
G01 X3.81515 Y-3.39314
G01 X3.81757 Y-3.39284
G01 X3.81983 Y-3.39195
G01 X3.82181 Y-3.39054
G01 X3.84174 Y-3.37061
G01 X3.84295 Y-3.36899
G01 X3.84367 Y-3.36753
G01 X3.84413 Y-3.36597
G01 X3.84433 Y-3.36436
G01 X3.84433 Y-3.33896
G01 X3.84413 Y-3.33735
G01 X3.84381 Y-3.33617
G01 X3.84274 Y-3.33399
G01 X3.84174 Y-3.33270
G01 X3.84022 Y-3.33136
G01 X3.83845 Y-3.33036
G01 X3.83652 Y-3.32974
G01 X3.83450 Y-3.32953
G01 X3.82244 Y-3.32953
G01 X3.82244 Y-3.27047
G01 X3.87756 Y-3.27047
G01 X3.87757 Y-3.28491
G01 X3.87777 Y-3.28652
G01 X3.87823 Y-3.28808
G01 X3.87895 Y-3.28954
G01 X3.87963 Y-3.29054
G01 X3.88044 Y-3.29146
G01 X3.88168 Y-3.29251
G01 X3.88308 Y-3.29334
G01 X3.88421 Y-3.29381
G01 X3.88578 Y-3.29421
G01 X3.88740 Y-3.29434
G01 X4.01382 Y-3.29427
G01 X4.01501 Y-3.29404
G01 X4.01655 Y-3.29351
G01 X4.01864 Y-3.29227
G01 X4.01956 Y-3.29146
G01 X4.02061 Y-3.29022
G01 X4.02125 Y-3.28918
G01 X4.02191 Y-3.28769
G01 X4.02231 Y-3.28612
G01 X4.02243 Y-3.28491
G01 X4.02244 Y-3.27047
G01 X4.07756 Y-3.27047
G01 X4.07756 Y-3.32953
G01 X4.02244 Y-3.32953
G01 X4.02243 Y-3.31509
G01 X4.02231 Y-3.31388
G01 X4.02191 Y-3.31230
G01 X4.02125 Y-3.31081
G01 X4.02061 Y-3.30978
G01 X4.01956 Y-3.30854
G01 X4.01864 Y-3.30773
G01 X4.01655 Y-3.30649
G01 X4.01501 Y-3.30596
G01 X4.01382 Y-3.30573
G01 X3.88740 Y-3.30566
G01 X3.88578 Y-3.30579
G01 X3.88459 Y-3.30607
G01 X3.88236 Y-3.30704
G01 X3.88044 Y-3.30854
G01 X3.87895 Y-3.31046
G01 X3.87797 Y-3.31269
G01 X3.87757 Y-3.31509
G01 X3.87756 Y-3.32953
G01 X3.86509 Y-3.32953
G01 X3.86269 Y-3.32994
G01 X3.86046 Y-3.33091
G01 X3.85884 Y-3.33213
G01 X3.85749 Y-3.33365
G01 X3.85649 Y-3.33541
G01 X3.85587 Y-3.33734
G01 X3.85567 Y-3.33896
G01 X3.85564 Y-3.37060
G01 X3.85536 Y-3.37211
G01 X3.85482 Y-3.37327
G01 X3.85364 Y-3.37473
G01 X3.82544 Y-3.40290
G01 X3.82386 Y-3.40394
G01 X3.82228 Y-3.40437
G01 X3.34844 Y-3.40436
G01 X3.34659 Y-3.40371
G01 X3.34510 Y-3.40257
G01 X3.16438 Y-3.22185
G01 X3.16368 Y-3.22105
G01 X3.16291 Y-3.21972
G01 X3.16256 Y-3.21829
G01 X3.16249 Y-3.21730
G04 P0 ( dwell for no time -- G64 should not smooth over this point )
G00 Z0.08000 ( retract )

G00 X3.36065 Y-3.32820 ( rapid move to begin. )
G01 F180.00000
( Mill infeed pass 1/1 )
G01 Z-0.04000
G04 P0 ( dwell for no time -- G64 should not smooth over this point )
G01 F360.00000
G01 X3.36065 Y-3.32820
G01 X3.36109 Y-3.32478
G01 X3.36219 Y-3.32151
G01 X3.36388 Y-3.31853
G01 X3.36624 Y-3.31582
G01 X3.36770 Y-3.31459
G01 X3.37061 Y-3.31282
G01 X3.37400 Y-3.31158
G01 X3.37739 Y-3.31106
G01 X3.42144 Y-3.31102
G01 X3.42482 Y-3.31133
G01 X3.42797 Y-3.31220
G01 X3.43119 Y-3.31382
G01 X3.43390 Y-3.31596
G01 X3.43729 Y-3.31993
G01 X3.43922 Y-3.32144
G01 X3.44145 Y-3.32242
G01 X3.44386 Y-3.32282
G01 X3.66976 Y-3.32275
G01 X3.67185 Y-3.32224
G01 X3.71611 Y-3.30608
G01 X3.71796 Y-3.30518
G01 X3.71896 Y-3.30445
G01 X3.72015 Y-3.30331
G01 X3.72153 Y-3.30126
G01 X3.72225 Y-3.29933
G01 X3.72288 Y-3.29514
G01 X3.72339 Y-3.29286
G01 X3.72409 Y-3.29063
G01 X3.72514 Y-3.28814
G01 X3.72623 Y-3.28608
G01 X3.72750 Y-3.28409
G01 X3.72893 Y-3.28225
G01 X3.73076 Y-3.28029
G01 X3.73276 Y-3.27851
G01 X3.73464 Y-3.27713
G01 X3.73665 Y-3.27590
G01 X3.73876 Y-3.27485
G01 X3.74096 Y-3.27398
G01 X3.74321 Y-3.27330
G01 X3.74550 Y-3.27282
G01 X3.74813 Y-3.27252
G01 X3.75113 Y-3.27248
G01 X3.75375 Y-3.27271
G01 X3.75633 Y-3.27319
G01 X3.75918 Y-3.27403
G01 X3.76193 Y-3.27517
G01 X3.76422 Y-3.27641
G01 X3.76668 Y-3.27808
G01 X3.76892 Y-3.27998
G01 X3.77097 Y-3.28214
G01 X3.77258 Y-3.28422
G01 X3.77398 Y-3.28644
G01 X3.77531 Y-3.28913
G01 X3.77622 Y-3.29156
G01 X3.77698 Y-3.29444
G01 X3.77742 Y-3.29738
G01 X3.77747 Y-3.30206
G01 X3.77686 Y-3.30614
G01 X3.77564 Y-3.31008
G01 X3.77385 Y-3.31380
G01 X3.77152 Y-3.31720
G01 X3.76871 Y-3.32022
G01 X3.76548 Y-3.32279
G01 X3.76373 Y-3.32389
G01 X3.76016 Y-3.32560
G01 X3.75620 Y-3.32684
G01 X3.75228 Y-3.32746
G01 X3.74832 Y-3.32749
G01 X3.74437 Y-3.32695
G01 X3.74053 Y-3.32587
G01 X3.73691 Y-3.32424
G01 X3.73357 Y-3.32211
G01 X3.72968 Y-3.31874
G01 X3.72762 Y-3.31747
G01 X3.72492 Y-3.31668
G01 X3.72251 Y-3.31664
G01 X3.72016 Y-3.31718
G01 X3.67357 Y-3.33418
G01 X3.67170 Y-3.33460
G01 X3.44386 Y-3.33466
G01 X3.44146 Y-3.33506
G01 X3.43923 Y-3.33604
G01 X3.43730 Y-3.33753
G01 X3.43385 Y-3.34157
G01 X3.43113 Y-3.34369
G01 X3.42805 Y-3.34525
G01 X3.42469 Y-3.34618
G01 X3.42153 Y-3.34646
G01 X3.37765 Y-3.34643
G01 X3.37449 Y-3.34602
G01 X3.37133 Y-3.34499
G01 X3.36856 Y-3.34350
G01 X3.36599 Y-3.34142
G01 X3.36385 Y-3.33891
G01 X3.36227 Y-3.33617
G01 X3.36167 Y-3.33470
G01 X3.36085 Y-3.33148
G01 X3.36065 Y-3.32820
G01 X3.42069 Y-3.32874
G01 X3.41873 Y-3.32874
G04 P0 ( dwell for no time -- G64 should not smooth over this point )
G00 Z0.08000 ( retract )

G00 X3.36067 Y-3.17043 ( rapid move to begin. )
G01 F180.00000
( Mill infeed pass 1/1 )
G01 Z-0.04000
G04 P0 ( dwell for no time -- G64 should not smooth over this point )
G01 F360.00000
G01 X3.36067 Y-3.17043
G01 X3.36087 Y-3.16843
G01 X3.36131 Y-3.16646
G01 X3.36196 Y-3.16456
G01 X3.36283 Y-3.16274
G01 X3.36390 Y-3.16104
G01 X3.36515 Y-3.15946
G01 X3.36658 Y-3.15804
G01 X3.36815 Y-3.15679
G01 X3.36984 Y-3.15573
G01 X3.37183 Y-3.15480
G01 X3.37372 Y-3.15417
G01 X3.37569 Y-3.15376
G01 X3.37780 Y-3.15356
G01 X3.42144 Y-3.15354
G01 X3.42480 Y-3.15385
G01 X3.42812 Y-3.15478
G01 X3.43119 Y-3.15634
G01 X3.43390 Y-3.15848
G01 X3.43729 Y-3.16245
G01 X3.43922 Y-3.16396
G01 X3.44068 Y-3.16467
G01 X3.44184 Y-3.16505
G01 X3.44427 Y-3.16535
G01 X4.03628 Y-3.16535
G01 X4.03790 Y-3.16522
G01 X4.03909 Y-3.16494
G01 X4.04132 Y-3.16396
G01 X4.04324 Y-3.16247
G01 X4.29202 Y-2.91359
G01 X4.29270 Y-2.91258
G01 X4.29342 Y-2.91112
G01 X4.29388 Y-2.90957
G01 X4.29408 Y-2.90796
G01 X4.29417 Y-2.84921
G01 X4.29436 Y-2.84831
G01 X4.29498 Y-2.84699
G01 X4.29570 Y-2.84602
G01 X4.29675 Y-2.84510
G01 X4.29807 Y-2.84445
G01 X4.30010 Y-2.84410
G01 X4.43220 Y-2.84406
G01 X4.43454 Y-2.84358
G01 X4.43670 Y-2.84255
G01 X4.43826 Y-2.84131
G01 X4.44032 Y-2.83901
G01 X4.44181 Y-2.83767
G01 X4.44346 Y-2.83652
G01 X4.44491 Y-2.83575
G01 X4.44682 Y-2.83500
G01 X4.44841 Y-2.83459
G01 X4.45044 Y-2.83431
G01 X4.45201 Y-2.83428
G01 X4.45457 Y-2.83457
G01 X4.45694 Y-2.83523
G01 X4.45918 Y-2.83625
G01 X4.46124 Y-2.83760
G01 X4.46305 Y-2.83926
G01 X4.46459 Y-2.84118
G01 X4.46580 Y-2.84332
G01 X4.46671 Y-2.84573
G01 X4.46726 Y-2.84873
G01 X4.46730 Y-2.85049
G01 X4.46682 Y-2.85390
G01 X4.46560 Y-2.85713
G01 X4.46371 Y-2.86001
G01 X4.46147 Y-2.86223
G01 X4.45854 Y-2.86411
G01 X4.45526 Y-2.86530
G01 X4.45192 Y-2.86572
G01 X4.44963 Y-2.86560
G01 X4.44777 Y-2.86526
G01 X4.44559 Y-2.86454
G01 X4.44389 Y-2.86372
G01 X4.44197 Y-2.86246
G01 X4.44052 Y-2.86119
G01 X4.43848 Y-2.85890
G01 X4.43689 Y-2.85758
G01 X4.43466 Y-2.85646
G01 X4.43347 Y-2.85613
G01 X4.43182 Y-2.85592
G01 X4.31575 Y-2.85591
G01 X4.31413 Y-2.85604
G01 X4.31255 Y-2.85644
G01 X4.31107 Y-2.85709
G01 X4.30970 Y-2.85798
G01 X4.30824 Y-2.85939
G01 X4.30709 Y-2.86106
G01 X4.30632 Y-2.86294
G01 X4.30594 Y-2.86494
G01 X4.30598 Y-2.91518
G01 X4.30633 Y-2.91679
G01 X4.30694 Y-2.91833
G01 X4.30780 Y-2.91974
G01 X4.30888 Y-2.92099
G01 X4.31051 Y-2.92227
G01 X4.31526 Y-2.92477
G01 X4.31845 Y-2.92700
G01 X4.32134 Y-2.92965
G01 X4.32363 Y-2.93236
G01 X4.32577 Y-2.93567
G01 X4.32731 Y-2.93889
G01 X4.32846 Y-2.94227
G01 X4.32924 Y-2.94619
G01 X4.32948 Y-2.94908
G01 X4.32939 Y-2.95242
G01 X4.32900 Y-2.95537
G01 X4.32831 Y-2.95828
G01 X4.32733 Y-2.96109
G01 X4.32590 Y-2.96411
G01 X4.32435 Y-2.96665
G01 X4.32256 Y-2.96900
G01 X4.32002 Y-2.97165
G01 X4.31752 Y-2.97372
G01 X4.31448 Y-2.97569
G01 X4.31123 Y-2.97727
G01 X4.30816 Y-2.97834
G01 X4.30463 Y-2.97912
G01 X4.30105 Y-2.97947
G01 X4.29743 Y-2.97938
G01 X4.29422 Y-2.97892
G01 X4.29072 Y-2.97799
G01 X4.28738 Y-2.97665
G01 X4.28421 Y-2.97491
G01 X4.28156 Y-2.97302
G01 X4.27888 Y-2.97058
G01 X4.27652 Y-2.96785
G01 X4.27362 Y-2.96367
G01 X4.27214 Y-2.96230
G01 X4.27042 Y-2.96125
G01 X4.26813 Y-2.96049
G01 X4.26532 Y-2.96034
G01 X4.26258 Y-2.96098
G01 X4.26046 Y-2.96214
G01 X4.25924 Y-2.96318
G01 X4.04721 Y-3.17521
G01 X4.04594 Y-3.17625
G01 X4.04448 Y-3.17690
G01 X4.04242 Y-3.17717
G01 X3.44427 Y-3.17717
G01 X3.44265 Y-3.17730
G01 X3.44146 Y-3.17758
G01 X3.43923 Y-3.17855
G01 X3.43730 Y-3.18005
G01 X3.43503 Y-3.18286
G01 X3.43254 Y-3.18522
G01 X3.42963 Y-3.18707
G01 X3.42805 Y-3.18777
G01 X3.42489 Y-3.18866
G01 X3.42153 Y-3.18897
G01 X3.37854 Y-3.18898
G01 X3.37550 Y-3.18872
G01 X3.37268 Y-3.18801
G01 X3.37020 Y-3.18696
G01 X3.36774 Y-3.18541
G01 X3.36571 Y-3.18364
G01 X3.36386 Y-3.18140
G01 X3.36249 Y-3.17909
G01 X3.36138 Y-3.17628
G01 X3.36093 Y-3.17444
G01 X3.36069 Y-3.17245
G01 X3.36067 Y-3.17043
G01 X3.42067 Y-3.17126
G01 X3.41545 Y-3.17126
G04 P0 ( dwell for no time -- G64 should not smooth over this point )
G00 Z0.08000 ( retract )

G00 X3.66619 Y-2.95009 ( rapid move to begin. )
G01 F180.00000
( Mill infeed pass 1/1 )
G01 Z-0.04000
G04 P0 ( dwell for no time -- G64 should not smooth over this point )
G01 F360.00000
G01 X3.66619 Y-2.95009
G01 X3.66338 Y-2.95000
G01 X3.66179 Y-2.94734
G01 X3.66036 Y-2.94423
G01 X3.65903 Y-2.94252
G01 X3.65754 Y-2.94096
G01 X3.65771 Y-2.94076
G01 X3.65754 Y-2.94096
G01 X3.65433 Y-2.93905
G01 X3.65444 Y-2.93877
G01 X3.65433 Y-2.93905
G01 X3.65203 Y-2.93841
G01 X3.64980 Y-2.93827
G01 X3.64980 Y-2.93797
G01 X3.64980 Y-2.93827
G01 X3.64710 Y-2.93862
G01 X3.64567 Y-2.93908
G01 X3.64556 Y-2.93880
G01 X3.64567 Y-2.93908
G01 X3.64377 Y-2.94002
G01 X3.64195 Y-2.94142
G01 X3.64176 Y-2.94120
G01 X3.64195 Y-2.94142
G01 X3.64075 Y-2.94272
G01 X3.63953 Y-2.94442
G01 X3.63833 Y-2.94712
G01 X3.63661 Y-2.95000
G01 X3.63679 Y-2.95026
G01 X3.63460 Y-2.95030
G01 X3.63679 Y-2.95026
G01 X3.63840 Y-2.95301
G01 X3.63984 Y-2.95614
G01 X3.64226 Y-2.95888
G01 X3.64209 Y-2.95908
G01 X3.64226 Y-2.95888
G01 X3.64336 Y-2.95971
G01 X3.64613 Y-2.96112
G01 X3.64604 Y-2.96139
G01 X3.64613 Y-2.96112
G01 X3.64761 Y-2.96153
G01 X3.64993 Y-2.96177
G01 X3.64993 Y-2.96202
G01 X3.64993 Y-2.96177
G01 X3.65207 Y-2.96154
G01 X3.65369 Y-2.96113
G01 X3.65379 Y-2.96141
G01 X3.65369 Y-2.96113
G01 X3.65523 Y-2.96049
G01 X3.65667 Y-2.95964
G01 X3.65797 Y-2.95860
G01 X3.65832 Y-2.95897
G01 X3.65797 Y-2.95860
G01 X3.65911 Y-2.95738
G01 X3.66010 Y-2.95597
G01 X3.66199 Y-2.95227
G01 X3.66338 Y-2.95000
G04 P0 ( dwell for no time -- G64 should not smooth over this point )
G00 Z0.08000 ( retract )

G00 X3.48271 Y-2.85086 ( rapid move to begin. )
G01 F180.00000
( Mill infeed pass 1/1 )
G01 Z-0.04000
G04 P0 ( dwell for no time -- G64 should not smooth over this point )
G01 F360.00000
G01 X3.48271 Y-2.85086
G01 X3.48271 Y-2.84921
G01 X3.48301 Y-2.84690
G01 X3.48350 Y-2.84503
G01 X3.48422 Y-2.84324
G01 X3.48536 Y-2.84125
G01 X3.48650 Y-2.83974
G01 X3.48812 Y-2.83812
G01 X3.48965 Y-2.83694
G01 X3.49135 Y-2.83595
G01 X3.49317 Y-2.83518
G01 X3.49503 Y-2.83465
G01 X3.49729 Y-2.83431
G01 X3.49919 Y-2.83429
G01 X3.50146 Y-2.83457
G01 X3.50333 Y-2.83506
G01 X3.50513 Y-2.83577
G01 X3.50709 Y-2.83688
G01 X3.50885 Y-2.83823
G01 X3.51040 Y-2.83981
G01 X3.51171 Y-2.84159
G01 X3.51276 Y-2.84354
G01 X3.51353 Y-2.84562
G01 X3.51399 Y-2.84779
G01 X3.51415 Y-2.85001
G01 X3.51394 Y-2.85357
G01 X3.51417 Y-2.85555
G01 X3.51497 Y-2.85781
G01 X3.51655 Y-2.86011
G01 X3.59789 Y-2.94146
G01 X3.59880 Y-2.94227
G01 X3.60016 Y-2.94316
G01 X3.60165 Y-2.94381
G01 X3.60323 Y-2.94421
G01 X3.60485 Y-2.94434
G01 X3.61424 Y-2.94433
G01 X3.61626 Y-2.94404
G01 X3.61818 Y-2.94333
G01 X3.61992 Y-2.94224
G01 X3.62138 Y-2.94081
G01 X3.62233 Y-2.93947
G01 X3.62395 Y-2.93616
G01 X3.62514 Y-2.93412
G01 X3.62673 Y-2.93187
G01 X3.62993 Y-2.92838
G01 X3.63201 Y-2.92662
G01 X3.63424 Y-2.92506
G01 X3.63624 Y-2.92391
G01 X3.63928 Y-2.92252
G01 X3.64273 Y-2.92142
G01 X3.64626 Y-2.92075
G01 X3.64980 Y-2.92051
G01 X3.65418 Y-2.92080
G01 X3.65840 Y-2.92172
G01 X3.66246 Y-2.92327
G01 X3.66640 Y-2.92549
G01 X3.66969 Y-2.92804
G01 X3.67271 Y-2.93120
G01 X3.67525 Y-2.93476
G01 X3.67765 Y-2.93943
G01 X3.67914 Y-2.94139
G01 X3.68073 Y-2.94270
G01 X3.68217 Y-2.94349
G01 X3.68372 Y-2.94403
G01 X3.68534 Y-2.94431
G01 X3.98979 Y-2.94433
G01 X3.99140 Y-2.94413
G01 X3.99333 Y-2.94351
G01 X3.99476 Y-2.94274
G01 X3.99634 Y-2.94146
G01 X4.15266 Y-2.78514
G01 X4.15402 Y-2.78406
G01 X4.15563 Y-2.78341
G01 X4.15721 Y-2.78325
G01 X4.64979 Y-2.78327
G01 X4.65178 Y-2.78369
G01 X4.65275 Y-2.78420
G01 X4.65381 Y-2.78504
G01 X4.77853 Y-2.90975
G01 X4.77948 Y-2.91089
G01 X4.78031 Y-2.91276
G01 X4.78049 Y-2.91397
G01 X4.78042 Y-2.98674
G01 X4.77996 Y-2.98829
G01 X4.77853 Y-2.99025
G01 X4.59339 Y-3.17536
G01 X4.59263 Y-3.17594
G01 X4.59161 Y-3.17648
G01 X4.58995 Y-3.17687
G01 X4.54443 Y-3.17692
G01 X4.54279 Y-3.17706
G01 X4.54044 Y-3.17777
G01 X4.53834 Y-3.17904
G01 X4.53714 Y-3.18016
G01 X4.53513 Y-3.18274
G01 X4.53385 Y-3.18409
G01 X4.53089 Y-3.18636
G01 X4.52751 Y-3.18796
G01 X4.52392 Y-3.18881
G01 X4.52145 Y-3.18898
G01 X4.47763 Y-3.18894
G01 X4.47476 Y-3.18858
G01 X4.47231 Y-3.18789
G01 X4.46979 Y-3.18674
G01 X4.46765 Y-3.18535
G01 X4.46560 Y-3.18352
G01 X4.46385 Y-3.18140
G01 X4.46255 Y-3.17922
G01 X4.46151 Y-3.17667
G01 X4.46087 Y-3.17402
G01 X4.46066 Y-3.17128
G01 X4.46084 Y-3.16874
G01 X4.46144 Y-3.16605
G01 X4.46244 Y-3.16352
G01 X4.46384 Y-3.16114
G01 X4.46544 Y-3.15917
G01 X4.46750 Y-3.15729
G01 X4.46947 Y-3.15595
G01 X4.47182 Y-3.15482
G01 X4.47430 Y-3.15404
G01 X4.47680 Y-3.15363
G01 X4.47857 Y-3.15354
G01 X4.52245 Y-3.15358
G01 X4.52468 Y-3.15382
G01 X4.52662 Y-3.15427
G01 X4.52852 Y-3.15494
G01 X4.53033 Y-3.15583
G01 X4.53202 Y-3.15691
G01 X4.53358 Y-3.15818
G01 X4.53498 Y-3.15961
G01 X4.53717 Y-3.16240
G01 X4.53870 Y-3.16375
G01 X4.54085 Y-3.16492
G01 X4.54241 Y-3.16539
G01 X4.54362 Y-3.16557
G01 X4.58350 Y-3.16559
G01 X4.58512 Y-3.16539
G01 X4.58629 Y-3.16507
G01 X4.58778 Y-3.16441
G01 X4.58882 Y-3.16377
G01 X4.59006 Y-3.16272
G01 X4.76631 Y-2.98647
G01 X4.76759 Y-2.98489
G01 X4.76836 Y-2.98346
G01 X4.76898 Y-2.98153
G01 X4.76919 Y-2.97951
G01 X4.76919 Y-2.92049
G01 X4.76906 Y-2.91887
G01 X4.76878 Y-2.91768
G01 X4.76819 Y-2.91617
G01 X4.76759 Y-2.91511
G01 X4.76631 Y-2.91353
G01 X4.65023 Y-2.79745
G01 X4.64865 Y-2.79617
G01 X4.64722 Y-2.79540
G01 X4.64529 Y-2.79478
G01 X4.64327 Y-2.79457
G01 X4.16331 Y-2.79457
G01 X4.16169 Y-2.79470
G01 X4.16011 Y-2.79510
G01 X4.15862 Y-2.79575
G01 X4.15726 Y-2.79664
G01 X4.15635 Y-2.79745
G01 X4.00003 Y-2.95377
G01 X3.99896 Y-2.95466
G01 X3.99761 Y-2.95531
G01 X3.99541 Y-2.95566
G01 X3.68537 Y-2.95569
G01 X3.68379 Y-2.95595
G01 X3.68227 Y-2.95646
G01 X3.68052 Y-2.95743
G01 X3.67929 Y-2.95846
G01 X3.67779 Y-2.96033
G01 X3.67532 Y-2.96511
G01 X3.67290 Y-2.96856
G01 X3.67004 Y-2.97163
G01 X3.66677 Y-2.97425
G01 X3.66316 Y-2.97638
G01 X3.65928 Y-2.97798
G01 X3.65522 Y-2.97902
G01 X3.65087 Y-2.97948
G01 X3.64656 Y-2.97930
G01 X3.64417 Y-2.97892
G01 X3.64017 Y-2.97781
G01 X3.63806 Y-2.97697
G01 X3.63410 Y-2.97484
G01 X3.63223 Y-2.97355
G01 X3.62910 Y-2.97082
G01 X3.62618 Y-2.96741
G01 X3.62482 Y-2.96537
G01 X3.62235 Y-2.96057
G01 X3.62141 Y-2.95922
G01 X3.61961 Y-2.95753
G01 X3.61783 Y-2.95651
G01 X3.61628 Y-2.95596
G01 X3.61424 Y-2.95567
G01 X3.59769 Y-2.95559
G01 X3.59627 Y-2.95521
G01 X3.59499 Y-2.95447
G01 X3.50853 Y-2.86812
G01 X3.50656 Y-2.86671
G01 X3.50431 Y-2.86582
G01 X3.50191 Y-2.86551
G01 X3.49872 Y-2.86573
G01 X3.49705 Y-2.86567
G01 X3.49502 Y-2.86536
G01 X3.49180 Y-2.86427
G01 X3.49031 Y-2.86348
G01 X3.48863 Y-2.86231
G01 X3.48734 Y-2.86116
G01 X3.48533 Y-2.85872
G01 X3.48373 Y-2.85563
G01 X3.48290 Y-2.85258
G01 X3.48271 Y-2.85086
G04 P0 ( dwell for no time -- G64 should not smooth over this point )
G00 Z0.08000 ( retract )

G00 X3.23824 Y-2.95005 ( rapid move to begin. )
G01 F180.00000
( Mill infeed pass 1/1 )
G01 Z-0.04000
G04 P0 ( dwell for no time -- G64 should not smooth over this point )
G01 F360.00000
G01 X3.23824 Y-2.95005
G01 X3.23847 Y-2.95231
G01 X3.23912 Y-2.95448
G01 X3.23881 Y-2.95461
G01 X3.23912 Y-2.95448
G01 X3.24018 Y-2.95648
G01 X3.24166 Y-2.95830
G01 X3.24147 Y-2.95847
G01 X3.24166 Y-2.95830
G01 X3.24424 Y-2.96035
G01 X3.24730 Y-2.96176
G01 X3.25000 Y-2.96338
G01 X3.25029 Y-2.96319
G01 X3.25035 Y-2.96539
G01 X3.25029 Y-2.96319
G01 X3.25270 Y-2.96176
G01 X3.25653 Y-2.95978
G01 X3.25660 Y-2.95988
G01 X3.25653 Y-2.95978
G01 X3.25760 Y-2.95898
G01 X3.25902 Y-2.95755
G01 X3.25917 Y-2.95768
G01 X3.25902 Y-2.95755
G01 X3.25981 Y-2.95648
G01 X3.26088 Y-2.95448
G01 X3.26113 Y-2.95458
G01 X3.26088 Y-2.95448
G01 X3.26153 Y-2.95231
G01 X3.26176 Y-2.95005
G01 X3.26219 Y-2.95004
G01 X3.26176 Y-2.95005
G01 X3.26156 Y-2.94786
G01 X3.26127 Y-2.94666
G01 X3.26012 Y-2.94324
G01 X3.25946 Y-2.94054
G01 X3.26162 Y-2.93837
G01 X3.25946 Y-2.94054
G01 X3.25682 Y-2.93990
G01 X3.25325 Y-2.93870
G01 X3.25208 Y-2.93843
G01 X3.24989 Y-2.93824
G01 X3.24990 Y-2.93779
G01 X3.24989 Y-2.93824
G01 X3.24745 Y-2.93852
G01 X3.24536 Y-2.93919
G01 X3.24521 Y-2.93886
G01 X3.24536 Y-2.93919
G01 X3.24315 Y-2.94043
G01 X3.24150 Y-2.94188
G01 X3.24124 Y-2.94163
G01 X3.24150 Y-2.94188
G01 X3.24009 Y-2.94366
G01 X3.23903 Y-2.94574
G01 X3.23873 Y-2.94562
G01 X3.23903 Y-2.94574
G01 X3.23844 Y-2.94786
G01 X3.23824 Y-2.95005
G01 X3.22051 Y-2.95027
G01 X3.22060 Y-2.94763
G01 X3.22100 Y-2.94463
G01 X3.22170 Y-2.94169
G01 X3.22256 Y-2.93919
G01 X3.22382 Y-2.93641
G01 X3.22515 Y-2.93410
G01 X3.22670 Y-2.93192
G01 X3.22867 Y-2.92963
G01 X3.23087 Y-2.92755
G01 X3.23296 Y-2.92592
G01 X3.23551 Y-2.92431
G01 X3.23822 Y-2.92296
G01 X3.24069 Y-2.92201
G01 X3.24360 Y-2.92121
G01 X3.24656 Y-2.92071
G01 X3.24958 Y-2.92051
G01 X3.25222 Y-2.92059
G01 X3.25522 Y-2.92097
G01 X3.25814 Y-2.92165
G01 X3.26220 Y-2.92301
G01 X3.26462 Y-2.92331
G01 X3.26623 Y-2.92317
G01 X3.26742 Y-2.92290
G01 X3.26893 Y-2.92231
G01 X3.27033 Y-2.92148
G01 X3.27157 Y-2.92043
G01 X3.34656 Y-2.84556
G01 X3.34724 Y-2.84509
G01 X3.34924 Y-2.84442
G01 X3.37444 Y-2.84434
G01 X3.37566 Y-2.84426
G01 X3.37724 Y-2.84393
G01 X3.37875 Y-2.84333
G01 X3.38014 Y-2.84250
G01 X3.38138 Y-2.84145
G01 X3.38243 Y-2.84021
G01 X3.38326 Y-2.83881
G01 X3.38384 Y-2.83730
G01 X3.38418 Y-2.83571
G01 X3.38425 Y-2.83425
G01 X3.41575 Y-2.83425
G01 X3.41575 Y-2.86575
G01 X3.38425 Y-2.86575
G01 X3.38418 Y-2.86428
G01 X3.38384 Y-2.86269
G01 X3.38325 Y-2.86118
G01 X3.38242 Y-2.85978
G01 X3.38137 Y-2.85854
G01 X3.38013 Y-2.85749
G01 X3.37873 Y-2.85666
G01 X3.37722 Y-2.85607
G01 X3.37603 Y-2.85579
G01 X3.37441 Y-2.85566
G01 X3.35601 Y-2.85567
G01 X3.35400 Y-2.85596
G01 X3.35210 Y-2.85666
G01 X3.35070 Y-2.85749
G01 X3.34946 Y-2.85854
G01 X3.27957 Y-2.92842
G01 X3.27852 Y-2.92967
G01 X3.27769 Y-2.93107
G01 X3.27710 Y-2.93258
G01 X3.27682 Y-2.93378
G01 X3.27673 Y-2.93621
G01 X3.27700 Y-2.93782
G01 X3.27830 Y-2.94170
G01 X3.27900 Y-2.94463
G01 X3.27940 Y-2.94763
G01 X3.27949 Y-2.95027
G01 X3.27931 Y-2.95332
G01 X3.27889 Y-2.95593
G01 X3.27813 Y-2.95888
G01 X3.27722 Y-2.96137
G01 X3.27590 Y-2.96412
G01 X3.27453 Y-2.96638
G01 X3.27271 Y-2.96882
G01 X3.27091 Y-2.97080
G01 X3.26894 Y-2.97261
G01 X3.26651 Y-2.97444
G01 X3.26424 Y-2.97583
G01 X3.26047 Y-2.97771
G01 X3.25914 Y-2.97865
G01 X3.25826 Y-2.97950
G01 X3.25726 Y-2.98078
G01 X3.25649 Y-2.98221
G01 X3.25596 Y-2.98375
G01 X3.25569 Y-2.98535
G01 X3.25567 Y-3.17420
G01 X3.25587 Y-3.17581
G01 X3.25633 Y-3.17737
G01 X3.25726 Y-3.17917
G01 X3.25826 Y-3.18046
G01 X3.31925 Y-3.24146
G01 X3.32016 Y-3.24227
G01 X3.32152 Y-3.24316
G01 X3.32340 Y-3.24393
G01 X3.32580 Y-3.24433
G01 X3.35556 Y-3.24434
G01 X3.35760 Y-3.24413
G01 X3.35955 Y-3.24349
G01 X3.36166 Y-3.24222
G01 X3.36286 Y-3.24110
G01 X3.36486 Y-3.23854
G01 X3.36626 Y-3.23707
G01 X3.36780 Y-3.23578
G01 X3.36949 Y-3.23468
G01 X3.37128 Y-3.23377
G01 X3.37317 Y-3.23307
G01 X3.37513 Y-3.23259
G01 X3.37706 Y-3.23235
G01 X3.42299 Y-3.23236
G01 X3.42524 Y-3.23267
G01 X3.42729 Y-3.23322
G01 X3.42945 Y-3.23411
G01 X3.43124 Y-3.23513
G01 X3.43347 Y-3.23684
G01 X3.43537 Y-3.23883
G01 X3.43683 Y-3.24091
G01 X3.43805 Y-3.24337
G01 X3.43888 Y-3.24597
G01 X3.43929 Y-3.24867
G01 X3.43928 Y-3.25140
G01 X3.43886 Y-3.25409
G01 X3.43803 Y-3.25669
G01 X3.43680 Y-3.25913
G01 X3.43521 Y-3.26135
G01 X3.43331 Y-3.26330
G01 X3.43111 Y-3.26495
G01 X3.42886 Y-3.26615
G01 X3.42627 Y-3.26707
G01 X3.42347 Y-3.26760
G01 X3.42149 Y-3.26772
G01 X3.37865 Y-3.26772
G01 X3.37615 Y-3.26756
G01 X3.37256 Y-3.26673
G01 X3.36917 Y-3.26514
G01 X3.36620 Y-3.26288
G01 X3.36492 Y-3.26154
G01 X3.36285 Y-3.25889
G01 X3.36165 Y-3.25777
G01 X3.35992 Y-3.25668
G01 X3.35760 Y-3.25587
G01 X3.35556 Y-3.25566
G01 X3.31975 Y-3.25564
G01 X3.31834 Y-3.25541
G01 X3.31712 Y-3.25495
G01 X3.31551 Y-3.25373
G01 X3.24613 Y-3.18433
G01 X3.24525 Y-3.18322
G01 X3.24486 Y-3.18250
G01 X3.24443 Y-3.18092
G01 X3.24427 Y-2.98495
G01 X3.24393 Y-2.98335
G01 X3.24334 Y-2.98184
G01 X3.24251 Y-2.98044
G01 X3.24146 Y-2.97920
G01 X3.23953 Y-2.97771
G01 X3.23576 Y-2.97583
G01 X3.23349 Y-2.97444
G01 X3.23106 Y-2.97261
G01 X3.22909 Y-2.97080
G01 X3.22729 Y-2.96882
G01 X3.22547 Y-2.96638
G01 X3.22410 Y-2.96412
G01 X3.22278 Y-2.96137
G01 X3.22187 Y-2.95888
G01 X3.22111 Y-2.95593
G01 X3.22069 Y-2.95332
G01 X3.22051 Y-2.95027
G04 P0 ( dwell for no time -- G64 should not smooth over this point )
G00 Z0.08000 ( retract )

G00 X3.22050 Y-2.55000 ( rapid move to begin. )
G01 F180.00000
( Mill infeed pass 1/1 )
G01 Z-0.04000
G04 P0 ( dwell for no time -- G64 should not smooth over this point )
G01 F360.00000
G01 X3.22050 Y-2.55000
G01 X3.22063 Y-2.54733
G01 X3.22106 Y-2.54431
G01 X3.22169 Y-2.54171
G01 X3.22256 Y-2.53919
G01 X3.22382 Y-2.53641
G01 X3.22515 Y-2.53410
G01 X3.22670 Y-2.53192
G01 X3.22867 Y-2.52963
G01 X3.23087 Y-2.52755
G01 X3.23296 Y-2.52592
G01 X3.23553 Y-2.52429
G01 X3.23790 Y-2.52310
G01 X3.24074 Y-2.52199
G01 X3.24329 Y-2.52128
G01 X3.24629 Y-2.52074
G01 X3.24900 Y-2.52052
G01 X3.25344 Y-2.52070
G01 X3.25785 Y-2.52156
G01 X3.26194 Y-2.52303
G01 X3.26577 Y-2.52509
G01 X3.26926 Y-2.52766
G01 X3.27234 Y-2.53073
G01 X3.27502 Y-2.53437
G01 X3.27780 Y-2.53960
G01 X3.27937 Y-2.54147
G01 X3.28100 Y-2.54269
G01 X3.28247 Y-2.54341
G01 X3.28403 Y-2.54388
G01 X3.28565 Y-2.54408
G01 X3.61394 Y-2.54409
G01 X3.61634 Y-2.54379
G01 X3.61788 Y-2.54327
G01 X3.61930 Y-2.54250
G01 X3.62142 Y-2.54064
G01 X3.62237 Y-2.53933
G01 X3.62424 Y-2.53563
G01 X3.62564 Y-2.53337
G01 X3.62749 Y-2.53094
G01 X3.62928 Y-2.52900
G01 X3.63156 Y-2.52698
G01 X3.63370 Y-2.52542
G01 X3.63632 Y-2.52386
G01 X3.63872 Y-2.52274
G01 X3.64160 Y-2.52173
G01 X3.64417 Y-2.52109
G01 X3.64718 Y-2.52064
G01 X3.64985 Y-2.52050
G01 X3.65252 Y-2.52061
G01 X3.65554 Y-2.52103
G01 X3.65812 Y-2.52164
G01 X3.66220 Y-2.52301
G01 X3.66340 Y-2.52323
G01 X3.66502 Y-2.52330
G01 X3.66664 Y-2.52310
G01 X3.66819 Y-2.52263
G01 X3.66930 Y-2.52212
G01 X3.67066 Y-2.52123
G01 X3.79238 Y-2.39962
G01 X3.79344 Y-2.39879
G01 X3.79429 Y-2.39834
G01 X3.79554 Y-2.39797
G01 X3.79695 Y-2.39784
G01 X4.15311 Y-2.39784
G01 X4.15504 Y-2.39808
G01 X4.15669 Y-2.39886
G01 X4.15757 Y-2.39958
G01 X4.27902 Y-2.52097
G01 X4.28034 Y-2.52192
G01 X4.28181 Y-2.52263
G01 X4.28336 Y-2.52310
G01 X4.28497 Y-2.52330
G01 X4.28619 Y-2.52327
G01 X4.28780 Y-2.52301
G01 X4.29188 Y-2.52164
G01 X4.29446 Y-2.52103
G01 X4.29748 Y-2.52061
G01 X4.30015 Y-2.52050
G01 X4.30282 Y-2.52064
G01 X4.30583 Y-2.52109
G01 X4.30840 Y-2.52173
G01 X4.31128 Y-2.52274
G01 X4.31367 Y-2.52386
G01 X4.31630 Y-2.52542
G01 X4.31844 Y-2.52698
G01 X4.32071 Y-2.52900
G01 X4.32251 Y-2.53094
G01 X4.32436 Y-2.53337
G01 X4.32576 Y-2.53563
G01 X4.32763 Y-2.53933
G01 X4.32884 Y-2.54094
G01 X4.33004 Y-2.54203
G01 X4.33139 Y-2.54292
G01 X4.33288 Y-2.54356
G01 X4.33445 Y-2.54396
G01 X4.33606 Y-2.54409
G01 X4.66476 Y-2.54406
G01 X4.66637 Y-2.54379
G01 X4.66791 Y-2.54326
G01 X4.66968 Y-2.54224
G01 X4.67092 Y-2.54119
G01 X4.67242 Y-2.53925
G01 X4.67498 Y-2.53437
G01 X4.67766 Y-2.53073
G01 X4.68074 Y-2.52766
G01 X4.68423 Y-2.52509
G01 X4.68806 Y-2.52303
G01 X4.69215 Y-2.52156
G01 X4.69656 Y-2.52070
G01 X4.70100 Y-2.52052
G01 X4.70371 Y-2.52074
G01 X4.70671 Y-2.52128
G01 X4.70926 Y-2.52199
G01 X4.71210 Y-2.52310
G01 X4.71446 Y-2.52429
G01 X4.71704 Y-2.52592
G01 X4.71913 Y-2.52755
G01 X4.72133 Y-2.52963
G01 X4.72330 Y-2.53192
G01 X4.72484 Y-2.53410
G01 X4.72618 Y-2.53641
G01 X4.72744 Y-2.53919
G01 X4.72831 Y-2.54171
G01 X4.72894 Y-2.54431
G01 X4.72937 Y-2.54733
G01 X4.72950 Y-2.55000
G01 X4.72937 Y-2.55267
G01 X4.72894 Y-2.55569
G01 X4.72831 Y-2.55828
G01 X4.72744 Y-2.56081
G01 X4.72618 Y-2.56359
G01 X4.72484 Y-2.56590
G01 X4.72329 Y-2.56811
G01 X4.72154 Y-2.57016
G01 X4.71960 Y-2.57204
G01 X4.71753 Y-2.57372
G01 X4.71499 Y-2.57540
G01 X4.71265 Y-2.57665
G01 X4.70983 Y-2.57781
G01 X4.70727 Y-2.57859
G01 X4.70463 Y-2.57913
G01 X4.70192 Y-2.57944
G01 X4.69748 Y-2.57939
G01 X4.69304 Y-2.57867
G01 X4.68877 Y-2.57728
G01 X4.68473 Y-2.57524
G01 X4.68108 Y-2.57263
G01 X4.67787 Y-2.56951
G01 X4.67517 Y-2.56592
G01 X4.67242 Y-2.56075
G01 X4.67148 Y-2.55942
G01 X4.67063 Y-2.55853
G01 X4.66900 Y-2.55731
G01 X4.66753 Y-2.55659
G01 X4.66557 Y-2.55604
G01 X4.66394 Y-2.55591
G01 X4.33566 Y-2.55592
G01 X4.33368 Y-2.55620
G01 X4.33216 Y-2.55671
G01 X4.33041 Y-2.55769
G01 X4.32918 Y-2.55871
G01 X4.32768 Y-2.56059
G01 X4.32546 Y-2.56489
G01 X4.32366 Y-2.56760
G01 X4.32131 Y-2.57039
G01 X4.31892 Y-2.57262
G01 X4.31630 Y-2.57458
G01 X4.31316 Y-2.57639
G01 X4.30983 Y-2.57780
G01 X4.30669 Y-2.57872
G01 X4.30344 Y-2.57929
G01 X4.30015 Y-2.57949
G01 X4.29688 Y-2.57932
G01 X4.29329 Y-2.57872
G01 X4.29017 Y-2.57780
G01 X4.28682 Y-2.57638
G01 X4.28399 Y-2.57477
G01 X4.27996 Y-2.57184
G01 X4.27817 Y-2.57097
G01 X4.27662 Y-2.57054
G01 X4.27463 Y-2.57037
G01 X4.27265 Y-2.57061
G01 X4.27112 Y-2.57108
G01 X4.06450 Y-2.67435
G01 X4.06312 Y-2.67519
G01 X4.06162 Y-2.67654
G01 X4.06064 Y-2.67781
G01 X4.05987 Y-2.67923
G01 X4.05935 Y-2.68076
G01 X4.05907 Y-2.68275
G01 X4.05906 Y-2.80316
G01 X3.94094 Y-2.80316
G01 X3.94094 Y-2.68504
G01 X4.01438 Y-2.68504
G01 X4.01644 Y-2.68482
G01 X4.01803 Y-2.68434
G01 X4.26510 Y-2.56084
G01 X4.26712 Y-2.55950
G01 X4.26850 Y-2.55804
G01 X4.26956 Y-2.55633
G01 X4.27025 Y-2.55443
G01 X4.27051 Y-2.55284
G01 X4.27054 Y-2.54852
G01 X4.27090 Y-2.54522
G01 X4.27161 Y-2.54199
G01 X4.27301 Y-2.53777
G01 X4.27330 Y-2.53577
G01 X4.27317 Y-2.53375
G01 X4.27277 Y-2.53218
G01 X4.27212 Y-2.53069
G01 X4.27097 Y-2.52902
G01 X4.15404 Y-2.41204
G01 X4.15212 Y-2.41054
G01 X4.14989 Y-2.40957
G01 X4.14870 Y-2.40929
G01 X4.14708 Y-2.40916
G01 X3.80292 Y-2.40916
G01 X3.80130 Y-2.40929
G01 X3.79972 Y-2.40969
G01 X3.79754 Y-2.41076
G01 X3.79596 Y-2.41204
G01 X3.67903 Y-2.52902
G01 X3.67809 Y-2.53033
G01 X3.67738 Y-2.53178
G01 X3.67691 Y-2.53332
G01 X3.67670 Y-2.53492
G01 X3.67698 Y-2.53773
G01 X3.67847 Y-2.54230
G01 X3.67915 Y-2.54552
G01 X3.67947 Y-2.54880
G01 X3.67942 Y-2.55207
G01 X3.67894 Y-2.55569
G01 X3.67813 Y-2.55886
G01 X3.67697 Y-2.56194
G01 X3.67546 Y-2.56487
G01 X3.67365 Y-2.56762
G01 X3.67153 Y-2.57015
G01 X3.66915 Y-2.57243
G01 X3.66652 Y-2.57443
G01 X3.66370 Y-2.57612
G01 X3.66072 Y-2.57747
G01 X3.65725 Y-2.57859
G01 X3.65396 Y-2.57923
G01 X3.64925 Y-2.57949
G01 X3.64448 Y-2.57898
G01 X3.63986 Y-2.57770
G01 X3.63551 Y-2.57570
G01 X3.63154 Y-2.57301
G01 X3.62806 Y-2.56972
G01 X3.62515 Y-2.56590
G01 X3.62242 Y-2.56075
G01 X3.62148 Y-2.55942
G01 X3.62063 Y-2.55853
G01 X3.61900 Y-2.55731
G01 X3.61753 Y-2.55659
G01 X3.61597 Y-2.55612
G01 X3.61435 Y-2.55592
G01 X3.28606 Y-2.55591
G01 X3.28443 Y-2.55604
G01 X3.28247 Y-2.55659
G01 X3.28100 Y-2.55731
G01 X3.27937 Y-2.55853
G01 X3.27852 Y-2.55942
G01 X3.27758 Y-2.56075
G01 X3.27483 Y-2.56592
G01 X3.27212 Y-2.56951
G01 X3.26892 Y-2.57263
G01 X3.26501 Y-2.57539
G01 X3.26098 Y-2.57738
G01 X3.25666 Y-2.57874
G01 X3.25225 Y-2.57941
G01 X3.24748 Y-2.57939
G01 X3.24478 Y-2.57903
G01 X3.24215 Y-2.57843
G01 X3.23958 Y-2.57760
G01 X3.23713 Y-2.57654
G01 X3.23446 Y-2.57507
G01 X3.23225 Y-2.57356
G01 X3.23017 Y-2.57184
G01 X3.22826 Y-2.56994
G01 X3.22653 Y-2.56787
G01 X3.22501 Y-2.56567
G01 X3.22353 Y-2.56301
G01 X3.22246 Y-2.56056
G01 X3.22161 Y-2.55800
G01 X3.22099 Y-2.55537
G01 X3.22063 Y-2.55269
G01 X3.22050 Y-2.55000
G01 X3.23823 Y-2.55000
G01 X3.23843 Y-2.55214
G01 X3.23901 Y-2.55421
G01 X3.23873 Y-2.55432
G01 X3.23901 Y-2.55421
G01 X3.24007 Y-2.55630
G01 X3.24133 Y-2.55795
G01 X3.24109 Y-2.55817
G01 X3.24133 Y-2.55795
G01 X3.24292 Y-2.55940
G01 X3.24492 Y-2.56061
G01 X3.24476 Y-2.56095
G01 X3.24492 Y-2.56061
G01 X3.24687 Y-2.56134
G01 X3.24994 Y-2.56177
G01 X3.24993 Y-2.56216
G01 X3.24994 Y-2.56177
G01 X3.25192 Y-2.56162
G01 X3.25438 Y-2.56093
G01 X3.25448 Y-2.56119
G01 X3.25438 Y-2.56093
G01 X3.25599 Y-2.56013
G01 X3.25755 Y-2.55903
G01 X3.25768 Y-2.55919
G01 X3.25755 Y-2.55903
G01 X3.25879 Y-2.55783
G01 X3.25988 Y-2.55641
G01 X3.26000 Y-2.55649
G01 X3.25988 Y-2.55641
G01 X3.26179 Y-2.55270
G01 X3.26345 Y-2.55000
G01 X3.26324 Y-2.54970
G01 X3.26553 Y-2.54966
G01 X3.26324 Y-2.54970
G01 X3.26179 Y-2.54730
G01 X3.26009 Y-2.54377
G01 X3.25795 Y-2.54133
G01 X3.25811 Y-2.54114
G01 X3.25795 Y-2.54133
G01 X3.25627 Y-2.54009
G01 X3.25387 Y-2.53888
G01 X3.25398 Y-2.53856
G01 X3.25387 Y-2.53888
G01 X3.25137 Y-2.53831
G01 X3.24972 Y-2.53823
G01 X3.24971 Y-2.53790
G01 X3.24972 Y-2.53823
G01 X3.24726 Y-2.53856
G01 X3.24512 Y-2.53930
G01 X3.24498 Y-2.53898
G01 X3.24512 Y-2.53930
G01 X3.24315 Y-2.54043
G01 X3.24150 Y-2.54188
G01 X3.24126 Y-2.54165
G01 X3.24150 Y-2.54188
G01 X3.24009 Y-2.54366
G01 X3.23903 Y-2.54574
G01 X3.23873 Y-2.54562
G01 X3.23903 Y-2.54574
G01 X3.23847 Y-2.54767
G01 X3.23823 Y-2.55000
G01 X3.63675 Y-2.55030
G01 X3.63821 Y-2.55270
G01 X3.64009 Y-2.55634
G01 X3.63999 Y-2.55641
G01 X3.64009 Y-2.55634
G01 X3.64124 Y-2.55787
G01 X3.64263 Y-2.55918
G01 X3.64245 Y-2.55942
G01 X3.64263 Y-2.55918
G01 X3.64422 Y-2.56025
G01 X3.64687 Y-2.56135
G01 X3.64678 Y-2.56163
G01 X3.64687 Y-2.56135
G01 X3.64874 Y-2.56170
G01 X3.65066 Y-2.56175
G01 X3.65068 Y-2.56208
G01 X3.65066 Y-2.56175
G01 X3.65283 Y-2.56140
G01 X3.65546 Y-2.56041
G01 X3.65560 Y-2.56069
G01 X3.65546 Y-2.56041
G01 X3.65763 Y-2.55894
G01 X3.65858 Y-2.55803
G01 X3.65884 Y-2.55826
G01 X3.65858 Y-2.55803
G01 X3.66015 Y-2.55593
G01 X3.66121 Y-2.55353
G01 X3.66154 Y-2.55364
G01 X3.66121 Y-2.55353
G01 X3.66172 Y-2.55077
G01 X3.66174 Y-2.54952
G01 X3.66207 Y-2.54950
G01 X3.66174 Y-2.54952
G01 X3.66135 Y-2.54696
G01 X3.66016 Y-2.54335
G01 X3.65946 Y-2.54054
G01 X3.66156 Y-2.53842
G01 X3.65946 Y-2.54054
G01 X3.65682 Y-2.53990
G01 X3.65318 Y-2.53868
G01 X3.64994 Y-2.53823
G01 X3.64995 Y-2.53780
G01 X3.64994 Y-2.53823
G01 X3.64761 Y-2.53848
G01 X3.64545 Y-2.53915
G01 X3.64532 Y-2.53884
G01 X3.64545 Y-2.53915
G01 X3.64345 Y-2.54023
G01 X3.64170 Y-2.54167
G01 X3.64153 Y-2.54149
G01 X3.64170 Y-2.54167
G01 X3.63967 Y-2.54420
G01 X3.63826 Y-2.54720
G01 X3.63655 Y-2.55000
G01 X3.63675 Y-2.55030
G04 P0 ( dwell for no time -- G64 should not smooth over this point )
G00 Z0.08000 ( retract )

G00 X3.76891 Y-2.62605 ( rapid move to begin. )
G01 F180.00000
( Mill infeed pass 1/1 )
G01 Z-0.04000
G04 P0 ( dwell for no time -- G64 should not smooth over this point )
G01 F360.00000
G01 X3.76891 Y-2.62605
G01 X3.76670 Y-2.62604
G01 X3.76890 Y-2.62602
G01 X3.77016 Y-2.62807
G01 X3.77140 Y-2.63058
G01 X3.77238 Y-2.63321
G01 X3.77309 Y-2.63593
G01 X3.77347 Y-2.63830
G01 X3.77366 Y-2.64150
G01 X3.77366 Y-2.66734
G01 X3.76854 Y-2.67249
G01 X3.77366 Y-2.66734
G01 X3.85634 Y-2.66734
G01 X3.86153 Y-2.67253
G01 X3.85634 Y-2.66734
G01 X3.85634 Y-2.58466
G01 X3.86153 Y-2.57947
G01 X3.85634 Y-2.58466
G01 X3.77366 Y-2.58466
G01 X3.76854 Y-2.57951
G01 X3.77366 Y-2.58466
G01 X3.77366 Y-2.61050
G01 X3.77347 Y-2.61370
G01 X3.77291 Y-2.61685
G01 X3.77186 Y-2.62029
G01 X3.77055 Y-2.62321
G01 X3.76888 Y-2.62600
G01 X3.78868 Y-2.62614
G01 X3.79017 Y-2.63115
G01 X3.79107 Y-2.63629
G01 X3.79135 Y-2.64029
G01 X3.79137 Y-2.64963
G01 X3.78643 Y-2.65468
G01 X3.79137 Y-2.64963
G01 X3.83863 Y-2.64963
G01 X3.84382 Y-2.65482
G01 X3.83863 Y-2.64963
G01 X3.83863 Y-2.60237
G01 X3.84382 Y-2.59718
G01 X3.83863 Y-2.60237
G01 X3.79137 Y-2.60237
G01 X3.78643 Y-2.59732
G01 X3.79137 Y-2.60237
G01 X3.79135 Y-2.61170
G01 X3.79107 Y-2.61571
G01 X3.79026 Y-2.62045
G01 X3.78868 Y-2.62614
G01 X3.80715 Y-2.62600
G01 X3.80835 Y-2.62008
G01 X3.80509 Y-2.61609
G01 X3.80835 Y-2.62008
G01 X3.82091 Y-2.62008
G01 X3.82610 Y-2.61490
G01 X3.82091 Y-2.62008
G01 X3.82091 Y-2.63191
G01 X3.82610 Y-2.63710
G01 X3.82091 Y-2.63191
G01 X3.80835 Y-2.63191
G01 X3.80509 Y-2.63591
G01 X3.80835 Y-2.63191
G01 X3.80715 Y-2.62600
G04 P0 ( dwell for no time -- G64 should not smooth over this point )
G00 Z0.08000 ( retract )

G00 X3.95058 Y-2.51233 ( rapid move to begin. )
G01 F180.00000
( Mill infeed pass 1/1 )
G01 Z-0.04000
G04 P0 ( dwell for no time -- G64 should not smooth over this point )
G01 F360.00000
G01 X3.95058 Y-2.51233
G01 X3.95042 Y-2.51218
G01 X3.95225 Y-2.51019
G01 X3.95415 Y-2.50762
G01 X3.95626 Y-2.50377
G01 X3.95714 Y-2.50155
G01 X3.95782 Y-2.49925
G01 X3.95831 Y-2.49690
G01 X3.95861 Y-2.49413
G01 X3.95866 Y-2.46656
G01 X3.95362 Y-2.46145
G01 X3.95866 Y-2.46656
G01 X4.04134 Y-2.46656
G01 X4.04653 Y-2.46137
G01 X4.04134 Y-2.46656
G01 X4.04134 Y-2.54924
G01 X4.04653 Y-2.55443
G01 X4.04134 Y-2.54924
G01 X3.95866 Y-2.54924
G01 X3.95348 Y-2.55443
G01 X3.95866 Y-2.54924
G01 X3.95865 Y-2.53142
G01 X3.95830 Y-2.52743
G01 X3.95750 Y-2.52392
G01 X3.95624 Y-2.52054
G01 X3.95455 Y-2.51735
G01 X3.95271 Y-2.51473
G01 X3.95058 Y-2.51233
G01 X3.94645 Y-2.51242
G01 X3.97200 Y-2.51242
G01 X3.97188 Y-2.51218
G01 X3.97339 Y-2.50869
G01 X3.97454 Y-2.50525
G01 X3.97525 Y-2.50252
G01 X3.97585 Y-2.49935
G01 X3.97634 Y-2.49414
G01 X3.97637 Y-2.48427
G01 X3.97156 Y-2.47929
G01 X3.97637 Y-2.48427
G01 X4.02363 Y-2.48427
G01 X4.02882 Y-2.47908
G01 X4.02363 Y-2.48427
G01 X4.02363 Y-2.53153
G01 X4.02882 Y-2.53672
G01 X4.02363 Y-2.53153
G01 X3.97637 Y-2.53153
G01 X3.97236 Y-2.53602
G01 X3.97637 Y-2.53153
G01 X3.97628 Y-2.52901
G01 X3.97559 Y-2.52345
G01 X3.97421 Y-2.51801
G01 X3.97200 Y-2.51242
G01 X3.97095 Y-2.51241
G01 X3.98891 Y-2.51727
G01 X3.99146 Y-2.51382
G01 X3.99106 Y-2.51253
G01 X3.99045 Y-2.51256
G01 X3.99106 Y-2.51253
G01 X3.99094 Y-2.51217
G01 X3.99234 Y-2.50723
G01 X3.99337 Y-2.50198
G01 X3.99022 Y-2.49807
G01 X3.99337 Y-2.50198
G01 X4.00591 Y-2.50198
G01 X4.01110 Y-2.49680
G01 X4.00591 Y-2.50198
G01 X4.00591 Y-2.51382
G01 X4.01110 Y-2.51900
G01 X4.00591 Y-2.51382
G01 X3.99146 Y-2.51382
G04 P0 ( dwell for no time -- G64 should not smooth over this point )
G00 Z0.08000 ( retract )

G00 X4.04134 Y-2.69253 ( rapid move to begin. )
G01 F180.00000
( Mill infeed pass 1/1 )
G01 Z-0.04000
G04 P0 ( dwell for no time -- G64 should not smooth over this point )
G01 F360.00000
G01 X4.04134 Y-2.69253
G01 X4.04134 Y-2.78544
G01 X4.04653 Y-2.79063
G01 X4.04134 Y-2.78544
G01 X3.95866 Y-2.78544
G01 X3.95347 Y-2.79063
G01 X3.95866 Y-2.78544
G01 X3.95866 Y-2.70276
G01 X3.95347 Y-2.69757
G01 X3.95866 Y-2.70276
G01 X4.01478 Y-2.70275
G01 X4.01717 Y-2.70261
G01 X4.01954 Y-2.70227
G01 X4.02264 Y-2.70149
G01 X4.02562 Y-2.70036
G01 X4.04134 Y-2.69253
G01 X4.04974 Y-2.67893
G01 X4.02950 Y-2.71292
G01 X4.01110 Y-2.73299
G01 X4.00591 Y-2.73818
G01 X4.00591 Y-2.75001
G01 X4.01110 Y-2.75520
G01 X4.00591 Y-2.75001
G01 X3.99408 Y-2.75001
G01 X3.98889 Y-2.75520
G01 X3.99408 Y-2.75001
G01 X3.99408 Y-2.73818
G01 X3.98889 Y-2.73299
G01 X3.99408 Y-2.73818
G01 X4.00591 Y-2.73818
G01 X4.01110 Y-2.73299
G01 X4.02950 Y-2.71292
G01 X4.02360 Y-2.71952
G01 X4.02002 Y-2.72012
G01 X4.01640 Y-2.72043
G01 X3.97637 Y-2.72047
G01 X3.97118 Y-2.71528
G01 X3.97637 Y-2.72047
G01 X3.97637 Y-2.76773
G01 X3.97118 Y-2.77292
G01 X3.97637 Y-2.76773
G01 X4.02363 Y-2.76773
G01 X4.02882 Y-2.77292
G01 X4.02363 Y-2.76773
G01 X4.02360 Y-2.71952
G01 X4.02950 Y-2.71292
G01 X4.04974 Y-2.67893
G01 X4.28797 Y-2.55601
G01 X4.29016 Y-2.55734
G01 X4.29367 Y-2.55990
G01 X4.29469 Y-2.56048
G01 X4.29461 Y-2.56066
G01 X4.29469 Y-2.56048
G01 X4.29614 Y-2.56109
G01 X4.29882 Y-2.56169
G01 X4.29879 Y-2.56205
G01 X4.29882 Y-2.56169
G01 X4.30137 Y-2.56167
G01 X4.30386 Y-2.56109
G01 X4.30401 Y-2.56153
G01 X4.30386 Y-2.56109
G01 X4.30654 Y-2.55976
G01 X4.30844 Y-2.55816
G01 X4.30878 Y-2.55849
G01 X4.30844 Y-2.55816
G01 X4.31013 Y-2.55596
G01 X4.31206 Y-2.55221
G01 X4.31345 Y-2.55000
G01 X4.31653 Y-2.54999
G01 X4.31345 Y-2.55000
G01 X4.31193 Y-2.54755
G01 X4.31026 Y-2.54424
G01 X4.30830 Y-2.54167
G01 X4.30860 Y-2.54138
G01 X4.30830 Y-2.54167
G01 X4.30655 Y-2.54023
G01 X4.30455 Y-2.53915
G01 X4.30468 Y-2.53884
G01 X4.30455 Y-2.53915
G01 X4.30239 Y-2.53848
G01 X4.30006 Y-2.53823
G01 X4.30007 Y-2.53798
G01 X4.30006 Y-2.53823
G01 X4.29680 Y-2.53860
G01 X4.29356 Y-2.53978
G01 X4.29054 Y-2.54054
G01 X4.29049 Y-2.54079
G01 X4.28881 Y-2.53919
G01 X4.29049 Y-2.54079
G01 X4.28980 Y-2.54350
G01 X4.28870 Y-2.54678
G01 X4.28840 Y-2.54810
G01 X4.28829 Y-2.54808
G01 X4.28840 Y-2.54810
G01 X4.28826 Y-2.54947
G01 X4.28823 Y-2.55323
G01 X4.28797 Y-2.55601
G01 X4.68675 Y-2.55030
G01 X4.68418 Y-2.55028
G01 X4.68675 Y-2.55030
G01 X4.68821 Y-2.55270
G01 X4.69012 Y-2.55641
G01 X4.69003 Y-2.55647
G01 X4.69012 Y-2.55641
G01 X4.69121 Y-2.55783
G01 X4.69245 Y-2.55903
G01 X4.69232 Y-2.55919
G01 X4.69245 Y-2.55903
G01 X4.69390 Y-2.56008
G01 X4.69557 Y-2.56091
G01 X4.69548 Y-2.56115
G01 X4.69557 Y-2.56091
G01 X4.69728 Y-2.56146
G01 X4.69975 Y-2.56177
G01 X4.69975 Y-2.56217
G01 X4.69975 Y-2.56177
G01 X4.70290 Y-2.56140
G01 X4.70510 Y-2.56060
G01 X4.70526 Y-2.56096
G01 X4.70510 Y-2.56060
G01 X4.70704 Y-2.55942
G01 X4.70859 Y-2.55804
G01 X4.70882 Y-2.55826
G01 X4.70859 Y-2.55804
G01 X4.70991 Y-2.55634
G01 X4.71096 Y-2.55425
G01 X4.71126 Y-2.55437
G01 X4.71096 Y-2.55425
G01 X4.71153 Y-2.55233
G01 X4.71176 Y-2.55000
G01 X4.71207 Y-2.55000
G01 X4.71176 Y-2.55000
G01 X4.71153 Y-2.54767
G01 X4.71096 Y-2.54574
G01 X4.71127 Y-2.54562
G01 X4.71096 Y-2.54574
G01 X4.70991 Y-2.54366
G01 X4.70850 Y-2.54188
G01 X4.70874 Y-2.54165
G01 X4.70850 Y-2.54188
G01 X4.70684 Y-2.54043
G01 X4.70488 Y-2.53930
G01 X4.70504 Y-2.53894
G01 X4.70488 Y-2.53930
G01 X4.70273 Y-2.53856
G01 X4.69965 Y-2.53823
G01 X4.69965 Y-2.53785
G01 X4.69965 Y-2.53823
G01 X4.69761 Y-2.53847
G01 X4.69557 Y-2.53910
G01 X4.69545 Y-2.53881
G01 X4.69557 Y-2.53910
G01 X4.69373 Y-2.54009
G01 X4.69160 Y-2.54175
G01 X4.69124 Y-2.54141
G01 X4.69160 Y-2.54175
G01 X4.69060 Y-2.54291
G01 X4.68962 Y-2.54445
G01 X4.68802 Y-2.54765
G01 X4.68655 Y-2.55000
G01 X4.68675 Y-2.55030
G04 P0 ( dwell for no time -- G64 should not smooth over this point )
G00 Z0.08000 ( retract )

G00 X4.69052 Y-2.94064 ( rapid move to begin. )
G01 F180.00000
( Mill infeed pass 1/1 )
G01 Z-0.04000
G04 P0 ( dwell for no time -- G64 should not smooth over this point )
G01 F360.00000
G01 X4.69052 Y-2.94064
G01 X4.69729 Y-2.93859
G01 X4.69726 Y-2.93844
G01 X4.69729 Y-2.93859
G01 X4.69868 Y-2.93834
G01 X4.70049 Y-2.93828
G01 X4.70189 Y-2.93842
G01 X4.70195 Y-2.93806
G01 X4.70189 Y-2.93842
G01 X4.70364 Y-2.93885
G01 X4.70502 Y-2.93940
G01 X4.70638 Y-2.94015
G01 X4.70652 Y-2.93991
G01 X4.70638 Y-2.94015
G01 X4.70756 Y-2.94103
G01 X4.70910 Y-2.94255
G01 X4.70929 Y-2.94240
G01 X4.70910 Y-2.94255
G01 X4.71031 Y-2.94431
G01 X4.71105 Y-2.94594
G01 X4.71134 Y-2.94584
G01 X4.71105 Y-2.94594
G01 X4.71154 Y-2.94767
G01 X4.71177 Y-2.95048
G01 X4.71214 Y-2.95050
G01 X4.71177 Y-2.95048
G01 X4.71138 Y-2.95301
G01 X4.71054 Y-2.95519
G01 X4.71081 Y-2.95532
G01 X4.71054 Y-2.95519
G01 X4.70986 Y-2.95640
G01 X4.70833 Y-2.95829
G01 X4.70850 Y-2.95846
G01 X4.70833 Y-2.95829
G01 X4.70628 Y-2.95993
G01 X4.70514 Y-2.96057
G01 X4.70528 Y-2.96087
G01 X4.70514 Y-2.96057
G01 X4.70260 Y-2.96146
G01 X4.70018 Y-2.96175
G01 X4.70018 Y-2.96219
G01 X4.70018 Y-2.96175
G01 X4.69757 Y-2.96150
G01 X4.69508 Y-2.96067
G01 X4.69493 Y-2.96102
G01 X4.69508 Y-2.96067
G01 X4.69296 Y-2.95943
G01 X4.69149 Y-2.95813
G01 X4.69128 Y-2.95833
G01 X4.69149 Y-2.95813
G01 X4.69011 Y-2.95639
G01 X4.68927 Y-2.95483
G01 X4.68900 Y-2.95494
G01 X4.68927 Y-2.95483
G01 X4.68856 Y-2.95273
G01 X4.68824 Y-2.95053
G01 X4.68802 Y-2.95054
G01 X4.68824 Y-2.95053
G01 X4.68839 Y-2.94761
G01 X4.68984 Y-2.94337
G01 X4.69052 Y-2.94064
G01 X4.68879 Y-2.93893
G04 P0 ( dwell for no time -- G64 should not smooth over this point )
G00 Z0.08000 ( retract )

G00 X4.40963 Y-3.04175 ( rapid move to begin. )
G01 F180.00000
( Mill infeed pass 1/1 )
G01 Z-0.04000
G04 P0 ( dwell for no time -- G64 should not smooth over this point )
G01 F360.00000
G01 X4.40963 Y-3.04175
G01 X4.40965 Y-3.24566
G01 X4.40978 Y-3.24667
G01 X4.41041 Y-3.24831
G01 X4.41084 Y-3.24893
G01 X4.41635 Y-3.25445
G01 X4.41797 Y-3.25532
G01 X4.41876 Y-3.25553
G01 X4.41990 Y-3.25565
G01 X4.45556 Y-3.25566
G01 X4.45679 Y-3.25573
G01 X4.45839 Y-3.25607
G01 X4.46028 Y-3.25686
G01 X4.46197 Y-3.25803
G01 X4.46285 Y-3.25889
G01 X4.46492 Y-3.26154
G01 X4.46620 Y-3.26288
G01 X4.46917 Y-3.26514
G01 X4.47255 Y-3.26673
G01 X4.47615 Y-3.26756
G01 X4.47864 Y-3.26772
G01 X4.52214 Y-3.26770
G01 X4.52471 Y-3.26742
G01 X4.52724 Y-3.26679
G01 X4.52962 Y-3.26579
G01 X4.53184 Y-3.26446
G01 X4.53386 Y-3.26281
G01 X4.53548 Y-3.26104
G01 X4.53695 Y-3.25889
G01 X4.53812 Y-3.25649
G01 X4.53874 Y-3.25464
G01 X4.53933 Y-3.25097
G01 X4.53933 Y-3.24910
G01 X4.53914 Y-3.24726
G01 X4.53871 Y-3.24525
G01 X4.53812 Y-3.24350
G01 X4.53735 Y-3.24182
G01 X4.53630 Y-3.24005
G01 X4.53518 Y-3.23858
G01 X4.53392 Y-3.23723
G01 X4.53237 Y-3.23591
G01 X4.53068 Y-3.23477
G01 X4.52731 Y-3.23322
G01 X4.52551 Y-3.23272
G01 X4.52366 Y-3.23241
G01 X4.52158 Y-3.23228
G01 X4.47853 Y-3.23228
G01 X4.47624 Y-3.23242
G01 X4.47264 Y-3.23324
G01 X4.47074 Y-3.23401
G01 X4.46911 Y-3.23489
G01 X4.46615 Y-3.23717
G01 X4.46487 Y-3.23852
G01 X4.46286 Y-3.24110
G01 X4.46133 Y-3.24247
G01 X4.45993 Y-3.24332
G01 X4.45879 Y-3.24380
G01 X4.45720 Y-3.24421
G01 X4.45597 Y-3.24433
G01 X4.43079 Y-3.24434
G01 X4.42917 Y-3.24421
G01 X4.42683 Y-3.24351
G01 X4.42474 Y-3.24227
G01 X4.42302 Y-3.24055
G01 X4.42194 Y-3.23882
G01 X4.42115 Y-3.23652
G01 X4.42094 Y-3.23450
G01 X4.42094 Y-3.04772
G01 X4.42124 Y-3.04531
G01 X4.42177 Y-3.04377
G01 X4.42233 Y-3.04269
G01 X4.42382 Y-3.04077
G01 X4.55445 Y-2.91003
G01 X4.55518 Y-2.90880
G01 X4.55561 Y-2.90702
G01 X4.55566 Y-2.87557
G01 X4.55579 Y-2.87396
G01 X4.55619 Y-2.87238
G01 X4.55685 Y-2.87090
G01 X4.55749 Y-2.86986
G01 X4.55854 Y-2.86863
G01 X4.55978 Y-2.86758
G01 X4.56118 Y-2.86675
G01 X4.56269 Y-2.86616
G01 X4.56428 Y-2.86582
G01 X4.56575 Y-2.86575
G01 X4.56582 Y-2.86428
G01 X4.56616 Y-2.86269
G01 X4.56675 Y-2.86118
G01 X4.56758 Y-2.85978
G01 X4.56863 Y-2.85854
G01 X4.56954 Y-2.85773
G01 X4.57091 Y-2.85684
G01 X4.57239 Y-2.85619
G01 X4.57357 Y-2.85587
G01 X4.57518 Y-2.85567
G01 X4.59399 Y-2.85567
G01 X4.59560 Y-2.85587
G01 X4.59678 Y-2.85619
G01 X4.59826 Y-2.85684
G01 X4.59930 Y-2.85749
G01 X4.60054 Y-2.85854
G01 X4.67071 Y-2.92872
G01 X4.67171 Y-2.93001
G01 X4.67249 Y-2.93145
G01 X4.67310 Y-2.93340
G01 X4.67330 Y-2.93502
G01 X4.67327 Y-2.93625
G01 X4.67299 Y-2.93786
G01 X4.67178 Y-2.94142
G01 X4.67111 Y-2.94404
G01 X4.67068 Y-2.94673
G01 X4.67051 Y-2.94910
G01 X4.67054 Y-2.95147
G01 X4.67080 Y-2.95418
G01 X4.67131 Y-2.95683
G01 X4.67205 Y-2.95943
G01 X4.67304 Y-2.96197
G01 X4.67409 Y-2.96409
G01 X4.67530 Y-2.96613
G01 X4.67690 Y-2.96834
G01 X4.67867 Y-2.97038
G01 X4.68064 Y-2.97226
G01 X4.68247 Y-2.97372
G01 X4.68469 Y-2.97521
G01 X4.68765 Y-2.97678
G01 X4.69071 Y-2.97799
G01 X4.69390 Y-2.97885
G01 X4.69716 Y-2.97935
G01 X4.70045 Y-2.97949
G01 X4.70376 Y-2.97925
G01 X4.70666 Y-2.97873
G01 X4.70985 Y-2.97780
G01 X4.71289 Y-2.97652
G01 X4.71577 Y-2.97492
G01 X4.71845 Y-2.97300
G01 X4.72091 Y-2.97080
G01 X4.72311 Y-2.96832
G01 X4.72483 Y-2.96592
G01 X4.72646 Y-2.96303
G01 X4.72778 Y-2.95992
G01 X4.72848 Y-2.95768
G01 X4.72932 Y-2.95327
G01 X4.72949 Y-2.94912
G01 X4.72895 Y-2.94431
G01 X4.72775 Y-2.93998
G01 X4.72590 Y-2.93588
G01 X4.72367 Y-2.93239
G01 X4.72224 Y-2.93062
G01 X4.71912 Y-2.92756
G01 X4.71602 Y-2.92525
G01 X4.71262 Y-2.92335
G01 X4.70902 Y-2.92193
G01 X4.70490 Y-2.92092
G01 X4.70107 Y-2.92054
G01 X4.69683 Y-2.92069
G01 X4.69304 Y-2.92135
G01 X4.68759 Y-2.92306
G01 X4.68512 Y-2.92330
G01 X4.68347 Y-2.92312
G01 X4.68188 Y-2.92266
G01 X4.68075 Y-2.92215
G01 X4.67936 Y-2.92125
G01 X4.60344 Y-2.84556
G01 X4.60276 Y-2.84509
G01 X4.60076 Y-2.84442
G01 X4.57556 Y-2.84434
G01 X4.57434 Y-2.84426
G01 X4.57276 Y-2.84393
G01 X4.57125 Y-2.84333
G01 X4.56985 Y-2.84250
G01 X4.56862 Y-2.84145
G01 X4.56757 Y-2.84021
G01 X4.56674 Y-2.83881
G01 X4.56616 Y-2.83730
G01 X4.56582 Y-2.83571
G01 X4.56575 Y-2.83425
G01 X4.53425 Y-2.83425
G01 X4.53425 Y-2.86575
G01 X4.53612 Y-2.86588
G01 X4.53770 Y-2.86628
G01 X4.53954 Y-2.86714
G01 X4.54086 Y-2.86808
G01 X4.54227 Y-2.86955
G01 X4.54316 Y-2.87091
G01 X4.54381 Y-2.87239
G01 X4.54427 Y-2.87437
G01 X4.54433 Y-2.90058
G01 X4.54393 Y-2.90298
G01 X4.54296 Y-2.90521
G01 X4.54146 Y-2.90713
G01 X4.41147 Y-3.03712
G01 X4.41059 Y-3.03820
G01 X4.40995 Y-3.03955
G01 X4.40963 Y-3.04175
G04 P0 ( dwell for no time -- G64 should not smooth over this point )
G00 Z0.08000 ( retract )

G00 X4.28269 Y-2.94807 ( rapid move to begin. )
G01 F180.00000
( Mill infeed pass 1/1 )
G01 Z-0.04000
G04 P0 ( dwell for no time -- G64 should not smooth over this point )
G01 F360.00000
G01 X4.28269 Y-2.94807
G01 X4.28485 Y-2.94986
G01 X4.28709 Y-2.95217
G01 X4.29062 Y-2.95707
G01 X4.29270 Y-2.95921
G01 X4.29247 Y-2.95948
G01 X4.29270 Y-2.95921
G01 X4.29497 Y-2.96061
G01 X4.29630 Y-2.96115
G01 X4.29624 Y-2.96132
G01 X4.29630 Y-2.96115
G01 X4.29892 Y-2.96170
G01 X4.29890 Y-2.96190
G01 X4.29892 Y-2.96170
G01 X4.30042 Y-2.96173
G01 X4.30331 Y-2.96127
G01 X4.30343 Y-2.96164
G01 X4.30331 Y-2.96127
G01 X4.30577 Y-2.96023
G01 X4.30793 Y-2.95866
G01 X4.30815 Y-2.95892
G01 X4.30793 Y-2.95866
G01 X4.30907 Y-2.95748
G01 X4.31029 Y-2.95568
G01 X4.31057 Y-2.95582
G01 X4.31029 Y-2.95568
G01 X4.31128 Y-2.95330
G01 X4.31171 Y-2.95102
G01 X4.31216 Y-2.95106
G01 X4.31171 Y-2.95102
G01 X4.31167 Y-2.94866
G01 X4.31088 Y-2.94557
G01 X4.31125 Y-2.94543
G01 X4.31088 Y-2.94557
G01 X4.31029 Y-2.94435
G01 X4.30854 Y-2.94194
G01 X4.30879 Y-2.94169
G01 X4.30854 Y-2.94194
G01 X4.30734 Y-2.94085
G01 X4.30607 Y-2.93996
G01 X4.30065 Y-2.93699
G01 X4.29870 Y-2.93558
G01 X4.29681 Y-2.93395
G01 X4.29631 Y-2.92869
G01 X4.29681 Y-2.93395
G01 X4.28269 Y-2.94807
G01 X4.27482 Y-2.94823
G04 P0 ( dwell for no time -- G64 should not smooth over this point )
G00 Z0.08000 ( retract )

G00 X4.47910 Y-3.25000 ( rapid move to begin. )
G01 F180.00000
( Mill infeed pass 1/1 )
G01 Z-0.04000
G04 P0 ( dwell for no time -- G64 should not smooth over this point )
G01 F360.00000
G01 X4.47910 Y-3.25000
G01 X4.49013 Y-3.25000
G01 X4.47910 Y-3.25000
G04 P0 ( dwell for no time -- G64 should not smooth over this point )
G00 Z0.08000 ( retract )

G00 X4.47932 Y-3.32874 ( rapid move to begin. )
G01 F180.00000
( Mill infeed pass 1/1 )
G01 Z-0.04000
G04 P0 ( dwell for no time -- G64 should not smooth over this point )
G01 F360.00000
G01 X4.47932 Y-3.32874
G01 X4.48192 Y-3.32874
G01 X4.47932 Y-3.32874
G04 P0 ( dwell for no time -- G64 should not smooth over this point )
G00 Z0.08000 ( retract )

G00 X4.14029 Y-3.30127 ( rapid move to begin. )
G01 F180.00000
( Mill infeed pass 1/1 )
G01 Z-0.04000
G04 P0 ( dwell for no time -- G64 should not smooth over this point )
G01 F360.00000
G01 X4.14029 Y-3.30127
G01 X4.14083 Y-3.30344
G01 X4.14199 Y-3.30563
G01 X4.14165 Y-3.30585
G01 X4.14199 Y-3.30563
G01 X4.14341 Y-3.30724
G01 X4.14451 Y-3.30811
G01 X4.14435 Y-3.30835
G01 X4.14451 Y-3.30811
G01 X4.14666 Y-3.30920
G01 X4.14769 Y-3.30952
G01 X4.14762 Y-3.30980
G01 X4.14769 Y-3.30952
G01 X4.14997 Y-3.30980
G01 X4.15112 Y-3.30973
G01 X4.15114 Y-3.30994
G01 X4.15112 Y-3.30973
G01 X4.15800 Y-3.30800
G01 X4.16000 Y-3.31002
G01 X4.15800 Y-3.30800
G01 X4.15855 Y-3.30556
G01 X4.15961 Y-3.30188
G01 X4.15972 Y-3.30190
G01 X4.15961 Y-3.30188
G01 X4.15980 Y-3.30007
G01 X4.15973 Y-3.29885
G01 X4.15996 Y-3.29882
G01 X4.15973 Y-3.29885
G01 X4.15953 Y-3.29771
G01 X4.15881 Y-3.29571
G01 X4.15914 Y-3.29554
G01 X4.15881 Y-3.29571
G01 X4.15764 Y-3.29386
G01 X4.15593 Y-3.29220
G01 X4.15617 Y-3.29190
G01 X4.15593 Y-3.29220
G01 X4.15395 Y-3.29103
G01 X4.15280 Y-3.29060
G01 X4.15289 Y-3.29028
G01 X4.15280 Y-3.29060
G01 X4.15063 Y-3.29022
G01 X4.14879 Y-3.29026
G01 X4.14874 Y-3.28988
G01 X4.14879 Y-3.29026
G01 X4.14685 Y-3.29071
G01 X4.14497 Y-3.29157
G01 X4.14478 Y-3.29125
G01 X4.14497 Y-3.29157
G01 X4.14338 Y-3.29277
G01 X4.14209 Y-3.29419
G01 X4.14180 Y-3.29398
G01 X4.14209 Y-3.29419
G01 X4.14108 Y-3.29591
G01 X4.14044 Y-3.29779
G01 X4.14011 Y-3.29771
G01 X4.14044 Y-3.29779
G01 X4.14020 Y-3.29980
G01 X4.14029 Y-3.30127
G01 X4.12246 Y-3.29980
G01 X4.12263 Y-3.29691
G01 X4.12312 Y-3.29398
G01 X4.12381 Y-3.29147
G01 X4.12489 Y-3.28867
G01 X4.12607 Y-3.28636
G01 X4.12770 Y-3.28383
G01 X4.12932 Y-3.28180
G01 X4.13140 Y-3.27968
G01 X4.13370 Y-3.27779
G01 X4.13589 Y-3.27634
G01 X4.13820 Y-3.27511
G01 X4.14098 Y-3.27397
G01 X4.14347 Y-3.27324
G01 X4.14642 Y-3.27269
G01 X4.14902 Y-3.27247
G01 X4.15196 Y-3.27253
G01 X4.15523 Y-3.27296
G01 X4.15804 Y-3.27365
G01 X4.16110 Y-3.27479
G01 X4.16398 Y-3.27627
G01 X4.16667 Y-3.27808
G01 X4.16913 Y-3.28019
G01 X4.17135 Y-3.28259
G01 X4.17305 Y-3.28493
G01 X4.17469 Y-3.28779
G01 X4.17583 Y-3.29045
G01 X4.17678 Y-3.29357
G01 X4.17735 Y-3.29676
G01 X4.17754 Y-3.30003
G01 X4.17739 Y-3.30294
G01 X4.17693 Y-3.30578
G01 X4.17557 Y-3.31050
G01 X4.17531 Y-3.31209
G01 X4.17536 Y-3.31411
G01 X4.17570 Y-3.31569
G01 X4.17689 Y-3.31824
G01 X4.17860 Y-3.32023
G01 X4.17954 Y-3.32100
G01 X4.18094 Y-3.32183
G01 X4.18207 Y-3.32230
G01 X4.18364 Y-3.32270
G01 X4.18526 Y-3.32283
G01 X4.45614 Y-3.32282
G01 X4.45854 Y-3.32242
G01 X4.46077 Y-3.32144
G01 X4.46270 Y-3.31995
G01 X4.46615 Y-3.31591
G01 X4.46887 Y-3.31379
G01 X4.47195 Y-3.31223
G01 X4.47529 Y-3.31130
G01 X4.47845 Y-3.31102
G01 X4.52251 Y-3.31106
G01 X4.52593 Y-3.31156
G01 X4.52933 Y-3.31278
G01 X4.53239 Y-3.31466
G01 X4.53490 Y-3.31699
G01 X4.53701 Y-3.31993
G01 X4.53842 Y-3.32305
G01 X4.53920 Y-3.32641
G01 X4.53931 Y-3.33004
G01 X4.53881 Y-3.33312
G01 X4.53769 Y-3.33625
G01 X4.53612 Y-3.33895
G01 X4.53395 Y-3.34147
G01 X4.53149 Y-3.34346
G01 X4.52857 Y-3.34504
G01 X4.52542 Y-3.34604
G01 X4.52226 Y-3.34644
G01 X4.47856 Y-3.34646
G01 X4.47520 Y-3.34615
G01 X4.47188 Y-3.34522
G01 X4.46881 Y-3.34366
G01 X4.46610 Y-3.34152
G01 X4.46271 Y-3.33755
G01 X4.46078 Y-3.33604
G01 X4.45855 Y-3.33506
G01 X4.45614 Y-3.33466
G01 X4.17823 Y-3.33460
G01 X4.17678 Y-3.33429
G01 X4.17574 Y-3.33379
G01 X4.17464 Y-3.33297
G01 X4.16887 Y-3.32734
G01 X4.16715 Y-3.32627
G01 X4.16524 Y-3.32558
G01 X4.16364 Y-3.32531
G01 X4.16161 Y-3.32536
G01 X4.15635 Y-3.32680
G01 X4.15316 Y-3.32736
G01 X4.14993 Y-3.32754
G01 X4.14669 Y-3.32734
G01 X4.14350 Y-3.32676
G01 X4.14043 Y-3.32582
G01 X4.13715 Y-3.32436
G01 X4.13442 Y-3.32271
G01 X4.13160 Y-3.32049
G01 X4.12934 Y-3.31821
G01 X4.12736 Y-3.31568
G01 X4.12551 Y-3.31260
G01 X4.12421 Y-3.30966
G01 X4.12325 Y-3.30657
G01 X4.12267 Y-3.30341
G01 X4.12246 Y-3.29980
G04 P0 ( dwell for no time -- G64 should not smooth over this point )
G00 Z0.08000 ( retract )

G00 X4.06503 Y-3.31700 ( rapid move to begin. )
G01 F180.00000
( Mill infeed pass 1/1 )
G01 Z-0.04000
G04 P0 ( dwell for no time -- G64 should not smooth over this point )
G01 F360.00000
G01 X4.06503 Y-3.31700
G01 X4.05985 Y-3.31181
G01 X4.05985 Y-3.28819
G01 X4.06503 Y-3.28300
G01 X4.05985 Y-3.28819
G01 X4.03991 Y-3.28819
G01 X4.03700 Y-3.28445
G01 X4.03991 Y-3.28819
G01 X4.03932 Y-3.29124
G01 X4.03863 Y-3.29355
G01 X4.03774 Y-3.29578
G01 X4.03540 Y-3.30002
G01 X4.03316 Y-3.30003
G01 X4.03540 Y-3.30002
G01 X4.03666 Y-3.30207
G01 X4.03774 Y-3.30422
G01 X4.03863 Y-3.30645
G01 X4.03932 Y-3.30876
G01 X4.03991 Y-3.31181
G01 X4.03700 Y-3.31554
G01 X4.03991 Y-3.31181
G01 X4.05985 Y-3.31181
G04 P0 ( dwell for no time -- G64 should not smooth over this point )
G00 Z0.08000 ( retract )

G00 X3.84015 Y-3.28819 ( rapid move to begin. )
G01 F180.00000
( Mill infeed pass 1/1 )
G01 Z-0.04000
G04 P0 ( dwell for no time -- G64 should not smooth over this point )
G01 F360.00000
G01 X3.84015 Y-3.28819
G01 X3.86009 Y-3.28819
G01 X3.86299 Y-3.28445
G01 X3.86009 Y-3.28819
G01 X3.86068 Y-3.29124
G01 X3.86137 Y-3.29355
G01 X3.86226 Y-3.29578
G01 X3.86334 Y-3.29793
G01 X3.86462 Y-3.30000
G01 X3.86684 Y-3.29999
G01 X3.86462 Y-3.30000
G01 X3.86278 Y-3.30313
G01 X3.86137 Y-3.30645
G01 X3.86050 Y-3.30953
G01 X3.86002 Y-3.31236
G01 X3.86201 Y-3.31422
G01 X3.86002 Y-3.31236
G01 X3.85760 Y-3.31297
G01 X3.85533 Y-3.31376
G01 X3.85278 Y-3.31492
G01 X3.85000 Y-3.31659
G01 X3.84999 Y-3.31904
G01 X3.85000 Y-3.31659
G01 X3.84687 Y-3.31474
G01 X3.84317 Y-3.31321
G01 X3.84046 Y-3.31247
G01 X3.83717 Y-3.31489
G01 X3.84046 Y-3.31247
G01 X3.84015 Y-3.31240
G01 X3.84015 Y-3.28819
G01 X3.83482 Y-3.28292
G04 P0 ( dwell for no time -- G64 should not smooth over this point )
G00 Z0.08000 ( retract )

G00 X3.73940 Y-3.30389 ( rapid move to begin. )
G01 F180.00000
( Mill infeed pass 1/1 )
G01 Z-0.04000
G04 P0 ( dwell for no time -- G64 should not smooth over this point )
G01 F360.00000
G01 X3.73940 Y-3.30389
G01 X3.74447 Y-3.30811
G01 X3.74626 Y-3.30908
G01 X3.74607 Y-3.30951
G01 X3.74626 Y-3.30908
G01 X3.74800 Y-3.30957
G01 X3.75008 Y-3.30983
G01 X3.75008 Y-3.31020
G01 X3.75008 Y-3.30983
G01 X3.75183 Y-3.30965
G01 X3.75398 Y-3.30898
G01 X3.75409 Y-3.30925
G01 X3.75398 Y-3.30898
G01 X3.75552 Y-3.30813
G01 X3.75667 Y-3.30721
G01 X3.75687 Y-3.30742
G01 X3.75667 Y-3.30721
G01 X3.75767 Y-3.30613
G01 X3.75885 Y-3.30427
G01 X3.75913 Y-3.30441
G01 X3.75885 Y-3.30427
G01 X3.75958 Y-3.30219
G01 X3.75980 Y-3.30073
G01 X3.76014 Y-3.30076
G01 X3.75980 Y-3.30073
G01 X3.75977 Y-3.29913
G01 X3.75932 Y-3.29693
G01 X3.75963 Y-3.29683
G01 X3.75932 Y-3.29693
G01 X3.75851 Y-3.29511
G01 X3.75751 Y-3.29369
G01 X3.75778 Y-3.29345
G01 X3.75751 Y-3.29369
G01 X3.75594 Y-3.29219
G01 X3.75431 Y-3.29119
G01 X3.75447 Y-3.29084
G01 X3.75431 Y-3.29119
G01 X3.75219 Y-3.29044
G01 X3.75047 Y-3.29020
G01 X3.75049 Y-3.28986
G01 X3.75047 Y-3.29020
G01 X3.74833 Y-3.29033
G01 X3.74678 Y-3.29072
G01 X3.74668 Y-3.29045
G01 X3.74678 Y-3.29072
G01 X3.74524 Y-3.29141
G01 X3.74391 Y-3.29230
G01 X3.74373 Y-3.29209
G01 X3.74391 Y-3.29230
G01 X3.74245 Y-3.29372
G01 X3.74153 Y-3.29504
G01 X3.74133 Y-3.29492
G01 X3.74153 Y-3.29504
G01 X3.74051 Y-3.29745
G01 X3.74041 Y-3.29742
G01 X3.74051 Y-3.29745
G01 X3.73994 Y-3.30121
G01 X3.73940 Y-3.30389
G01 X3.73657 Y-3.30501
( Piece #2, position [1;0] )

G04 P0 ( dwell for no time -- G64 should not smooth over this point )
G00 Z0.08000 ( retract )

G00 X5.13651 Y-3.21730 ( rapid move to begin. )
G01 F180.00000
( Mill infeed pass 1/1 )
G01 Z-0.04000
G04 P0 ( dwell for no time -- G64 should not smooth over this point )
G01 F360.00000
G01 X5.13651 Y-3.21730
G01 X5.13661 Y-2.80983
G01 X5.13725 Y-2.80797
G01 X5.13839 Y-2.80648
G01 X5.18086 Y-2.76405
G01 X5.18249 Y-2.76298
G01 X5.18405 Y-2.76256
G01 X5.18505 Y-2.76249
G01 X5.54054 Y-2.76249
G01 X5.54256 Y-2.76228
G01 X5.54412 Y-2.76182
G01 X5.54593 Y-2.76089
G01 X5.54750 Y-2.75961
G01 X5.68572 Y-2.62151
G01 X5.68696 Y-2.62080
G01 X5.68868 Y-2.62039
G01 X5.72135 Y-2.62026
G01 X5.72332 Y-2.61980
G01 X5.72481 Y-2.61915
G01 X5.72617 Y-2.61826
G01 X5.72736 Y-2.61716
G01 X5.72836 Y-2.61588
G01 X5.72913 Y-2.61445
G01 X5.72975 Y-2.61252
G01 X5.72995 Y-2.61091
G01 X5.72996 Y-2.56694
G01 X5.83599 Y-2.56694
G01 X5.83761 Y-2.56681
G01 X5.83880 Y-2.56653
G01 X5.83995 Y-2.56611
G01 X5.84138 Y-2.56534
G01 X5.84295 Y-2.56406
G01 X5.90304 Y-2.50398
G01 X5.90469 Y-2.50282
G01 X5.90833 Y-2.50183
G01 X5.91017 Y-2.50098
G01 X5.91208 Y-2.49948
G01 X5.91336 Y-2.49791
G01 X5.91396 Y-2.49685
G01 X5.91455 Y-2.49533
G01 X5.91495 Y-2.49294
G01 X5.91496 Y-2.44884
G01 X6.03307 Y-2.44884
G01 X6.03307 Y-2.56696
G01 X5.91496 Y-2.56696
G01 X5.91496 Y-2.53182
G01 X5.91482 Y-2.53020
G01 X5.91442 Y-2.52862
G01 X5.91335 Y-2.52644
G01 X5.91207 Y-2.52486
G01 X5.91050 Y-2.52358
G01 X5.90831 Y-2.52251
G01 X5.90633 Y-2.52205
G01 X5.90390 Y-2.52205
G01 X5.90154 Y-2.52265
G01 X5.89973 Y-2.52358
G01 X5.89816 Y-2.52486
G01 X5.85096 Y-2.57206
G01 X5.84946 Y-2.57398
G01 X5.84848 Y-2.57621
G01 X5.84821 Y-2.57740
G01 X5.84807 Y-2.57902
G01 X5.84807 Y-2.68506
G01 X5.72996 Y-2.68506
G01 X5.72995 Y-2.64109
G01 X5.72975 Y-2.63948
G01 X5.72942 Y-2.63830
G01 X5.72835 Y-2.63612
G01 X5.72678 Y-2.63426
G01 X5.72515 Y-2.63304
G01 X5.72331 Y-2.63219
G01 X5.72133 Y-2.63173
G01 X5.69432 Y-2.63173
G01 X5.69273 Y-2.63207
G01 X5.69121 Y-2.63266
G01 X5.68982 Y-2.63349
G01 X5.68858 Y-2.63454
G01 X5.55119 Y-2.77192
G01 X5.54978 Y-2.77303
G01 X5.54842 Y-2.77359
G01 X5.54664 Y-2.77381
G01 X5.19115 Y-2.77381
G01 X5.18913 Y-2.77401
G01 X5.18757 Y-2.77448
G01 X5.18611 Y-2.77519
G01 X5.18479 Y-2.77614
G01 X5.15042 Y-2.81047
G01 X5.14942 Y-2.81175
G01 X5.14865 Y-2.81318
G01 X5.14812 Y-2.81472
G01 X5.14786 Y-2.81632
G01 X5.14783 Y-3.21161
G01 X5.14803 Y-3.21322
G01 X5.14865 Y-3.21516
G01 X5.14942 Y-3.21658
G01 X5.15070 Y-3.21816
G01 X5.32280 Y-3.39026
G01 X5.32404 Y-3.39131
G01 X5.32544 Y-3.39214
G01 X5.32695 Y-3.39273
G01 X5.32854 Y-3.39306
G01 X5.78916 Y-3.39314
G01 X5.79158 Y-3.39284
G01 X5.79385 Y-3.39195
G01 X5.79583 Y-3.39054
G01 X5.81576 Y-3.37061
G01 X5.81697 Y-3.36899
G01 X5.81768 Y-3.36753
G01 X5.81815 Y-3.36597
G01 X5.81835 Y-3.36436
G01 X5.81835 Y-3.33896
G01 X5.81815 Y-3.33735
G01 X5.81782 Y-3.33617
G01 X5.81675 Y-3.33399
G01 X5.81576 Y-3.33270
G01 X5.81423 Y-3.33136
G01 X5.81247 Y-3.33036
G01 X5.81053 Y-3.32974
G01 X5.80852 Y-3.32953
G01 X5.79646 Y-3.32953
G01 X5.79646 Y-3.27047
G01 X5.85157 Y-3.27047
G01 X5.85158 Y-3.28491
G01 X5.85178 Y-3.28652
G01 X5.85225 Y-3.28808
G01 X5.85296 Y-3.28954
G01 X5.85365 Y-3.29054
G01 X5.85446 Y-3.29146
G01 X5.85570 Y-3.29251
G01 X5.85709 Y-3.29334
G01 X5.85822 Y-3.29381
G01 X5.85980 Y-3.29421
G01 X5.86142 Y-3.29434
G01 X5.98783 Y-3.29427
G01 X5.98903 Y-3.29404
G01 X5.99057 Y-3.29351
G01 X5.99266 Y-3.29227
G01 X5.99357 Y-3.29146
G01 X5.99462 Y-3.29022
G01 X5.99527 Y-3.28918
G01 X5.99592 Y-3.28769
G01 X5.99632 Y-3.28612
G01 X5.99645 Y-3.28491
G01 X5.99645 Y-3.27047
G01 X6.05157 Y-3.27047
G01 X6.05157 Y-3.32953
G01 X5.99645 Y-3.32953
G01 X5.99645 Y-3.31509
G01 X5.99632 Y-3.31388
G01 X5.99592 Y-3.31230
G01 X5.99527 Y-3.31081
G01 X5.99462 Y-3.30978
G01 X5.99357 Y-3.30854
G01 X5.99266 Y-3.30773
G01 X5.99057 Y-3.30649
G01 X5.98903 Y-3.30596
G01 X5.98783 Y-3.30573
G01 X5.86142 Y-3.30566
G01 X5.85980 Y-3.30579
G01 X5.85861 Y-3.30607
G01 X5.85638 Y-3.30704
G01 X5.85446 Y-3.30854
G01 X5.85296 Y-3.31046
G01 X5.85198 Y-3.31269
G01 X5.85158 Y-3.31509
G01 X5.85157 Y-3.32953
G01 X5.83911 Y-3.32953
G01 X5.83671 Y-3.32994
G01 X5.83448 Y-3.33091
G01 X5.83285 Y-3.33213
G01 X5.83151 Y-3.33365
G01 X5.83050 Y-3.33541
G01 X5.82988 Y-3.33734
G01 X5.82968 Y-3.33896
G01 X5.82965 Y-3.37060
G01 X5.82938 Y-3.37211
G01 X5.82884 Y-3.37327
G01 X5.82765 Y-3.37473
G01 X5.79945 Y-3.40290
G01 X5.79787 Y-3.40394
G01 X5.79630 Y-3.40437
G01 X5.32246 Y-3.40436
G01 X5.32060 Y-3.40371
G01 X5.31911 Y-3.40257
G01 X5.13839 Y-3.22185
G01 X5.13769 Y-3.22105
G01 X5.13693 Y-3.21972
G01 X5.13657 Y-3.21829
G01 X5.13651 Y-3.21730
G04 P0 ( dwell for no time -- G64 should not smooth over this point )
G00 Z0.08000 ( retract )

G00 X5.33466 Y-3.32820 ( rapid move to begin. )
G01 F180.00000
( Mill infeed pass 1/1 )
G01 Z-0.04000
G04 P0 ( dwell for no time -- G64 should not smooth over this point )
G01 F360.00000
G01 X5.33466 Y-3.32820
G01 X5.33511 Y-3.32478
G01 X5.33620 Y-3.32151
G01 X5.33790 Y-3.31853
G01 X5.34026 Y-3.31582
G01 X5.34172 Y-3.31459
G01 X5.34463 Y-3.31282
G01 X5.34802 Y-3.31158
G01 X5.35141 Y-3.31106
G01 X5.39546 Y-3.31102
G01 X5.39883 Y-3.31133
G01 X5.40198 Y-3.31220
G01 X5.40521 Y-3.31382
G01 X5.40792 Y-3.31596
G01 X5.41131 Y-3.31993
G01 X5.41323 Y-3.32144
G01 X5.41547 Y-3.32242
G01 X5.41788 Y-3.32282
G01 X5.64378 Y-3.32275
G01 X5.64586 Y-3.32224
G01 X5.69012 Y-3.30608
G01 X5.69197 Y-3.30518
G01 X5.69298 Y-3.30445
G01 X5.69416 Y-3.30331
G01 X5.69554 Y-3.30126
G01 X5.69627 Y-3.29933
G01 X5.69690 Y-3.29514
G01 X5.69741 Y-3.29286
G01 X5.69811 Y-3.29063
G01 X5.69915 Y-3.28814
G01 X5.70024 Y-3.28608
G01 X5.70152 Y-3.28409
G01 X5.70295 Y-3.28225
G01 X5.70477 Y-3.28029
G01 X5.70678 Y-3.27851
G01 X5.70866 Y-3.27713
G01 X5.71067 Y-3.27590
G01 X5.71278 Y-3.27485
G01 X5.71497 Y-3.27398
G01 X5.71723 Y-3.27330
G01 X5.71951 Y-3.27282
G01 X5.72215 Y-3.27252
G01 X5.72515 Y-3.27248
G01 X5.72776 Y-3.27271
G01 X5.73034 Y-3.27319
G01 X5.73320 Y-3.27403
G01 X5.73594 Y-3.27517
G01 X5.73823 Y-3.27641
G01 X5.74069 Y-3.27808
G01 X5.74294 Y-3.27998
G01 X5.74499 Y-3.28214
G01 X5.74659 Y-3.28422
G01 X5.74799 Y-3.28644
G01 X5.74932 Y-3.28913
G01 X5.75024 Y-3.29156
G01 X5.75099 Y-3.29444
G01 X5.75144 Y-3.29738
G01 X5.75149 Y-3.30206
G01 X5.75087 Y-3.30614
G01 X5.74966 Y-3.31008
G01 X5.74786 Y-3.31380
G01 X5.74554 Y-3.31720
G01 X5.74273 Y-3.32022
G01 X5.73950 Y-3.32279
G01 X5.73775 Y-3.32389
G01 X5.73417 Y-3.32560
G01 X5.73022 Y-3.32684
G01 X5.72630 Y-3.32746
G01 X5.72233 Y-3.32749
G01 X5.71838 Y-3.32695
G01 X5.71454 Y-3.32587
G01 X5.71093 Y-3.32424
G01 X5.70759 Y-3.32211
G01 X5.70370 Y-3.31874
G01 X5.70164 Y-3.31747
G01 X5.69894 Y-3.31668
G01 X5.69653 Y-3.31664
G01 X5.69417 Y-3.31718
G01 X5.64759 Y-3.33418
G01 X5.64571 Y-3.33460
G01 X5.41787 Y-3.33466
G01 X5.41547 Y-3.33506
G01 X5.41324 Y-3.33604
G01 X5.41132 Y-3.33753
G01 X5.40787 Y-3.34157
G01 X5.40515 Y-3.34369
G01 X5.40207 Y-3.34525
G01 X5.39871 Y-3.34618
G01 X5.39554 Y-3.34646
G01 X5.35166 Y-3.34643
G01 X5.34851 Y-3.34602
G01 X5.34534 Y-3.34499
G01 X5.34258 Y-3.34350
G01 X5.34001 Y-3.34142
G01 X5.33787 Y-3.33891
G01 X5.33629 Y-3.33617
G01 X5.33569 Y-3.33470
G01 X5.33487 Y-3.33148
G01 X5.33466 Y-3.32820
G01 X5.39470 Y-3.32874
G01 X5.39274 Y-3.32874
G04 P0 ( dwell for no time -- G64 should not smooth over this point )
G00 Z0.08000 ( retract )

G00 X5.33468 Y-3.17043 ( rapid move to begin. )
G01 F180.00000
( Mill infeed pass 1/1 )
G01 Z-0.04000
G04 P0 ( dwell for no time -- G64 should not smooth over this point )
G01 F360.00000
G01 X5.33468 Y-3.17043
G01 X5.33489 Y-3.16843
G01 X5.33532 Y-3.16646
G01 X5.33598 Y-3.16456
G01 X5.33684 Y-3.16274
G01 X5.33791 Y-3.16104
G01 X5.33917 Y-3.15946
G01 X5.34059 Y-3.15804
G01 X5.34217 Y-3.15679
G01 X5.34386 Y-3.15573
G01 X5.34585 Y-3.15480
G01 X5.34774 Y-3.15417
G01 X5.34971 Y-3.15376
G01 X5.35182 Y-3.15356
G01 X5.39545 Y-3.15354
G01 X5.39881 Y-3.15385
G01 X5.40214 Y-3.15478
G01 X5.40521 Y-3.15634
G01 X5.40792 Y-3.15848
G01 X5.41131 Y-3.16245
G01 X5.41323 Y-3.16396
G01 X5.41469 Y-3.16467
G01 X5.41586 Y-3.16505
G01 X5.41828 Y-3.16535
G01 X6.01029 Y-3.16535
G01 X6.01191 Y-3.16522
G01 X6.01310 Y-3.16494
G01 X6.01533 Y-3.16396
G01 X6.01725 Y-3.16247
G01 X6.26603 Y-2.91359
G01 X6.26672 Y-2.91258
G01 X6.26743 Y-2.91112
G01 X6.26790 Y-2.90957
G01 X6.26810 Y-2.90796
G01 X6.26819 Y-2.84921
G01 X6.26838 Y-2.84831
G01 X6.26900 Y-2.84699
G01 X6.26972 Y-2.84602
G01 X6.27077 Y-2.84510
G01 X6.27208 Y-2.84445
G01 X6.27412 Y-2.84410
G01 X6.40622 Y-2.84406
G01 X6.40856 Y-2.84358
G01 X6.41071 Y-2.84255
G01 X6.41228 Y-2.84131
G01 X6.41434 Y-2.83901
G01 X6.41582 Y-2.83767
G01 X6.41747 Y-2.83652
G01 X6.41893 Y-2.83575
G01 X6.42084 Y-2.83500
G01 X6.42243 Y-2.83459
G01 X6.42446 Y-2.83431
G01 X6.42603 Y-2.83428
G01 X6.42859 Y-2.83457
G01 X6.43096 Y-2.83523
G01 X6.43320 Y-2.83625
G01 X6.43525 Y-2.83760
G01 X6.43707 Y-2.83926
G01 X6.43860 Y-2.84118
G01 X6.43982 Y-2.84332
G01 X6.44073 Y-2.84573
G01 X6.44127 Y-2.84873
G01 X6.44132 Y-2.85049
G01 X6.44083 Y-2.85390
G01 X6.43962 Y-2.85713
G01 X6.43773 Y-2.86001
G01 X6.43549 Y-2.86223
G01 X6.43255 Y-2.86411
G01 X6.42928 Y-2.86530
G01 X6.42594 Y-2.86572
G01 X6.42365 Y-2.86560
G01 X6.42179 Y-2.86526
G01 X6.41961 Y-2.86454
G01 X6.41790 Y-2.86372
G01 X6.41599 Y-2.86246
G01 X6.41454 Y-2.86119
G01 X6.41249 Y-2.85890
G01 X6.41090 Y-2.85758
G01 X6.40868 Y-2.85646
G01 X6.40748 Y-2.85613
G01 X6.40584 Y-2.85592
G01 X6.28977 Y-2.85591
G01 X6.28814 Y-2.85604
G01 X6.28657 Y-2.85644
G01 X6.28508 Y-2.85709
G01 X6.28372 Y-2.85798
G01 X6.28225 Y-2.85939
G01 X6.28111 Y-2.86106
G01 X6.28033 Y-2.86294
G01 X6.27996 Y-2.86494
G01 X6.28000 Y-2.91518
G01 X6.28035 Y-2.91679
G01 X6.28096 Y-2.91833
G01 X6.28182 Y-2.91974
G01 X6.28290 Y-2.92099
G01 X6.28452 Y-2.92227
G01 X6.28927 Y-2.92477
G01 X6.29247 Y-2.92700
G01 X6.29535 Y-2.92965
G01 X6.29764 Y-2.93236
G01 X6.29979 Y-2.93567
G01 X6.30133 Y-2.93889
G01 X6.30247 Y-2.94227
G01 X6.30326 Y-2.94619
G01 X6.30349 Y-2.94908
G01 X6.30341 Y-2.95242
G01 X6.30302 Y-2.95537
G01 X6.30232 Y-2.95828
G01 X6.30134 Y-2.96109
G01 X6.29991 Y-2.96411
G01 X6.29836 Y-2.96665
G01 X6.29658 Y-2.96900
G01 X6.29404 Y-2.97165
G01 X6.29154 Y-2.97372
G01 X6.28850 Y-2.97569
G01 X6.28524 Y-2.97727
G01 X6.28218 Y-2.97834
G01 X6.27864 Y-2.97912
G01 X6.27506 Y-2.97947
G01 X6.27144 Y-2.97938
G01 X6.26823 Y-2.97892
G01 X6.26473 Y-2.97799
G01 X6.26139 Y-2.97665
G01 X6.25822 Y-2.97491
G01 X6.25558 Y-2.97302
G01 X6.25290 Y-2.97058
G01 X6.25054 Y-2.96785
G01 X6.24763 Y-2.96367
G01 X6.24616 Y-2.96230
G01 X6.24444 Y-2.96125
G01 X6.24215 Y-2.96049
G01 X6.23934 Y-2.96034
G01 X6.23660 Y-2.96098
G01 X6.23448 Y-2.96214
G01 X6.23325 Y-2.96318
G01 X6.02122 Y-3.17521
G01 X6.01995 Y-3.17625
G01 X6.01849 Y-3.17690
G01 X6.01643 Y-3.17717
G01 X5.41828 Y-3.17717
G01 X5.41666 Y-3.17730
G01 X5.41547 Y-3.17758
G01 X5.41324 Y-3.17855
G01 X5.41132 Y-3.18005
G01 X5.40904 Y-3.18286
G01 X5.40656 Y-3.18522
G01 X5.40365 Y-3.18707
G01 X5.40207 Y-3.18777
G01 X5.39890 Y-3.18866
G01 X5.39554 Y-3.18897
G01 X5.35256 Y-3.18898
G01 X5.34952 Y-3.18872
G01 X5.34669 Y-3.18801
G01 X5.34422 Y-3.18696
G01 X5.34175 Y-3.18541
G01 X5.33973 Y-3.18364
G01 X5.33787 Y-3.18140
G01 X5.33650 Y-3.17909
G01 X5.33540 Y-3.17628
G01 X5.33495 Y-3.17444
G01 X5.33470 Y-3.17245
G01 X5.33468 Y-3.17043
G01 X5.39469 Y-3.17126
G01 X5.38947 Y-3.17126
G04 P0 ( dwell for no time -- G64 should not smooth over this point )
G00 Z0.08000 ( retract )

G00 X5.64021 Y-2.95009 ( rapid move to begin. )
G01 F180.00000
( Mill infeed pass 1/1 )
G01 Z-0.04000
G04 P0 ( dwell for no time -- G64 should not smooth over this point )
G01 F360.00000
G01 X5.64021 Y-2.95009
G01 X5.63740 Y-2.95000
G01 X5.63580 Y-2.94734
G01 X5.63437 Y-2.94423
G01 X5.63305 Y-2.94252
G01 X5.63156 Y-2.94096
G01 X5.63173 Y-2.94076
G01 X5.63156 Y-2.94096
G01 X5.62835 Y-2.93905
G01 X5.62845 Y-2.93877
G01 X5.62835 Y-2.93905
G01 X5.62604 Y-2.93841
G01 X5.62381 Y-2.93827
G01 X5.62381 Y-2.93797
G01 X5.62381 Y-2.93827
G01 X5.62112 Y-2.93862
G01 X5.61969 Y-2.93908
G01 X5.61958 Y-2.93880
G01 X5.61969 Y-2.93908
G01 X5.61778 Y-2.94002
G01 X5.61597 Y-2.94142
G01 X5.61577 Y-2.94120
G01 X5.61597 Y-2.94142
G01 X5.61477 Y-2.94272
G01 X5.61355 Y-2.94442
G01 X5.61235 Y-2.94712
G01 X5.61063 Y-2.95000
G01 X5.61080 Y-2.95026
G01 X5.60862 Y-2.95030
G01 X5.61080 Y-2.95026
G01 X5.61241 Y-2.95301
G01 X5.61386 Y-2.95614
G01 X5.61628 Y-2.95888
G01 X5.61610 Y-2.95908
G01 X5.61628 Y-2.95888
G01 X5.61737 Y-2.95971
G01 X5.62015 Y-2.96112
G01 X5.62005 Y-2.96139
G01 X5.62015 Y-2.96112
G01 X5.62163 Y-2.96153
G01 X5.62394 Y-2.96177
G01 X5.62394 Y-2.96202
G01 X5.62394 Y-2.96177
G01 X5.62609 Y-2.96154
G01 X5.62771 Y-2.96113
G01 X5.62781 Y-2.96141
G01 X5.62771 Y-2.96113
G01 X5.62925 Y-2.96049
G01 X5.63068 Y-2.95964
G01 X5.63198 Y-2.95860
G01 X5.63234 Y-2.95897
G01 X5.63198 Y-2.95860
G01 X5.63312 Y-2.95738
G01 X5.63411 Y-2.95597
G01 X5.63601 Y-2.95227
G01 X5.63740 Y-2.95000
G04 P0 ( dwell for no time -- G64 should not smooth over this point )
G00 Z0.08000 ( retract )

G00 X5.45673 Y-2.85086 ( rapid move to begin. )
G01 F180.00000
( Mill infeed pass 1/1 )
G01 Z-0.04000
G04 P0 ( dwell for no time -- G64 should not smooth over this point )
G01 F360.00000
G01 X5.45673 Y-2.85086
G01 X5.45673 Y-2.84921
G01 X5.45702 Y-2.84690
G01 X5.45752 Y-2.84503
G01 X5.45824 Y-2.84324
G01 X5.45937 Y-2.84125
G01 X5.46052 Y-2.83974
G01 X5.46214 Y-2.83812
G01 X5.46367 Y-2.83694
G01 X5.46537 Y-2.83595
G01 X5.46718 Y-2.83518
G01 X5.46904 Y-2.83465
G01 X5.47131 Y-2.83431
G01 X5.47320 Y-2.83429
G01 X5.47548 Y-2.83457
G01 X5.47735 Y-2.83506
G01 X5.47914 Y-2.83577
G01 X5.48111 Y-2.83688
G01 X5.48286 Y-2.83823
G01 X5.48441 Y-2.83981
G01 X5.48573 Y-2.84159
G01 X5.48678 Y-2.84354
G01 X5.48754 Y-2.84562
G01 X5.48801 Y-2.84779
G01 X5.48816 Y-2.85001
G01 X5.48796 Y-2.85357
G01 X5.48819 Y-2.85555
G01 X5.48898 Y-2.85781
G01 X5.49056 Y-2.86011
G01 X5.57190 Y-2.94146
G01 X5.57281 Y-2.94227
G01 X5.57418 Y-2.94316
G01 X5.57566 Y-2.94381
G01 X5.57724 Y-2.94421
G01 X5.57886 Y-2.94434
G01 X5.58826 Y-2.94433
G01 X5.59028 Y-2.94404
G01 X5.59220 Y-2.94333
G01 X5.59393 Y-2.94224
G01 X5.59540 Y-2.94081
G01 X5.59634 Y-2.93947
G01 X5.59796 Y-2.93616
G01 X5.59916 Y-2.93412
G01 X5.60074 Y-2.93187
G01 X5.60395 Y-2.92838
G01 X5.60603 Y-2.92662
G01 X5.60826 Y-2.92506
G01 X5.61025 Y-2.92391
G01 X5.61330 Y-2.92252
G01 X5.61675 Y-2.92142
G01 X5.62028 Y-2.92075
G01 X5.62381 Y-2.92051
G01 X5.62820 Y-2.92080
G01 X5.63242 Y-2.92172
G01 X5.63648 Y-2.92327
G01 X5.64042 Y-2.92549
G01 X5.64371 Y-2.92804
G01 X5.64673 Y-2.93120
G01 X5.64927 Y-2.93476
G01 X5.65167 Y-2.93943
G01 X5.65316 Y-2.94139
G01 X5.65474 Y-2.94270
G01 X5.65618 Y-2.94349
G01 X5.65774 Y-2.94403
G01 X5.65936 Y-2.94431
G01 X5.96380 Y-2.94433
G01 X5.96541 Y-2.94413
G01 X5.96735 Y-2.94351
G01 X5.96878 Y-2.94274
G01 X5.97035 Y-2.94146
G01 X6.12668 Y-2.78514
G01 X6.12803 Y-2.78406
G01 X6.12965 Y-2.78341
G01 X6.13123 Y-2.78325
G01 X6.62380 Y-2.78327
G01 X6.62579 Y-2.78369
G01 X6.62676 Y-2.78420
G01 X6.62782 Y-2.78504
G01 X6.75255 Y-2.90975
G01 X6.75349 Y-2.91089
G01 X6.75433 Y-2.91276
G01 X6.75450 Y-2.91397
G01 X6.75444 Y-2.98674
G01 X6.75398 Y-2.98829
G01 X6.75255 Y-2.99025
G01 X6.56740 Y-3.17536
G01 X6.56665 Y-3.17594
G01 X6.56562 Y-3.17648
G01 X6.56397 Y-3.17687
G01 X6.51845 Y-3.17692
G01 X6.51681 Y-3.17706
G01 X6.51446 Y-3.17777
G01 X6.51235 Y-3.17904
G01 X6.51115 Y-3.18016
G01 X6.50915 Y-3.18274
G01 X6.50786 Y-3.18409
G01 X6.50490 Y-3.18636
G01 X6.50153 Y-3.18796
G01 X6.49793 Y-3.18881
G01 X6.49546 Y-3.18898
G01 X6.45164 Y-3.18894
G01 X6.44877 Y-3.18858
G01 X6.44632 Y-3.18789
G01 X6.44380 Y-3.18674
G01 X6.44167 Y-3.18535
G01 X6.43962 Y-3.18352
G01 X6.43787 Y-3.18140
G01 X6.43656 Y-3.17922
G01 X6.43552 Y-3.17667
G01 X6.43489 Y-3.17402
G01 X6.43467 Y-3.17128
G01 X6.43485 Y-3.16874
G01 X6.43546 Y-3.16605
G01 X6.43646 Y-3.16352
G01 X6.43785 Y-3.16114
G01 X6.43945 Y-3.15917
G01 X6.44151 Y-3.15729
G01 X6.44349 Y-3.15595
G01 X6.44583 Y-3.15482
G01 X6.44832 Y-3.15404
G01 X6.45082 Y-3.15363
G01 X6.45259 Y-3.15354
G01 X6.49647 Y-3.15358
G01 X6.49869 Y-3.15382
G01 X6.50064 Y-3.15427
G01 X6.50253 Y-3.15494
G01 X6.50434 Y-3.15583
G01 X6.50604 Y-3.15691
G01 X6.50760 Y-3.15818
G01 X6.50900 Y-3.15961
G01 X6.51119 Y-3.16240
G01 X6.51271 Y-3.16375
G01 X6.51486 Y-3.16492
G01 X6.51643 Y-3.16539
G01 X6.51764 Y-3.16557
G01 X6.55752 Y-3.16559
G01 X6.55913 Y-3.16539
G01 X6.56031 Y-3.16507
G01 X6.56180 Y-3.16441
G01 X6.56283 Y-3.16377
G01 X6.56407 Y-3.16272
G01 X6.74032 Y-2.98647
G01 X6.74160 Y-2.98489
G01 X6.74238 Y-2.98346
G01 X6.74300 Y-2.98153
G01 X6.74321 Y-2.97951
G01 X6.74321 Y-2.92049
G01 X6.74307 Y-2.91887
G01 X6.74280 Y-2.91768
G01 X6.74221 Y-2.91617
G01 X6.74160 Y-2.91511
G01 X6.74032 Y-2.91353
G01 X6.62424 Y-2.79745
G01 X6.62267 Y-2.79617
G01 X6.62124 Y-2.79540
G01 X6.61930 Y-2.79478
G01 X6.61728 Y-2.79457
G01 X6.13732 Y-2.79457
G01 X6.13570 Y-2.79470
G01 X6.13413 Y-2.79510
G01 X6.13264 Y-2.79575
G01 X6.13128 Y-2.79664
G01 X6.13036 Y-2.79745
G01 X5.97404 Y-2.95377
G01 X5.97298 Y-2.95466
G01 X5.97163 Y-2.95531
G01 X5.96943 Y-2.95566
G01 X5.65938 Y-2.95569
G01 X5.65780 Y-2.95595
G01 X5.65629 Y-2.95646
G01 X5.65454 Y-2.95743
G01 X5.65331 Y-2.95846
G01 X5.65181 Y-2.96033
G01 X5.64933 Y-2.96511
G01 X5.64692 Y-2.96856
G01 X5.64405 Y-2.97163
G01 X5.64078 Y-2.97425
G01 X5.63717 Y-2.97638
G01 X5.63330 Y-2.97798
G01 X5.62923 Y-2.97902
G01 X5.62489 Y-2.97948
G01 X5.62057 Y-2.97930
G01 X5.61818 Y-2.97892
G01 X5.61418 Y-2.97781
G01 X5.61207 Y-2.97697
G01 X5.60812 Y-2.97484
G01 X5.60625 Y-2.97355
G01 X5.60312 Y-2.97082
G01 X5.60020 Y-2.96741
G01 X5.59884 Y-2.96537
G01 X5.59636 Y-2.96057
G01 X5.59542 Y-2.95922
G01 X5.59363 Y-2.95753
G01 X5.59185 Y-2.95651
G01 X5.59029 Y-2.95596
G01 X5.58826 Y-2.95567
G01 X5.57170 Y-2.95559
G01 X5.57028 Y-2.95521
G01 X5.56901 Y-2.95447
G01 X5.48255 Y-2.86812
G01 X5.48058 Y-2.86671
G01 X5.47832 Y-2.86582
G01 X5.47592 Y-2.86551
G01 X5.47273 Y-2.86573
G01 X5.47106 Y-2.86567
G01 X5.46904 Y-2.86536
G01 X5.46581 Y-2.86427
G01 X5.46432 Y-2.86348
G01 X5.46264 Y-2.86231
G01 X5.46135 Y-2.86116
G01 X5.45935 Y-2.85872
G01 X5.45775 Y-2.85563
G01 X5.45692 Y-2.85258
G01 X5.45673 Y-2.85086
G04 P0 ( dwell for no time -- G64 should not smooth over this point )
G00 Z0.08000 ( retract )

G00 X5.21225 Y-2.95005 ( rapid move to begin. )
G01 F180.00000
( Mill infeed pass 1/1 )
G01 Z-0.04000
G04 P0 ( dwell for no time -- G64 should not smooth over this point )
G01 F360.00000
G01 X5.21225 Y-2.95005
G01 X5.21248 Y-2.95231
G01 X5.21314 Y-2.95448
G01 X5.21282 Y-2.95461
G01 X5.21314 Y-2.95448
G01 X5.21420 Y-2.95648
G01 X5.21567 Y-2.95830
G01 X5.21549 Y-2.95847
G01 X5.21567 Y-2.95830
G01 X5.21825 Y-2.96035
G01 X5.22131 Y-2.96176
G01 X5.22402 Y-2.96338
G01 X5.22431 Y-2.96319
G01 X5.22436 Y-2.96539
G01 X5.22431 Y-2.96319
G01 X5.22672 Y-2.96176
G01 X5.23055 Y-2.95978
G01 X5.23062 Y-2.95988
G01 X5.23055 Y-2.95978
G01 X5.23161 Y-2.95898
G01 X5.23303 Y-2.95755
G01 X5.23318 Y-2.95768
G01 X5.23303 Y-2.95755
G01 X5.23383 Y-2.95648
G01 X5.23489 Y-2.95448
G01 X5.23514 Y-2.95458
G01 X5.23489 Y-2.95448
G01 X5.23555 Y-2.95231
G01 X5.23578 Y-2.95005
G01 X5.23620 Y-2.95004
G01 X5.23578 Y-2.95005
G01 X5.23558 Y-2.94786
G01 X5.23529 Y-2.94666
G01 X5.23414 Y-2.94324
G01 X5.23348 Y-2.94054
G01 X5.23564 Y-2.93837
G01 X5.23348 Y-2.94054
G01 X5.23084 Y-2.93990
G01 X5.22726 Y-2.93870
G01 X5.22610 Y-2.93843
G01 X5.22391 Y-2.93824
G01 X5.22391 Y-2.93779
G01 X5.22391 Y-2.93824
G01 X5.22147 Y-2.93852
G01 X5.21937 Y-2.93919
G01 X5.21923 Y-2.93886
G01 X5.21937 Y-2.93919
G01 X5.21717 Y-2.94043
G01 X5.21551 Y-2.94188
G01 X5.21526 Y-2.94163
G01 X5.21551 Y-2.94188
G01 X5.21411 Y-2.94366
G01 X5.21305 Y-2.94574
G01 X5.21274 Y-2.94562
G01 X5.21305 Y-2.94574
G01 X5.21245 Y-2.94786
G01 X5.21225 Y-2.95005
G01 X5.19452 Y-2.95027
G01 X5.19461 Y-2.94763
G01 X5.19501 Y-2.94463
G01 X5.19571 Y-2.94169
G01 X5.19657 Y-2.93919
G01 X5.19783 Y-2.93641
G01 X5.19917 Y-2.93410
G01 X5.20071 Y-2.93192
G01 X5.20269 Y-2.92963
G01 X5.20488 Y-2.92755
G01 X5.20697 Y-2.92592
G01 X5.20953 Y-2.92431
G01 X5.21223 Y-2.92296
G01 X5.21471 Y-2.92201
G01 X5.21762 Y-2.92121
G01 X5.22057 Y-2.92071
G01 X5.22359 Y-2.92051
G01 X5.22624 Y-2.92059
G01 X5.22924 Y-2.92097
G01 X5.23216 Y-2.92165
G01 X5.23622 Y-2.92301
G01 X5.23863 Y-2.92331
G01 X5.24025 Y-2.92317
G01 X5.24144 Y-2.92290
G01 X5.24295 Y-2.92231
G01 X5.24434 Y-2.92148
G01 X5.24558 Y-2.92043
G01 X5.32058 Y-2.84556
G01 X5.32125 Y-2.84509
G01 X5.32325 Y-2.84442
G01 X5.34846 Y-2.84434
G01 X5.34967 Y-2.84426
G01 X5.35126 Y-2.84393
G01 X5.35277 Y-2.84333
G01 X5.35416 Y-2.84250
G01 X5.35540 Y-2.84145
G01 X5.35644 Y-2.84021
G01 X5.35727 Y-2.83881
G01 X5.35786 Y-2.83730
G01 X5.35819 Y-2.83571
G01 X5.35827 Y-2.83425
G01 X5.38976 Y-2.83425
G01 X5.38976 Y-2.86575
G01 X5.35827 Y-2.86575
G01 X5.35819 Y-2.86428
G01 X5.35786 Y-2.86269
G01 X5.35727 Y-2.86118
G01 X5.35643 Y-2.85978
G01 X5.35538 Y-2.85854
G01 X5.35414 Y-2.85749
G01 X5.35275 Y-2.85666
G01 X5.35123 Y-2.85607
G01 X5.35004 Y-2.85579
G01 X5.34842 Y-2.85566
G01 X5.33003 Y-2.85567
G01 X5.32802 Y-2.85596
G01 X5.32611 Y-2.85666
G01 X5.32472 Y-2.85749
G01 X5.32348 Y-2.85854
G01 X5.25359 Y-2.92842
G01 X5.25254 Y-2.92967
G01 X5.25170 Y-2.93107
G01 X5.25111 Y-2.93258
G01 X5.25084 Y-2.93378
G01 X5.25074 Y-2.93621
G01 X5.25101 Y-2.93782
G01 X5.25232 Y-2.94170
G01 X5.25302 Y-2.94463
G01 X5.25342 Y-2.94763
G01 X5.25351 Y-2.95027
G01 X5.25332 Y-2.95332
G01 X5.25291 Y-2.95593
G01 X5.25214 Y-2.95888
G01 X5.25123 Y-2.96137
G01 X5.24991 Y-2.96412
G01 X5.24854 Y-2.96638
G01 X5.24672 Y-2.96882
G01 X5.24493 Y-2.97080
G01 X5.24296 Y-2.97261
G01 X5.24052 Y-2.97444
G01 X5.23826 Y-2.97583
G01 X5.23448 Y-2.97771
G01 X5.23316 Y-2.97865
G01 X5.23228 Y-2.97950
G01 X5.23128 Y-2.98078
G01 X5.23050 Y-2.98221
G01 X5.22997 Y-2.98375
G01 X5.22971 Y-2.98535
G01 X5.22968 Y-3.17420
G01 X5.22988 Y-3.17581
G01 X5.23035 Y-3.17737
G01 X5.23128 Y-3.17917
G01 X5.23227 Y-3.18046
G01 X5.29326 Y-3.24146
G01 X5.29418 Y-3.24227
G01 X5.29554 Y-3.24316
G01 X5.29741 Y-3.24393
G01 X5.29982 Y-3.24433
G01 X5.32957 Y-3.24434
G01 X5.33162 Y-3.24413
G01 X5.33357 Y-3.24349
G01 X5.33568 Y-3.24222
G01 X5.33688 Y-3.24110
G01 X5.33887 Y-3.23854
G01 X5.34027 Y-3.23707
G01 X5.34182 Y-3.23578
G01 X5.34350 Y-3.23468
G01 X5.34530 Y-3.23377
G01 X5.34719 Y-3.23307
G01 X5.34914 Y-3.23259
G01 X5.35108 Y-3.23235
G01 X5.39700 Y-3.23236
G01 X5.39926 Y-3.23267
G01 X5.40130 Y-3.23322
G01 X5.40347 Y-3.23411
G01 X5.40525 Y-3.23513
G01 X5.40748 Y-3.23684
G01 X5.40938 Y-3.23883
G01 X5.41084 Y-3.24091
G01 X5.41207 Y-3.24337
G01 X5.41289 Y-3.24597
G01 X5.41331 Y-3.24867
G01 X5.41330 Y-3.25140
G01 X5.41287 Y-3.25409
G01 X5.41204 Y-3.25669
G01 X5.41082 Y-3.25913
G01 X5.40923 Y-3.26135
G01 X5.40732 Y-3.26330
G01 X5.40512 Y-3.26495
G01 X5.40288 Y-3.26615
G01 X5.40029 Y-3.26707
G01 X5.39749 Y-3.26760
G01 X5.39550 Y-3.26772
G01 X5.35266 Y-3.26772
G01 X5.35017 Y-3.26756
G01 X5.34657 Y-3.26673
G01 X5.34319 Y-3.26514
G01 X5.34022 Y-3.26288
G01 X5.33894 Y-3.26154
G01 X5.33687 Y-3.25889
G01 X5.33567 Y-3.25777
G01 X5.33394 Y-3.25668
G01 X5.33162 Y-3.25587
G01 X5.32958 Y-3.25566
G01 X5.29377 Y-3.25564
G01 X5.29235 Y-3.25541
G01 X5.29114 Y-3.25495
G01 X5.28953 Y-3.25373
G01 X5.22014 Y-3.18433
G01 X5.21926 Y-3.18322
G01 X5.21887 Y-3.18250
G01 X5.21844 Y-3.18092
G01 X5.21828 Y-2.98495
G01 X5.21795 Y-2.98335
G01 X5.21736 Y-2.98184
G01 X5.21652 Y-2.98044
G01 X5.21547 Y-2.97920
G01 X5.21355 Y-2.97771
G01 X5.20977 Y-2.97583
G01 X5.20751 Y-2.97444
G01 X5.20507 Y-2.97261
G01 X5.20310 Y-2.97080
G01 X5.20131 Y-2.96882
G01 X5.19949 Y-2.96638
G01 X5.19812 Y-2.96412
G01 X5.19680 Y-2.96137
G01 X5.19589 Y-2.95888
G01 X5.19512 Y-2.95593
G01 X5.19471 Y-2.95332
G01 X5.19452 Y-2.95027
G04 P0 ( dwell for no time -- G64 should not smooth over this point )
G00 Z0.08000 ( retract )

G00 X5.19452 Y-2.55000 ( rapid move to begin. )
G01 F180.00000
( Mill infeed pass 1/1 )
G01 Z-0.04000
G04 P0 ( dwell for no time -- G64 should not smooth over this point )
G01 F360.00000
G01 X5.19452 Y-2.55000
G01 X5.19464 Y-2.54733
G01 X5.19507 Y-2.54431
G01 X5.19571 Y-2.54171
G01 X5.19657 Y-2.53919
G01 X5.19783 Y-2.53641
G01 X5.19917 Y-2.53410
G01 X5.20071 Y-2.53192
G01 X5.20269 Y-2.52963
G01 X5.20488 Y-2.52755
G01 X5.20697 Y-2.52592
G01 X5.20955 Y-2.52429
G01 X5.21191 Y-2.52310
G01 X5.21475 Y-2.52199
G01 X5.21730 Y-2.52128
G01 X5.22030 Y-2.52074
G01 X5.22302 Y-2.52052
G01 X5.22746 Y-2.52070
G01 X5.23187 Y-2.52156
G01 X5.23596 Y-2.52303
G01 X5.23978 Y-2.52509
G01 X5.24328 Y-2.52766
G01 X5.24636 Y-2.53073
G01 X5.24904 Y-2.53437
G01 X5.25181 Y-2.53960
G01 X5.25338 Y-2.54147
G01 X5.25502 Y-2.54269
G01 X5.25648 Y-2.54341
G01 X5.25805 Y-2.54388
G01 X5.25967 Y-2.54408
G01 X5.58796 Y-2.54409
G01 X5.59036 Y-2.54379
G01 X5.59189 Y-2.54327
G01 X5.59332 Y-2.54250
G01 X5.59544 Y-2.54064
G01 X5.59639 Y-2.53933
G01 X5.59825 Y-2.53563
G01 X5.59965 Y-2.53337
G01 X5.60150 Y-2.53094
G01 X5.60330 Y-2.52900
G01 X5.60558 Y-2.52698
G01 X5.60772 Y-2.52542
G01 X5.61034 Y-2.52386
G01 X5.61274 Y-2.52274
G01 X5.61561 Y-2.52173
G01 X5.61818 Y-2.52109
G01 X5.62120 Y-2.52064
G01 X5.62387 Y-2.52050
G01 X5.62654 Y-2.52061
G01 X5.62955 Y-2.52103
G01 X5.63213 Y-2.52164
G01 X5.63622 Y-2.52301
G01 X5.63742 Y-2.52323
G01 X5.63904 Y-2.52330
G01 X5.64065 Y-2.52310
G01 X5.64221 Y-2.52263
G01 X5.64332 Y-2.52212
G01 X5.64468 Y-2.52123
G01 X5.76639 Y-2.39962
G01 X5.76746 Y-2.39879
G01 X5.76831 Y-2.39834
G01 X5.76956 Y-2.39797
G01 X5.77097 Y-2.39784
G01 X6.12713 Y-2.39784
G01 X6.12905 Y-2.39808
G01 X6.13070 Y-2.39886
G01 X6.13159 Y-2.39958
G01 X6.25304 Y-2.52097
G01 X6.25436 Y-2.52192
G01 X6.25582 Y-2.52263
G01 X6.25738 Y-2.52310
G01 X6.25899 Y-2.52330
G01 X6.26021 Y-2.52327
G01 X6.26181 Y-2.52301
G01 X6.26590 Y-2.52164
G01 X6.26848 Y-2.52103
G01 X6.27149 Y-2.52061
G01 X6.27416 Y-2.52050
G01 X6.27683 Y-2.52064
G01 X6.27985 Y-2.52109
G01 X6.28242 Y-2.52173
G01 X6.28529 Y-2.52274
G01 X6.28769 Y-2.52386
G01 X6.29031 Y-2.52542
G01 X6.29245 Y-2.52698
G01 X6.29473 Y-2.52900
G01 X6.29653 Y-2.53094
G01 X6.29838 Y-2.53337
G01 X6.29978 Y-2.53563
G01 X6.30164 Y-2.53933
G01 X6.30286 Y-2.54094
G01 X6.30405 Y-2.54203
G01 X6.30541 Y-2.54292
G01 X6.30689 Y-2.54356
G01 X6.30846 Y-2.54396
G01 X6.31007 Y-2.54409
G01 X6.63877 Y-2.54406
G01 X6.64038 Y-2.54379
G01 X6.64193 Y-2.54326
G01 X6.64370 Y-2.54224
G01 X6.64494 Y-2.54119
G01 X6.64643 Y-2.53925
G01 X6.64899 Y-2.53437
G01 X6.65167 Y-2.53073
G01 X6.65475 Y-2.52766
G01 X6.65825 Y-2.52509
G01 X6.66207 Y-2.52303
G01 X6.66616 Y-2.52156
G01 X6.67057 Y-2.52070
G01 X6.67501 Y-2.52052
G01 X6.67773 Y-2.52074
G01 X6.68073 Y-2.52128
G01 X6.68328 Y-2.52199
G01 X6.68612 Y-2.52310
G01 X6.68848 Y-2.52429
G01 X6.69106 Y-2.52592
G01 X6.69315 Y-2.52755
G01 X6.69534 Y-2.52963
G01 X6.69732 Y-2.53192
G01 X6.69886 Y-2.53410
G01 X6.70020 Y-2.53641
G01 X6.70146 Y-2.53919
G01 X6.70232 Y-2.54171
G01 X6.70296 Y-2.54431
G01 X6.70339 Y-2.54733
G01 X6.70351 Y-2.55000
G01 X6.70339 Y-2.55267
G01 X6.70296 Y-2.55569
G01 X6.70232 Y-2.55828
G01 X6.70146 Y-2.56081
G01 X6.70020 Y-2.56359
G01 X6.69886 Y-2.56590
G01 X6.69730 Y-2.56811
G01 X6.69555 Y-2.57016
G01 X6.69362 Y-2.57204
G01 X6.69154 Y-2.57372
G01 X6.68900 Y-2.57540
G01 X6.68666 Y-2.57665
G01 X6.68384 Y-2.57781
G01 X6.68129 Y-2.57859
G01 X6.67864 Y-2.57913
G01 X6.67594 Y-2.57944
G01 X6.67149 Y-2.57939
G01 X6.66706 Y-2.57867
G01 X6.66278 Y-2.57728
G01 X6.65875 Y-2.57524
G01 X6.65509 Y-2.57263
G01 X6.65189 Y-2.56951
G01 X6.64918 Y-2.56592
G01 X6.64643 Y-2.56075
G01 X6.64549 Y-2.55942
G01 X6.64465 Y-2.55853
G01 X6.64301 Y-2.55731
G01 X6.64155 Y-2.55659
G01 X6.63958 Y-2.55604
G01 X6.63796 Y-2.55591
G01 X6.30967 Y-2.55592
G01 X6.30769 Y-2.55620
G01 X6.30617 Y-2.55671
G01 X6.30442 Y-2.55769
G01 X6.30319 Y-2.55871
G01 X6.30169 Y-2.56059
G01 X6.29947 Y-2.56489
G01 X6.29768 Y-2.56760
G01 X6.29532 Y-2.57039
G01 X6.29293 Y-2.57262
G01 X6.29031 Y-2.57458
G01 X6.28718 Y-2.57639
G01 X6.28384 Y-2.57780
G01 X6.28070 Y-2.57872
G01 X6.27746 Y-2.57929
G01 X6.27416 Y-2.57949
G01 X6.27090 Y-2.57932
G01 X6.26730 Y-2.57872
G01 X6.26419 Y-2.57780
G01 X6.26083 Y-2.57638
G01 X6.25801 Y-2.57477
G01 X6.25398 Y-2.57184
G01 X6.25218 Y-2.57097
G01 X6.25064 Y-2.57054
G01 X6.24865 Y-2.57037
G01 X6.24666 Y-2.57061
G01 X6.24513 Y-2.57108
G01 X6.03851 Y-2.67435
G01 X6.03713 Y-2.67519
G01 X6.03563 Y-2.67654
G01 X6.03465 Y-2.67781
G01 X6.03389 Y-2.67923
G01 X6.03337 Y-2.68076
G01 X6.03308 Y-2.68275
G01 X6.03307 Y-2.80316
G01 X5.91496 Y-2.80316
G01 X5.91496 Y-2.68504
G01 X5.98840 Y-2.68504
G01 X5.99046 Y-2.68482
G01 X5.99204 Y-2.68434
G01 X6.23912 Y-2.56084
G01 X6.24113 Y-2.55950
G01 X6.24252 Y-2.55804
G01 X6.24358 Y-2.55633
G01 X6.24427 Y-2.55443
G01 X6.24453 Y-2.55284
G01 X6.24456 Y-2.54852
G01 X6.24491 Y-2.54522
G01 X6.24563 Y-2.54199
G01 X6.24703 Y-2.53777
G01 X6.24732 Y-2.53577
G01 X6.24719 Y-2.53375
G01 X6.24679 Y-2.53218
G01 X6.24613 Y-2.53069
G01 X6.24499 Y-2.52902
G01 X6.12805 Y-2.41204
G01 X6.12613 Y-2.41054
G01 X6.12390 Y-2.40957
G01 X6.12271 Y-2.40929
G01 X6.12109 Y-2.40916
G01 X5.77694 Y-2.40916
G01 X5.77532 Y-2.40929
G01 X5.77374 Y-2.40969
G01 X5.77155 Y-2.41076
G01 X5.76998 Y-2.41204
G01 X5.65304 Y-2.52902
G01 X5.65210 Y-2.53033
G01 X5.65139 Y-2.53178
G01 X5.65093 Y-2.53332
G01 X5.65072 Y-2.53492
G01 X5.65099 Y-2.53773
G01 X5.65248 Y-2.54230
G01 X5.65316 Y-2.54552
G01 X5.65348 Y-2.54880
G01 X5.65343 Y-2.55207
G01 X5.65295 Y-2.55569
G01 X5.65215 Y-2.55886
G01 X5.65098 Y-2.56194
G01 X5.64948 Y-2.56487
G01 X5.64766 Y-2.56762
G01 X5.64555 Y-2.57015
G01 X5.64316 Y-2.57243
G01 X5.64054 Y-2.57443
G01 X5.63771 Y-2.57612
G01 X5.63473 Y-2.57747
G01 X5.63126 Y-2.57859
G01 X5.62798 Y-2.57923
G01 X5.62327 Y-2.57949
G01 X5.61850 Y-2.57898
G01 X5.61388 Y-2.57770
G01 X5.60953 Y-2.57570
G01 X5.60556 Y-2.57301
G01 X5.60207 Y-2.56972
G01 X5.59917 Y-2.56590
G01 X5.59643 Y-2.56075
G01 X5.59549 Y-2.55942
G01 X5.59465 Y-2.55853
G01 X5.59301 Y-2.55731
G01 X5.59155 Y-2.55659
G01 X5.58998 Y-2.55612
G01 X5.58836 Y-2.55592
G01 X5.26007 Y-2.55591
G01 X5.25845 Y-2.55604
G01 X5.25648 Y-2.55659
G01 X5.25502 Y-2.55731
G01 X5.25338 Y-2.55853
G01 X5.25254 Y-2.55942
G01 X5.25160 Y-2.56075
G01 X5.24885 Y-2.56592
G01 X5.24614 Y-2.56951
G01 X5.24294 Y-2.57263
G01 X5.23902 Y-2.57539
G01 X5.23499 Y-2.57738
G01 X5.23068 Y-2.57874
G01 X5.22626 Y-2.57941
G01 X5.22149 Y-2.57939
G01 X5.21879 Y-2.57903
G01 X5.21616 Y-2.57843
G01 X5.21360 Y-2.57760
G01 X5.21114 Y-2.57654
G01 X5.20847 Y-2.57507
G01 X5.20627 Y-2.57356
G01 X5.20419 Y-2.57184
G01 X5.20228 Y-2.56994
G01 X5.20055 Y-2.56787
G01 X5.19902 Y-2.56567
G01 X5.19754 Y-2.56301
G01 X5.19647 Y-2.56056
G01 X5.19562 Y-2.55800
G01 X5.19501 Y-2.55537
G01 X5.19464 Y-2.55269
G01 X5.19452 Y-2.55000
G01 X5.21225 Y-2.55000
G01 X5.21245 Y-2.55214
G01 X5.21303 Y-2.55421
G01 X5.21274 Y-2.55432
G01 X5.21303 Y-2.55421
G01 X5.21408 Y-2.55630
G01 X5.21534 Y-2.55795
G01 X5.21511 Y-2.55817
G01 X5.21534 Y-2.55795
G01 X5.21694 Y-2.55940
G01 X5.21894 Y-2.56061
G01 X5.21878 Y-2.56095
G01 X5.21894 Y-2.56061
G01 X5.22088 Y-2.56134
G01 X5.22396 Y-2.56177
G01 X5.22395 Y-2.56216
G01 X5.22396 Y-2.56177
G01 X5.22593 Y-2.56162
G01 X5.22840 Y-2.56093
G01 X5.22850 Y-2.56119
G01 X5.22840 Y-2.56093
G01 X5.23000 Y-2.56013
G01 X5.23157 Y-2.55903
G01 X5.23170 Y-2.55919
G01 X5.23157 Y-2.55903
G01 X5.23281 Y-2.55783
G01 X5.23389 Y-2.55641
G01 X5.23402 Y-2.55649
G01 X5.23389 Y-2.55641
G01 X5.23581 Y-2.55270
G01 X5.23746 Y-2.55000
G01 X5.23726 Y-2.54970
G01 X5.23955 Y-2.54966
G01 X5.23726 Y-2.54970
G01 X5.23581 Y-2.54730
G01 X5.23410 Y-2.54377
G01 X5.23197 Y-2.54133
G01 X5.23213 Y-2.54114
G01 X5.23197 Y-2.54133
G01 X5.23028 Y-2.54009
G01 X5.22788 Y-2.53888
G01 X5.22800 Y-2.53856
G01 X5.22788 Y-2.53888
G01 X5.22539 Y-2.53831
G01 X5.22374 Y-2.53823
G01 X5.22372 Y-2.53790
G01 X5.22374 Y-2.53823
G01 X5.22128 Y-2.53856
G01 X5.21913 Y-2.53930
G01 X5.21899 Y-2.53898
G01 X5.21913 Y-2.53930
G01 X5.21717 Y-2.54043
G01 X5.21551 Y-2.54188
G01 X5.21527 Y-2.54165
G01 X5.21551 Y-2.54188
G01 X5.21411 Y-2.54366
G01 X5.21305 Y-2.54574
G01 X5.21275 Y-2.54562
G01 X5.21305 Y-2.54574
G01 X5.21249 Y-2.54767
G01 X5.21225 Y-2.55000
G01 X5.61077 Y-2.55030
G01 X5.61222 Y-2.55270
G01 X5.61410 Y-2.55634
G01 X5.61401 Y-2.55641
G01 X5.61410 Y-2.55634
G01 X5.61526 Y-2.55787
G01 X5.61665 Y-2.55918
G01 X5.61647 Y-2.55942
G01 X5.61665 Y-2.55918
G01 X5.61823 Y-2.56025
G01 X5.62088 Y-2.56135
G01 X5.62080 Y-2.56163
G01 X5.62088 Y-2.56135
G01 X5.62276 Y-2.56170
G01 X5.62467 Y-2.56175
G01 X5.62470 Y-2.56208
G01 X5.62467 Y-2.56175
G01 X5.62684 Y-2.56140
G01 X5.62947 Y-2.56041
G01 X5.62961 Y-2.56069
G01 X5.62947 Y-2.56041
G01 X5.63164 Y-2.55894
G01 X5.63259 Y-2.55803
G01 X5.63285 Y-2.55826
G01 X5.63259 Y-2.55803
G01 X5.63416 Y-2.55593
G01 X5.63522 Y-2.55353
G01 X5.63556 Y-2.55364
G01 X5.63522 Y-2.55353
G01 X5.63574 Y-2.55077
G01 X5.63576 Y-2.54952
G01 X5.63608 Y-2.54950
G01 X5.63576 Y-2.54952
G01 X5.63536 Y-2.54696
G01 X5.63417 Y-2.54335
G01 X5.63348 Y-2.54054
G01 X5.63557 Y-2.53842
G01 X5.63348 Y-2.54054
G01 X5.63084 Y-2.53990
G01 X5.62720 Y-2.53868
G01 X5.62396 Y-2.53823
G01 X5.62396 Y-2.53780
G01 X5.62396 Y-2.53823
G01 X5.62163 Y-2.53848
G01 X5.61946 Y-2.53915
G01 X5.61933 Y-2.53884
G01 X5.61946 Y-2.53915
G01 X5.61747 Y-2.54023
G01 X5.61571 Y-2.54167
G01 X5.61554 Y-2.54149
G01 X5.61571 Y-2.54167
G01 X5.61369 Y-2.54420
G01 X5.61228 Y-2.54720
G01 X5.61057 Y-2.55000
G01 X5.61077 Y-2.55030
G04 P0 ( dwell for no time -- G64 should not smooth over this point )
G00 Z0.08000 ( retract )

G00 X5.74293 Y-2.62605 ( rapid move to begin. )
G01 F180.00000
( Mill infeed pass 1/1 )
G01 Z-0.04000
G04 P0 ( dwell for no time -- G64 should not smooth over this point )
G01 F360.00000
G01 X5.74293 Y-2.62605
G01 X5.74071 Y-2.62604
G01 X5.74292 Y-2.62602
G01 X5.74418 Y-2.62807
G01 X5.74542 Y-2.63058
G01 X5.74640 Y-2.63321
G01 X5.74710 Y-2.63593
G01 X5.74749 Y-2.63830
G01 X5.74767 Y-2.64150
G01 X5.74767 Y-2.66734
G01 X5.74256 Y-2.67249
G01 X5.74767 Y-2.66734
G01 X5.83036 Y-2.66734
G01 X5.83555 Y-2.67253
G01 X5.83036 Y-2.66734
G01 X5.83036 Y-2.58466
G01 X5.83555 Y-2.57947
G01 X5.83036 Y-2.58466
G01 X5.74767 Y-2.58466
G01 X5.74256 Y-2.57951
G01 X5.74767 Y-2.58466
G01 X5.74767 Y-2.61050
G01 X5.74749 Y-2.61370
G01 X5.74693 Y-2.61685
G01 X5.74587 Y-2.62029
G01 X5.74456 Y-2.62321
G01 X5.74290 Y-2.62600
G01 X5.76270 Y-2.62614
G01 X5.76419 Y-2.63115
G01 X5.76508 Y-2.63629
G01 X5.76537 Y-2.64029
G01 X5.76539 Y-2.64963
G01 X5.76045 Y-2.65468
G01 X5.76539 Y-2.64963
G01 X5.81264 Y-2.64963
G01 X5.81783 Y-2.65482
G01 X5.81264 Y-2.64963
G01 X5.81264 Y-2.60237
G01 X5.81783 Y-2.59718
G01 X5.81264 Y-2.60237
G01 X5.76539 Y-2.60237
G01 X5.76045 Y-2.59732
G01 X5.76539 Y-2.60237
G01 X5.76537 Y-2.61170
G01 X5.76508 Y-2.61571
G01 X5.76428 Y-2.62045
G01 X5.76270 Y-2.62614
G01 X5.78116 Y-2.62600
G01 X5.78237 Y-2.62008
G01 X5.77910 Y-2.61609
G01 X5.78237 Y-2.62008
G01 X5.79493 Y-2.62008
G01 X5.80012 Y-2.61490
G01 X5.79493 Y-2.62008
G01 X5.79493 Y-2.63191
G01 X5.80012 Y-2.63710
G01 X5.79493 Y-2.63191
G01 X5.78237 Y-2.63191
G01 X5.77910 Y-2.63591
G01 X5.78237 Y-2.63191
G01 X5.78116 Y-2.62600
G04 P0 ( dwell for no time -- G64 should not smooth over this point )
G00 Z0.08000 ( retract )

G00 X5.92460 Y-2.51233 ( rapid move to begin. )
G01 F180.00000
( Mill infeed pass 1/1 )
G01 Z-0.04000
G04 P0 ( dwell for no time -- G64 should not smooth over this point )
G01 F360.00000
G01 X5.92460 Y-2.51233
G01 X5.92444 Y-2.51218
G01 X5.92627 Y-2.51019
G01 X5.92817 Y-2.50762
G01 X5.93027 Y-2.50377
G01 X5.93115 Y-2.50155
G01 X5.93184 Y-2.49925
G01 X5.93232 Y-2.49690
G01 X5.93263 Y-2.49413
G01 X5.93267 Y-2.46656
G01 X5.92764 Y-2.46145
G01 X5.93267 Y-2.46656
G01 X6.01536 Y-2.46656
G01 X6.02055 Y-2.46137
G01 X6.01536 Y-2.46656
G01 X6.01536 Y-2.54924
G01 X6.02055 Y-2.55443
G01 X6.01536 Y-2.54924
G01 X5.93267 Y-2.54924
G01 X5.92749 Y-2.55443
G01 X5.93267 Y-2.54924
G01 X5.93267 Y-2.53142
G01 X5.93232 Y-2.52743
G01 X5.93151 Y-2.52392
G01 X5.93026 Y-2.52054
G01 X5.92857 Y-2.51735
G01 X5.92673 Y-2.51473
G01 X5.92460 Y-2.51233
G01 X5.92046 Y-2.51242
G01 X5.94602 Y-2.51242
G01 X5.94590 Y-2.51218
G01 X5.94740 Y-2.50869
G01 X5.94856 Y-2.50525
G01 X5.94927 Y-2.50252
G01 X5.94987 Y-2.49935
G01 X5.95036 Y-2.49414
G01 X5.95039 Y-2.48427
G01 X5.94558 Y-2.47929
G01 X5.95039 Y-2.48427
G01 X5.99764 Y-2.48427
G01 X6.00283 Y-2.47908
G01 X5.99764 Y-2.48427
G01 X5.99764 Y-2.53153
G01 X6.00283 Y-2.53672
G01 X5.99764 Y-2.53153
G01 X5.95038 Y-2.53153
G01 X5.94637 Y-2.53602
G01 X5.95038 Y-2.53153
G01 X5.95030 Y-2.52901
G01 X5.94960 Y-2.52345
G01 X5.94823 Y-2.51801
G01 X5.94602 Y-2.51242
G01 X5.94496 Y-2.51241
G01 X5.96292 Y-2.51727
G01 X5.96547 Y-2.51382
G01 X5.96507 Y-2.51253
G01 X5.96447 Y-2.51256
G01 X5.96507 Y-2.51253
G01 X5.96496 Y-2.51217
G01 X5.96636 Y-2.50723
G01 X5.96739 Y-2.50198
G01 X5.96424 Y-2.49807
G01 X5.96739 Y-2.50198
G01 X5.97993 Y-2.50198
G01 X5.98512 Y-2.49680
G01 X5.97993 Y-2.50198
G01 X5.97993 Y-2.51382
G01 X5.98512 Y-2.51900
G01 X5.97993 Y-2.51382
G01 X5.96547 Y-2.51382
G04 P0 ( dwell for no time -- G64 should not smooth over this point )
G00 Z0.08000 ( retract )

G00 X6.01536 Y-2.69253 ( rapid move to begin. )
G01 F180.00000
( Mill infeed pass 1/1 )
G01 Z-0.04000
G04 P0 ( dwell for no time -- G64 should not smooth over this point )
G01 F360.00000
G01 X6.01536 Y-2.69253
G01 X6.01536 Y-2.78544
G01 X6.02055 Y-2.79063
G01 X6.01536 Y-2.78544
G01 X5.93267 Y-2.78544
G01 X5.92748 Y-2.79063
G01 X5.93267 Y-2.78544
G01 X5.93267 Y-2.70276
G01 X5.92749 Y-2.69757
G01 X5.93267 Y-2.70276
G01 X5.98880 Y-2.70275
G01 X5.99119 Y-2.70261
G01 X5.99356 Y-2.70227
G01 X5.99665 Y-2.70149
G01 X5.99964 Y-2.70036
G01 X6.01536 Y-2.69253
G01 X6.02376 Y-2.67893
G01 X6.00351 Y-2.71292
G01 X5.98512 Y-2.73299
G01 X5.97993 Y-2.73818
G01 X5.97993 Y-2.75001
G01 X5.98512 Y-2.75520
G01 X5.97993 Y-2.75001
G01 X5.96810 Y-2.75001
G01 X5.96291 Y-2.75520
G01 X5.96810 Y-2.75001
G01 X5.96810 Y-2.73818
G01 X5.96291 Y-2.73299
G01 X5.96810 Y-2.73818
G01 X5.97993 Y-2.73818
G01 X5.98512 Y-2.73299
G01 X6.00351 Y-2.71292
G01 X5.99762 Y-2.71952
G01 X5.99403 Y-2.72012
G01 X5.99041 Y-2.72043
G01 X5.95039 Y-2.72047
G01 X5.94520 Y-2.71528
G01 X5.95039 Y-2.72047
G01 X5.95039 Y-2.76773
G01 X5.94520 Y-2.77292
G01 X5.95039 Y-2.76773
G01 X5.99764 Y-2.76773
G01 X6.00284 Y-2.77292
G01 X5.99764 Y-2.76773
G01 X5.99762 Y-2.71952
G01 X6.00351 Y-2.71292
G01 X6.02376 Y-2.67893
G01 X6.26199 Y-2.55601
G01 X6.26417 Y-2.55734
G01 X6.26769 Y-2.55990
G01 X6.26871 Y-2.56048
G01 X6.26862 Y-2.56066
G01 X6.26871 Y-2.56048
G01 X6.27016 Y-2.56109
G01 X6.27283 Y-2.56169
G01 X6.27280 Y-2.56205
G01 X6.27283 Y-2.56169
G01 X6.27539 Y-2.56167
G01 X6.27787 Y-2.56109
G01 X6.27803 Y-2.56153
G01 X6.27787 Y-2.56109
G01 X6.28056 Y-2.55976
G01 X6.28246 Y-2.55816
G01 X6.28279 Y-2.55849
G01 X6.28246 Y-2.55816
G01 X6.28414 Y-2.55596
G01 X6.28607 Y-2.55221
G01 X6.28746 Y-2.55000
G01 X6.29055 Y-2.54999
G01 X6.28746 Y-2.55000
G01 X6.28594 Y-2.54755
G01 X6.28427 Y-2.54424
G01 X6.28232 Y-2.54167
G01 X6.28261 Y-2.54138
G01 X6.28232 Y-2.54167
G01 X6.28056 Y-2.54023
G01 X6.27857 Y-2.53915
G01 X6.27870 Y-2.53884
G01 X6.27857 Y-2.53915
G01 X6.27640 Y-2.53848
G01 X6.27407 Y-2.53823
G01 X6.27408 Y-2.53798
G01 X6.27407 Y-2.53823
G01 X6.27081 Y-2.53860
G01 X6.26757 Y-2.53978
G01 X6.26455 Y-2.54054
G01 X6.26450 Y-2.54079
G01 X6.26283 Y-2.53919
G01 X6.26450 Y-2.54079
G01 X6.26382 Y-2.54350
G01 X6.26271 Y-2.54678
G01 X6.26242 Y-2.54810
G01 X6.26231 Y-2.54808
G01 X6.26242 Y-2.54810
G01 X6.26227 Y-2.54947
G01 X6.26225 Y-2.55323
G01 X6.26199 Y-2.55601
G01 X6.66077 Y-2.55030
G01 X6.65819 Y-2.55028
G01 X6.66077 Y-2.55030
G01 X6.66222 Y-2.55270
G01 X6.66414 Y-2.55641
G01 X6.66405 Y-2.55647
G01 X6.66414 Y-2.55641
G01 X6.66522 Y-2.55783
G01 X6.66646 Y-2.55903
G01 X6.66633 Y-2.55919
G01 X6.66646 Y-2.55903
G01 X6.66792 Y-2.56008
G01 X6.66959 Y-2.56091
G01 X6.66949 Y-2.56115
G01 X6.66959 Y-2.56091
G01 X6.67130 Y-2.56146
G01 X6.67377 Y-2.56177
G01 X6.67377 Y-2.56217
G01 X6.67377 Y-2.56177
G01 X6.67692 Y-2.56140
G01 X6.67911 Y-2.56060
G01 X6.67927 Y-2.56096
G01 X6.67911 Y-2.56060
G01 X6.68105 Y-2.55942
G01 X6.68260 Y-2.55804
G01 X6.68284 Y-2.55826
G01 X6.68260 Y-2.55804
G01 X6.68392 Y-2.55634
G01 X6.68498 Y-2.55425
G01 X6.68527 Y-2.55437
G01 X6.68498 Y-2.55425
G01 X6.68554 Y-2.55233
G01 X6.68578 Y-2.55000
G01 X6.68609 Y-2.55000
G01 X6.68578 Y-2.55000
G01 X6.68554 Y-2.54767
G01 X6.68498 Y-2.54574
G01 X6.68528 Y-2.54562
G01 X6.68498 Y-2.54574
G01 X6.68392 Y-2.54366
G01 X6.68252 Y-2.54188
G01 X6.68276 Y-2.54165
G01 X6.68252 Y-2.54188
G01 X6.68086 Y-2.54043
G01 X6.67890 Y-2.53930
G01 X6.67905 Y-2.53894
G01 X6.67890 Y-2.53930
G01 X6.67675 Y-2.53856
G01 X6.67367 Y-2.53823
G01 X6.67366 Y-2.53785
G01 X6.67367 Y-2.53823
G01 X6.67163 Y-2.53847
G01 X6.66959 Y-2.53910
G01 X6.66946 Y-2.53881
G01 X6.66959 Y-2.53910
G01 X6.66775 Y-2.54009
G01 X6.66562 Y-2.54175
G01 X6.66526 Y-2.54141
G01 X6.66562 Y-2.54175
G01 X6.66462 Y-2.54291
G01 X6.66363 Y-2.54445
G01 X6.66203 Y-2.54765
G01 X6.66057 Y-2.55000
G01 X6.66077 Y-2.55030
G04 P0 ( dwell for no time -- G64 should not smooth over this point )
G00 Z0.08000 ( retract )

G00 X6.66453 Y-2.94064 ( rapid move to begin. )
G01 F180.00000
( Mill infeed pass 1/1 )
G01 Z-0.04000
G04 P0 ( dwell for no time -- G64 should not smooth over this point )
G01 F360.00000
G01 X6.66453 Y-2.94064
G01 X6.67130 Y-2.93859
G01 X6.67128 Y-2.93844
G01 X6.67130 Y-2.93859
G01 X6.67270 Y-2.93834
G01 X6.67450 Y-2.93828
G01 X6.67590 Y-2.93842
G01 X6.67596 Y-2.93806
G01 X6.67590 Y-2.93842
G01 X6.67766 Y-2.93885
G01 X6.67904 Y-2.93940
G01 X6.68039 Y-2.94015
G01 X6.68054 Y-2.93991
G01 X6.68039 Y-2.94015
G01 X6.68158 Y-2.94103
G01 X6.68312 Y-2.94255
G01 X6.68330 Y-2.94240
G01 X6.68312 Y-2.94255
G01 X6.68432 Y-2.94431
G01 X6.68507 Y-2.94594
G01 X6.68535 Y-2.94584
G01 X6.68507 Y-2.94594
G01 X6.68556 Y-2.94767
G01 X6.68578 Y-2.95048
G01 X6.68616 Y-2.95050
G01 X6.68578 Y-2.95048
G01 X6.68540 Y-2.95301
G01 X6.68456 Y-2.95519
G01 X6.68483 Y-2.95532
G01 X6.68456 Y-2.95519
G01 X6.68388 Y-2.95640
G01 X6.68234 Y-2.95829
G01 X6.68252 Y-2.95846
G01 X6.68234 Y-2.95829
G01 X6.68030 Y-2.95993
G01 X6.67915 Y-2.96057
G01 X6.67929 Y-2.96087
G01 X6.67915 Y-2.96057
G01 X6.67661 Y-2.96146
G01 X6.67419 Y-2.96175
G01 X6.67420 Y-2.96219
G01 X6.67419 Y-2.96175
G01 X6.67158 Y-2.96150
G01 X6.66909 Y-2.96067
G01 X6.66894 Y-2.96102
G01 X6.66909 Y-2.96067
G01 X6.66697 Y-2.95943
G01 X6.66551 Y-2.95813
G01 X6.66530 Y-2.95833
G01 X6.66551 Y-2.95813
G01 X6.66413 Y-2.95639
G01 X6.66328 Y-2.95483
G01 X6.66302 Y-2.95494
G01 X6.66328 Y-2.95483
G01 X6.66257 Y-2.95273
G01 X6.66226 Y-2.95053
G01 X6.66204 Y-2.95054
G01 X6.66226 Y-2.95053
G01 X6.66240 Y-2.94761
G01 X6.66385 Y-2.94337
G01 X6.66453 Y-2.94064
G01 X6.66280 Y-2.93893
G04 P0 ( dwell for no time -- G64 should not smooth over this point )
G00 Z0.08000 ( retract )

G00 X6.38364 Y-3.04175 ( rapid move to begin. )
G01 F180.00000
( Mill infeed pass 1/1 )
G01 Z-0.04000
G04 P0 ( dwell for no time -- G64 should not smooth over this point )
