( pcb2gcode 2.5.0 )
( Software-independent Gcode )

G94 ( Inches per minute feed rate. )
G20 ( Units == INCHES. )

G90 ( Absolute coordinates. )
G00 S12000 ( RPM spindle speed. )
G64 P0.00040 ( set maximum deviation from commanded toolpath )
G01 F360.00000 ( Feedrate. )


G00 Z1.00000 (Retract to tool change height)
T1
M5      (Spindle stop.)
G04 P1.00000 (Wait for spindle to stop)
(MSG, Change tool bit to mill diameter 0.05512in)
M6      (Tool change.)
M0      (Temporary machine stop.)
M3 ( Spindle on clockwise. )
G04 P1.00000 (Wait for spindle to get up to speed)
G04 P0 ( dwell for no time -- G64 should not smooth over this point )
G00 Z0.08000 ( retract )

G00 X-4.62888 Y-3.30315 ( rapid move to begin. )
G01 F180.00000
( Mill infeed pass 1/1 )
G01 Z-0.04000
G04 P0 ( dwell for no time -- G64 should not smooth over this point )
G01 F360.00000
G01 X-4.62888 Y-3.30315
G01 X-4.62974 Y-3.30720
G01 X-4.63093 Y-3.31422
G01 X-4.63162 Y-3.32131
G01 X-4.63185 Y-3.32570
G01 X-4.63180 Y-3.33261
G01 X-4.63158 Y-3.33704
G01 X-4.63083 Y-3.34392
G01 X-4.63004 Y-3.34879
G01 X-4.62856 Y-3.35561
G01 X-4.62675 Y-3.36192
G01 X-4.62506 Y-3.36693
G01 X-4.62268 Y-3.37282
G01 X-4.62064 Y-3.37725
G01 X-4.61738 Y-3.38340
G01 X-4.61504 Y-3.38727
G01 X-4.61143 Y-3.39271
G01 X-4.60733 Y-3.39807
G01 X-4.60446 Y-3.40151
G01 X-4.59970 Y-3.40658
G01 X-4.59614 Y-3.40998
G01 X-4.59118 Y-3.41429
G01 X-4.58561 Y-3.41850
G01 X-4.58155 Y-3.42128
G01 X-4.57630 Y-3.42447
G01 X-4.57200 Y-3.42679
G01 X-4.56591 Y-3.42970
G01 X-4.56177 Y-3.43140
G01 X-4.55524 Y-3.43374
G01 X-4.54874 Y-3.43558
G01 X-4.54439 Y-3.43661
G01 X-4.53754 Y-3.43782
G01 X-4.53265 Y-3.43841
G01 X-4.52348 Y-3.43895
G01 X-4.47737 Y-3.43897
G01 X-4.47230 Y-3.43877
G01 X-4.46431 Y-3.43804
G01 X-4.46039 Y-3.43750
G01 X-4.45611 Y-3.43669
G01 X-4.45017 Y-3.43531
G01 X-4.44556 Y-3.43397
G01 X-4.43959 Y-3.43193
G01 X-4.43473 Y-3.42996
G01 X-4.42870 Y-3.42716
G01 X-4.42883 Y-3.42655
G01 X-4.42870 Y-3.42716
G01 X-4.17713 Y-3.42712
G01 X-4.17277 Y-3.42698
G01 X-4.16842 Y-3.42662
G01 X-4.16289 Y-3.42587
G01 X-4.15893 Y-3.42515
G01 X-4.15461 Y-3.42414
G01 X-4.14852 Y-3.42241
G01 X-4.14298 Y-3.42042
G01 X-4.14116 Y-3.41970
G01 X-4.14121 Y-3.41950
G01 X-4.14116 Y-3.41970
G01 X-4.13880 Y-3.41954
G01 X-4.13264 Y-3.41880
G01 X-4.13125 Y-3.39740
G01 X-4.12979 Y-3.38065
G01 X-4.12866 Y-3.37053
G01 X-4.12728 Y-3.36086
G01 X-4.11944 Y-3.35732
G01 X-4.11421 Y-3.35419
G01 X-4.11167 Y-3.35240
G01 X-4.11421 Y-3.35419
G01 X-4.11982 Y-3.35752
G01 X-4.12612 Y-3.36039
G01 X-4.12890 Y-3.36141
G01 X-4.13507 Y-3.36322
G01 X-4.14220 Y-3.36449
G01 X-4.14942 Y-3.36496
G01 X-4.15468 Y-3.36474
G01 X-4.15661 Y-3.36596
G01 X-4.15979 Y-3.36768
G01 X-4.16453 Y-3.36965
G01 X-4.16983 Y-3.37112
G01 X-4.17524 Y-3.37191
G01 X-4.44425 Y-3.37205
G01 X-4.44947 Y-3.37568
G01 X-4.45348 Y-3.37793
G01 X-4.45733 Y-3.37968
G01 X-4.46317 Y-3.38173
G01 X-4.46957 Y-3.38315
G01 X-4.47772 Y-3.38385
G01 X-4.52416 Y-3.38380
G01 X-4.52858 Y-3.38342
G01 X-4.53265 Y-3.38274
G01 X-4.53857 Y-3.38120
G01 X-4.54407 Y-3.37908
G01 X-4.54802 Y-3.37714
G01 X-4.55125 Y-3.37522
G01 X-4.55626 Y-3.37164
G01 X-4.56053 Y-3.36780
G01 X-4.56337 Y-3.36476
G01 X-4.56611 Y-3.36131
G01 X-4.56931 Y-3.35643
G01 X-4.57213 Y-3.35083
G01 X-4.57361 Y-3.34714
G01 X-4.57484 Y-3.34317
G01 X-4.57613 Y-3.33714
G01 X-4.57670 Y-3.33120
G01 X-4.57675 Y-3.32709
G01 X-4.57644 Y-3.32282
G01 X-4.57537 Y-3.31638
G01 X-4.57352 Y-3.31012
G01 X-4.57195 Y-3.30620
G01 X-4.57044 Y-3.30315
G01 X-4.67148 Y-3.30317
G01 X-4.71429 Y-3.31861
G01 X-4.71455 Y-3.32881
G01 X-4.71415 Y-3.34138
G01 X-4.71301 Y-3.35305
G01 X-4.71151 Y-3.36292
G01 X-4.70891 Y-3.37510
G01 X-4.70587 Y-3.38593
G01 X-4.70271 Y-3.39532
G01 X-4.69845 Y-3.40590
G01 X-4.69426 Y-3.41488
G01 X-4.68856 Y-3.42548
G01 X-4.68219 Y-3.43569
G01 X-4.67673 Y-3.44347
G01 X-4.66968 Y-3.45244
G01 X-4.66312 Y-3.45987
G01 X-4.65497 Y-3.46818
G01 X-4.64600 Y-3.47622
G01 X-4.63851 Y-3.48222
G01 X-4.62904 Y-3.48900
G01 X-4.61917 Y-3.49518
G01 X-4.61120 Y-3.49960
G01 X-4.60095 Y-3.50460
G01 X-4.59181 Y-3.50843
G01 X-4.58129 Y-3.51220
G01 X-4.57034 Y-3.51538
G01 X-4.56108 Y-3.51758
G01 X-4.55084 Y-3.51942
G01 X-4.54292 Y-3.52047
G01 X-4.53326 Y-3.52129
G01 X-4.52394 Y-3.52163
G01 X-4.47578 Y-3.52164
G01 X-4.46696 Y-3.52128
G01 X-4.45689 Y-3.52040
G01 X-4.44969 Y-3.51951
G01 X-4.44254 Y-3.51830
G01 X-4.43261 Y-3.51613
G01 X-4.42526 Y-3.51421
G01 X-4.41317 Y-3.51030
G01 X-4.41189 Y-3.50984
G01 X-4.41194 Y-3.50951
G01 X-4.41189 Y-3.50984
G01 X-4.17514 Y-3.50978
G01 X-4.16681 Y-3.50945
G01 X-4.15851 Y-3.50870
G01 X-4.14862 Y-3.50731
G01 X-4.13992 Y-3.50563
G01 X-4.13623 Y-3.50477
G01 X-4.13645 Y-3.49925
G01 X-4.13528 Y-3.46897
G01 X-4.13422 Y-3.44679
G01 X-4.13493 Y-3.44686
G01 X-4.13962 Y-3.44849
G01 X-4.14466 Y-3.45000
G01 X-4.14968 Y-3.45132
G01 X-4.15475 Y-3.45242
G01 X-4.16544 Y-3.45401
G01 X-4.17470 Y-3.45464
G01 X-4.42260 Y-3.45472
G01 X-4.42267 Y-3.45432
G01 X-4.42260 Y-3.45472
G01 X-4.43081 Y-3.45807
G01 X-4.43866 Y-3.46069
G01 X-4.44561 Y-3.46257
G01 X-4.45275 Y-3.46413
G01 X-4.45866 Y-3.46511
G01 X-4.46907 Y-3.46616
G01 X-4.47460 Y-3.46648
G01 X-4.52311 Y-3.46652
G01 X-4.52959 Y-3.46630
G01 X-4.53838 Y-3.46551
G01 X-4.54666 Y-3.46423
G01 X-4.55326 Y-3.46286
G01 X-4.56083 Y-3.46084
G01 X-4.56724 Y-3.45877
G01 X-4.57509 Y-3.45575
G01 X-4.58328 Y-3.45196
G01 X-4.58889 Y-3.44901
G01 X-4.59576 Y-3.44490
G01 X-4.60131 Y-3.44116
G01 X-4.60770 Y-3.43637
G01 X-4.61377 Y-3.43119
G01 X-4.61894 Y-3.42632
G01 X-4.62470 Y-3.42022
G01 X-4.62878 Y-3.41537
G01 X-4.63355 Y-3.40915
G01 X-4.63690 Y-3.40424
G01 X-4.64129 Y-3.39711
G01 X-4.64522 Y-3.38970
G01 X-4.64789 Y-3.38395
G01 X-4.65178 Y-3.37407
G01 X-4.65502 Y-3.36340
G01 X-4.65738 Y-3.35251
G01 X-4.65869 Y-3.34304
G01 X-4.65932 Y-3.33431
G01 X-4.65935 Y-3.32341
G01 X-4.65847 Y-3.31237
G01 X-4.65703 Y-3.30318
G01 X-4.62888 Y-3.30315
G01 X-4.67148 Y-3.30317
G01 X-4.73187 Y-3.32497
G01 X-4.78219 Y-3.34495
G01 X-4.82286 Y-3.36278
G01 X-4.78219 Y-3.34495
G01 X-4.74210 Y-3.32904
G01 X-4.76942 Y-3.33989
G01 X-4.76860 Y-3.35182
G01 X-4.76713 Y-3.36421
G01 X-4.76541 Y-3.37453
G01 X-4.76280 Y-3.38677
G01 X-4.76002 Y-3.39727
G01 X-4.75612 Y-3.40963
G01 X-4.75247 Y-3.41948
G01 X-4.74750 Y-3.43126
G01 X-4.74349 Y-3.43965
G01 X-4.73840 Y-3.44931
G01 X-4.73375 Y-3.45731
G01 X-4.72855 Y-3.46551
G01 X-4.72353 Y-3.47285
G01 X-4.71846 Y-3.47966
G01 X-4.71200 Y-3.48776
G01 X-4.70563 Y-3.49508
G01 X-4.69841 Y-3.50273
G01 X-4.69209 Y-3.50893
G01 X-4.68399 Y-3.51624
G01 X-4.67721 Y-3.52193
G01 X-4.67021 Y-3.52734
G01 X-4.66101 Y-3.53392
G01 X-4.65359 Y-3.53875
G01 X-4.64456 Y-3.54417
G01 X-4.63819 Y-3.54769
G01 X-4.63135 Y-3.55117
G01 X-4.62344 Y-3.55491
G01 X-4.61565 Y-3.55827
G01 X-4.60656 Y-3.56176
G01 X-4.60008 Y-3.56404
G01 X-4.59276 Y-3.56635
G01 X-4.58511 Y-3.56849
G01 X-4.57806 Y-3.57027
G01 X-4.57056 Y-3.57190
G01 X-4.56177 Y-3.57348
G01 X-4.55422 Y-3.57462
G01 X-4.54702 Y-3.57546
G01 X-4.53780 Y-3.57623
G01 X-4.53067 Y-3.57661
G01 X-4.52394 Y-3.57675
G01 X-4.47336 Y-3.57672
G01 X-4.46367 Y-3.57630
G01 X-4.45199 Y-3.57530
G01 X-4.43891 Y-3.57362
G01 X-4.42674 Y-3.57132
G01 X-4.41845 Y-3.56941
G01 X-4.41187 Y-3.56770
G01 X-4.40275 Y-3.56495
G01 X-4.40279 Y-3.56469
G01 X-4.40275 Y-3.56495
G01 X-4.17711 Y-3.56492
G01 X-4.16874 Y-3.56474
G01 X-4.16118 Y-3.56431
G01 X-4.15483 Y-3.56374
G01 X-4.14771 Y-3.56289
G01 X-4.14061 Y-3.56185
G01 X-4.13338 Y-3.56057
G01 X-4.13408 Y-3.54779
G01 X-4.13187 Y-3.58832
G01 X-4.14349 Y-3.59013
G01 X-4.15306 Y-3.59126
G01 X-4.16386 Y-3.59210
G01 X-4.17389 Y-3.59245
G01 X-4.39852 Y-3.59251
G01 X-4.39855 Y-3.59227
G01 X-4.39852 Y-3.59251
G01 X-4.40037 Y-3.59307
G01 X-4.41079 Y-3.59591
G01 X-4.42103 Y-3.59828
G01 X-4.42968 Y-3.60000
G01 X-4.57019 Y-3.60000
G01 X-4.57753 Y-3.59860
G01 X-4.58495 Y-3.59696
G01 X-4.60067 Y-3.59275
G01 X-4.61057 Y-3.58959
G01 X-4.62077 Y-3.58587
G01 X-4.62930 Y-3.58244
G01 X-4.63805 Y-3.57852
G01 X-4.64801 Y-3.57365
G01 X-4.65646 Y-3.56911
G01 X-4.66685 Y-3.56296
G01 X-4.67465 Y-3.55796
G01 X-4.68227 Y-3.55267
G01 X-4.69167 Y-3.54564
G01 X-4.69948 Y-3.53927
G01 X-4.70739 Y-3.53232
G01 X-4.71529 Y-3.52483
G01 X-4.72262 Y-3.51728
G01 X-4.72935 Y-3.50989
G01 X-4.73526 Y-3.50285
G01 X-4.74233 Y-3.49380
G01 X-4.74795 Y-3.48603
G01 X-4.75438 Y-3.47630
G01 X-4.75944 Y-3.46805
G01 X-4.76417 Y-3.45961
G01 X-4.76968 Y-3.44887
G01 X-4.77371 Y-3.44016
G01 X-4.77782 Y-3.43030
G01 X-4.78122 Y-3.42133
G01 X-4.78428 Y-3.41223
G01 X-4.78738 Y-3.40178
G01 X-4.78988 Y-3.39201
G01 X-4.79224 Y-3.38093
G01 X-4.79392 Y-3.37140
G01 X-4.79513 Y-3.36261
G01 X-4.79634 Y-3.35108
G01 X-4.82313 Y-3.36290
G01 X-4.84909 Y-3.37511
G01 X-4.84792 Y-3.38278
G01 X-4.84643 Y-3.39102
G01 X-4.84448 Y-3.40046
G01 X-4.84267 Y-3.40822
G01 X-4.84076 Y-3.41555
G01 X-4.83844 Y-3.42359
G01 X-4.83581 Y-3.43204
G01 X-4.83296 Y-3.44035
G01 X-4.82987 Y-3.44857
G01 X-4.82631 Y-3.45734
G01 X-4.82011 Y-3.47118
G01 X-4.81657 Y-3.47834
G01 X-4.81171 Y-3.48757
G01 X-4.80801 Y-3.49418
G01 X-4.80372 Y-3.50137
G01 X-4.79481 Y-3.51516
G01 X-4.79000 Y-3.52203
G01 X-4.78524 Y-3.52844
G01 X-4.77916 Y-3.53621
G01 X-4.77409 Y-3.54238
G01 X-4.76833 Y-3.54901
G01 X-4.76293 Y-3.55488
G01 X-4.75681 Y-3.56126
G01 X-4.75056 Y-3.56742
G01 X-4.74415 Y-3.57340
G01 X-4.73722 Y-3.57951
G01 X-4.73082 Y-3.58490
G01 X-4.72489 Y-3.58962
G01 X-4.71082 Y-3.60000
G01 X-4.65695 Y-3.60000
G01 X-4.66541 Y-3.59564
G01 X-4.67279 Y-3.59152
G01 X-4.68212 Y-3.58592
G01 X-4.68948 Y-3.58120
G01 X-4.69700 Y-3.57601
G01 X-4.70571 Y-3.56961
G01 X-4.71259 Y-3.56421
G01 X-4.71899 Y-3.55885
G01 X-4.72678 Y-3.55194
G01 X-4.73313 Y-3.54594
G01 X-4.73930 Y-3.53974
G01 X-4.74701 Y-3.53150
G01 X-4.75258 Y-3.52514
G01 X-4.75820 Y-3.51830
G01 X-4.76478 Y-3.50981
G01 X-4.77020 Y-3.50230
G01 X-4.77515 Y-3.49496
G01 X-4.78052 Y-3.48649
G01 X-4.78497 Y-3.47896
G01 X-4.78917 Y-3.47129
G01 X-4.79343 Y-3.46303
G01 X-4.79757 Y-3.45431
G01 X-4.80110 Y-3.44619
G01 X-4.80539 Y-3.43547
G01 X-4.80839 Y-3.42714
G01 X-4.81100 Y-3.41910
G01 X-4.81385 Y-3.40948
G01 X-4.81625 Y-3.40025
G01 X-4.81808 Y-3.39211
G01 X-4.82017 Y-3.38151
G01 X-4.82168 Y-3.37209
G01 X-4.82286 Y-3.36278
G01 X-4.82168 Y-3.37209
G01 X-4.82017 Y-3.38151
G01 X-4.81808 Y-3.39211
G01 X-4.81625 Y-3.40025
G01 X-4.81385 Y-3.40948
G01 X-4.81100 Y-3.41910
G01 X-4.80839 Y-3.42714
G01 X-4.80539 Y-3.43547
G01 X-4.80110 Y-3.44619
G01 X-4.79757 Y-3.45431
G01 X-4.79343 Y-3.46303
G01 X-4.78917 Y-3.47129
G01 X-4.78497 Y-3.47896
G01 X-4.78052 Y-3.48649
G01 X-4.77515 Y-3.49496
G01 X-4.77020 Y-3.50230
G01 X-4.76478 Y-3.50981
G01 X-4.75820 Y-3.51830
G01 X-4.75258 Y-3.52514
G01 X-4.74701 Y-3.53150
G01 X-4.73930 Y-3.53974
G01 X-4.73313 Y-3.54594
G01 X-4.72678 Y-3.55194
G01 X-4.71899 Y-3.55885
G01 X-4.71259 Y-3.56421
G01 X-4.70571 Y-3.56961
G01 X-4.69700 Y-3.57601
G01 X-4.68948 Y-3.58120
G01 X-4.68212 Y-3.58592
G01 X-4.67279 Y-3.59152
G01 X-4.66541 Y-3.59564
G01 X-4.65695 Y-3.60000
G01 X-4.13124 Y-3.60000
G01 X-4.13408 Y-3.54779
G01 X-4.13644 Y-3.50046
G01 X-4.13485 Y-3.53273
G01 X-4.14402 Y-3.53448
G01 X-4.15353 Y-3.53586
G01 X-4.16510 Y-3.53696
G01 X-4.17671 Y-3.53736
G01 X-4.40723 Y-3.53740
G01 X-4.40728 Y-3.53710
G01 X-4.40723 Y-3.53740
G01 X-4.41530 Y-3.54000
G01 X-4.42185 Y-3.54184
G01 X-4.42806 Y-3.54337
G01 X-4.43479 Y-3.54485
G01 X-4.44105 Y-3.54603
G01 X-4.44774 Y-3.54706
G01 X-4.45446 Y-3.54785
G01 X-4.46532 Y-3.54879
G01 X-4.47497 Y-3.54919
G01 X-4.52834 Y-3.54911
G01 X-4.53793 Y-3.54859
G01 X-4.54916 Y-3.54749
G01 X-4.56031 Y-3.54577
G01 X-4.56935 Y-3.54399
G01 X-4.58089 Y-3.54108
G01 X-4.58973 Y-3.53844
G01 X-4.60035 Y-3.53466
G01 X-4.60890 Y-3.53121
G01 X-4.61969 Y-3.52619
G01 X-4.62752 Y-3.52213
G01 X-4.63726 Y-3.51645
G01 X-4.64502 Y-3.51146
G01 X-4.65420 Y-3.50490
G01 X-4.66146 Y-3.49921
G01 X-4.67000 Y-3.49182
G01 X-4.67727 Y-3.48492
G01 X-4.68505 Y-3.47675
G01 X-4.69109 Y-3.46979
G01 X-4.69846 Y-3.46044
G01 X-4.70404 Y-3.45260
G01 X-4.70992 Y-3.44345
G01 X-4.71475 Y-3.43513
G01 X-4.72012 Y-3.42475
G01 X-4.72442 Y-3.41526
G01 X-4.72839 Y-3.40532
G01 X-4.73141 Y-3.39662
G01 X-4.73461 Y-3.38580
G01 X-4.73714 Y-3.37527
G01 X-4.73932 Y-3.36378
G01 X-4.74085 Y-3.35220
G01 X-4.74174 Y-3.34183
G01 X-4.74208 Y-3.33092
G01 X-4.74210 Y-3.32904
G01 X-4.73187 Y-3.32497
G01 X-4.67995 Y-3.30622
G01 X-4.68574 Y-3.30835
G01 X-4.68679 Y-3.32031
G01 X-4.68698 Y-3.32991
G01 X-4.68682 Y-3.33638
G01 X-4.68645 Y-3.34230
G01 X-4.68510 Y-3.35380
G01 X-4.68309 Y-3.36442
G01 X-4.68110 Y-3.37252
G01 X-4.67827 Y-3.38176
G01 X-4.67579 Y-3.38857
G01 X-4.67193 Y-3.39772
G01 X-4.66760 Y-3.40641
G01 X-4.66392 Y-3.41300
G01 X-4.65876 Y-3.42115
G01 X-4.65434 Y-3.42739
G01 X-4.64896 Y-3.43426
G01 X-4.64421 Y-3.43973
G01 X-4.63810 Y-3.44613
G01 X-4.63201 Y-3.45184
G01 X-4.62500 Y-3.45782
G01 X-4.61731 Y-3.46360
G01 X-4.61106 Y-3.46783
G01 X-4.60313 Y-3.47262
G01 X-4.59638 Y-3.47623
G01 X-4.58777 Y-3.48030
G01 X-4.58106 Y-3.48303
G01 X-4.57191 Y-3.48627
G01 X-4.56274 Y-3.48888
G01 X-4.55570 Y-3.49055
G01 X-4.54617 Y-3.49226
G01 X-4.53907 Y-3.49317
G01 X-4.53147 Y-3.49379
G01 X-4.52510 Y-3.49405
G01 X-4.47778 Y-3.49409
G01 X-4.47020 Y-3.49386
G01 X-4.46096 Y-3.49311
G01 X-4.45537 Y-3.49247
G01 X-4.44942 Y-3.49154
G01 X-4.43717 Y-3.48888
G01 X-4.43062 Y-3.48705
G01 X-4.42314 Y-3.48459
G01 X-4.41697 Y-3.48228
G01 X-4.41703 Y-3.48190
G01 X-4.41697 Y-3.48228
G01 X-4.17432 Y-3.48220
G01 X-4.16435 Y-3.48161
G01 X-4.15408 Y-3.48028
G01 X-4.14512 Y-3.47856
G01 X-4.13556 Y-3.47607
G01 X-4.13436 Y-3.44926
G01 X-4.13215 Y-3.41003
G01 X-4.13127 Y-3.39762
G01 X-4.12976 Y-3.38031
G01 X-4.12866 Y-3.37053
G01 X-4.12728 Y-3.36086
G01 X-4.12871 Y-3.37090
G01 X-4.12976 Y-3.38031
G01 X-4.13065 Y-3.39045
G01 X-4.13648 Y-3.39150
G01 X-4.14009 Y-3.39198
G01 X-4.14777 Y-3.39248
G01 X-4.14786 Y-3.39212
G01 X-4.14777 Y-3.39248
G01 X-4.15063 Y-3.39379
G01 X-4.15466 Y-3.39539
G01 X-4.15840 Y-3.39661
G01 X-4.16508 Y-3.39828
G01 X-4.17310 Y-3.39938
G01 X-4.17753 Y-3.39956
G01 X-4.43579 Y-3.39960
G01 X-4.43595 Y-3.39892
G01 X-4.43579 Y-3.39960
G01 X-4.43915 Y-3.40152
G01 X-4.44247 Y-3.40321
G01 X-4.44834 Y-3.40578
G01 X-4.45667 Y-3.40852
G01 X-4.46225 Y-3.40982
G01 X-4.46589 Y-3.41046
G01 X-4.47361 Y-3.41123
G01 X-4.47732 Y-3.41141
G01 X-4.52309 Y-3.41140
G01 X-4.53000 Y-3.41098
G01 X-4.53407 Y-3.41047
G01 X-4.54001 Y-3.40935
G01 X-4.54643 Y-3.40761
G01 X-4.55248 Y-3.40545
G01 X-4.55612 Y-3.40387
G01 X-4.56136 Y-3.40126
G01 X-4.56692 Y-3.39792
G01 X-4.57193 Y-3.39435
G01 X-4.57513 Y-3.39177
G01 X-4.57939 Y-3.38792
G01 X-4.58386 Y-3.38320
G01 X-4.58779 Y-3.37833
G01 X-4.59009 Y-3.37511
G01 X-4.59314 Y-3.37027
G01 X-4.59583 Y-3.36523
G01 X-4.59749 Y-3.36163
G01 X-4.59990 Y-3.35543
G01 X-4.60166 Y-3.34959
G01 X-4.60282 Y-3.34438
G01 X-4.60351 Y-3.34033
G01 X-4.60412 Y-3.33460
G01 X-4.60431 Y-3.32840
G01 X-4.60421 Y-3.32440
G01 X-4.60364 Y-3.31806
G01 X-4.60271 Y-3.31255
G01 X-4.60181 Y-3.30852
G01 X-4.60025 Y-3.30310
G01 X-4.57044 Y-3.30315
G01 X-4.56888 Y-3.30034
G01 X-4.56617 Y-3.29624
G01 X-4.56302 Y-3.29231
G01 X-4.56021 Y-3.28938
G01 X-4.56528 Y-3.28368
G01 X-4.56868 Y-3.27872
G01 X-4.57041 Y-3.27560
G01 X-4.62968 Y-3.27558
G01 X-4.62897 Y-3.27509
G01 X-4.62886 Y-3.27558
G01 X-4.62897 Y-3.27509
G01 X-4.60396 Y-3.25749
G01 X-4.60341 Y-3.26226
G01 X-4.60281 Y-3.26570
G01 X-4.60155 Y-3.27127
G01 X-4.60024 Y-3.27555
G01 X-4.60155 Y-3.27127
G01 X-4.60281 Y-3.26570
G01 X-4.60341 Y-3.26226
G01 X-4.60396 Y-3.25749
G01 X-4.57511 Y-3.23663
G01 X-4.57446 Y-3.23425
G01 X-4.57300 Y-3.22996
G01 X-4.57012 Y-3.22376
G01 X-4.56753 Y-3.21945
G01 X-4.56468 Y-3.21558
G01 X-4.56368 Y-3.21434
G01 X-4.56240 Y-3.21374
G01 X-4.56360 Y-3.21430
G01 X-4.59076 Y-3.21427
G01 X-4.59388 Y-3.21409
G01 X-4.59783 Y-3.21349
G01 X-4.60165 Y-3.21254
G01 X-4.60507 Y-3.21140
G01 X-4.60723 Y-3.21049
G01 X-4.61282 Y-3.20747
G01 X-4.61729 Y-3.20414
G01 X-4.61937 Y-3.20227
G01 X-4.80673 Y-3.01483
G01 X-4.80930 Y-3.01172
G01 X-4.81067 Y-3.00982
G01 X-4.81290 Y-3.00603
G01 X-4.81397 Y-3.00391
G01 X-4.81609 Y-2.99830
G01 X-4.81713 Y-2.99401
G01 X-4.81756 Y-2.99127
G01 X-4.81790 Y-2.98633
G01 X-4.81786 Y-2.91207
G01 X-4.81760 Y-2.90930
G01 X-4.81676 Y-2.90421
G01 X-4.81602 Y-2.90159
G01 X-4.81426 Y-2.89673
G01 X-4.81306 Y-2.89430
G01 X-4.81044 Y-2.88984
G01 X-4.80906 Y-2.88797
G01 X-4.80559 Y-2.88392
G01 X-4.67926 Y-2.75761
G01 X-4.67362 Y-2.75312
G01 X-4.67164 Y-2.75189
G01 X-4.66810 Y-2.75002
G01 X-4.66413 Y-2.74838
G01 X-4.66070 Y-2.74729
G01 X-4.65803 Y-2.74669
G01 X-4.65367 Y-2.74605
G01 X-4.65050 Y-2.74587
G01 X-4.15689 Y-2.74585
G01 X-4.15266 Y-2.74607
G01 X-4.14706 Y-2.74699
G01 X-4.14129 Y-2.74878
G01 X-4.13551 Y-2.75153
G01 X-4.13084 Y-2.75463
G01 X-4.12670 Y-2.75821
G01 X-4.09646 Y-2.78844
G01 X-4.12192 Y-2.76298
G01 X-4.12793 Y-2.74861
G01 X-4.13250 Y-2.73934
G01 X-4.13753 Y-2.73080
G01 X-4.14049 Y-2.72957
G01 X-4.14795 Y-2.72686
G01 X-4.15462 Y-2.72485
G01 X-4.16017 Y-2.72341
G01 X-4.28242 Y-2.69455
G01 X-4.29516 Y-2.69510
G01 X-4.30585 Y-2.69508
G01 X-4.31102 Y-2.69494
G01 X-4.32655 Y-2.69388
G01 X-4.34180 Y-2.69198
G01 X-4.35381 Y-2.68993
G01 X-4.37115 Y-2.68597
G01 X-4.38066 Y-2.68336
G01 X-4.61929 Y-2.68337
G01 X-4.62970 Y-2.68622
G01 X-4.63777 Y-2.68816
G01 X-4.67145 Y-2.69500
G01 X-4.69137 Y-2.69940
G01 X-4.71073 Y-2.70399
G01 X-4.74379 Y-2.71238
G01 X-4.75757 Y-2.71548
G01 X-4.76294 Y-2.71655
G01 X-4.78294 Y-2.71992
G01 X-4.80110 Y-2.72220
G01 X-4.80624 Y-2.72271
G01 X-4.82679 Y-2.72428
G01 X-4.83228 Y-2.72456
G01 X-4.85475 Y-2.72520
G01 X-4.86013 Y-2.72523
G01 X-4.88640 Y-2.72478
G01 X-4.90000 Y-2.72405
G01 X-4.90000 Y-2.78345
G01 X-4.84136 Y-2.72482
G01 X-4.85981 Y-2.72523
G01 X-4.88040 Y-2.72488
G01 X-4.90000 Y-2.74448
G01 X-4.90000 Y-3.27243
G01 X-4.83458 Y-3.33784
G01 X-4.80754 Y-3.32591
G01 X-4.90000 Y-3.23346
G01 X-4.90000 Y-3.31140
G01 X-4.86109 Y-3.35030
G01 X-4.83440 Y-3.33775
G01 X-4.79251 Y-3.31940
G01 X-4.74152 Y-3.29916
G01 X-4.68015 Y-3.27700
G01 X-4.64426 Y-3.25217
G01 X-4.64469 Y-3.25246
G01 X-4.65022 Y-3.24837
G01 X-4.65425 Y-3.24507
G01 X-4.65806 Y-3.24153
G01 X-4.84483 Y-3.05479
G01 X-4.84912 Y-3.05006
G01 X-4.85464 Y-3.04313
G01 X-4.85820 Y-3.03777
G01 X-4.86197 Y-3.03116
G01 X-4.86391 Y-3.02725
G01 X-4.86563 Y-3.02324
G01 X-4.86750 Y-3.01838
G01 X-4.86907 Y-3.01347
G01 X-4.87146 Y-3.00338
G01 X-4.87214 Y-2.99907
G01 X-4.87268 Y-2.99390
G01 X-4.87302 Y-2.98671
G01 X-4.87301 Y-2.91324
G01 X-4.87289 Y-2.90889
G01 X-4.87226 Y-2.90218
G01 X-4.87084 Y-2.89349
G01 X-4.86918 Y-2.88692
G01 X-4.86663 Y-2.87931
G01 X-4.86421 Y-2.87341
G01 X-4.86134 Y-2.86772
G01 X-4.85709 Y-2.86045
G01 X-4.85294 Y-2.85460
G01 X-4.84808 Y-2.84872
G01 X-4.84455 Y-2.84493
G01 X-4.71736 Y-2.71779
G01 X-4.71186 Y-2.71299
G01 X-4.70741 Y-2.70953
G01 X-4.70349 Y-2.70679
G01 X-4.69733 Y-2.70311
G01 X-4.69232 Y-2.70051
G01 X-4.68857 Y-2.69876
G01 X-4.67145 Y-2.69500
G01 X-4.65053 Y-2.69075
G01 X-4.34898 Y-2.69074
G01 X-4.65053 Y-2.69075
G01 X-4.67145 Y-2.69500
G01 X-4.69137 Y-2.69940
G01 X-4.71073 Y-2.70399
G01 X-4.74379 Y-2.71238
G01 X-4.75757 Y-2.71549
G01 X-4.77851 Y-2.71927
G01 X-4.79957 Y-2.72200
G01 X-4.88463 Y-2.80708
G01 X-4.88840 Y-2.81112
G01 X-4.89175 Y-2.81500
G01 X-4.89608 Y-2.82030
G01 X-4.90000 Y-2.82555
G01 X-4.90000 Y-2.90211
G01 X-4.89864 Y-2.89224
G01 X-4.89702 Y-2.88433
G01 X-4.89494 Y-2.87694
G01 X-4.89144 Y-2.86702
G01 X-4.88783 Y-2.85891
G01 X-4.88321 Y-2.85037
G01 X-4.87915 Y-2.84386
G01 X-4.87441 Y-2.83732
G01 X-4.86899 Y-2.83077
G01 X-4.86404 Y-2.82545
G01 X-4.75306 Y-2.71447
G01 X-4.86376 Y-2.82516
G01 X-4.86899 Y-2.83077
G01 X-4.87416 Y-2.83700
G01 X-4.87801 Y-2.84219
G01 X-4.88177 Y-2.84794
G01 X-4.88539 Y-2.85426
G01 X-4.88818 Y-2.85963
G01 X-4.89068 Y-2.86515
G01 X-4.89286 Y-2.87080
G01 X-4.89530 Y-2.87809
G01 X-4.89682 Y-2.88354
G01 X-4.89806 Y-2.88906
G01 X-4.89896 Y-2.89423
G01 X-4.90000 Y-2.90211
G01 X-4.90000 Y-3.19449
G01 X-4.78002 Y-3.31444
G01 X-4.75213 Y-3.30336
G01 X-4.90000 Y-3.15551
G01 X-4.90000 Y-3.11654
G01 X-4.72378 Y-3.29273
G01 X-4.69507 Y-3.28242
G01 X-4.88407 Y-3.09349
G01 X-4.89099 Y-3.08591
G01 X-4.89557 Y-3.08035
G01 X-4.89941 Y-3.07528
G01 X-4.90000 Y-3.07445
G01 X-4.90000 Y-2.99771
G01 X-4.89945 Y-3.00278
G01 X-4.89865 Y-3.00787
G01 X-4.89640 Y-3.01799
G01 X-4.89378 Y-3.02673
G01 X-4.89017 Y-3.03602
G01 X-4.88623 Y-3.04425
G01 X-4.88082 Y-3.05358
G01 X-4.87584 Y-3.06081
G01 X-4.86978 Y-3.06831
G01 X-4.86375 Y-3.07484
G01 X-4.67783 Y-3.26073
G01 X-4.67317 Y-3.26513
G01 X-4.66851 Y-3.26905
G01 X-4.62745 Y-3.24041
G01 X-4.61139 Y-3.22893
G01 X-4.59652 Y-3.21798
G01 X-4.59115 Y-3.21427
G01 X-4.59652 Y-3.21798
G01 X-4.60483 Y-3.22417
G01 X-4.61987 Y-3.23499
G01 X-4.62470 Y-3.23245
G01 X-4.62819 Y-3.23035
G01 X-4.63119 Y-3.22823
G01 X-4.63562 Y-3.22474
G01 X-4.63886 Y-3.22175
G01 X-4.82613 Y-3.03447
G01 X-4.83026 Y-3.02964
G01 X-4.83249 Y-3.02672
G01 X-4.83473 Y-3.02332
G01 X-4.83772 Y-3.01807
G01 X-4.83958 Y-3.01413
G01 X-4.84162 Y-3.00891
G01 X-4.84279 Y-3.00512
G01 X-4.84402 Y-3.00006
G01 X-4.84492 Y-2.99458
G01 X-4.84546 Y-2.98710
G01 X-4.84545 Y-2.91325
G01 X-4.84530 Y-2.90929
G01 X-4.84421 Y-2.90095
G01 X-4.84347 Y-2.89739
G01 X-4.84261 Y-2.89427
G01 X-4.84094 Y-2.88929
G01 X-4.83961 Y-2.88590
G01 X-4.83805 Y-2.88261
G01 X-4.83571 Y-2.87836
G01 X-4.83383 Y-2.87525
G01 X-4.83151 Y-2.87194
G01 X-4.82768 Y-2.86727
G01 X-4.82506 Y-2.86441
G01 X-4.69933 Y-2.73869
G01 X-4.69543 Y-2.73514
G01 X-4.69064 Y-2.73140
G01 X-4.68661 Y-2.72872
G01 X-4.68019 Y-2.72525
G01 X-4.67572 Y-2.72327
G01 X-4.66956 Y-2.72117
G01 X-4.66483 Y-2.71994
G01 X-4.65762 Y-2.71877
G01 X-4.65248 Y-2.71835
G01 X-4.18186 Y-2.71829
G01 X-4.15462 Y-2.72485
G01 X-4.14679 Y-2.72725
G01 X-4.13753 Y-2.73080
G01 X-4.13250 Y-2.73934
G01 X-4.12871 Y-2.74689
G01 X-4.12192 Y-2.76298
G01 X-4.09646 Y-2.78844
G01 X-4.09646 Y-2.75244
G01 X-4.10278 Y-2.73733
G01 X-4.10720 Y-2.72814
G01 X-4.11332 Y-2.71748
G01 X-4.11664 Y-2.71233
G01 X-4.11833 Y-2.71022
G01 X-4.11799 Y-2.70989
G01 X-4.11833 Y-2.71022
G01 X-4.12039 Y-2.70847
G01 X-4.12276 Y-2.70716
G01 X-4.12267 Y-2.70700
G01 X-4.12276 Y-2.70716
G01 X-4.13077 Y-2.70378
G01 X-4.13937 Y-2.70062
G01 X-4.14722 Y-2.69830
G01 X-4.15372 Y-2.69661
G01 X-4.27801 Y-2.66728
G01 X-4.28190 Y-2.66693
G01 X-4.29567 Y-2.66754
G01 X-4.30960 Y-2.66739
G01 X-4.32359 Y-2.66646
G01 X-4.33368 Y-2.66530
G01 X-4.34468 Y-2.66352
G01 X-4.35464 Y-2.65911
G01 X-4.36410 Y-2.65380
G01 X-4.36784 Y-2.65143
G01 X-4.37203 Y-2.64843
G01 X-4.37172 Y-2.64734
G01 X-4.37203 Y-2.64843
G01 X-4.62788 Y-2.64843
G01 X-4.62820 Y-2.64734
G01 X-4.62788 Y-2.64843
G01 X-4.63169 Y-2.65110
G01 X-4.63735 Y-2.65472
G01 X-4.64568 Y-2.65926
G01 X-4.65144 Y-2.66194
G01 X-4.65566 Y-2.66368
G01 X-4.67724 Y-2.66806
G01 X-4.69468 Y-2.67189
G01 X-4.70071 Y-2.67201
G01 X-4.71025 Y-2.67159
G01 X-4.71895 Y-2.67055
G01 X-4.72756 Y-2.66886
G01 X-4.73296 Y-2.66747
G01 X-4.74134 Y-2.66481
G01 X-4.74949 Y-2.66152
G01 X-4.75490 Y-2.65896
G01 X-4.76261 Y-2.65474
G01 X-4.76998 Y-2.64995
G01 X-4.77448 Y-2.64664
G01 X-4.78095 Y-2.64131
G01 X-4.78701 Y-2.63553
G01 X-4.79109 Y-2.63117
G01 X-4.79621 Y-2.62506
G01 X-4.80135 Y-2.61794
G01 X-4.80434 Y-2.61324
G01 X-4.80864 Y-2.60557
G01 X-4.81234 Y-2.59760
G01 X-4.81454 Y-2.59203
G01 X-4.81760 Y-2.58255
G01 X-4.81931 Y-2.57557
G01 X-4.82015 Y-2.57125
G01 X-4.82119 Y-2.56414
G01 X-4.82160 Y-2.56017
G01 X-4.82199 Y-2.55259
G01 X-4.82200 Y-2.54781
G01 X-4.82138 Y-2.53745
G01 X-4.82034 Y-2.52993
G01 X-4.81956 Y-2.52561
G01 X-4.81790 Y-2.51861
G01 X-4.81671 Y-2.51439
G01 X-4.81441 Y-2.50759
G01 X-4.81250 Y-2.50276
G01 X-4.80790 Y-2.49301
G01 X-4.80434 Y-2.48676
G01 X-4.80202 Y-2.48305
G01 X-4.79789 Y-2.47716
G01 X-4.79546 Y-2.47400
G01 X-4.79054 Y-2.46822
G01 X-4.78726 Y-2.46470
G01 X-4.78177 Y-2.45945
G01 X-4.77878 Y-2.45681
G01 X-4.77314 Y-2.45235
G01 X-4.76959 Y-2.44976
G01 X-4.76321 Y-2.44565
G01 X-4.75942 Y-2.44342
G01 X-4.75267 Y-2.43994
G01 X-4.74832 Y-2.43795
G01 X-4.74125 Y-2.43518
G01 X-4.73710 Y-2.43375
G01 X-4.72941 Y-2.43158
G01 X-4.72395 Y-2.43037
G01 X-4.71567 Y-2.42898
G01 X-4.70812 Y-2.42827
G01 X-4.70298 Y-2.42801
G01 X-4.69545 Y-2.42806
G01 X-4.68596 Y-2.42878
G01 X-4.67656 Y-2.43025
G01 X-4.66733 Y-2.43243
G01 X-4.65830 Y-2.43532
G01 X-4.65200 Y-2.43782
G01 X-4.64834 Y-2.43946
G01 X-4.63734 Y-2.44531
G01 X-4.63287 Y-2.44811
G01 X-4.62804 Y-2.45157
G01 X-4.62840 Y-2.45277
G01 X-4.62804 Y-2.45157
G01 X-4.37206 Y-2.45157
G01 X-4.37173 Y-2.45268
G01 X-4.37206 Y-2.45157
G01 X-4.36816 Y-2.44879
G01 X-4.36481 Y-2.44663
G01 X-4.35614 Y-2.44166
G01 X-4.34636 Y-2.43712
G01 X-4.33583 Y-2.43335
G01 X-4.32656 Y-2.43091
G01 X-4.31824 Y-2.42939
G01 X-4.31767 Y-2.43043
G01 X-4.31824 Y-2.42939
G01 X-4.23884 Y-2.35000
G01 X-4.27781 Y-2.35000
G01 X-4.33161 Y-2.40380
G01 X-4.33112 Y-2.40466
G01 X-4.33161 Y-2.40380
G01 X-4.34054 Y-2.40602
G01 X-4.34732 Y-2.40813
G01 X-4.35736 Y-2.41185
G01 X-4.36637 Y-2.41596
G01 X-4.37300 Y-2.41946
G01 X-4.38063 Y-2.42401
G01 X-4.38038 Y-2.42496
G01 X-4.38063 Y-2.42401
G01 X-4.61936 Y-2.42401
G01 X-4.61959 Y-2.42491
G01 X-4.61936 Y-2.42401
G01 X-4.62085 Y-2.42307
G01 X-4.62607 Y-2.42003
G01 X-4.63560 Y-2.41500
G01 X-4.64066 Y-2.41269
G01 X-4.64695 Y-2.41015
G01 X-4.65642 Y-2.40692
G01 X-4.66170 Y-2.40540
G01 X-4.66788 Y-2.40391
G01 X-4.67258 Y-2.40295
G01 X-4.67811 Y-2.40205
G01 X-4.68620 Y-2.40107
G01 X-4.69260 Y-2.40060
G01 X-4.69780 Y-2.40044
G01 X-4.70710 Y-2.40059
G01 X-4.71826 Y-2.40153
G01 X-4.72960 Y-2.40339
G01 X-4.73728 Y-2.40515
G01 X-4.74754 Y-2.40817
G01 X-4.75865 Y-2.41240
G01 X-4.76333 Y-2.41449
G01 X-4.76938 Y-2.41750
G01 X-4.77661 Y-2.42154
G01 X-4.78430 Y-2.42644
G01 X-4.79037 Y-2.43083
G01 X-4.79778 Y-2.43680
G01 X-4.80535 Y-2.44383
G01 X-4.81034 Y-2.44902
G01 X-4.81682 Y-2.45657
G01 X-4.82087 Y-2.46191
G01 X-4.82631 Y-2.46987
G01 X-4.83138 Y-2.47850
G01 X-4.83462 Y-2.48482
G01 X-4.83880 Y-2.49424
G01 X-4.84204 Y-2.50318
G01 X-4.84427 Y-2.51051
G01 X-4.84651 Y-2.51982
G01 X-4.84762 Y-2.52603
G01 X-4.84895 Y-2.53625
G01 X-4.84958 Y-2.54859
G01 X-4.84953 Y-2.55343
G01 X-4.84920 Y-2.56061
G01 X-4.84866 Y-2.56650
G01 X-4.84774 Y-2.57319
G01 X-4.84609 Y-2.58211
G01 X-4.84448 Y-2.58870
G01 X-4.84316 Y-2.59336
G01 X-4.84061 Y-2.60097
G01 X-4.83895 Y-2.60540
G01 X-4.83710 Y-2.60975
G01 X-4.83358 Y-2.61731
G01 X-4.83138 Y-2.62150
G01 X-4.82800 Y-2.62738
G01 X-4.82477 Y-2.63250
G01 X-4.82110 Y-2.63776
G01 X-4.81543 Y-2.64511
G01 X-4.81098 Y-2.65028
G01 X-4.80768 Y-2.65383
G01 X-4.80194 Y-2.65945
G01 X-4.79835 Y-2.66270
G01 X-4.78872 Y-2.67044
G01 X-4.77853 Y-2.67730
G01 X-4.77379 Y-2.68011
G01 X-4.76748 Y-2.68348
G01 X-4.76287 Y-2.68573
G01 X-4.75878 Y-2.68751
G01 X-4.76784 Y-2.68943
G01 X-4.78276 Y-2.69203
G01 X-4.80235 Y-2.69457
G01 X-4.80950 Y-2.68922
G01 X-4.81832 Y-2.68184
G01 X-4.82660 Y-2.67389
G01 X-4.83276 Y-2.66725
G01 X-4.83985 Y-2.65873
G01 X-4.84658 Y-2.64943
G01 X-4.85148 Y-2.64181
G01 X-4.85719 Y-2.63169
G01 X-4.86219 Y-2.62116
G01 X-4.86529 Y-2.61371
G01 X-4.86909 Y-2.60277
G01 X-4.87165 Y-2.59366
G01 X-4.87410 Y-2.58267
G01 X-4.87591 Y-2.57074
G01 X-4.87673 Y-2.56191
G01 X-4.87714 Y-2.55000
G01 X-4.87673 Y-2.53809
G01 X-4.87591 Y-2.52926
G01 X-4.87410 Y-2.51733
G01 X-4.87165 Y-2.50634
G01 X-4.86909 Y-2.49723
G01 X-4.86529 Y-2.48629
G01 X-4.86219 Y-2.47884
G01 X-4.85719 Y-2.46831
G01 X-4.85148 Y-2.45819
G01 X-4.84658 Y-2.45057
G01 X-4.83976 Y-2.44115
G01 X-4.83228 Y-2.43222
G01 X-4.82599 Y-2.42549
G01 X-4.81755 Y-2.41749
G01 X-4.81139 Y-2.41228
G01 X-4.80243 Y-2.40547
G01 X-4.79776 Y-2.40230
G01 X-4.79062 Y-2.39780
G01 X-4.78181 Y-2.39291
G01 X-4.77534 Y-2.38968
G01 X-4.76982 Y-2.38720
G01 X-4.76160 Y-2.38394
G01 X-4.75591 Y-2.38191
G01 X-4.75052 Y-2.38023
G01 X-4.74199 Y-2.37791
G01 X-4.73608 Y-2.37658
G01 X-4.72858 Y-2.37521
G01 X-4.71819 Y-2.37381
G01 X-4.71020 Y-2.37316
G01 X-4.70460 Y-2.37292
G01 X-4.69254 Y-2.37301
G01 X-4.67934 Y-2.37406
G01 X-4.66664 Y-2.37602
G01 X-4.65455 Y-2.37879
G01 X-4.64889 Y-2.38040
G01 X-4.64126 Y-2.38288
G01 X-4.63633 Y-2.38471
G01 X-4.62897 Y-2.38772
G01 X-4.62146 Y-2.39126
G01 X-4.61175 Y-2.39645
G01 X-4.61194 Y-2.39724
G01 X-4.61175 Y-2.39645
G01 X-4.38826 Y-2.39645
G01 X-4.38810 Y-2.39717
G01 X-4.38826 Y-2.39645
G01 X-4.38311 Y-2.39356
G01 X-4.37698 Y-2.39048
G01 X-4.36745 Y-2.38620
G01 X-4.35727 Y-2.38241
G01 X-4.35076 Y-2.38028
G01 X-4.34565 Y-2.37886
G01 X-4.34525 Y-2.37949
G01 X-4.34565 Y-2.37886
G01 X-4.31679 Y-2.35000
G01 X-4.35576 Y-2.35000
G01 X-4.36008 Y-2.35431
G01 X-4.35971 Y-2.35489
G01 X-4.36008 Y-2.35431
G01 X-4.36156 Y-2.35478
G01 X-4.37137 Y-2.35817
G01 X-4.37808 Y-2.36077
G01 X-4.38466 Y-2.36365
G01 X-4.39366 Y-2.36798
G01 X-4.39542 Y-2.36890
G01 X-4.39527 Y-2.36955
G01 X-4.39542 Y-2.36890
G01 X-4.60478 Y-2.36890
G01 X-4.60494 Y-2.36962
G01 X-4.60478 Y-2.36890
G01 X-4.61134 Y-2.36551
G01 X-4.61864 Y-2.36216
G01 X-4.62790 Y-2.35842
G01 X-4.63457 Y-2.35604
G01 X-4.64297 Y-2.35340
G01 X-4.64924 Y-2.35170
G01 X-4.65640 Y-2.35000
G01 X-4.74361 Y-2.35000
G01 X-4.75221 Y-2.35209
G01 X-4.76333 Y-2.35534
G01 X-4.77086 Y-2.35798
G01 X-4.78125 Y-2.36212
G01 X-4.78923 Y-2.36579
G01 X-4.79882 Y-2.37073
G01 X-4.80572 Y-2.37473
G01 X-4.81449 Y-2.38032
G01 X-4.82198 Y-2.38562
G01 X-4.83109 Y-2.39278
G01 X-4.83770 Y-2.39856
G01 X-4.84550 Y-2.40602
G01 X-4.85182 Y-2.41272
G01 X-4.85910 Y-2.42122
G01 X-4.86401 Y-2.42752
G01 X-4.87000 Y-2.43599
G01 X-4.87472 Y-2.44337
G01 X-4.88048 Y-2.45341
G01 X-4.88410 Y-2.46053
G01 X-4.88871 Y-2.47072
G01 X-4.89194 Y-2.47888
G01 X-4.89542 Y-2.48908
G01 X-4.89774 Y-2.49711
G01 X-4.90000 Y-2.50642
G01 X-4.90000 Y-2.59358
G01 X-4.89784 Y-2.60250
G01 X-4.89601 Y-2.60902
G01 X-4.89180 Y-2.62149
G01 X-4.88979 Y-2.62670
G01 X-4.88743 Y-2.63221
G01 X-4.88410 Y-2.63947
G01 X-4.88141 Y-2.64483
G01 X-4.87431 Y-2.65731
G01 X-4.86842 Y-2.66630
G01 X-4.86401 Y-2.67247
G01 X-4.85988 Y-2.67783
G01 X-4.85080 Y-2.68843
G01 X-4.84670 Y-2.69276
G01 X-4.84213 Y-2.69727
G01 X-4.82871 Y-2.69678
G01 X-4.80402 Y-2.69478
G01 X-4.78686 Y-2.69264
G01 X-4.76784 Y-2.68943
G01 X-4.75032 Y-2.68561
G01 X-4.71730 Y-2.67722
G01 X-4.69756 Y-2.67255
G01 X-4.67714 Y-2.66804
G01 X-4.64381 Y-2.66126
G01 X-4.63395 Y-2.65885
G01 X-4.62523 Y-2.65638
G01 X-4.62129 Y-2.65581
G01 X-4.62132 Y-2.65562
G01 X-4.62129 Y-2.65581
G01 X-4.37875 Y-2.65580
G01 X-4.37873 Y-2.65562
G01 X-4.37875 Y-2.65580
G01 X-4.37499 Y-2.65633
G01 X-4.36463 Y-2.65919
G01 X-4.35290 Y-2.66196
G01 X-4.34851 Y-2.66285
G01 X-4.33769 Y-2.66473
G01 X-4.32359 Y-2.66646
G01 X-4.31957 Y-2.66681
G01 X-4.30559 Y-2.66752
G01 X-4.29567 Y-2.66754
G01 X-4.28190 Y-2.66693
G01 X-4.27801 Y-2.66728
G01 X-4.27799 Y-2.66709
G01 X-4.27801 Y-2.66728
G01 X-4.17553 Y-2.69147
G01 X-4.27586 Y-2.64130
G01 X-4.27565 Y-2.63977
G01 X-4.27586 Y-2.64130
G01 X-4.27950 Y-2.64221
G01 X-4.28899 Y-2.64382
G01 X-4.29740 Y-2.64440
G01 X-4.30233 Y-2.64443
G01 X-4.31000 Y-2.64393
G01 X-4.31366 Y-2.64345
G01 X-4.32162 Y-2.64196
G01 X-4.32901 Y-2.63987
G01 X-4.33244 Y-2.63872
G01 X-4.34019 Y-2.63547
G01 X-4.34443 Y-2.63334
G01 X-4.35235 Y-2.62863
G01 X-4.35980 Y-2.62312
G01 X-4.36243 Y-2.62087
G01 X-4.36192 Y-2.61939
G01 X-4.36243 Y-2.62087
G01 X-4.63757 Y-2.62087
G01 X-4.63811 Y-2.61932
G01 X-4.63757 Y-2.62087
G01 X-4.63862 Y-2.62181
G01 X-4.64537 Y-2.62707
G01 X-4.65212 Y-2.63143
G01 X-4.65748 Y-2.63436
G01 X-4.66422 Y-2.63743
G01 X-4.67039 Y-2.63971
G01 X-4.67710 Y-2.64165
G01 X-4.68395 Y-2.64309
G01 X-4.69003 Y-2.64393
G01 X-4.69380 Y-2.64425
G01 X-4.69996 Y-2.64446
G01 X-4.70638 Y-2.64425
G01 X-4.71310 Y-2.64354
G01 X-4.71692 Y-2.64292
G01 X-4.72423 Y-2.64131
G01 X-4.73227 Y-2.63878
G01 X-4.74123 Y-2.63499
G01 X-4.74906 Y-2.63072
G01 X-4.75445 Y-2.62718
G01 X-4.75742 Y-2.62500
G01 X-4.76350 Y-2.61994
G01 X-4.76776 Y-2.61581
G01 X-4.77040 Y-2.61297
G01 X-4.77446 Y-2.60814
G01 X-4.77816 Y-2.60302
G01 X-4.78008 Y-2.60010
G01 X-4.78288 Y-2.59530
G01 X-4.78477 Y-2.59167
G01 X-4.78742 Y-2.58578
G01 X-4.79038 Y-2.57746
G01 X-4.79262 Y-2.56860
G01 X-4.79395 Y-2.55979
G01 X-4.79446 Y-2.55058
G01 X-4.79411 Y-2.54184
G01 X-4.79285 Y-2.53261
G01 X-4.79093 Y-2.52440
G01 X-4.78846 Y-2.51689
G01 X-4.78677 Y-2.51272
G01 X-4.78367 Y-2.50614
G01 X-4.77946 Y-2.49891
G01 X-4.77487 Y-2.49239
G01 X-4.76993 Y-2.48652
G01 X-4.76690 Y-2.48332
G01 X-4.76128 Y-2.47811
G01 X-4.75490 Y-2.47312
G01 X-4.74880 Y-2.46915
G01 X-4.74490 Y-2.46690
G01 X-4.73800 Y-2.46351
G01 X-4.73007 Y-2.46044
G01 X-4.72307 Y-2.45840
G01 X-4.71868 Y-2.45743
G01 X-4.71069 Y-2.45614
G01 X-4.70507 Y-2.45568
G01 X-4.70140 Y-2.45556
G01 X-4.69608 Y-2.45561
G01 X-4.68959 Y-2.45611
G01 X-4.68318 Y-2.45705
G01 X-4.67989 Y-2.45771
G01 X-4.67485 Y-2.45894
G01 X-4.66910 Y-2.46073
G01 X-4.66299 Y-2.46309
G01 X-4.65999 Y-2.46443
G01 X-4.65252 Y-2.46838
G01 X-4.64948 Y-2.47018
G01 X-4.64141 Y-2.47596
G01 X-4.63755 Y-2.47913
G01 X-4.63803 Y-2.48057
G01 X-4.63755 Y-2.47913
G01 X-4.36239 Y-2.47913
G01 X-4.36191 Y-2.48056
G01 X-4.36239 Y-2.47913
G01 X-4.35842 Y-2.47576
G01 X-4.35320 Y-2.47195
G01 X-4.35046 Y-2.47016
G01 X-4.34453 Y-2.46669
G01 X-4.33610 Y-2.46270
G01 X-4.32693 Y-2.45945
G01 X-4.31746 Y-2.45716
G01 X-4.31027 Y-2.45610
G01 X-4.30560 Y-2.45574
G01 X-4.30493 Y-2.45710
G01 X-4.30560 Y-2.45574
G01 X-4.20314 Y-2.35328
G01 X-4.19956 Y-2.35000
G01 X-3.75044 Y-2.35000
G01 X-3.74686 Y-2.35328
G01 X-3.64439 Y-2.45574
G01 X-3.64507 Y-2.45710
G01 X-3.64439 Y-2.45574
G01 X-3.63973 Y-2.45610
G01 X-3.63254 Y-2.45716
G01 X-3.62307 Y-2.45945
G01 X-3.61390 Y-2.46270
G01 X-3.60547 Y-2.46669
G01 X-3.59954 Y-2.47016
G01 X-3.59680 Y-2.47195
G01 X-3.59158 Y-2.47576
G01 X-3.58761 Y-2.47913
G01 X-3.58809 Y-2.48056
G01 X-3.58761 Y-2.47913
G01 X-3.31245 Y-2.47913
G01 X-3.31197 Y-2.48057
G01 X-3.31245 Y-2.47913
G01 X-3.31179 Y-2.47854
G01 X-3.30892 Y-2.47620
G01 X-3.30344 Y-2.47216
G01 X-3.29885 Y-2.46916
G01 X-3.29148 Y-2.46516
G01 X-3.28814 Y-2.46357
G01 X-3.28169 Y-2.46101
G01 X-3.27515 Y-2.45894
G01 X-3.26888 Y-2.45744
G01 X-3.26284 Y-2.45642
G01 X-3.25920 Y-2.45599
G01 X-3.25308 Y-2.45558
G01 X-3.24656 Y-2.45559
G01 X-3.24013 Y-2.45607
G01 X-3.23647 Y-2.45652
G01 X-3.22971 Y-2.45774
G01 X-3.22032 Y-2.46031
G01 X-3.21088 Y-2.46401
G01 X-3.20259 Y-2.46829
G01 X-3.19713 Y-2.47173
G01 X-3.19379 Y-2.47410
G01 X-3.18840 Y-2.47838
G01 X-3.18339 Y-2.48305
G01 X-3.18087 Y-2.48562
G01 X-3.17693 Y-2.49016
G01 X-3.17464 Y-2.49305
G01 X-3.17075 Y-2.49858
G01 X-3.16595 Y-2.50686
G01 X-3.16290 Y-2.51346
G01 X-3.16154 Y-2.51689
G01 X-3.15939 Y-2.52328
G01 X-3.15783 Y-2.52940
G01 X-3.15701 Y-2.53341
G01 X-3.15605 Y-2.54021
G01 X-3.15577 Y-2.54347
G01 X-3.15553 Y-2.55019
G01 X-3.18309 Y-2.55000
G01 X-3.07286 Y-2.55039
G01 X-3.05000 Y-2.59352
G01 X-3.05000 Y-2.50642
G01 X-3.05226 Y-2.49711
G01 X-3.05422 Y-2.49022
G01 X-3.05752 Y-2.48039
G01 X-3.06051 Y-2.47256
G01 X-3.06505 Y-2.46233
G01 X-3.06840 Y-2.45553
G01 X-3.07386 Y-2.44577
G01 X-3.07780 Y-2.43931
G01 X-3.08435 Y-2.42978
G01 X-3.08914 Y-2.42339
G01 X-3.09659 Y-2.41452
G01 X-3.10225 Y-2.40831
G01 X-3.11113 Y-2.39965
G01 X-3.11708 Y-2.39432
G01 X-3.12643 Y-2.38683
G01 X-3.13320 Y-2.38189
G01 X-3.14292 Y-2.37558
G01 X-3.15013 Y-2.37131
G01 X-3.16041 Y-2.36597
G01 X-3.16765 Y-2.36259
G01 X-3.17877 Y-2.35812
G01 X-3.18667 Y-2.35534
G01 X-3.19779 Y-2.35209
G01 X-3.20639 Y-2.35000
G01 X-3.29360 Y-2.35000
G01 X-3.30076 Y-2.35170
G01 X-3.30702 Y-2.35340
G01 X-3.31542 Y-2.35604
G01 X-3.32210 Y-2.35842
G01 X-3.33135 Y-2.36216
G01 X-3.33866 Y-2.36551
G01 X-3.34522 Y-2.36890
G01 X-3.34505 Y-2.36962
G01 X-3.34522 Y-2.36890
G01 X-3.55458 Y-2.36890
G01 X-3.55473 Y-2.36955
G01 X-3.55458 Y-2.36890
G01 X-3.55634 Y-2.36798
G01 X-3.56534 Y-2.36365
G01 X-3.57192 Y-2.36077
G01 X-3.57862 Y-2.35817
G01 X-3.58844 Y-2.35478
G01 X-3.58992 Y-2.35431
G01 X-3.59029 Y-2.35489
G01 X-3.58992 Y-2.35431
G01 X-3.59423 Y-2.35000
G01 X-3.63321 Y-2.35000
G01 X-3.60435 Y-2.37886
G01 X-3.60474 Y-2.37949
G01 X-3.60435 Y-2.37886
G01 X-3.59924 Y-2.38028
G01 X-3.59273 Y-2.38241
G01 X-3.58255 Y-2.38620
G01 X-3.57302 Y-2.39048
G01 X-3.56689 Y-2.39356
G01 X-3.56173 Y-2.39645
G01 X-3.56190 Y-2.39717
G01 X-3.56173 Y-2.39645
G01 X-3.33825 Y-2.39645
G01 X-3.33807 Y-2.39719
G01 X-3.33825 Y-2.39645
G01 X-3.32924 Y-2.39162
G01 X-3.32212 Y-2.38820
G01 X-3.30988 Y-2.38328
G01 X-3.29847 Y-2.37962
G01 X-3.28613 Y-2.37658
G01 X-3.27503 Y-2.37465
G01 X-3.26549 Y-2.37355
G01 X-3.25907 Y-2.37309
G01 X-3.25382 Y-2.37290
G01 X-3.24260 Y-2.37301
G01 X-3.23101 Y-2.37389
G01 X-3.22261 Y-2.37500
G01 X-3.21115 Y-2.37717
G01 X-3.20606 Y-2.37840
G01 X-3.19948 Y-2.38023
G01 X-3.19142 Y-2.38283
G01 X-3.18055 Y-2.38705
G01 X-3.17176 Y-2.39110
G01 X-3.16498 Y-2.39459
G01 X-3.15938 Y-2.39780
G01 X-3.15157 Y-2.40274
G01 X-3.14594 Y-2.40665
G01 X-3.13861 Y-2.41228
G01 X-3.13365 Y-2.41642
G01 X-3.12658 Y-2.42297
G01 X-3.12177 Y-2.42778
G01 X-3.11772 Y-2.43222
G01 X-3.11124 Y-2.43988
G01 X-3.10733 Y-2.44502
G01 X-3.10209 Y-2.45252
G01 X-3.09852 Y-2.45819
G01 X-3.09376 Y-2.46653
G01 X-3.09083 Y-2.47228
G01 X-3.08732 Y-2.47995
G01 X-3.08386 Y-2.48855
G01 X-3.08021 Y-2.49949
G01 X-3.07722 Y-2.51101
G01 X-3.07547 Y-2.51971
G01 X-3.07390 Y-2.53086
G01 X-3.07318 Y-2.53970
G01 X-3.07286 Y-2.55079
G01 X-3.07334 Y-2.56304
G01 X-3.07421 Y-2.57167
G01 X-3.07596 Y-2.58301
G01 X-3.07847 Y-2.59421
G01 X-3.08085 Y-2.60255
G01 X-3.08473 Y-2.61377
G01 X-3.08924 Y-2.62437
G01 X-3.09394 Y-2.63374
G01 X-3.09754 Y-2.64017
G01 X-3.09793 Y-2.64021
G01 X-3.07430 Y-2.63748
G01 X-3.06424 Y-2.63597
G01 X-3.05972 Y-2.62549
G01 X-3.05644 Y-2.61652
G01 X-3.05285 Y-2.60511
G01 X-3.05000 Y-2.59352
G01 X-3.07286 Y-2.55039
G01 X-3.12797 Y-2.55020
G01 X-3.12829 Y-2.55857
G01 X-3.12881 Y-2.56412
G01 X-3.12997 Y-2.57201
G01 X-3.13169 Y-2.57980
G01 X-3.13316 Y-2.58518
G01 X-3.13584 Y-2.59311
G01 X-3.13909 Y-2.60084
G01 X-3.14115 Y-2.60516
G01 X-3.14521 Y-2.61250
G01 X-3.14819 Y-2.61723
G01 X-3.15303 Y-2.62407
G01 X-3.15835 Y-2.63054
G01 X-3.16212 Y-2.63464
G01 X-3.16813 Y-2.64048
G01 X-3.17454 Y-2.64588
G01 X-3.17899 Y-2.64922
G01 X-3.16238 Y-2.64709
G01 X-3.13352 Y-2.64382
G01 X-3.13086 Y-2.64045
G01 X-3.12597 Y-2.63357
G01 X-3.12315 Y-2.62928
G01 X-3.12073 Y-2.62522
G01 X-3.11654 Y-2.61756
G01 X-3.11415 Y-2.61258
G01 X-3.11098 Y-2.60522
G01 X-3.10928 Y-2.60069
G01 X-3.10712 Y-2.59422
G01 X-3.10533 Y-2.58802
G01 X-3.10350 Y-2.58019
G01 X-3.10253 Y-2.57504
G01 X-3.10156 Y-2.56828
G01 X-3.10102 Y-2.56347
G01 X-3.10069 Y-2.55864
G01 X-3.10042 Y-2.55141
G01 X-3.10051 Y-2.54536
G01 X-3.10112 Y-2.53546
G01 X-3.10262 Y-2.52447
G01 X-3.10418 Y-2.51674
G01 X-3.10573 Y-2.51051
G01 X-3.10708 Y-2.50587
G01 X-3.11076 Y-2.49534
G01 X-3.11538 Y-2.48482
G01 X-3.11920 Y-2.47747
G01 X-3.12262 Y-2.47159
G01 X-3.12522 Y-2.46750
G01 X-3.13196 Y-2.45812
G01 X-3.13912 Y-2.44962
G01 X-3.14494 Y-2.44355
G01 X-3.15342 Y-2.43577
G01 X-3.16279 Y-2.42847
G01 X-3.17205 Y-2.42237
G01 X-3.17922 Y-2.41823
G01 X-3.18918 Y-2.41334
G01 X-3.19837 Y-2.40963
G01 X-3.20433 Y-2.40756
G01 X-3.21310 Y-2.40505
G01 X-3.22002 Y-2.40347
G01 X-3.22861 Y-2.40196
G01 X-3.23566 Y-2.40113
G01 X-3.24493 Y-2.40050
G01 X-3.25500 Y-2.40050
G01 X-3.26664 Y-2.40134
G01 X-3.27702 Y-2.40288
G01 X-3.28134 Y-2.40374
G01 X-3.28792 Y-2.40530
G01 X-3.29701 Y-2.40801
G01 X-3.30192 Y-2.40972
G01 X-3.30787 Y-2.41208
G01 X-3.31583 Y-2.41571
G01 X-3.32464 Y-2.42042
G01 X-3.32949 Y-2.42328
G01 X-3.33064 Y-2.42401
G01 X-3.33042 Y-2.42487
G01 X-3.33064 Y-2.42401
G01 X-3.56937 Y-2.42401
G01 X-3.56962 Y-2.42496
G01 X-3.56937 Y-2.42401
G01 X-3.57700 Y-2.41946
G01 X-3.58363 Y-2.41596
G01 X-3.59264 Y-2.41185
G01 X-3.60268 Y-2.40813
G01 X-3.60945 Y-2.40602
G01 X-3.61838 Y-2.40380
G01 X-3.61888 Y-2.40466
G01 X-3.61838 Y-2.40380
G01 X-3.67219 Y-2.35000
G01 X-3.71116 Y-2.35000
G01 X-3.63176 Y-2.42939
G01 X-3.63233 Y-2.43043
G01 X-3.63176 Y-2.42939
G01 X-3.62344 Y-2.43091
G01 X-3.61417 Y-2.43335
G01 X-3.60364 Y-2.43712
G01 X-3.59386 Y-2.44166
G01 X-3.58519 Y-2.44663
G01 X-3.58184 Y-2.44879
G01 X-3.57794 Y-2.45157
G01 X-3.57827 Y-2.45268
G01 X-3.57794 Y-2.45157
G01 X-3.32196 Y-2.45157
G01 X-3.32160 Y-2.45275
G01 X-3.32196 Y-2.45157
G01 X-3.31679 Y-2.44788
G01 X-3.31089 Y-2.44431
G01 X-3.30094 Y-2.43911
G01 X-3.29354 Y-2.43602
G01 X-3.28835 Y-2.43417
G01 X-3.28115 Y-2.43202
G01 X-3.27228 Y-2.43003
G01 X-3.26443 Y-2.42883
G01 X-3.25691 Y-2.42818
G01 X-3.25179 Y-2.42800
G01 X-3.24385 Y-2.42813
G01 X-3.23591 Y-2.42879
G01 X-3.23038 Y-2.42959
G01 X-3.22214 Y-2.43119
G01 X-3.21367 Y-2.43352
G01 X-3.20838 Y-2.43532
G01 X-3.19985 Y-2.43875
G01 X-3.19198 Y-2.44266
G01 X-3.18646 Y-2.44586
G01 X-3.17943 Y-2.45045
G01 X-3.17214 Y-2.45604
G01 X-3.16911 Y-2.45864
G01 X-3.16474 Y-2.46275
G01 X-3.16053 Y-2.46703
G01 X-3.15429 Y-2.47431
G01 X-3.14933 Y-2.48108
G01 X-3.14607 Y-2.48608
G01 X-3.14173 Y-2.49371
G01 X-3.13782 Y-2.50203
G01 X-3.13559 Y-2.50759
G01 X-3.13283 Y-2.51592
G01 X-3.13078 Y-2.52405
G01 X-3.12978 Y-2.52914
G01 X-3.12862 Y-2.53745
G01 X-3.12824 Y-2.54222
G01 X-3.12797 Y-2.55020
G01 X-3.15553 Y-2.55019
G01 X-3.15591 Y-2.55844
G01 X-3.15701 Y-2.56662
G01 X-3.15891 Y-2.57505
G01 X-3.16119 Y-2.58217
G01 X-3.16418 Y-2.58944
G01 X-3.16635 Y-2.59385
G01 X-3.17017 Y-2.60052
G01 X-3.17543 Y-2.60799
G01 X-3.18051 Y-2.61399
G01 X-3.18636 Y-2.61982
G01 X-3.19300 Y-2.62534
G01 X-3.19920 Y-2.62964
G01 X-3.20200 Y-2.63135
G01 X-3.20766 Y-2.63444
G01 X-3.21430 Y-2.63744
G01 X-3.21755 Y-2.63872
G01 X-3.22244 Y-2.64033
G01 X-3.22730 Y-2.64168
G01 X-3.23309 Y-2.64294
G01 X-3.23973 Y-2.64389
G01 X-3.24369 Y-2.64424
G01 X-3.24972 Y-2.64447
G01 X-3.25659 Y-2.64424
G01 X-3.26261 Y-2.64360
G01 X-3.26634 Y-2.64303
G01 X-3.27278 Y-2.64167
G01 X-3.27909 Y-2.63988
G01 X-3.28551 Y-2.63754
G01 X-3.29142 Y-2.63490
G01 X-3.29753 Y-2.63164
G01 X-3.30468 Y-2.62703
G01 X-3.31107 Y-2.62207
G01 X-3.31243 Y-2.62087
G01 X-3.31189 Y-2.61932
G01 X-3.31243 Y-2.62087
G01 X-3.58758 Y-2.62087
G01 X-3.58824 Y-2.61912
G01 X-3.58758 Y-2.62087
G01 X-3.58941 Y-2.62246
G01 X-3.59737 Y-2.62162
G01 X-3.60299 Y-2.62086
G01 X-3.61146 Y-2.61942
G01 X-3.62256 Y-2.61698
G01 X-3.63178 Y-2.61438
G01 X-3.63859 Y-2.61592
G01 X-3.64287 Y-2.61653
G01 X-3.64830 Y-2.61689
G01 X-3.65374 Y-2.61680
G01 X-3.65842 Y-2.61637
G01 X-3.66517 Y-2.61514
G01 X-3.63942 Y-2.64086
G01 X-3.62918 Y-2.64373
G01 X-3.61672 Y-2.64652
G01 X-3.60713 Y-2.64810
G01 X-3.60096 Y-2.64895
G01 X-3.58495 Y-2.65047
G01 X-3.53312 Y-2.67193
G01 X-3.53053 Y-2.67271
G01 X-3.53063 Y-2.67323
G01 X-3.53053 Y-2.67271
G01 X-3.52784 Y-2.67298
G01 X-3.32761 Y-2.67298
G01 X-3.31238 Y-2.67717
G01 X-3.30264 Y-2.67935
G01 X-3.29297 Y-2.68118
G01 X-3.28303 Y-2.68263
G01 X-3.27339 Y-2.68372
G01 X-3.26336 Y-2.68442
G01 X-3.25643 Y-2.68468
G01 X-3.24226 Y-2.68465
G01 X-3.23516 Y-2.68434
G01 X-3.22310 Y-2.68336
G01 X-3.21149 Y-2.68186
G01 X-3.18312 Y-2.67759
G01 X-3.15897 Y-2.67444
G01 X-3.13819 Y-2.67202
G01 X-3.09493 Y-2.66761
G01 X-3.07097 Y-2.66483
G01 X-3.06374 Y-2.66382
G01 X-3.05000 Y-2.66155
G01 X-3.05000 Y-2.67310
G01 X-3.05991 Y-2.66319
G01 X-3.05000 Y-2.67310
G01 X-3.05000 Y-2.76773
G01 X-3.05197 Y-2.76277
G01 X-3.05506 Y-2.75580
G01 X-3.05759 Y-2.75082
G01 X-3.06038 Y-2.74598
G01 X-3.06427 Y-2.73991
G01 X-3.06748 Y-2.73537
G01 X-3.07117 Y-2.73070
G01 X-3.07592 Y-2.72527
G01 X-3.12242 Y-2.67865
G01 X-3.12858 Y-2.67295
G01 X-3.13063 Y-2.67123
G01 X-3.13819 Y-2.67202
G01 X-3.09453 Y-2.66756
G01 X-3.05868 Y-2.70340
G01 X-3.05464 Y-2.70772
G01 X-3.05000 Y-2.71305
G01 X-3.05000 Y-3.51114
G01 X-3.13886 Y-3.60000
G01 X-3.29506 Y-3.60000
G01 X-3.22608 Y-3.60000
G01 X-3.21613 Y-3.59355
G01 X-3.20795 Y-3.58773
G01 X-3.20035 Y-3.58179
G01 X-3.19180 Y-3.57446
G01 X-3.18533 Y-3.56847
G01 X-3.05000 Y-3.43319
G01 X-3.05000 Y-3.47216
G01 X-3.16410 Y-3.58626
G01 X-3.17099 Y-3.59280
G01 X-3.17916 Y-3.60000
G01 X-3.13886 Y-3.60000
G01 X-3.05000 Y-3.51114
G01 X-3.05000 Y-3.55011
G01 X-3.09989 Y-3.60000
G01 X-3.87592 Y-3.60000
G01 X-3.88431 Y-3.59753
G01 X-3.89264 Y-3.59467
G01 X-3.90010 Y-3.59184
G01 X-3.90779 Y-3.58854
G01 X-3.91569 Y-3.58473
G01 X-3.92415 Y-3.58018
G01 X-3.93103 Y-3.57615
G01 X-3.93774 Y-3.57183
G01 X-3.94490 Y-3.56677
G01 X-3.95252 Y-3.56090
G01 X-3.95925 Y-3.55526
G01 X-3.96543 Y-3.54959
G01 X-3.98482 Y-3.53027
G01 X-3.98388 Y-3.52751
G01 X-3.98482 Y-3.53027
G01 X-3.99541 Y-3.53152
G01 X-4.00659 Y-3.53219
G01 X-4.08940 Y-3.53227
G01 X-4.09820 Y-3.53198
G01 X-4.10732 Y-3.53125
G01 X-4.10889 Y-3.49971
G01 X-4.10656 Y-3.54631
G01 X-4.10363 Y-3.60000
G01 X-3.94485 Y-3.60000
G01 X-3.95311 Y-3.59470
G01 X-3.96101 Y-3.58914
G01 X-3.96961 Y-3.58252
G01 X-3.97756 Y-3.57585
G01 X-3.98490 Y-3.56909
G01 X-3.99493 Y-3.55913
G01 X-3.99403 Y-3.55680
G01 X-3.99493 Y-3.55913
G01 X-4.00779 Y-3.55979
G01 X-4.08860 Y-3.55984
G01 X-4.09701 Y-3.55963
G01 X-4.10586 Y-3.55907
G01 X-4.10656 Y-3.54631
G01 X-4.10435 Y-3.58682
G01 X-4.09620 Y-3.58724
G01 X-4.08900 Y-3.58740
G01 X-4.00900 Y-3.58738
G01 X-4.00571 Y-3.58731
G01 X-4.00499 Y-3.58544
G01 X-4.00571 Y-3.58731
G01 X-3.99885 Y-3.59378
G01 X-3.99175 Y-3.60000
G01 X-3.29506 Y-3.60000
G01 X-3.28334 Y-3.59649
G01 X-3.27768 Y-3.59450
G01 X-3.27134 Y-3.59203
G01 X-3.25849 Y-3.58636
G01 X-3.25241 Y-3.58330
G01 X-3.24643 Y-3.58004
G01 X-3.24058 Y-3.57657
G01 X-3.23448 Y-3.57267
G01 X-3.22948 Y-3.56929
G01 X-3.22426 Y-3.56551
G01 X-3.21917 Y-3.56157
G01 X-3.21452 Y-3.55772
G01 X-3.20911 Y-3.55296
G01 X-3.20420 Y-3.54838
G01 X-3.05000 Y-3.39421
G01 X-3.05000 Y-3.35524
G01 X-3.22201 Y-3.52725
G01 X-3.22874 Y-3.53355
G01 X-3.23706 Y-3.54059
G01 X-3.24187 Y-3.54426
G01 X-3.24714 Y-3.54799
G01 X-3.25390 Y-3.55240
G01 X-3.25941 Y-3.55571
G01 X-3.26469 Y-3.55863
G01 X-3.27044 Y-3.56152
G01 X-3.28297 Y-3.56701
G01 X-3.28937 Y-3.56942
G01 X-3.29509 Y-3.57133
G01 X-3.30165 Y-3.57324
G01 X-3.30869 Y-3.57499
G01 X-3.31494 Y-3.57634
G01 X-3.32084 Y-3.57740
G01 X-3.32638 Y-3.57818
G01 X-3.33233 Y-3.57882
G01 X-3.34108 Y-3.57945
G01 X-3.34936 Y-3.57965
G01 X-3.82402 Y-3.57957
G01 X-3.83039 Y-3.57941
G01 X-3.83714 Y-3.57898
G01 X-3.84388 Y-3.57827
G01 X-3.85018 Y-3.57735
G01 X-3.86002 Y-3.57550
G01 X-3.86857 Y-3.57344
G01 X-3.87699 Y-3.57093
G01 X-3.88682 Y-3.56745
G01 X-3.89458 Y-3.56426
G01 X-3.90253 Y-3.56050
G01 X-3.91170 Y-3.55556
G01 X-3.91956 Y-3.55080
G01 X-3.92683 Y-3.54585
G01 X-3.93480 Y-3.53978
G01 X-3.94153 Y-3.53414
G01 X-3.94738 Y-3.52870
G01 X-3.97560 Y-3.50053
G01 X-3.97458 Y-3.49725
G01 X-3.97560 Y-3.50053
G01 X-3.98275 Y-3.50201
G01 X-3.98986 Y-3.50315
G01 X-3.99741 Y-3.50402
G01 X-4.00500 Y-3.50455
G01 X-4.01260 Y-3.50472
G01 X-4.08940 Y-3.50471
G01 X-4.09900 Y-3.50432
G01 X-4.10871 Y-3.50335
G01 X-4.10889 Y-3.49971
G01 X-4.10683 Y-3.45062
G01 X-4.10668 Y-3.44791
G01 X-4.09741 Y-3.44915
G01 X-4.09261 Y-3.44948
G01 X-4.08780 Y-3.44961
G01 X-4.01059 Y-3.44959
G01 X-4.00259 Y-3.44915
G01 X-3.99504 Y-3.44820
G01 X-3.99031 Y-3.44733
G01 X-3.98562 Y-3.44625
G01 X-3.98098 Y-3.44497
G01 X-3.97641 Y-3.44349
G01 X-3.97190 Y-3.44182
G01 X-3.96747 Y-3.43994
G01 X-3.96312 Y-3.43788
G01 X-3.95887 Y-3.43563
G01 X-3.95782 Y-3.43503
G01 X-3.95551 Y-3.42616
G01 X-3.95782 Y-3.43503
G01 X-3.95392 Y-3.44115
G01 X-3.94991 Y-3.44663
G01 X-3.94432 Y-3.45347
G01 X-3.93943 Y-3.45875
G01 X-3.90900 Y-3.48915
G01 X-3.90490 Y-3.49295
G01 X-3.90093 Y-3.49630
G01 X-3.89322 Y-3.50211
G01 X-3.88646 Y-3.50649
G01 X-3.87726 Y-3.51151
G01 X-3.86919 Y-3.51516
G01 X-3.85971 Y-3.51859
G01 X-3.85158 Y-3.52090
G01 X-3.84129 Y-3.52295
G01 X-3.83288 Y-3.52402
G01 X-3.82805 Y-3.52434
G01 X-3.82321 Y-3.52445
G01 X-3.34895 Y-3.52453
G01 X-3.34264 Y-3.52433
G01 X-3.33504 Y-3.52370
G01 X-3.32906 Y-3.52289
G01 X-3.32274 Y-3.52166
G01 X-3.31455 Y-3.51962
G01 X-3.30733 Y-3.51731
G01 X-3.29805 Y-3.51355
G01 X-3.29155 Y-3.51047
G01 X-3.28459 Y-3.50657
G01 X-3.27689 Y-3.50155
G01 X-3.27085 Y-3.49704
G01 X-3.26508 Y-3.49211
G01 X-3.26042 Y-3.48771
G01 X-3.07924 Y-3.30653
G01 X-3.07564 Y-3.30276
G01 X-3.07115 Y-3.29761
G01 X-3.06815 Y-3.29385
G01 X-3.06509 Y-3.28963
G01 X-3.06154 Y-3.28426
G01 X-3.05886 Y-3.27979
G01 X-3.05658 Y-3.27556
G01 X-3.05374 Y-3.26975
G01 X-3.05179 Y-3.26528
G01 X-3.05000 Y-3.26059
G01 X-3.06997 Y-3.21762
G01 X-3.12509 Y-3.21762
G01 X-3.06997 Y-3.21762
G01 X-3.07037 Y-3.22624
G01 X-3.07118 Y-3.23293
G01 X-3.07295 Y-3.24156
G01 X-3.07496 Y-3.24849
G01 X-3.07781 Y-3.25606
G01 X-3.08148 Y-3.26372
G01 X-3.08489 Y-3.26963
G01 X-3.08989 Y-3.27691
G01 X-3.09343 Y-3.28127
G01 X-3.09845 Y-3.28677
G01 X-3.27990 Y-3.46822
G01 X-3.28299 Y-3.47115
G01 X-3.28811 Y-3.47555
G01 X-3.29321 Y-3.47933
G01 X-3.29963 Y-3.48346
G01 X-3.30600 Y-3.48688
G01 X-3.31376 Y-3.49027
G01 X-3.31943 Y-3.49231
G01 X-3.32800 Y-3.49459
G01 X-3.33397 Y-3.49577
G01 X-3.33799 Y-3.49630
G01 X-3.34284 Y-3.49672
G01 X-3.34934 Y-3.49698
G01 X-3.82320 Y-3.49689
G01 X-3.82917 Y-3.49667
G01 X-3.83511 Y-3.49603
G01 X-3.84264 Y-3.49467
G01 X-3.84854 Y-3.49320
G01 X-3.85662 Y-3.49048
G01 X-3.86261 Y-3.48799
G01 X-3.87017 Y-3.48407
G01 X-3.87538 Y-3.48092
G01 X-3.88259 Y-3.47567
G01 X-3.88748 Y-3.47156
G01 X-3.92050 Y-3.43869
G01 X-3.92420 Y-3.43458
G01 X-3.92874 Y-3.42895
G01 X-3.93133 Y-3.42536
G01 X-3.93351 Y-3.42198
G01 X-3.93632 Y-3.41709
G01 X-3.93835 Y-3.41318
G01 X-3.94048 Y-3.40842
G01 X-3.94293 Y-3.40204
G01 X-3.94359 Y-3.40002
G01 X-3.94300 Y-3.39963
G01 X-3.94359 Y-3.40002
G01 X-3.94551 Y-3.39818
G01 X-3.94472 Y-3.39619
G01 X-3.94551 Y-3.39818
G01 X-3.95448 Y-3.39818
G01 X-3.95509 Y-3.39652
G01 X-3.95448 Y-3.39818
G01 X-3.95824 Y-3.40166
G01 X-3.96163 Y-3.40447
G01 X-3.96518 Y-3.40709
G01 X-3.96851 Y-3.40931
G01 X-3.97230 Y-3.41156
G01 X-3.97838 Y-3.41464
G01 X-3.98508 Y-3.41733
G01 X-3.99198 Y-3.41943
G01 X-3.99864 Y-3.42086
G01 X-4.00539 Y-3.42173
G01 X-4.01180 Y-3.42204
G01 X-4.08780 Y-3.42205
G01 X-4.09421 Y-3.42177
G01 X-4.09978 Y-3.42111
G01 X-4.10511 Y-3.42013
G01 X-4.10379 Y-3.39968
G01 X-4.10235 Y-3.38320
G01 X-4.10379 Y-3.39968
G01 X-4.10464 Y-3.41167
G01 X-4.10683 Y-3.45062
G01 X-4.10796 Y-3.47562
G01 X-4.09859 Y-3.47671
G01 X-4.08900 Y-3.47716
G01 X-4.01180 Y-3.47716
G01 X-4.00181 Y-3.47674
G01 X-3.99346 Y-3.47583
G01 X-3.98518 Y-3.47441
G01 X-3.97738 Y-3.47259
G01 X-3.96933 Y-3.47020
G01 X-3.96695 Y-3.46938
G01 X-3.96561 Y-3.46481
G01 X-3.96695 Y-3.46938
G01 X-3.96143 Y-3.47564
G01 X-3.92646 Y-3.51059
G01 X-3.91927 Y-3.51691
G01 X-3.90970 Y-3.52421
G01 X-3.90303 Y-3.52866
G01 X-3.89611 Y-3.53270
G01 X-3.88792 Y-3.53698
G01 X-3.87949 Y-3.54072
G01 X-3.87006 Y-3.54419
G01 X-3.86202 Y-3.54666
G01 X-3.85423 Y-3.54855
G01 X-3.84475 Y-3.55031
G01 X-3.83441 Y-3.55155
G01 X-3.82882 Y-3.55189
G01 X-3.82362 Y-3.55201
G01 X-3.34935 Y-3.55209
G01 X-3.34172 Y-3.55188
G01 X-3.33489 Y-3.55138
G01 X-3.32931 Y-3.55078
G01 X-3.32416 Y-3.55001
G01 X-3.31864 Y-3.54897
G01 X-3.31121 Y-3.54725
G01 X-3.30622 Y-3.54590
G01 X-3.30091 Y-3.54425
G01 X-3.29530 Y-3.54224
G01 X-3.28355 Y-3.53724
G01 X-3.27856 Y-3.53478
G01 X-3.27367 Y-3.53212
G01 X-3.26856 Y-3.52906
G01 X-3.26253 Y-3.52512
G01 X-3.25767 Y-3.52168
G01 X-3.25328 Y-3.51827
G01 X-3.24634 Y-3.51232
G01 X-3.24093 Y-3.50719
G01 X-3.05947 Y-3.32574
G01 X-3.05516 Y-3.32119
G01 X-3.05000 Y-3.31528
G01 X-3.05000 Y-3.26059
G01 X-3.06997 Y-3.21762
G01 X-3.06997 Y-2.81031
G01 X-3.07009 Y-2.80625
G01 X-3.07049 Y-2.80099
G01 X-3.07138 Y-2.79415
G01 X-3.07301 Y-2.78662
G01 X-3.07451 Y-2.78120
G01 X-3.07638 Y-2.77589
G01 X-3.07905 Y-2.76957
G01 X-3.08133 Y-2.76487
G01 X-3.08390 Y-2.76033
G01 X-3.08784 Y-2.75427
G01 X-3.09115 Y-2.74981
G01 X-3.09529 Y-2.74495
G01 X-3.09820 Y-2.74182
G01 X-3.14275 Y-2.69731
G01 X-3.14599 Y-2.69433
G01 X-3.14938 Y-2.69153
G01 X-3.15389 Y-2.68810
G01 X-3.15792 Y-2.68537
G01 X-3.16175 Y-2.68308
G01 X-3.16742 Y-2.68005
G01 X-3.17137 Y-2.67820
G01 X-3.17545 Y-2.67655
G01 X-3.19610 Y-2.67946
G01 X-3.21149 Y-2.68186
G01 X-3.22310 Y-2.68335
G01 X-3.23516 Y-2.68433
G01 X-3.24256 Y-2.68466
G01 X-3.25295 Y-2.68475
G01 X-3.26336 Y-2.68442
G01 X-3.27339 Y-2.68370
G01 X-3.28303 Y-2.68263
G01 X-3.29297 Y-2.68116
G01 X-3.30264 Y-2.67935
G01 X-3.31238 Y-2.67715
G01 X-3.32761 Y-2.67298
G01 X-3.52784 Y-2.67298
G01 X-3.53053 Y-2.67271
G01 X-3.53312 Y-2.67193
G01 X-3.58495 Y-2.65047
G01 X-3.59663 Y-2.64945
G01 X-3.61131 Y-2.64744
G01 X-3.61671 Y-2.64648
G01 X-3.62554 Y-2.64461
G01 X-3.63341 Y-2.64262
G01 X-3.63942 Y-2.64086
G01 X-3.62918 Y-2.64373
G01 X-3.61671 Y-2.64648
G01 X-3.60685 Y-2.64814
G01 X-3.60068 Y-2.64898
G01 X-3.59133 Y-2.64996
G01 X-3.54371 Y-2.69753
G01 X-3.54458 Y-2.69963
G01 X-3.54371 Y-2.69753
G01 X-3.21071 Y-2.69753
G01 X-3.20711 Y-2.69765
G01 X-3.20192 Y-2.69808
G01 X-3.19840 Y-2.69863
G01 X-3.19369 Y-2.69963
G01 X-3.19024 Y-2.70056
G01 X-3.18723 Y-2.70158
G01 X-3.18311 Y-2.70315
G01 X-3.17916 Y-2.70499
G01 X-3.17494 Y-2.70729
G01 X-3.17192 Y-2.70914
G01 X-3.16522 Y-2.71415
G01 X-3.16166 Y-2.71736
G01 X-3.11823 Y-2.76076
G01 X-3.11364 Y-2.76584
G01 X-3.11051 Y-2.76994
G01 X-3.10661 Y-2.77608
G01 X-3.10438 Y-2.78044
G01 X-3.10185 Y-2.78643
G01 X-3.10032 Y-2.79108
G01 X-3.09874 Y-2.79773
G01 X-3.09804 Y-2.80239
G01 X-3.09757 Y-2.80874
G01 X-3.09753 Y-3.21762
G01 X-3.09787 Y-3.22444
G01 X-3.09856 Y-3.22955
G01 X-3.10003 Y-3.23621
G01 X-3.10201 Y-3.24233
G01 X-3.10404 Y-3.24720
G01 X-3.10699 Y-3.25293
G01 X-3.11070 Y-3.25867
G01 X-3.11389 Y-3.26279
G01 X-3.11821 Y-3.26756
G01 X-3.30054 Y-3.44985
G01 X-3.30415 Y-3.45305
G01 X-3.30694 Y-3.45528
G01 X-3.31434 Y-3.46014
G01 X-3.31831 Y-3.46222
G01 X-3.32315 Y-3.46434
G01 X-3.32930 Y-3.46651
G01 X-3.33480 Y-3.46788
G01 X-3.33906 Y-3.46867
G01 X-3.34500 Y-3.46925
G01 X-3.34894 Y-3.46942
G01 X-3.82320 Y-3.46933
G01 X-3.82804 Y-3.46912
G01 X-3.83284 Y-3.46848
G01 X-3.83985 Y-3.46701
G01 X-3.84664 Y-3.46478
G01 X-3.85101 Y-3.46299
G01 X-3.85700 Y-3.45986
G01 X-3.86101 Y-3.45737
G01 X-3.86675 Y-3.45306
G01 X-3.87061 Y-3.44959
G01 X-3.90049 Y-3.41974
G01 X-3.90300 Y-3.41697
G01 X-3.90709 Y-3.41189
G01 X-3.90985 Y-3.40785
G01 X-3.91247 Y-3.40327
G01 X-3.91424 Y-3.39968
G01 X-3.91608 Y-3.39521
G01 X-3.91775 Y-3.39027
G01 X-3.91921 Y-3.38438
G01 X-3.91808 Y-3.38367
G01 X-3.91921 Y-3.38438
G01 X-3.92064 Y-3.38334
G01 X-3.92493 Y-3.37974
G01 X-3.92910 Y-3.37541
G01 X-3.93281 Y-3.37062
G01 X-3.93157 Y-3.36799
G01 X-3.93281 Y-3.37062
G01 X-3.96719 Y-3.37062
G01 X-3.96835 Y-3.36810
G01 X-3.96719 Y-3.37062
G01 X-3.96863 Y-3.37260
G01 X-3.97142 Y-3.37601
G01 X-3.97419 Y-3.37891
G01 X-3.97717 Y-3.38159
G01 X-3.98066 Y-3.38429
G01 X-3.98609 Y-3.38769
G01 X-3.99188 Y-3.39044
G01 X-3.99488 Y-3.39156
G01 X-3.99833 Y-3.39261
G01 X-4.00461 Y-3.39391
G01 X-4.00859 Y-3.39434
G01 X-4.01220 Y-3.39449
G01 X-4.08820 Y-3.39448
G01 X-4.09220 Y-3.39428
G01 X-4.09579 Y-3.39385
G01 X-4.09933 Y-3.39318
G01 X-4.10313 Y-3.39220
G01 X-4.10235 Y-3.38320
G01 X-4.10134 Y-3.37414
G01 X-4.09985 Y-3.36395
G01 X-4.10353 Y-3.36171
G01 X-4.10660 Y-3.35914
G01 X-4.10951 Y-3.35583
G01 X-4.11167 Y-3.35242
G01 X-4.11022 Y-3.34670
G01 X-4.10925 Y-3.34352
G01 X-4.10520 Y-3.33223
G01 X-4.10274 Y-3.32336
G01 X-4.10150 Y-3.31729
G01 X-4.10065 Y-3.31132
G01 X-4.10015 Y-3.30534
G01 X-4.10001 Y-3.30054
G01 X-4.10013 Y-3.29505
G01 X-4.10054 Y-3.28969
G01 X-4.10140 Y-3.28334
G01 X-4.10246 Y-3.27781
G01 X-4.10377 Y-3.27257
G01 X-4.10495 Y-3.26857
G01 X-4.10907 Y-3.25703
G01 X-4.10991 Y-3.25435
G01 X-4.11166 Y-3.24755
G01 X-4.11043 Y-3.24548
G01 X-4.10902 Y-3.24354
G01 X-4.10717 Y-3.24143
G01 X-4.10511 Y-3.23952
G01 X-4.10288 Y-3.23783
G01 X-4.10048 Y-3.23637
G01 X-4.09832 Y-3.23532
G01 X-4.09569 Y-3.23435
G01 X-4.09297 Y-3.23364
G01 X-4.09020 Y-3.23321
G01 X-4.08740 Y-3.23307
G01 X-4.01060 Y-3.23314
G01 X-4.00821 Y-3.23342
G01 X-4.00585 Y-3.23391
G01 X-4.00168 Y-3.23532
G01 X-3.99952 Y-3.23637
G01 X-3.99745 Y-3.23760
G01 X-3.99551 Y-3.23901
G01 X-3.99369 Y-3.24058
G01 X-3.99201 Y-3.24231
G01 X-3.99049 Y-3.24417
G01 X-3.98815 Y-3.24790
G01 X-3.98714 Y-3.25008
G01 X-3.98631 Y-3.25234
G01 X-3.98569 Y-3.25467
G01 X-3.98529 Y-3.25694
G01 X-3.91471 Y-3.25694
G01 X-3.91391 Y-3.25311
G01 X-3.91238 Y-3.24898
G01 X-3.91020 Y-3.24515
G01 X-3.90772 Y-3.24201
G01 X-3.90481 Y-3.23926
G01 X-3.90118 Y-3.23676
G01 X-3.89758 Y-3.23502
G01 X-3.89337 Y-3.23372
G01 X-3.89020 Y-3.23321
G01 X-3.88740 Y-3.23307
G01 X-3.81260 Y-3.23307
G01 X-3.80821 Y-3.23342
G01 X-3.80546 Y-3.23401
G01 X-3.80242 Y-3.23502
G01 X-3.79952 Y-3.23637
G01 X-3.79679 Y-3.23805
G01 X-3.79428 Y-3.24004
G01 X-3.79201 Y-3.24231
G01 X-3.79002 Y-3.24482
G01 X-3.78833 Y-3.24757
G01 X-3.79042 Y-3.25546
G01 X-3.79529 Y-3.26935
G01 X-3.79676 Y-3.27458
G01 X-3.79770 Y-3.27858
G01 X-3.79866 Y-3.28368
G01 X-3.79940 Y-3.28909
G01 X-3.79984 Y-3.29449
G01 X-3.79999 Y-3.29939
G01 X-3.79975 Y-3.30702
G01 X-3.79893 Y-3.31458
G01 X-3.79751 Y-3.32229
G01 X-3.79542 Y-3.33025
G01 X-3.79033 Y-3.34485
G01 X-3.78835 Y-3.35240
G01 X-3.78333 Y-3.35574
G01 X-3.79043 Y-3.35574
G01 X-3.78834 Y-3.35245
G01 X-3.78881 Y-3.35040
G01 X-3.78835 Y-3.35240
G01 X-3.78333 Y-3.35574
G01 X-3.77365 Y-3.35803
G01 X-3.76322 Y-3.35962
G01 X-3.75867 Y-3.36003
G01 X-3.75135 Y-3.36034
G01 X-3.74682 Y-3.36030
G01 X-3.73916 Y-3.35984
G01 X-3.73587 Y-3.35950
G01 X-3.72803 Y-3.35834
G01 X-3.71942 Y-3.35648
G01 X-3.68369 Y-3.36280
G01 X-3.68045 Y-3.36328
G01 X-3.67535 Y-3.36376
G01 X-3.67244 Y-3.36387
G01 X-3.45275 Y-3.36389
G01 X-3.44632 Y-3.36609
G01 X-3.44043 Y-3.36764
G01 X-3.43360 Y-3.36892
G01 X-3.42604 Y-3.36968
G01 X-3.42176 Y-3.36980
G01 X-3.37607 Y-3.36976
G01 X-3.36867 Y-3.36922
G01 X-3.36201 Y-3.36817
G01 X-3.35892 Y-3.36601
G01 X-3.35496 Y-3.36291
G01 X-3.34923 Y-3.35769
G01 X-3.34408 Y-3.35202
G01 X-3.33951 Y-3.34595
G01 X-3.33525 Y-3.33908
G01 X-3.33312 Y-3.33506
G01 X-3.33119 Y-3.33094
G01 X-3.32821 Y-3.32342
G01 X-3.32648 Y-3.31810
G01 X-3.32530 Y-3.31388
G01 X-3.29910 Y-3.28768
G01 X-3.29842 Y-3.28719
G01 X-3.29956 Y-3.28801
G01 X-3.30179 Y-3.28910
G01 X-3.30824 Y-3.29148
G01 X-3.31065 Y-3.29205
G01 X-3.31505 Y-3.29276
G01 X-3.31857 Y-3.29303
G01 X-3.33638 Y-3.29305
G01 X-3.34127 Y-3.29091
G01 X-3.34531 Y-3.28937
G01 X-3.45432 Y-3.28937
G01 X-3.45760 Y-3.28812
G01 X-3.46394 Y-3.28535
G01 X-3.46791 Y-3.27992
G01 X-3.46953 Y-3.27728
G01 X-3.47274 Y-3.27068
G01 X-3.47523 Y-3.26295
G01 X-3.47655 Y-3.25494
G01 X-3.47669 Y-3.24798
G01 X-3.47648 Y-3.24451
G01 X-3.47545 Y-3.23802
G01 X-3.47476 Y-3.23540
G01 X-3.47268 Y-3.22917
G01 X-3.46980 Y-3.22323
G01 X-3.46811 Y-3.22038
G01 X-3.46393 Y-3.21464
G01 X-3.46249 Y-3.21396
G01 X-3.45432 Y-3.21064
G01 X-3.34532 Y-3.21061
G01 X-3.33743 Y-3.20740
G01 X-3.33270 Y-3.20201
G01 X-3.29306 Y-3.16238
G01 X-3.29306 Y-3.00121
G01 X-3.29830 Y-2.99628
G01 X-3.30171 Y-2.99246
G01 X-3.30503 Y-2.98805
G01 X-3.30872 Y-2.98208
G01 X-3.31176 Y-2.97573
G01 X-3.31411 Y-2.96911
G01 X-3.31548 Y-2.96377
G01 X-3.31632 Y-2.95872
G01 X-3.31690 Y-2.95094
G01 X-3.31666 Y-2.94423
G01 X-3.36115 Y-2.89975
G01 X-3.36386 Y-2.90105
G01 X-3.36689 Y-2.90210
G01 X-3.37002 Y-2.90280
G01 X-3.37321 Y-2.90312
G01 X-3.42599 Y-2.90315
G01 X-3.42998 Y-2.90280
G01 X-3.43388 Y-2.90187
G01 X-3.43796 Y-2.90022
G01 X-3.44140 Y-2.89817
G01 X-3.44331 Y-2.89670
G01 X-3.44536 Y-2.89479
G01 X-3.44721 Y-2.89268
G01 X-3.44883 Y-2.89040
G01 X-3.45022 Y-2.88796
G01 X-3.45135 Y-2.88539
G01 X-3.45221 Y-2.88272
G01 X-3.45280 Y-2.87998
G01 X-3.45307 Y-2.87769
G01 X-3.45120 Y-2.86973
G01 X-3.44998 Y-2.86223
G01 X-3.44946 Y-2.85680
G01 X-3.44923 Y-2.84860
G01 X-3.44955 Y-2.84203
G01 X-3.45028 Y-2.83561
G01 X-3.45141 Y-2.82927
G01 X-3.45221 Y-2.82579
G01 X-3.45307 Y-2.82237
G01 X-3.45358 Y-2.82149
G01 X-3.45495 Y-2.81946
G01 X-3.45789 Y-2.81562
G01 X-3.46213 Y-2.81121
G01 X-3.46565 Y-2.80988
G01 X-3.47194 Y-2.80786
G01 X-3.47514 Y-2.80699
G01 X-3.48124 Y-2.80565
G01 X-3.48995 Y-2.80443
G01 X-3.49356 Y-2.80417
G01 X-3.49948 Y-2.80405
G01 X-3.50858 Y-2.80460
G01 X-3.51449 Y-2.80544
G01 X-3.51770 Y-2.80606
G01 X-3.52433 Y-2.80769
G01 X-3.52779 Y-2.80874
G01 X-3.53476 Y-2.81123
G01 X-3.53813 Y-2.81468
G01 X-3.54011 Y-2.81708
G01 X-3.54334 Y-2.82158
G01 X-3.54603 Y-2.82644
G01 X-3.54734 Y-2.82925
G01 X-3.54925 Y-2.83446
G01 X-3.55089 Y-2.84157
G01 X-3.60760 Y-2.89828
G01 X-3.60954 Y-2.89671
G01 X-3.61349 Y-2.89394
G01 X-3.61795 Y-2.89128
G01 X-3.62031 Y-2.89006
G01 X-3.62656 Y-2.88734
G01 X-3.63350 Y-2.88516
G01 X-3.64027 Y-2.88382
G01 X-3.64319 Y-2.88347
G01 X-3.65041 Y-2.88310
G01 X-3.65835 Y-2.88362
G01 X-3.66465 Y-2.88471
G01 X-3.66898 Y-2.88584
G01 X-3.67321 Y-2.88726
G01 X-3.67851 Y-2.88947
G01 X-3.68625 Y-2.89377
G01 X-3.69111 Y-2.89721
G01 X-3.69549 Y-2.90094
G01 X-3.70121 Y-2.90694
G01 X-3.97796 Y-2.90694
G01 X-4.04434 Y-2.84056
G01 X-4.06890 Y-2.83039
G01 X-4.07460 Y-2.82739
G01 X-4.07939 Y-2.82349
G01 X-4.08329 Y-2.81870
G01 X-4.08629 Y-2.81300
G01 X-4.09646 Y-2.78844
G01 X-4.09646 Y-2.70019
G01 X-4.27384 Y-2.61150
G01 X-4.27796 Y-2.61317
G01 X-4.28411 Y-2.61499
G01 X-4.29320 Y-2.61656
G01 X-4.30034 Y-2.61691
G01 X-4.30627 Y-2.61659
G01 X-4.30895 Y-2.61629
G01 X-4.31517 Y-2.61517
G01 X-4.32127 Y-2.61342
G01 X-4.32392 Y-2.61246
G01 X-4.32986 Y-2.60988
G01 X-4.33619 Y-2.60627
G01 X-4.33819 Y-2.60491
G01 X-4.34351 Y-2.60082
G01 X-4.34815 Y-2.59646
G01 X-4.35091 Y-2.59331
G01 X-4.64902 Y-2.59331
G01 X-4.65386 Y-2.59844
G01 X-4.65708 Y-2.60133
G01 X-4.66116 Y-2.60448
G01 X-4.66521 Y-2.60715
G01 X-4.66904 Y-2.60931
G01 X-4.67539 Y-2.61221
G01 X-4.67920 Y-2.61359
G01 X-4.68430 Y-2.61504
G01 X-4.68869 Y-2.61595
G01 X-4.69353 Y-2.61659
G01 X-4.70010 Y-2.61689
G01 X-4.70449 Y-2.61676
G01 X-4.70967 Y-2.61620
G01 X-4.71649 Y-2.61484
G01 X-4.72224 Y-2.61311
G01 X-4.72840 Y-2.61058
G01 X-4.73361 Y-2.60785
G01 X-4.73950 Y-2.60400
G01 X-4.74415 Y-2.60027
G01 X-4.74856 Y-2.59603
G01 X-4.75203 Y-2.59205
G01 X-4.75612 Y-2.58642
G01 X-4.75918 Y-2.58121
G01 X-4.76199 Y-2.57517
G01 X-4.76383 Y-2.56999
G01 X-4.76539 Y-2.56408
G01 X-4.76590 Y-2.56146
G01 X-4.76667 Y-2.55561
G01 X-4.76688 Y-2.54874
G01 X-4.76660 Y-2.54363
G01 X-4.76564 Y-2.53704
G01 X-4.76422 Y-2.53121
G01 X-4.76213 Y-2.52518
G01 X-4.75953 Y-2.51946
G01 X-4.75635 Y-2.51393
G01 X-4.75290 Y-2.50903
G01 X-4.74879 Y-2.50422
G01 X-4.74364 Y-2.49928
G01 X-4.73902 Y-2.49565
G01 X-4.73342 Y-2.49204
G01 X-4.72854 Y-2.48950
G01 X-4.72611 Y-2.48842
G01 X-4.71986 Y-2.48612
G01 X-4.71455 Y-2.48470
G01 X-4.70761 Y-2.48353
G01 X-4.70252 Y-2.48314
G01 X-4.69860 Y-2.48312
G01 X-4.69219 Y-2.48355
G01 X-4.68710 Y-2.48435
G01 X-4.68314 Y-2.48526
G01 X-4.67660 Y-2.48733
G01 X-4.67152 Y-2.48947
G01 X-4.66557 Y-2.49266
G01 X-4.66324 Y-2.49411
G01 X-4.65629 Y-2.49934
G01 X-4.65247 Y-2.50291
G01 X-4.64900 Y-2.50669
G01 X-4.35100 Y-2.50669
G01 X-4.34593 Y-2.50137
G01 X-4.34207 Y-2.49797
G01 X-4.33796 Y-2.49492
G01 X-4.33163 Y-2.49105
G01 X-4.32564 Y-2.48820
G01 X-4.31900 Y-2.48585
G01 X-4.31180 Y-2.48416
G01 X-4.30671 Y-2.48343
G01 X-4.30160 Y-2.48313
G01 X-4.29423 Y-2.48334
G01 X-4.18246 Y-2.37164
G01 X-4.17900 Y-2.36882
G01 X-4.17707 Y-2.36747
G01 X-4.17326 Y-2.36526
G01 X-4.17041 Y-2.36392
G01 X-4.16590 Y-2.36226
G01 X-4.16162 Y-2.36123
G01 X-4.15888 Y-2.36079
G01 X-4.15436 Y-2.36045
G01 X-3.79650 Y-2.36044
G01 X-3.79038 Y-2.36090
G01 X-3.78659 Y-2.36163
G01 X-3.78019 Y-2.36365
G01 X-3.77488 Y-2.36629
G01 X-3.77161 Y-2.36838
G01 X-3.76693 Y-2.37220
G01 X-3.65576 Y-2.48334
G01 X-3.64840 Y-2.48313
G01 X-3.64329 Y-2.48343
G01 X-3.63820 Y-2.48416
G01 X-3.63100 Y-2.48585
G01 X-3.62436 Y-2.48820
G01 X-3.61836 Y-2.49105
G01 X-3.61204 Y-2.49492
G01 X-3.60793 Y-2.49797
G01 X-3.60407 Y-2.50137
G01 X-3.59900 Y-2.50669
G01 X-3.30100 Y-2.50669
G01 X-3.29723 Y-2.50261
G01 X-3.29341 Y-2.49909
G01 X-3.28708 Y-2.49434
G01 X-3.28477 Y-2.49286
G01 X-3.27813 Y-2.48930
G01 X-3.27301 Y-2.48718
G01 X-3.26800 Y-2.48556
G01 X-3.26249 Y-2.48427
G01 X-3.25743 Y-2.48351
G01 X-3.25182 Y-2.48312
G01 X-3.24673 Y-2.48318
G01 X-3.24013 Y-2.48384
G01 X-3.23471 Y-2.48486
G01 X-3.22833 Y-2.48670
G01 X-3.22214 Y-2.48917
G01 X-3.21593 Y-2.49244
G01 X-3.21129 Y-2.49542
G01 X-3.20724 Y-2.49855
G01 X-3.20148 Y-2.50393
G01 X-3.19734 Y-2.50873
G01 X-3.19435 Y-2.51288
G01 X-3.19030 Y-2.51980
G01 X-3.18787 Y-2.52518
G01 X-3.18616 Y-2.53001
G01 X-3.18429 Y-2.53741
G01 X-3.18339 Y-2.54363
G01 X-3.18312 Y-2.54874
G01 X-3.18312 Y-2.55126
G01 X-3.18351 Y-2.55737
G01 X-3.18429 Y-2.56259
G01 X-3.18560 Y-2.56814
G01 X-3.18752 Y-2.57395
G01 X-3.18944 Y-2.57841
G01 X-3.19062 Y-2.58080
G01 X-3.19376 Y-2.58623
G01 X-3.19676 Y-2.59053
G01 X-3.20013 Y-2.59459
G01 X-3.20411 Y-2.59867
G01 X-3.20598 Y-2.60037
G01 X-3.21008 Y-2.60369
G01 X-3.21469 Y-2.60683
G01 X-3.21984 Y-2.60971
G01 X-3.22190 Y-2.61070
G01 X-3.22676 Y-2.61274
G01 X-3.23260 Y-2.61460
G01 X-3.23816 Y-2.61585
G01 X-3.24297 Y-2.61652
G01 X-3.25041 Y-2.61690
G01 X-3.25510 Y-2.61671
G01 X-3.26064 Y-2.61606
G01 X-3.26545 Y-2.61510
G01 X-3.27015 Y-2.61380
G01 X-3.27471 Y-2.61218
G01 X-3.27912 Y-2.61024
G01 X-3.28372 Y-2.60779
G01 X-3.28799 Y-2.60507
G01 X-3.29377 Y-2.60059
G01 X-3.29705 Y-2.59757
G01 X-3.30098 Y-2.59331
G01 X-3.59903 Y-2.59331
G01 X-3.60074 Y-2.59527
G01 X-3.60458 Y-2.59912
G01 X-3.60842 Y-2.60242
G01 X-3.61313 Y-2.60583
G01 X-3.61714 Y-2.60828
G01 X-3.62198 Y-2.61076
G01 X-3.62701 Y-2.61284
G01 X-3.63183 Y-2.61439
G01 X-3.63749 Y-2.61573
G01 X-3.64287 Y-2.61653
G01 X-3.64830 Y-2.61689
G01 X-3.65299 Y-2.61684
G01 X-3.65917 Y-2.61628
G01 X-3.66514 Y-2.61515
G01 X-3.66786 Y-2.61360
G01 X-3.66517 Y-2.61514
G01 X-3.55512 Y-2.72509
G01 X-3.21071 Y-2.72509
G01 X-3.20649 Y-2.72531
G01 X-3.20413 Y-2.72560
G01 X-3.19827 Y-2.72693
G01 X-3.19267 Y-2.72905
G01 X-3.18709 Y-2.73214
G01 X-3.18173 Y-2.73631
G01 X-3.13671 Y-2.78131
G01 X-3.13388 Y-2.78464
G01 X-3.13100 Y-2.78897
G01 X-3.12952 Y-2.79172
G01 X-3.12779 Y-2.79576
G01 X-3.12680 Y-2.79873
G01 X-3.12572 Y-2.80339
G01 X-3.12536 Y-2.80612
G01 X-3.12509 Y-2.81071
G01 X-3.12509 Y-3.21762
G01 X-3.12554 Y-3.22381
G01 X-3.12642 Y-3.22815
G01 X-3.12718 Y-3.23084
G01 X-3.12876 Y-3.23501
G01 X-3.13117 Y-3.23967
G01 X-3.13411 Y-3.24399
G01 X-3.13745 Y-3.24781
G01 X-3.31914 Y-3.42950
G01 X-3.32390 Y-3.43354
G01 X-3.32758 Y-3.43595
G01 X-3.32998 Y-3.43726
G01 X-3.33402 Y-3.43901
G01 X-3.33659 Y-3.43993
G01 X-3.34085 Y-3.44099
G01 X-3.34356 Y-3.44146
G01 X-3.34933 Y-3.44186
G01 X-3.82320 Y-3.44177
G01 X-3.82629 Y-3.44160
G01 X-3.83252 Y-3.44044
G01 X-3.83781 Y-3.43866
G01 X-3.84033 Y-3.43754
G01 X-3.84351 Y-3.43583
G01 X-3.84679 Y-3.43366
G01 X-3.85113 Y-3.43010
G01 X-3.88157 Y-3.39962
G01 X-3.88490 Y-3.39554
G01 X-3.88665 Y-3.39295
G01 X-3.88895 Y-3.38873
G01 X-3.89076 Y-3.38425
G01 X-3.89205 Y-3.37959
G01 X-3.89256 Y-3.37683
G01 X-3.89301 Y-3.37241
G01 X-3.89304 Y-3.36634
G01 X-3.89720 Y-3.36513
G01 X-3.90083 Y-3.36343
G01 X-3.90418 Y-3.36123
G01 X-3.90745 Y-3.35828
G01 X-3.91020 Y-3.35485
G01 X-3.91221 Y-3.35138
G01 X-3.91380 Y-3.34727
G01 X-3.91471 Y-3.34306
G01 X-3.98529 Y-3.34306
G01 X-3.98569 Y-3.34533
G01 X-3.98631 Y-3.34766
G01 X-3.98714 Y-3.34992
G01 X-3.98815 Y-3.35209
G01 X-3.98936 Y-3.35418
G01 X-3.99073 Y-3.35615
G01 X-3.99228 Y-3.35799
G01 X-3.99398 Y-3.35969
G01 X-3.99582 Y-3.36123
G01 X-3.99779 Y-3.36261
G01 X-3.99987 Y-3.36382
G01 X-4.00205 Y-3.36483
G01 X-4.00431 Y-3.36565
G01 X-4.00663 Y-3.36627
G01 X-4.00900 Y-3.36669
G01 X-4.01140 Y-3.36690
G01 X-4.08740 Y-3.36693
G01 X-4.09140 Y-3.36664
G01 X-4.09453 Y-3.36599
G01 X-4.09758 Y-3.36498
G01 X-4.10048 Y-3.36363
G01 X-4.10321 Y-3.36194
G01 X-4.10572 Y-3.35996
G01 X-4.10799 Y-3.35769
G01 X-4.10998 Y-3.35518
G01 X-4.11166 Y-3.35245
G01 X-4.11022 Y-3.34670
G01 X-4.10925 Y-3.34352
G01 X-4.10520 Y-3.33223
G01 X-4.10274 Y-3.32336
G01 X-4.10150 Y-3.31729
G01 X-4.10065 Y-3.31132
G01 X-4.10015 Y-3.30534
G01 X-4.10001 Y-3.30054
G01 X-4.10013 Y-3.29505
G01 X-4.10054 Y-3.28969
G01 X-4.10140 Y-3.28334
G01 X-4.10246 Y-3.27781
G01 X-4.10377 Y-3.27257
G01 X-4.10495 Y-3.26857
G01 X-4.10907 Y-3.25703
G01 X-4.10991 Y-3.25435
G01 X-4.11166 Y-3.24755
G01 X-4.10951 Y-3.24417
G01 X-4.10689 Y-3.24114
G01 X-4.10386 Y-3.23852
G01 X-4.10048 Y-3.23637
G01 X-4.09758 Y-3.23502
G01 X-4.09453 Y-3.23401
G01 X-4.09140 Y-3.23336
G01 X-4.08820 Y-3.23308
G01 X-4.01260 Y-3.23307
G01 X-4.00980 Y-3.23321
G01 X-4.00585 Y-3.23391
G01 X-4.00205 Y-3.23517
G01 X-3.99952 Y-3.23637
G01 X-3.99745 Y-3.23760
G01 X-3.99551 Y-3.23901
G01 X-3.99349 Y-3.24077
G01 X-3.98656 Y-3.24324
G01 X-3.97682 Y-3.24809
G01 X-3.97383 Y-3.24917
G01 X-3.97068 Y-3.24953
G01 X-3.92932 Y-3.24953
G01 X-3.92617 Y-3.24917
G01 X-3.92318 Y-3.24809
G01 X-3.91344 Y-3.24324
G01 X-3.90651 Y-3.24077
G01 X-3.91344 Y-3.24324
G01 X-3.92318 Y-3.24809
G01 X-3.92617 Y-3.24917
G01 X-3.92602 Y-3.24979
G01 X-3.92617 Y-3.24917
G01 X-3.92932 Y-3.24953
G01 X-3.97068 Y-3.24953
G01 X-3.97070 Y-3.24973
G01 X-3.97068 Y-3.24953
G01 X-3.97383 Y-3.24917
G01 X-3.97682 Y-3.24809
G01 X-3.97688 Y-3.24826
G01 X-3.97682 Y-3.24809
G01 X-3.98656 Y-3.24324
G01 X-3.99349 Y-3.24077
G01 X-3.99679 Y-3.23805
G01 X-4.00059 Y-3.23582
G01 X-4.00393 Y-3.23447
G01 X-4.00742 Y-3.23356
G01 X-4.01020 Y-3.23318
G01 X-4.01260 Y-3.23307
G01 X-4.07544 Y-3.23307
G01 X-4.08075 Y-3.23151
G01 X-4.08619 Y-3.22964
G01 X-4.09223 Y-3.22728
G01 X-4.10151 Y-3.22417
G01 X-4.09986 Y-3.23605
G01 X-4.10353 Y-3.23829
G01 X-4.10660 Y-3.24086
G01 X-4.10951 Y-3.24417
G01 X-4.11166 Y-3.24755
G01 X-4.11656 Y-3.24431
G01 X-4.12105 Y-3.24187
G01 X-4.12322 Y-3.24083
G01 X-4.12842 Y-3.23873
G01 X-4.13572 Y-3.23664
G01 X-4.14163 Y-3.23558
G01 X-4.14721 Y-3.23510
G01 X-4.15515 Y-3.23524
G01 X-4.16105 Y-3.23600
G01 X-4.16371 Y-3.23652
G01 X-4.16908 Y-3.23791
G01 X-4.17505 Y-3.24008
G01 X-4.17728 Y-3.24106
G01 X-4.18227 Y-3.24363
G01 X-4.18900 Y-3.24805
G01 X-4.19393 Y-3.25218
G01 X-4.19626 Y-3.25443
G01 X-4.20098 Y-3.25975
G01 X-4.20466 Y-3.26490
G01 X-4.20834 Y-3.27143
G01 X-4.21110 Y-3.27796
G01 X-4.21327 Y-3.28531
G01 X-4.39540 Y-3.28543
G01 X-4.39316 Y-3.28384
G01 X-4.39110 Y-3.28207
G01 X-4.38217 Y-3.27302
G01 X-4.37829 Y-3.26753
G01 X-4.37545 Y-3.26184
G01 X-4.36932 Y-3.25818
G01 X-4.36061 Y-3.25207
G01 X-4.35264 Y-3.24560
G01 X-4.34469 Y-3.23826
G01 X-4.34467 Y-3.05820
G01 X-4.35943 Y-3.03647
G01 X-4.36578 Y-3.02748
G01 X-4.37443 Y-3.01589
G01 X-4.38577 Y-3.00160
G01 X-4.38905 Y-2.99720
G01 X-4.39501 Y-2.98852
G01 X-4.40229 Y-2.97616
G01 X-4.40719 Y-2.96671
G01 X-4.41205 Y-2.95576
G01 X-4.41646 Y-2.94435
G01 X-4.43111 Y-2.94125
G01 X-4.44339 Y-2.93777
G01 X-4.45515 Y-2.93354
G01 X-4.46139 Y-2.93087
G01 X-4.46800 Y-2.92769
G01 X-4.50289 Y-2.89281
G01 X-4.50054 Y-2.88937
G01 X-4.49880 Y-2.88577
G01 X-4.49759 Y-2.88195
G01 X-4.49693 Y-2.87767
G01 X-4.49888 Y-2.86932
G01 X-4.49982 Y-2.86374
G01 X-4.50043 Y-2.85826
G01 X-4.50074 Y-2.85283
G01 X-4.50074 Y-2.84744
G01 X-4.50050 Y-2.84263
G01 X-4.49997 Y-2.83737
G01 X-4.49875 Y-2.83007
G01 X-4.50441 Y-2.82441
G01 X-4.50941 Y-2.82003
G01 X-4.51441 Y-2.81691
G01 X-4.51941 Y-2.81503
G01 X-4.52441 Y-2.81441
G01 X-4.57559 Y-2.81441
G01 X-4.58271 Y-2.81568
G01 X-4.58983 Y-2.81948
G01 X-4.60167 Y-2.81950
G01 X-4.60845 Y-2.82005
G01 X-4.61525 Y-2.82137
G01 X-4.62017 Y-2.82280
G01 X-4.62363 Y-2.82405
G01 X-4.63345 Y-2.82811
G01 X-4.69278 Y-2.88740
G01 X-4.70068 Y-2.89044
G01 X-4.70833 Y-2.89397
G01 X-4.71556 Y-2.89794
G01 X-4.72323 Y-2.90296
G01 X-4.72870 Y-2.90715
G01 X-4.73383 Y-2.91166
G01 X-4.73780 Y-2.91560
G01 X-4.74085 Y-2.91894
G01 X-4.74639 Y-2.92586
G01 X-4.74777 Y-2.93235
G01 X-4.74852 Y-2.93726
G01 X-4.74917 Y-2.94406
G01 X-4.74934 Y-2.94885
G01 X-4.74917 Y-2.95594
G01 X-4.74852 Y-2.96273
G01 X-4.74772 Y-2.96788
G01 X-4.74638 Y-2.97413
G01 X-4.74314 Y-2.97835
G01 X-4.73969 Y-2.98236
G01 X-4.73667 Y-2.98556
G01 X-4.73255 Y-2.98952
G01 X-4.72710 Y-2.99413
G01 X-4.72356 Y-2.99681
G01 X-4.71862 Y-3.00017
G01 X-4.71178 Y-3.00422
G01 X-4.70627 Y-3.00705
G01 X-4.70200 Y-3.00899
G01 X-4.69260 Y-3.01265
G01 X-4.68475 Y-3.01512
G01 X-4.67894 Y-3.01351
G01 X-4.67304 Y-3.01122
G01 X-4.67060 Y-3.01008
G01 X-4.66498 Y-3.00701
G01 X-4.66034 Y-3.00389
G01 X-4.65599 Y-3.00040
G01 X-4.65162 Y-2.99622
G01 X-4.64786 Y-2.99193
G01 X-4.64405 Y-2.98670
G01 X-4.64122 Y-2.98197
G01 X-4.63863 Y-2.97666
G01 X-4.63634 Y-2.97058
G01 X-4.63482 Y-2.96509
G01 X-4.63366 Y-2.95866
G01 X-4.63315 Y-2.95268
G01 X-4.63312 Y-2.94796
G01 X-4.63336 Y-2.94426
G01 X-4.59302 Y-2.90391
G01 X-4.59300 Y-2.90863
G01 X-4.59273 Y-2.91173
G01 X-4.59191 Y-2.91645
G01 X-4.59040 Y-2.92141
G01 X-4.58921 Y-2.92435
G01 X-4.58720 Y-2.92828
G01 X-4.58454 Y-2.93227
G01 X-4.58286 Y-2.93440
G01 X-4.45835 Y-3.05913
G01 X-4.45835 Y-3.11997
G01 X-4.46375 Y-3.11815
G01 X-4.46679 Y-3.11738
G01 X-4.47290 Y-3.11641
G01 X-4.47864 Y-3.11614
G01 X-4.48612 Y-3.10790
G01 X-4.50648 Y-3.08751
G01 X-4.52815 Y-3.07854
G01 X-4.53672 Y-3.07526
G01 X-4.55034 Y-3.07082
G01 X-4.55659 Y-3.06913
G01 X-4.55877 Y-3.06824
G01 X-4.56081 Y-3.06705
G01 X-4.56104 Y-3.06738
G01 X-4.56081 Y-3.06705
G01 X-4.56261 Y-3.06553
G01 X-4.59386 Y-3.03427
G01 X-4.60313 Y-3.03508
G01 X-4.61424 Y-3.03573
G01 X-4.62832 Y-3.03601
G01 X-4.63367 Y-3.03595
G01 X-4.64098 Y-3.03572
G01 X-4.65117 Y-3.03504
G01 X-4.65645 Y-3.03452
G01 X-4.66676 Y-3.03312
G01 X-4.65645 Y-3.03452
G01 X-4.64556 Y-3.03549
G01 X-4.63396 Y-3.03595
G01 X-4.62494 Y-3.03597
G01 X-4.56188 Y-3.09903
G01 X-4.56294 Y-3.10497
G01 X-4.56188 Y-3.09903
G01 X-4.55336 Y-3.09490
G01 X-4.54448 Y-3.09180
G01 X-4.53599 Y-3.08983
G01 X-4.52744 Y-3.08879
G01 X-4.52344 Y-3.08862
G01 X-4.50538 Y-3.08860
G01 X-4.48612 Y-3.10790
G01 X-4.47864 Y-3.11614
G01 X-4.47290 Y-3.11641
G01 X-4.46679 Y-3.11738
G01 X-4.46375 Y-3.11815
G01 X-4.45835 Y-3.11997
G01 X-4.45991 Y-3.11936
G01 X-4.46564 Y-3.11763
G01 X-4.47171 Y-3.11656
G01 X-4.47409 Y-3.11631
G01 X-4.47837 Y-3.11614
G01 X-4.52516 Y-3.11626
G01 X-4.53016 Y-3.11681
G01 X-4.53255 Y-3.11725
G01 X-4.53712 Y-3.11836
G01 X-4.54230 Y-3.12016
G01 X-4.54900 Y-3.12341
G01 X-4.55330 Y-3.12614
G01 X-4.55599 Y-3.12820
G01 X-4.57168 Y-3.12820
G01 X-4.68476 Y-3.01512
G01 X-4.67894 Y-3.01351
G01 X-4.67268 Y-3.01107
G01 X-4.66636 Y-3.00782
G01 X-4.66315 Y-3.00580
G01 X-4.65325 Y-3.00714
G01 X-4.64362 Y-3.00797
G01 X-4.63321 Y-3.00840
G01 X-4.62576 Y-3.00842
G01 X-4.62103 Y-3.00185
G01 X-4.61711 Y-2.99532
G01 X-4.61356 Y-2.98812
G01 X-4.61055 Y-2.98038
G01 X-4.60815 Y-2.97208
G01 X-4.60646 Y-2.96321
G01 X-4.60570 Y-2.95557
G01 X-4.60702 Y-2.95491
G01 X-4.60570 Y-2.95557
G01 X-4.60317 Y-2.95304
G01 X-4.60316 Y-2.94161
G01 X-4.60317 Y-2.95304
G01 X-4.60243 Y-2.95385
G01 X-4.49327 Y-3.06316
G01 X-4.49102 Y-3.06437
G01 X-4.48894 Y-3.06608
G01 X-4.46624 Y-3.08881
G01 X-4.45835 Y-3.09747
G01 X-4.46378 Y-3.09139
G01 X-4.46853 Y-3.08647
G01 X-4.48894 Y-3.06608
G01 X-4.49102 Y-3.06437
G01 X-4.49341 Y-3.06309
G01 X-4.51778 Y-3.05300
G01 X-4.52706 Y-3.04945
G01 X-4.53131 Y-3.04796
G01 X-4.54568 Y-3.04349
G01 X-4.57898 Y-3.01017
G01 X-4.58084 Y-3.00861
G01 X-4.58296 Y-3.00740
G01 X-4.58525 Y-3.00658
G01 X-4.58765 Y-3.00618
G01 X-4.59008 Y-3.00619
G01 X-4.60518 Y-3.00760
G01 X-4.61534 Y-3.00819
G01 X-4.62849 Y-3.00845
G01 X-4.61534 Y-3.00819
G01 X-4.60518 Y-3.00760
G01 X-4.59178 Y-3.00637
G01 X-4.59085 Y-3.00449
G01 X-4.59401 Y-2.98509
G01 X-4.59085 Y-3.00449
G01 X-4.58915 Y-3.00619
G01 X-4.58765 Y-3.00618
G01 X-4.58915 Y-3.00619
G01 X-4.59085 Y-3.00449
G01 X-4.58915 Y-3.00619
G01 X-4.58765 Y-3.00618
G01 X-4.58525 Y-3.00658
G01 X-4.58296 Y-3.00740
G01 X-4.58272 Y-3.00684
G01 X-4.58296 Y-3.00740
G01 X-4.58084 Y-3.00861
G01 X-4.57898 Y-3.01017
G01 X-4.57891 Y-3.01009
G01 X-4.57898 Y-3.01017
G01 X-4.54568 Y-3.04349
G01 X-4.53092 Y-3.04809
G01 X-4.51814 Y-3.05286
G01 X-4.49341 Y-3.06309
G01 X-4.49102 Y-3.06437
G01 X-4.48894 Y-3.06608
G01 X-4.48884 Y-3.06596
G01 X-4.48894 Y-3.06608
G01 X-4.46624 Y-3.08881
G01 X-4.45835 Y-3.09747
G01 X-4.45835 Y-3.11998
G01 X-4.45430 Y-3.12624
G01 X-4.45244 Y-3.12945
G01 X-4.44907 Y-3.13603
G01 X-4.44624 Y-3.14266
G01 X-4.44417 Y-3.14875
G01 X-4.44302 Y-3.15301
G01 X-4.44178 Y-3.15911
G01 X-4.44094 Y-3.16657
G01 X-4.44080 Y-3.17211
G01 X-4.44097 Y-3.17636
G01 X-4.44159 Y-3.18219
G01 X-4.44313 Y-3.18995
G01 X-4.44489 Y-3.19605
G01 X-4.44742 Y-3.20279
G01 X-4.45113 Y-3.21062
G01 X-4.55470 Y-3.21063
G01 X-4.55949 Y-3.21248
G01 X-4.56368 Y-3.21434
G01 X-4.56710 Y-3.21882
G01 X-4.56993 Y-3.22343
G01 X-4.57235 Y-3.22842
G01 X-4.57342 Y-3.23113
G01 X-4.57488 Y-3.23570
G01 X-4.57615 Y-3.24173
G01 X-4.57671 Y-3.24741
G01 X-4.57670 Y-3.25281
G01 X-4.57609 Y-3.25860
G01 X-4.57509 Y-3.26345
G01 X-4.57338 Y-3.26897
G01 X-4.57236 Y-3.27157
G01 X-4.56990 Y-3.27663
G01 X-4.56824 Y-3.27939
G01 X-4.56456 Y-3.28460
G01 X-4.56021 Y-3.28938
G01 X-4.44897 Y-3.28938
G01 X-4.44568 Y-3.28936
G01 X-4.44536 Y-3.28924
G01 X-4.41938 Y-3.28924
G01 X-4.41446 Y-3.28905
G01 X-4.40824 Y-3.28838
G01 X-4.40116 Y-3.28701
G01 X-4.39530 Y-3.28540
G01 X-4.36112 Y-3.28538
G01 X-4.35391 Y-3.28104
G01 X-4.34390 Y-3.27399
G01 X-4.33467 Y-3.26649
G01 X-4.32339 Y-3.25606
G01 X-4.29756 Y-3.23023
G01 X-4.32524 Y-3.25780
G01 X-4.25998 Y-3.19265
G01 X-4.25988 Y-3.19273
G01 X-4.25998 Y-3.19265
G01 X-4.25832 Y-3.19065
G01 X-4.25707 Y-3.18837
G01 X-4.25696 Y-3.18843
G01 X-4.25707 Y-3.18837
G01 X-4.25411 Y-3.18151
G01 X-4.24203 Y-3.18232
G01 X-4.23676 Y-3.18283
G01 X-4.22041 Y-3.18490
G01 X-4.21544 Y-3.18568
G01 X-4.20162 Y-3.18826
G01 X-4.18569 Y-3.19206
G01 X-4.19664 Y-3.18936
G01 X-4.20097 Y-3.19129
G01 X-4.20742 Y-3.19457
G01 X-4.21131 Y-3.19676
G01 X-4.21508 Y-3.19914
G01 X-4.22074 Y-3.20298
G01 X-4.22524 Y-3.20644
G01 X-4.23164 Y-3.21196
G01 X-4.23627 Y-3.21651
G01 X-4.24246 Y-3.22339
G01 X-4.24765 Y-3.23021
G01 X-4.24644 Y-3.23280
G01 X-4.24765 Y-3.23021
G01 X-4.29755 Y-3.23023
G01 X-4.26998 Y-3.20266
G01 X-4.26096 Y-3.20265
G01 X-4.26002 Y-3.20486
G01 X-4.26096 Y-3.20265
G01 X-4.25710 Y-3.19845
G01 X-4.25343 Y-3.19465
G01 X-4.24960 Y-3.19104
G01 X-4.24350 Y-3.18578
G01 X-4.23948 Y-3.18257
G01 X-4.22041 Y-3.18490
G01 X-4.21544 Y-3.18568
G01 X-4.20162 Y-3.18826
G01 X-4.18569 Y-3.19206
G01 X-4.17187 Y-3.19620
G01 X-4.15907 Y-3.20081
G01 X-4.14853 Y-3.20526
G01 X-4.13916 Y-3.20980
G01 X-4.13023 Y-3.21469
G01 X-4.12838 Y-3.23156
G01 X-4.12728 Y-3.23917
G01 X-4.12838 Y-3.23156
G01 X-4.13023 Y-3.21469
G01 X-4.13576 Y-3.21159
G01 X-4.14327 Y-3.20776
G01 X-4.14813 Y-3.20750
G01 X-4.15538 Y-3.20764
G01 X-4.15909 Y-3.20795
G01 X-4.16631 Y-3.20893
G01 X-4.16995 Y-3.20968
G01 X-4.17742 Y-3.21164
G01 X-4.18466 Y-3.21425
G01 X-4.18802 Y-3.21566
G01 X-4.19449 Y-3.21891
G01 X-4.19767 Y-3.22071
G01 X-4.20404 Y-3.22493
G01 X-4.20760 Y-3.22762
G01 X-4.21427 Y-3.23345
G01 X-4.21952 Y-3.23901
G01 X-4.22271 Y-3.24280
G01 X-4.22723 Y-3.24906
G01 X-4.23231 Y-3.25776
G01 X-4.23016 Y-3.26146
G01 X-4.23231 Y-3.25776
G01 X-4.32524 Y-3.25780
G01 X-4.33467 Y-3.26649
G01 X-4.34386 Y-3.27403
G01 X-4.35438 Y-3.28134
G01 X-4.36112 Y-3.28538
G01 X-4.39540 Y-3.28543
G01 X-4.39316 Y-3.28384
G01 X-4.39110 Y-3.28207
G01 X-4.38217 Y-3.27302
G01 X-4.37829 Y-3.26753
G01 X-4.37545 Y-3.26184
G01 X-4.36932 Y-3.25818
G01 X-4.36261 Y-3.25356
G01 X-4.35264 Y-3.24560
G01 X-4.34272 Y-3.23642
G01 X-4.31713 Y-3.21082
G01 X-4.31711 Y-3.09116
G01 X-4.32462 Y-3.08310
G01 X-4.33334 Y-3.07291
G01 X-4.33770 Y-3.06747
G01 X-4.34467 Y-3.05820
G01 X-4.33773 Y-3.06749
G01 X-4.33334 Y-3.07291
G01 X-4.32489 Y-3.08279
G01 X-4.31996 Y-3.08822
G01 X-4.30874 Y-3.09983
G01 X-4.30355 Y-3.10489
G01 X-4.27785 Y-3.16696
G01 X-4.28133 Y-3.17503
G01 X-4.34272 Y-3.23642
G01 X-4.28956 Y-3.18327
G01 X-4.28956 Y-3.13868
G01 X-4.28956 Y-3.18327
G01 X-4.34272 Y-3.23642
G01 X-4.35058 Y-3.24379
G01 X-4.35264 Y-3.24560
G01 X-4.36261 Y-3.25356
G01 X-4.36932 Y-3.25818
G01 X-4.37545 Y-3.26184
G01 X-4.37451 Y-3.25926
G01 X-4.37313 Y-3.25426
G01 X-4.37244 Y-3.24951
G01 X-4.37225 Y-3.24671
G01 X-4.37223 Y-3.04130
G01 X-4.36172 Y-3.03320
G01 X-4.37223 Y-3.04130
G01 X-4.37234 Y-3.03878
G01 X-4.37292 Y-3.03363
G01 X-4.37475 Y-3.02677
G01 X-4.37580 Y-3.02426
G01 X-4.37829 Y-3.01927
G01 X-4.38073 Y-3.01564
G01 X-4.38249 Y-3.01341
G01 X-4.38484 Y-3.01085
G01 X-4.50289 Y-2.89281
G01 X-4.50054 Y-2.88937
G01 X-4.49880 Y-2.88577
G01 X-4.49759 Y-2.88195
G01 X-4.49693 Y-2.87767
G01 X-4.49888 Y-2.86932
G01 X-4.49982 Y-2.86374
G01 X-4.50043 Y-2.85826
G01 X-4.50074 Y-2.85283
G01 X-4.50074 Y-2.84744
G01 X-4.50050 Y-2.84263
G01 X-4.49997 Y-2.83737
G01 X-4.49875 Y-2.83007
G01 X-4.49494 Y-2.82764
G01 X-4.48779 Y-2.82364
G01 X-4.48117 Y-2.82058
G01 X-4.47494 Y-2.81826
G01 X-4.46899 Y-2.81655
G01 X-4.46324 Y-2.81538
G01 X-4.45762 Y-2.81468
G01 X-4.45361 Y-2.81445
G01 X-4.44947 Y-2.81445
G01 X-4.44387 Y-2.81483
G01 X-4.43658 Y-2.81600
G01 X-4.43089 Y-2.81742
G01 X-4.42517 Y-2.81933
G01 X-4.29959 Y-2.81933
G01 X-4.29328 Y-2.81971
G01 X-4.28598 Y-2.82094
G01 X-4.28156 Y-2.82211
G01 X-4.27853 Y-2.82311
G01 X-4.27529 Y-2.82433
G01 X-4.27100 Y-2.82621
G01 X-4.26776 Y-2.82783
G01 X-4.26071 Y-2.83197
G01 X-4.25927 Y-2.83528
G01 X-4.25800 Y-2.83945
G01 X-4.25716 Y-2.84379
G01 X-4.25683 Y-2.84668
G01 X-4.25671 Y-2.89611
G01 X-4.02486 Y-3.12795
G01 X-3.45574 Y-3.12795
G01 X-3.45053 Y-3.12432
G01 X-3.44652 Y-3.12207
G01 X-3.44267 Y-3.12032
G01 X-3.43683 Y-3.11827
G01 X-3.43043 Y-3.11685
G01 X-3.42228 Y-3.11614
G01 X-3.37562 Y-3.11621
G01 X-3.37009 Y-3.11676
G01 X-3.36395 Y-3.11805
G01 X-3.35833 Y-3.11991
G01 X-3.35342 Y-3.12213
G01 X-3.35057 Y-3.12368
G01 X-3.34566 Y-3.12690
G01 X-3.34169 Y-3.13009
G01 X-3.33752 Y-3.13423
G01 X-3.33358 Y-3.13911
G01 X-3.33082 Y-3.14339
G01 X-3.32931 Y-3.14614
G01 X-3.32691 Y-3.15150
G01 X-3.32518 Y-3.15671
G01 X-3.32394 Y-3.16245
G01 X-3.32331 Y-3.16829
G01 X-3.32330 Y-3.17378
G01 X-3.32406 Y-3.18079
G01 X-3.32570 Y-3.18759
G01 X-3.32861 Y-3.19500
G01 X-3.33207 Y-3.20112
G01 X-3.33479 Y-3.20451
G01 X-3.33743 Y-3.20740
G01 X-3.34532 Y-3.21061
G01 X-3.45432 Y-3.21064
G01 X-3.45824 Y-3.21214
G01 X-3.46393 Y-3.21464
G01 X-3.46556 Y-3.21674
G01 X-3.46921 Y-3.22214
G01 X-3.47222 Y-3.22810
G01 X-3.47336 Y-3.23098
G01 X-3.47528 Y-3.23727
G01 X-3.47637 Y-3.24375
G01 X-3.47668 Y-3.24721
G01 X-3.47667 Y-3.25301
G01 X-3.47641 Y-3.25609
G01 X-3.47532 Y-3.26258
G01 X-3.47328 Y-3.26923
G01 X-3.47229 Y-3.27175
G01 X-3.46895 Y-3.27829
G01 X-3.46522 Y-3.28370
G01 X-3.46394 Y-3.28535
G01 X-3.46185 Y-3.28633
G01 X-3.46394 Y-3.28535
G01 X-3.46791 Y-3.27992
G01 X-3.46915 Y-3.27796
G01 X-3.47274 Y-3.27068
G01 X-3.47520 Y-3.26305
G01 X-3.48139 Y-3.25867
G01 X-3.48808 Y-3.25337
G01 X-3.49202 Y-3.25000
G01 X-3.48839 Y-3.24688
G01 X-3.48165 Y-3.24152
G01 X-3.47520 Y-3.23695
G01 X-3.47283 Y-3.22953
G01 X-3.46980 Y-3.22323
G01 X-3.46787 Y-3.22004
G01 X-3.46508 Y-3.21607
G01 X-3.46378 Y-3.21457
G01 X-4.04280 Y-3.21457
G01 X-4.04901 Y-3.21412
G01 X-4.05414 Y-3.21305
G01 X-4.05987 Y-3.21106
G01 X-4.06458 Y-3.20869
G01 X-4.06899 Y-3.20575
G01 X-4.07311 Y-3.20220
G01 X-4.26712 Y-3.00819
G01 X-4.27175 Y-3.01065
G01 X-4.27814 Y-3.01323
G01 X-4.28055 Y-3.01399
G01 X-4.28754 Y-3.01573
G01 X-4.29429 Y-3.01667
G01 X-4.30112 Y-3.01688
G01 X-4.30364 Y-3.01679
G01 X-4.31091 Y-3.01601
G01 X-4.31801 Y-3.01444
G01 X-4.32409 Y-3.01240
G01 X-4.32670 Y-3.01133
G01 X-4.33286 Y-3.00828
G01 X-4.33867 Y-3.00458
G01 X-4.34093 Y-3.00290
G01 X-4.34553 Y-2.99903
G01 X-4.35051 Y-2.99387
G01 X-4.35511 Y-2.98794
G01 X-4.35871 Y-2.98209
G01 X-4.36187 Y-2.97547
G01 X-4.36379 Y-2.97012
G01 X-4.36568 Y-2.96277
G01 X-4.36654 Y-2.95683
G01 X-4.36677 Y-2.95390
G01 X-4.36683 Y-2.94698
G01 X-4.36624 Y-2.94057
G01 X-4.36484 Y-2.93353
G01 X-4.36410 Y-2.93091
G01 X-4.36165 Y-2.92401
G01 X-4.35832 Y-2.91720
G01 X-4.35380 Y-2.91023
G01 X-4.34847 Y-2.90387
G01 X-4.34331 Y-2.89905
G01 X-4.34331 Y-2.89331
G01 X-4.42082 Y-2.89331
G01 X-4.42521 Y-2.89615
G01 X-4.43027 Y-2.89867
G01 X-4.43291 Y-2.89974
G01 X-4.43868 Y-2.90156
G01 X-4.44383 Y-2.90257
G01 X-4.44666 Y-2.90290
G01 X-4.45230 Y-2.90314
G01 X-4.45791 Y-2.90275
G01 X-4.46406 Y-2.90166
G01 X-4.46973 Y-2.89995
G01 X-4.47509 Y-2.89766
G01 X-4.48017 Y-2.89480
G01 X-4.48497 Y-2.89135
G01 X-4.48914 Y-2.88759
G01 X-4.49306 Y-2.88322
G01 X-4.49562 Y-2.87974
G01 X-4.49693 Y-2.87765
G01 X-4.49562 Y-2.87974
G01 X-4.49282 Y-2.88352
G01 X-4.48799 Y-2.88871
G01 X-4.48466 Y-2.89160
G01 X-4.48111 Y-2.89417
G01 X-4.47509 Y-2.89766
G01 X-4.46973 Y-2.89995
G01 X-4.46484 Y-2.90146
G01 X-4.45978 Y-2.90251
G01 X-4.45592 Y-2.90292
G01 X-4.45001 Y-2.90577
G01 X-4.44462 Y-2.90805
G01 X-4.44136 Y-2.90930
G01 X-4.43199 Y-2.91243
G01 X-4.42083 Y-2.91536
G01 X-4.41178 Y-2.91719
G01 X-4.40812 Y-2.91772
G01 X-4.40517 Y-2.91866
G01 X-4.40038 Y-2.92064
G01 X-4.39782 Y-2.92204
G01 X-4.39767 Y-2.92181
G01 X-4.39782 Y-2.92204
G01 X-4.39561 Y-2.92394
G01 X-4.39534 Y-2.92372
G01 X-4.39561 Y-2.92394
G01 X-4.39385 Y-2.92627
G01 X-4.39262 Y-2.92891
G01 X-4.39251 Y-2.92886
G01 X-4.39262 Y-2.92891
G01 X-4.39225 Y-2.92999
G01 X-4.39117 Y-2.92525
G01 X-4.38979 Y-2.92087
G01 X-4.37571 Y-2.91007
G01 X-4.38979 Y-2.92087
G01 X-4.39997 Y-2.92087
G01 X-4.38979 Y-2.92087
G01 X-4.39117 Y-2.92525
G01 X-4.39225 Y-2.92999
G01 X-4.38915 Y-2.93876
G01 X-4.38665 Y-2.94506
G01 X-4.38236 Y-2.95465
G01 X-4.37815 Y-2.96287
G01 X-4.37174 Y-2.97369
G01 X-4.36898 Y-2.97783
G01 X-4.36378 Y-2.98499
G01 X-4.35261 Y-2.99906
G01 X-4.34334 Y-3.01149
G01 X-4.34351 Y-3.01123
G01 X-4.34621 Y-3.00759
G01 X-4.33677 Y-3.02079
G01 X-4.32469 Y-3.03873
G01 X-4.31584 Y-3.05069
G01 X-4.31225 Y-3.05517
G01 X-4.30407 Y-3.06473
G01 X-4.30000 Y-3.06922
G01 X-4.28907 Y-3.08053
G01 X-4.28234 Y-3.08707
G01 X-4.28053 Y-3.08922
G01 X-4.28012 Y-3.08895
G01 X-4.28053 Y-3.08922
G01 X-4.27919 Y-3.09170
G01 X-4.25341 Y-3.15394
G01 X-4.23712 Y-3.15511
G01 X-4.26410 Y-3.12814
G01 X-4.23712 Y-3.15511
G01 X-4.21634 Y-3.15763
G01 X-4.21057 Y-3.15855
G01 X-4.19635 Y-3.16120
G01 X-4.19047 Y-3.16249
G01 X-4.17889 Y-3.16536
G01 X-4.16357 Y-3.16992
G01 X-4.15819 Y-3.17174
G01 X-4.14491 Y-3.17680
G01 X-4.13742 Y-3.18004
G01 X-4.13139 Y-3.18289
G01 X-4.27362 Y-3.04066
G01 X-4.27255 Y-3.03708
G01 X-4.27362 Y-3.04066
G01 X-4.28205 Y-3.04274
G01 X-4.29158 Y-3.04409
G01 X-4.30039 Y-3.04443
G01 X-4.30553 Y-3.04429
G01 X-4.31463 Y-3.04333
G01 X-4.32260 Y-3.04167
G01 X-4.31584 Y-3.05069
G01 X-4.31225 Y-3.05517
G01 X-4.30407 Y-3.06473
G01 X-4.29738 Y-3.07193
G01 X-4.29008 Y-3.07162
G01 X-4.28255 Y-3.07071
G01 X-4.28158 Y-3.06807
G01 X-4.28255 Y-3.07071
G01 X-4.19085 Y-3.16241
G01 X-4.17371 Y-3.16678
G01 X-4.16320 Y-3.17004
G01 X-4.14930 Y-3.17501
G01 X-4.14459 Y-3.17693
G01 X-4.13329 Y-3.18192
G01 X-4.12245 Y-3.18745
G01 X-4.11196 Y-3.19350
G01 X-4.09706 Y-3.19654
G01 X-4.08302 Y-3.20130
G01 X-4.07667 Y-3.20378
G01 X-4.07199 Y-3.20538
G01 X-4.06783 Y-3.20658
G01 X-4.06493 Y-3.20849
G01 X-4.06097 Y-3.21057
G01 X-4.05682 Y-3.21222
G01 X-4.05453 Y-3.21295
G01 X-4.04901 Y-3.21412
G01 X-4.04324 Y-3.21456
G01 X-3.91508 Y-3.21457
G01 X-3.98492 Y-3.21457
G01 X-3.97652 Y-3.21751
G01 X-3.96743 Y-3.22197
G01 X-3.93256 Y-3.22197
G01 X-3.92348 Y-3.21751
G01 X-3.91508 Y-3.21457
G01 X-3.78399 Y-3.21457
G01 X-3.78536 Y-3.21457
G01 X-3.78478 Y-3.21473
G01 X-3.78399 Y-3.21457
G01 X-3.71598 Y-3.21457
G01 X-3.70950 Y-3.21603
G01 X-3.70235 Y-3.21794
G01 X-3.69016 Y-3.22196
G01 X-3.67692 Y-3.22735
G01 X-3.66853 Y-3.23134
G01 X-3.66085 Y-3.23538
G01 X-3.65613 Y-3.23622
G01 X-3.51769 Y-3.23622
G01 X-3.51080 Y-3.22981
G01 X-3.50576 Y-3.22545
G01 X-3.49815 Y-3.21945
G01 X-3.49130 Y-3.21457
G01 X-3.46378 Y-3.21457
G01 X-3.46532 Y-3.21640
G01 X-3.46900 Y-3.22178
G01 X-3.47188 Y-3.22741
G01 X-3.47297 Y-3.22989
G01 X-3.47487 Y-3.23577
G01 X-3.47545 Y-3.23802
G01 X-3.47648 Y-3.24451
G01 X-3.47669 Y-3.24798
G01 X-3.47661 Y-3.25417
G01 X-3.47568 Y-3.26068
G01 X-3.47503 Y-3.26370
G01 X-3.47315 Y-3.26959
G01 X-3.47196 Y-3.27245
G01 X-3.46895 Y-3.27829
G01 X-3.46499 Y-3.28401
G01 X-3.46377 Y-3.28543
G01 X-3.49131 Y-3.28543
G01 X-3.49785 Y-3.28078
G01 X-3.50541 Y-3.27484
G01 X-3.51045 Y-3.27049
G01 X-3.51770 Y-3.26378
G01 X-3.65734 Y-3.26378
G01 X-3.65974 Y-3.26357
G01 X-3.65975 Y-3.26369
G01 X-3.65974 Y-3.26357
G01 X-3.66788 Y-3.26213
G01 X-3.67006 Y-3.26155
G01 X-3.67014 Y-3.26179
G01 X-3.67006 Y-3.26155
G01 X-3.67212 Y-3.26063
G01 X-3.68081 Y-3.25602
G01 X-3.68836 Y-3.25244
G01 X-3.69620 Y-3.24915
G01 X-3.70351 Y-3.24648
G01 X-3.71288 Y-3.24363
G01 X-3.72181 Y-3.24150
G01 X-3.72793 Y-3.23891
G01 X-3.73324 Y-3.23725
G01 X-3.74076 Y-3.23572
G01 X-3.74593 Y-3.23517
G01 X-3.75273 Y-3.23510
G01 X-3.75902 Y-3.23567
G01 X-3.76525 Y-3.23686
G01 X-3.77185 Y-3.23882
G01 X-3.77782 Y-3.24130
G01 X-3.78347 Y-3.24432
G01 X-3.78833 Y-3.24757
G01 X-3.78242 Y-3.24373
G01 X-3.77782 Y-3.24130
G01 X-3.77303 Y-3.23928
G01 X-3.77065 Y-3.23842
G01 X-3.76564 Y-3.23696
G01 X-3.75940 Y-3.23573
G01 X-3.75233 Y-3.23508
G01 X-3.74513 Y-3.23522
G01 X-3.73869 Y-3.23604
G01 X-3.73400 Y-3.23704
G01 X-3.72980 Y-3.23828
G01 X-3.72350 Y-3.24069
G01 X-3.71785 Y-3.24356
G01 X-3.71378 Y-3.24607
G01 X-3.71024 Y-3.24865
G01 X-3.70503 Y-3.25312
G01 X-3.70041 Y-3.25804
G01 X-3.69651 Y-3.26314
G01 X-3.69337 Y-3.26820
G01 X-3.69131 Y-3.27215
G01 X-3.68971 Y-3.27590
G01 X-3.66360 Y-3.28543
G01 X-3.46377 Y-3.28543
G01 X-3.45760 Y-3.28812
G01 X-3.45432 Y-3.28937
G01 X-3.34531 Y-3.28937
G01 X-3.34127 Y-3.29091
G01 X-3.33628 Y-3.29314
G01 X-3.33304 Y-3.29735
G01 X-3.33000 Y-3.30228
G01 X-3.32766 Y-3.30712
G01 X-3.32614 Y-3.31106
G01 X-3.32530 Y-3.31388
G01 X-3.32627 Y-3.31069
G01 X-3.32780 Y-3.30676
G01 X-3.33075 Y-3.30094
G01 X-3.33327 Y-3.29702
G01 X-3.33634 Y-3.29307
G01 X-3.33859 Y-3.29205
G01 X-3.33638 Y-3.29305
G01 X-3.31857 Y-3.29303
G01 X-3.31544 Y-3.29281
G01 X-3.31025 Y-3.29197
G01 X-3.30706 Y-3.29112
G01 X-3.30144 Y-3.28894
G01 X-3.29956 Y-3.28801
G01 X-3.29842 Y-3.28719
G01 X-3.29328 Y-3.28293
G01 X-3.28997 Y-3.27981
G01 X-3.21990 Y-3.20974
G01 X-3.21585 Y-3.20532
G01 X-3.21225 Y-3.20083
G01 X-3.21125 Y-3.19897
G01 X-3.21052 Y-3.19548
G01 X-3.21121 Y-3.19875
G01 X-3.21121 Y-3.19979
G01 X-3.21225 Y-3.20083
G01 X-3.21125 Y-3.19897
G01 X-3.21010 Y-3.19305
G01 X-3.20933 Y-3.18652
G01 X-3.20912 Y-3.18184
G01 X-3.20908 Y-3.00020
G01 X-3.20660 Y-2.99466
G01 X-3.20435 Y-2.98900
G01 X-3.20232 Y-2.98304
G01 X-3.20036 Y-2.97603
G01 X-3.19915 Y-2.97052
G01 X-3.19778 Y-2.96150
G01 X-3.19728 Y-2.95522
G01 X-3.19715 Y-2.94992
G01 X-3.19754 Y-2.94101
G01 X-3.19814 Y-2.93559
G01 X-3.19922 Y-2.92909
G01 X-3.20048 Y-2.92349
G01 X-3.20307 Y-2.91464
G01 X-3.20521 Y-2.90873
G01 X-3.20783 Y-2.90250
G01 X-3.21124 Y-2.89546
G01 X-3.21696 Y-2.89182
G01 X-3.22298 Y-2.88879
G01 X-3.22882 Y-2.88653
G01 X-3.23413 Y-2.88502
G01 X-3.23686 Y-2.88441
G01 X-3.24319 Y-2.88345
G01 X-3.24910 Y-2.88310
G01 X-3.25578 Y-2.88334
G01 X-3.32133 Y-2.81791
G01 X-3.32369 Y-2.81592
G01 X-3.32697 Y-2.81364
G01 X-3.33138 Y-2.81121
G01 X-3.22855 Y-2.81121
G01 X-3.21121 Y-2.82855
G01 X-3.21121 Y-2.86894
G01 X-3.21857 Y-2.85894
G01 X-3.22604 Y-2.84985
G01 X-3.23089 Y-2.84439
G01 X-3.23267 Y-2.84012
G01 X-3.23394 Y-2.83774
G01 X-3.23566 Y-2.83565
G01 X-3.23774 Y-2.83394
G01 X-3.24013 Y-2.83266
G01 X-3.29198 Y-2.81121
G01 X-3.24013 Y-2.83266
G01 X-3.23774 Y-2.83394
G01 X-3.23745 Y-2.83350
G01 X-3.23774 Y-2.83394
G01 X-3.23566 Y-2.83565
G01 X-3.23394 Y-2.83774
G01 X-3.23358 Y-2.83748
G01 X-3.23394 Y-2.83774
G01 X-3.23267 Y-2.84012
G01 X-3.23089 Y-2.84439
G01 X-3.22604 Y-2.84985
G01 X-3.21856 Y-2.85893
G01 X-3.21121 Y-2.86894
G01 X-3.21121 Y-2.89552
G01 X-3.21696 Y-2.89182
G01 X-3.22264 Y-2.88895
G01 X-3.22846 Y-2.88665
G01 X-3.23347 Y-2.88520
G01 X-3.23733 Y-2.87978
G01 X-3.24383 Y-2.87150
G01 X-3.25275 Y-2.86135
G01 X-3.25427 Y-2.85940
G01 X-3.25446 Y-2.85953
G01 X-3.25427 Y-2.85940
G01 X-3.25594 Y-2.85595
G01 X-3.30252 Y-2.83667
G01 X-3.32190 Y-2.81739
G01 X-3.32400 Y-2.81569
G01 X-3.32730 Y-2.81342
G01 X-3.33138 Y-2.81121
G01 X-3.33583 Y-2.81032
G01 X-3.34200 Y-2.80947
G01 X-3.34830 Y-2.80912
G01 X-3.35406 Y-2.80911
G01 X-3.36423 Y-2.80530
G01 X-3.37441 Y-2.80403
G01 X-3.42559 Y-2.80403
G01 X-3.43287 Y-2.80468
G01 X-3.44015 Y-2.80663
G01 X-3.44743 Y-2.80988
G01 X-3.44955 Y-2.81121
G01 X-3.46213 Y-2.81121
G01 X-3.45763 Y-2.81594
G01 X-3.45471 Y-2.81979
G01 X-3.45307 Y-2.82237
G01 X-3.45266 Y-2.81923
G01 X-3.45187 Y-2.81612
G01 X-3.45057 Y-2.81276
G01 X-3.44990 Y-2.81142
G01 X-3.44955 Y-2.81121
G01 X-3.44990 Y-2.81142
G01 X-3.45057 Y-2.81276
G01 X-3.45187 Y-2.81612
G01 X-3.45266 Y-2.81923
G01 X-3.45307 Y-2.82235
G01 X-3.45078 Y-2.83248
G01 X-3.44986 Y-2.83881
G01 X-3.44955 Y-2.84203
G01 X-3.44932 Y-2.84564
G01 X-3.44923 Y-2.85140
G01 X-3.44946 Y-2.85680
G01 X-3.44998 Y-2.86223
G01 X-3.45120 Y-2.86973
G01 X-3.45305 Y-2.87761
G01 X-3.45484 Y-2.88039
G01 X-3.45826 Y-2.88480
G01 X-3.46128 Y-2.88802
G01 X-3.46488 Y-2.89122
G01 X-3.46945 Y-2.89452
G01 X-3.47185 Y-2.89602
G01 X-3.47604 Y-2.89820
G01 X-3.48109 Y-2.90024
G01 X-3.48638 Y-2.90176
G01 X-3.48995 Y-2.90242
G01 X-3.56798 Y-2.98045
G01 X-3.57112 Y-2.98328
G01 X-3.57335 Y-2.98499
G01 X-3.57638 Y-2.98698
G01 X-3.57849 Y-2.98814
G01 X-3.58213 Y-2.98986
G01 X-3.58594 Y-2.99119
G01 X-3.58864 Y-2.99192
G01 X-3.59261 Y-2.99266
G01 X-3.59879 Y-2.99306
G01 X-3.60327 Y-2.99787
G01 X-3.60619 Y-3.00057
G01 X-3.60963 Y-3.00336
G01 X-3.61490 Y-3.00696
G01 X-3.62292 Y-3.01118
G01 X-3.62858 Y-3.01338
G01 X-3.63238 Y-3.01455
G01 X-3.63627 Y-3.01548
G01 X-3.64219 Y-3.01645
G01 X-3.64818 Y-3.01688
G01 X-3.65350 Y-3.01680
G01 X-3.66029 Y-3.01609
G01 X-3.66261 Y-3.01570
G01 X-3.67106 Y-3.01351
G01 X-3.67880 Y-3.01038
G01 X-3.68090 Y-3.00933
G01 X-3.68640 Y-3.00609
G01 X-3.68932 Y-3.00411
G01 X-3.69547 Y-2.99908
G01 X-3.70119 Y-2.99306
G01 X-3.99580 Y-2.99306
G01 X-4.00271 Y-2.99250
G01 X-4.00924 Y-2.99090
G01 X-4.01249 Y-2.98965
G01 X-4.01819 Y-2.98678
G01 X-4.02215 Y-2.98405
G01 X-4.02573 Y-2.98095
G01 X-4.17472 Y-2.83197
G01 X-4.23783 Y-2.83197
G01 X-4.23069 Y-2.83857
G01 X-4.20360 Y-2.86562
G01 X-4.19085 Y-2.87090
G01 X-4.19079 Y-2.87078
G01 X-4.19085 Y-2.87090
G01 X-4.18847 Y-2.87217
G01 X-4.18638 Y-2.87389
G01 X-4.18630 Y-2.87378
G01 X-4.18638 Y-2.87389
G01 X-4.05311 Y-3.00715
G01 X-4.04827 Y-3.01180
G01 X-4.04156 Y-3.01772
G01 X-4.02875 Y-3.02747
G01 X-4.01506 Y-3.03616
G01 X-3.99939 Y-3.04431
G01 X-3.99402 Y-3.04672
G01 X-3.72642 Y-3.04672
G01 X-3.72640 Y-3.04654
G01 X-3.72642 Y-3.04672
G01 X-3.72255 Y-3.04728
G01 X-3.71073 Y-3.05064
G01 X-3.69840 Y-3.05355
G01 X-3.69328 Y-3.05456
G01 X-3.68148 Y-3.05647
G01 X-3.67637 Y-3.05711
G01 X-3.66490 Y-3.05813
G01 X-3.65973 Y-3.05841
G01 X-3.65121 Y-3.05864
G01 X-3.64265 Y-3.05852
G01 X-3.63322 Y-3.05803
G01 X-3.62412 Y-3.05719
G01 X-3.61318 Y-3.05571
G01 X-3.60397 Y-3.05405
G01 X-3.58916 Y-3.05061
G01 X-3.57912 Y-3.04778
G01 X-3.57082 Y-3.04510
G01 X-3.56865 Y-3.04458
G01 X-3.56343 Y-3.04375
G01 X-3.55080 Y-3.04124
G01 X-3.53458 Y-3.03689
G01 X-3.51925 Y-3.03162
G01 X-3.48690 Y-3.01835
G01 X-3.47688 Y-3.01195
G01 X-3.46516 Y-3.00509
G01 X-3.46110 Y-3.00287
G01 X-3.46685 Y-2.98382
G01 X-3.47186 Y-2.96228
G01 X-3.52928 Y-3.01969
G01 X-3.53237 Y-3.02261
G01 X-3.53693 Y-3.02652
G01 X-3.54075 Y-3.02944
G01 X-3.54541 Y-3.03261
G01 X-3.54916 Y-3.03492
G01 X-3.55268 Y-3.03685
G01 X-3.55846 Y-3.03967
G01 X-3.56365 Y-3.04180
G01 X-3.57205 Y-3.04457
G01 X-3.57335 Y-3.04492
G01 X-3.57354 Y-3.04459
G01 X-3.57335 Y-3.04492
G01 X-3.57549 Y-3.04664
G01 X-3.57620 Y-3.04687
G01 X-3.57083 Y-3.04507
G01 X-3.55080 Y-3.04124
G01 X-3.53458 Y-3.03689
G01 X-3.51925 Y-3.03162
G01 X-3.49042 Y-3.01981
G01 X-3.46399 Y-2.99338
G01 X-3.46687 Y-2.98382
G01 X-3.47299 Y-2.95741
G01 X-3.47310 Y-2.95743
G01 X-3.47299 Y-2.95741
G01 X-3.47334 Y-2.95401
G01 X-3.47307 Y-2.94369
G01 X-3.47214 Y-2.92127
G01 X-3.47103 Y-2.90502
G01 X-3.47000 Y-2.89489
G01 X-3.46978 Y-2.89475
G01 X-3.47000 Y-2.89489
G01 X-3.47105 Y-2.90526
G01 X-3.47240 Y-2.92640
G01 X-3.47607 Y-2.92752
G01 X-3.47650 Y-2.92680
G01 X-3.47607 Y-2.92752
G01 X-3.55023 Y-3.00160
G01 X-3.55449 Y-3.00528
G01 X-3.55837 Y-3.00813
G01 X-3.56346 Y-3.01136
G01 X-3.56884 Y-3.01410
G01 X-3.57364 Y-3.01611
G01 X-3.58015 Y-3.01821
G01 X-3.58605 Y-3.01951
G01 X-3.58640 Y-3.01882
G01 X-3.58605 Y-3.01951
G01 X-3.58914 Y-3.02224
G01 X-3.59395 Y-3.02604
G01 X-3.60037 Y-3.03037
G01 X-3.60889 Y-3.03502
G01 X-3.61261 Y-3.03675
G01 X-3.61871 Y-3.03913
G01 X-3.62448 Y-3.04095
G01 X-3.62948 Y-3.04220
G01 X-3.63360 Y-3.04301
G01 X-3.64040 Y-3.04397
G01 X-3.64650 Y-3.04440
G01 X-3.65336 Y-3.04441
G01 X-3.65727 Y-3.04413
G01 X-3.66595 Y-3.04311
G01 X-3.66979 Y-3.04233
G01 X-3.67711 Y-3.04046
G01 X-3.68196 Y-3.03888
G01 X-3.69074 Y-3.03522
G01 X-3.69458 Y-3.03325
G01 X-3.70109 Y-3.02941
G01 X-3.70563 Y-3.02632
G01 X-3.71272 Y-3.02062
G01 X-3.71225 Y-3.01920
G01 X-3.71272 Y-3.02062
G01 X-3.99580 Y-3.02062
G01 X-4.00255 Y-3.02026
G01 X-4.00740 Y-3.01966
G01 X-4.01179 Y-3.01873
G01 X-4.01800 Y-3.01703
G01 X-4.02325 Y-3.01503
G01 X-4.02939 Y-3.01208
G01 X-4.03348 Y-3.00972
G01 X-4.03875 Y-3.00605
G01 X-4.04340 Y-3.00213
G01 X-4.18614 Y-2.85953
G01 X-4.18527 Y-2.85743
G01 X-4.18614 Y-2.85953
G01 X-4.20970 Y-2.85953
G01 X-4.23069 Y-2.83857
G01 X-4.23783 Y-2.83197
G01 X-4.26071 Y-2.83197
G01 X-4.25901 Y-2.83602
G01 X-4.25764 Y-2.84101
G01 X-4.25685 Y-2.84626
G01 X-4.25677 Y-2.85203
G01 X-4.24997 Y-2.85826
G01 X-4.22113 Y-2.88705
G01 X-4.21905 Y-2.88876
G01 X-4.21667 Y-2.89003
G01 X-4.20393 Y-2.89531
G01 X-4.07252 Y-3.02672
G01 X-4.06696 Y-3.03206
G01 X-4.05809 Y-3.03982
G01 X-4.04750 Y-3.04796
G01 X-4.04381 Y-3.05055
G01 X-4.02955 Y-3.05961
G01 X-4.02642 Y-3.06141
G01 X-4.01171 Y-3.06897
G01 X-4.00249 Y-3.07311
G01 X-3.99979 Y-3.07398
G01 X-3.99697 Y-3.07428
G01 X-3.72839 Y-3.07428
G01 X-3.71776 Y-3.07728
G01 X-3.70400 Y-3.08053
G01 X-3.69792 Y-3.08173
G01 X-3.68563 Y-3.08371
G01 X-3.67955 Y-3.08448
G01 X-3.66662 Y-3.08564
G01 X-3.65177 Y-3.08619
G01 X-3.63853 Y-3.08594
G01 X-3.62799 Y-3.08526
G01 X-3.62103 Y-3.08458
G01 X-3.61191 Y-3.08339
G01 X-3.59818 Y-3.08100
G01 X-3.58821 Y-3.07878
G01 X-3.58224 Y-3.07729
G01 X-3.57109 Y-3.07415
G01 X-3.56330 Y-3.07164
G01 X-3.55827 Y-3.07083
G01 X-3.54476 Y-3.06813
G01 X-3.52839 Y-3.06381
G01 X-3.50945 Y-3.05737
G01 X-3.47515 Y-3.04341
G01 X-3.47298 Y-3.04217
G01 X-3.46280 Y-3.03565
G01 X-3.45139 Y-3.02896
G01 X-3.44124 Y-3.02358
G01 X-3.41703 Y-3.02343
G01 X-3.40201 Y-3.03327
G01 X-3.38614 Y-3.04261
G01 X-3.37527 Y-3.05413
G01 X-3.36623 Y-3.06462
G01 X-3.36394 Y-3.06745
G01 X-3.35484 Y-3.07948
G01 X-3.34906 Y-3.08800
G01 X-3.34264 Y-3.09859
G01 X-3.33763 Y-3.10804
G01 X-3.33354 Y-3.11694
G01 X-3.33023 Y-3.12536
G01 X-3.32679 Y-3.13616
G01 X-3.32489 Y-3.14392
G01 X-3.32395 Y-3.14869
G01 X-3.32306 Y-3.15457
G01 X-3.32460 Y-3.15925
G01 X-3.32306 Y-3.15457
G01 X-3.32395 Y-3.14869
G01 X-3.32489 Y-3.14392
G01 X-3.32759 Y-3.13340
G01 X-3.33023 Y-3.12536
G01 X-3.33354 Y-3.11694
G01 X-3.33763 Y-3.10804
G01 X-3.34109 Y-3.10138
G01 X-3.34416 Y-3.09603
G01 X-3.34963 Y-3.09374
G01 X-3.35790 Y-3.09116
G01 X-3.36557 Y-3.08957
G01 X-3.37337 Y-3.08874
G01 X-3.37692 Y-3.08860
G01 X-3.42268 Y-3.08859
G01 X-3.42639 Y-3.08877
G01 X-3.43370 Y-3.08948
G01 X-3.43735 Y-3.09009
G01 X-3.44333 Y-3.09148
G01 X-3.45166 Y-3.09422
G01 X-3.45753 Y-3.09678
G01 X-3.46121 Y-3.09868
G01 X-3.46420 Y-3.10039
G01 X-3.46402 Y-3.10114
G01 X-3.46420 Y-3.10039
G01 X-4.01345 Y-3.10039
G01 X-4.01432 Y-3.10249
G01 X-4.01345 Y-3.10039
G01 X-4.22916 Y-2.88468
G01 X-4.23125 Y-2.88554
G01 X-4.22916 Y-2.88468
G01 X-4.22917 Y-2.87903
G01 X-4.22113 Y-2.88705
G01 X-4.21905 Y-2.88876
G01 X-4.21931 Y-2.88915
G01 X-4.21905 Y-2.88876
G01 X-4.21667 Y-2.89003
G01 X-4.20393 Y-2.89531
G01 X-4.07252 Y-3.02672
G01 X-4.06698 Y-3.03208
G01 X-4.05934 Y-3.03878
G01 X-4.04752 Y-3.04799
G01 X-4.04381 Y-3.05055
G01 X-4.02956 Y-3.05964
G01 X-4.02590 Y-3.06169
G01 X-4.01121 Y-3.06924
G01 X-4.00249 Y-3.07311
G01 X-3.99979 Y-3.07398
G01 X-3.99989 Y-3.07451
G01 X-3.99979 Y-3.07398
G01 X-3.99580 Y-3.07428
G01 X-3.72839 Y-3.07428
G01 X-3.71776 Y-3.07728
G01 X-3.70449 Y-3.08045
G01 X-3.69792 Y-3.08173
G01 X-3.68563 Y-3.08373
G01 X-3.67955 Y-3.08448
G01 X-3.66662 Y-3.08566
G01 X-3.65177 Y-3.08619
G01 X-3.64173 Y-3.08607
G01 X-3.63119 Y-3.08551
G01 X-3.62103 Y-3.08458
G01 X-3.61191 Y-3.08339
G01 X-3.59818 Y-3.08100
G01 X-3.58784 Y-3.07871
G01 X-3.58224 Y-3.07729
G01 X-3.57109 Y-3.07415
G01 X-3.56330 Y-3.07164
G01 X-3.55827 Y-3.07083
G01 X-3.54476 Y-3.06813
G01 X-3.52881 Y-3.06393
G01 X-3.52635 Y-3.06320
G01 X-3.50945 Y-3.05737
G01 X-3.50161 Y-3.05428
G01 X-3.47987 Y-3.04527
G01 X-3.47739 Y-3.04527
G01 X-3.47732 Y-3.04568
G01 X-3.47739 Y-3.04527
G01 X-3.47621 Y-3.04474
G01 X-3.47180 Y-3.04291
G01 X-3.46731 Y-3.04127
G01 X-3.45904 Y-3.03863
G01 X-3.45077 Y-3.03661
G01 X-3.44568 Y-3.03558
G01 X-3.44094 Y-3.03484
G01 X-3.42896 Y-3.03369
G01 X-3.42302 Y-3.03347
G01 X-3.40167 Y-3.03347
G01 X-3.38614 Y-3.04261
G01 X-3.37788 Y-3.05125
G01 X-3.36623 Y-3.06462
G01 X-3.35687 Y-3.07667
G01 X-3.34906 Y-3.08800
G01 X-3.34416 Y-3.09603
G01 X-3.34906 Y-3.08800
G01 X-3.35484 Y-3.07948
G01 X-3.36394 Y-3.06745
G01 X-3.36895 Y-3.06147
G01 X-3.37650 Y-3.06105
G01 X-3.42263 Y-3.06103
G01 X-3.42770 Y-3.06123
G01 X-3.43529 Y-3.06191
G01 X-3.44311 Y-3.06314
G01 X-3.44906 Y-3.06450
G01 X-3.45330 Y-3.06567
G01 X-3.46229 Y-3.06879
G01 X-3.47129 Y-3.07283
G01 X-3.56693 Y-3.07283
G01 X-3.56771 Y-3.07309
G01 X-3.56693 Y-3.07283
G01 X-3.47129 Y-3.07283
G01 X-3.47116 Y-3.07344
G01 X-3.47129 Y-3.07283
G01 X-3.46527 Y-3.07004
G01 X-3.46041 Y-3.06806
