( pcb2gcode 2.5.0 )
( Software-independent Gcode )

G94 ( Inches per minute feed rate. )
G20 ( Units == INCHES. )

G90 ( Absolute coordinates. )
G00 S12000 ( RPM spindle speed. )
G64 P0.00040 ( set maximum deviation from commanded toolpath )
G01 F360.00000 ( Feedrate. )


G00 Z1.00000 (Retract to tool change height)
T1
M5      (Spindle stop.)
G04 P1.00000 (Wait for spindle to stop)
(MSG, Change tool bit to mill diameter 0.05512in)
M6      (Tool change.)
M0      (Temporary machine stop.)
M3 ( Spindle on clockwise. )
G04 P1.00000 (Wait for spindle to get up to speed)
G04 P0 ( dwell for no time -- G64 should not smooth over this point )
G00 Z0.08000 ( retract )

G00 X-4.12192 Y-2.76298 ( rapid move to begin. )
G01 F180.00000
( Mill infeed pass 1/1 )
G01 Z-0.04000
G04 P0 ( dwell for no time -- G64 should not smooth over this point )
G01 F360.00000
G01 X-4.12192 Y-2.76298
G01 X-4.09646 Y-2.78844
G01 X-4.08629 Y-2.81300
G01 X-4.08329 Y-2.81870
G01 X-4.07939 Y-2.82349
G01 X-4.07460 Y-2.82739
G01 X-4.06890 Y-2.83039
G01 X-4.04434 Y-2.84056
G01 X-3.93110 Y-2.84056
G01 X-3.92830 Y-2.84042
G01 X-3.92397 Y-2.83962
G01 X-3.92018 Y-2.83831
G01 X-3.91629 Y-2.83624
G01 X-3.91308 Y-2.83385
G01 X-3.90999 Y-2.83071
G01 X-3.90764 Y-2.82747
G01 X-3.90564 Y-2.82355
G01 X-3.90438 Y-2.81974
G01 X-3.90378 Y-2.81660
G01 X-3.90354 Y-2.81340
G01 X-3.90354 Y-2.74058
G01 X-3.89364 Y-2.75184
G01 X-3.87598 Y-2.76951
G01 X-3.87598 Y-2.81300
G01 X-3.87616 Y-2.81740
G01 X-3.87682 Y-2.82257
G01 X-3.87786 Y-2.82727
G01 X-3.87944 Y-2.83223
G01 X-3.88149 Y-2.83702
G01 X-3.88398 Y-2.84159
G01 X-3.88689 Y-2.84591
G01 X-3.88992 Y-2.84964
G01 X-3.89347 Y-2.85327
G01 X-3.90444 Y-2.85665
G01 X-3.91781 Y-2.85913
G01 X-3.93152 Y-2.85997
G01 X-3.96147 Y-2.85997
G01 X-4.00834 Y-2.84056
G01 X-3.96147 Y-2.85997
G01 X-3.93152 Y-2.85997
G01 X-3.91781 Y-2.85913
G01 X-3.90444 Y-2.85665
G01 X-3.89095 Y-2.85250
G01 X-3.87729 Y-2.84660
G01 X-3.86345 Y-2.83893
G01 X-3.84944 Y-2.82944
G01 X-3.83528 Y-2.81809
G01 X-3.83118 Y-2.81430
G01 X-3.84842 Y-2.79706
G01 X-3.84854 Y-2.81741
G01 X-3.84908 Y-2.82339
G01 X-3.85017 Y-2.82993
G01 X-3.84908 Y-2.82339
G01 X-3.84854 Y-2.81741
G01 X-3.84842 Y-2.79706
G01 X-3.89365 Y-2.75185
G01 X-3.90354 Y-2.74058
G01 X-3.90354 Y-2.71332
G01 X-3.90300 Y-2.71476
G01 X-3.90099 Y-2.71652
G01 X-3.89803 Y-2.71856
G01 X-3.89481 Y-2.72020
G01 X-3.89180 Y-2.72130
G01 X-3.88908 Y-2.72197
G01 X-3.88590 Y-2.72239
G01 X-3.88278 Y-2.72246
G01 X-3.87383 Y-2.73268
G01 X-3.80559 Y-2.80092
G01 X-3.74628 Y-2.80092
G01 X-3.73626 Y-2.80066
G01 X-3.72447 Y-2.79652
G01 X-3.72217 Y-2.79590
G01 X-3.72223 Y-2.79554
G01 X-3.72217 Y-2.79590
G01 X-3.71979 Y-2.79570
G01 X-3.71741 Y-2.79591
G01 X-3.71739 Y-2.79577
G01 X-3.71741 Y-2.79591
G01 X-3.70525 Y-2.79811
G01 X-3.69169 Y-2.80103
G01 X-3.67936 Y-2.80421
G01 X-3.66710 Y-2.80788
G01 X-3.65663 Y-2.81148
G01 X-3.65051 Y-2.81378
G01 X-3.63927 Y-2.81842
G01 X-3.61416 Y-2.82989
G01 X-3.59974 Y-2.82708
G01 X-3.58994 Y-2.82439
G01 X-3.58123 Y-2.82138
G01 X-3.57628 Y-2.81939
G01 X-3.56860 Y-2.81386
G01 X-3.56452 Y-2.81121
G01 X-3.53469 Y-2.81121
G01 X-3.52779 Y-2.80874
G01 X-3.52433 Y-2.80769
G01 X-3.51770 Y-2.80606
G01 X-3.51449 Y-2.80544
G01 X-3.50858 Y-2.80460
G01 X-3.49948 Y-2.80405
G01 X-3.49356 Y-2.80417
G01 X-3.48995 Y-2.80443
G01 X-3.48124 Y-2.80565
G01 X-3.47514 Y-2.80699
G01 X-3.47194 Y-2.80786
G01 X-3.46565 Y-2.80988
G01 X-3.46213 Y-2.81121
G01 X-3.45789 Y-2.81562
G01 X-3.45471 Y-2.81979
G01 X-3.45337 Y-2.82184
G01 X-3.45307 Y-2.82237
G01 X-3.45141 Y-2.82927
G01 X-3.45028 Y-2.83561
G01 X-3.44955 Y-2.84203
G01 X-3.44923 Y-2.84860
G01 X-3.44930 Y-2.85400
G01 X-3.44967 Y-2.85943
G01 X-3.45032 Y-2.86473
G01 X-3.45120 Y-2.86973
G01 X-3.45307 Y-2.87769
G01 X-3.45301 Y-2.87839
G01 X-3.45258 Y-2.88116
G01 X-3.45199 Y-2.88349
G01 X-3.45120 Y-2.88577
G01 X-3.45022 Y-2.88796
G01 X-3.44905 Y-2.89006
G01 X-3.44770 Y-2.89205
G01 X-3.44591 Y-2.89421
G01 X-3.44421 Y-2.89591
G01 X-3.44237 Y-2.89745
G01 X-3.44040 Y-2.89883
G01 X-3.43831 Y-2.90003
G01 X-3.43614 Y-2.90105
G01 X-3.43388 Y-2.90187
G01 X-3.43155 Y-2.90250
G01 X-3.42919 Y-2.90291
G01 X-3.42679 Y-2.90312
G01 X-3.37321 Y-2.90312
G01 X-3.37002 Y-2.90280
G01 X-3.36689 Y-2.90210
G01 X-3.36386 Y-2.90105
G01 X-3.36115 Y-2.89975
G01 X-3.31666 Y-2.94423
G01 X-3.31690 Y-2.95094
G01 X-3.31632 Y-2.95872
G01 X-3.31548 Y-2.96377
G01 X-3.31411 Y-2.96911
G01 X-3.31176 Y-2.97573
G01 X-3.30872 Y-2.98208
G01 X-3.30503 Y-2.98805
G01 X-3.30171 Y-2.99246
G01 X-3.29830 Y-2.99628
G01 X-3.29306 Y-3.00121
G01 X-3.29306 Y-3.16238
G01 X-3.33270 Y-3.20201
G01 X-3.32895 Y-3.19572
G01 X-3.32594 Y-3.18831
G01 X-3.32420 Y-3.18156
G01 X-3.32333 Y-3.17456
G01 X-3.32331 Y-3.16829
G01 X-3.32377 Y-3.16361
G01 X-3.32423 Y-3.16091
G01 X-3.32529 Y-3.15633
G01 X-3.32678 Y-3.15187
G01 X-3.32763 Y-3.14968
G01 X-3.32966 Y-3.14543
G01 X-3.33335 Y-3.13943
G01 X-3.33752 Y-3.13423
G01 X-3.34199 Y-3.12984
G01 X-3.34566 Y-3.12690
G01 X-3.34791 Y-3.12533
G01 X-3.35127 Y-3.12326
G01 X-3.35342 Y-3.12213
G01 X-3.35795 Y-3.12005
G01 X-3.36245 Y-3.11851
G01 X-3.36471 Y-3.11786
G01 X-3.36970 Y-3.11682
G01 X-3.37604 Y-3.11619
G01 X-3.42228 Y-3.11614
G01 X-3.43043 Y-3.11685
G01 X-3.43683 Y-3.11827
G01 X-3.44267 Y-3.12032
G01 X-3.44652 Y-3.12207
G01 X-3.45053 Y-3.12432
G01 X-3.45574 Y-3.12795
G01 X-4.02486 Y-3.12795
G01 X-4.25671 Y-2.89611
G01 X-4.25683 Y-2.84668
G01 X-4.25716 Y-2.84379
G01 X-4.25800 Y-2.83945
G01 X-4.25927 Y-2.83528
G01 X-4.26071 Y-2.83197
G01 X-4.26776 Y-2.82783
G01 X-4.27100 Y-2.82621
G01 X-4.27529 Y-2.82433
G01 X-4.27853 Y-2.82311
G01 X-4.28156 Y-2.82211
G01 X-4.28598 Y-2.82094
G01 X-4.29085 Y-2.82002
G01 X-4.29562 Y-2.81950
G01 X-4.29959 Y-2.81933
G01 X-4.42517 Y-2.81933
G01 X-4.43239 Y-2.81700
G01 X-4.43658 Y-2.81600
G01 X-4.44106 Y-2.81519
G01 X-4.44509 Y-2.81471
G01 X-4.44947 Y-2.81445
G01 X-4.45361 Y-2.81445
G01 X-4.45924 Y-2.81483
G01 X-4.46499 Y-2.81568
G01 X-4.46899 Y-2.81655
G01 X-4.47716 Y-2.81902
G01 X-4.48117 Y-2.82058
G01 X-4.48779 Y-2.82364
G01 X-4.49494 Y-2.82764
G01 X-4.49875 Y-2.83007
G01 X-4.49997 Y-2.83737
G01 X-4.50050 Y-2.84263
G01 X-4.50074 Y-2.84744
G01 X-4.50074 Y-2.85283
G01 X-4.50043 Y-2.85826
G01 X-4.49982 Y-2.86374
G01 X-4.49888 Y-2.86932
G01 X-4.49693 Y-2.87767
G01 X-4.49759 Y-2.88195
G01 X-4.49880 Y-2.88577
G01 X-4.50054 Y-2.88937
G01 X-4.50289 Y-2.89281
G01 X-4.38484 Y-3.01085
G01 X-4.38249 Y-3.01341
G01 X-4.38073 Y-3.01564
G01 X-4.37829 Y-3.01927
G01 X-4.37580 Y-3.02426
G01 X-4.37475 Y-3.02677
G01 X-4.37292 Y-3.03363
G01 X-4.37234 Y-3.03878
G01 X-4.37223 Y-3.04130
G01 X-4.36172 Y-3.03320
G01 X-4.37223 Y-3.04130
G01 X-4.37225 Y-3.24671
G01 X-4.37244 Y-3.24951
G01 X-4.37313 Y-3.25426
G01 X-4.37451 Y-3.25926
G01 X-4.37545 Y-3.26184
G01 X-4.36932 Y-3.25818
G01 X-4.36061 Y-3.25207
G01 X-4.35264 Y-3.24560
G01 X-4.34272 Y-3.23642
G01 X-4.28133 Y-3.17503
G01 X-4.27785 Y-3.16696
G01 X-4.28956 Y-3.13868
G01 X-4.28956 Y-3.18327
G01 X-4.34272 Y-3.23642
G01 X-4.31713 Y-3.21082
G01 X-4.31711 Y-3.09116
G01 X-4.32462 Y-3.08310
G01 X-4.33334 Y-3.07291
G01 X-4.33773 Y-3.06749
G01 X-4.34467 Y-3.05820
G01 X-4.34469 Y-3.23826
G01 X-4.35264 Y-3.24560
G01 X-4.36061 Y-3.25207
G01 X-4.36932 Y-3.25818
G01 X-4.37545 Y-3.26184
G01 X-4.37829 Y-3.26753
G01 X-4.38217 Y-3.27302
G01 X-4.39110 Y-3.28207
G01 X-4.39316 Y-3.28384
G01 X-4.39540 Y-3.28543
G01 X-4.36112 Y-3.28538
G01 X-4.35438 Y-3.28134
G01 X-4.34633 Y-3.27580
G01 X-4.34346 Y-3.27364
G01 X-4.33467 Y-3.26649
G01 X-4.32339 Y-3.25606
G01 X-4.29756 Y-3.23023
G01 X-4.32524 Y-3.25780
G01 X-4.25998 Y-3.19265
G01 X-4.25988 Y-3.19273
G01 X-4.25998 Y-3.19265
G01 X-4.25832 Y-3.19065
G01 X-4.25707 Y-3.18837
G01 X-4.25696 Y-3.18843
G01 X-4.25707 Y-3.18837
G01 X-4.25411 Y-3.18151
G01 X-4.24203 Y-3.18232
G01 X-4.23676 Y-3.18283
G01 X-4.22041 Y-3.18490
G01 X-4.21544 Y-3.18568
G01 X-4.20162 Y-3.18826
G01 X-4.18569 Y-3.19206
G01 X-4.20162 Y-3.18826
G01 X-4.21544 Y-3.18568
G01 X-4.22041 Y-3.18490
G01 X-4.23948 Y-3.18257
G01 X-4.24350 Y-3.18578
G01 X-4.24960 Y-3.19104
G01 X-4.25343 Y-3.19465
G01 X-4.25710 Y-3.19845
G01 X-4.26096 Y-3.20265
G01 X-4.26002 Y-3.20486
G01 X-4.26096 Y-3.20265
G01 X-4.26998 Y-3.20266
G01 X-4.29755 Y-3.23023
G01 X-4.24765 Y-3.23021
G01 X-4.24644 Y-3.23280
G01 X-4.24765 Y-3.23021
G01 X-4.24399 Y-3.22527
G01 X-4.24061 Y-3.22125
G01 X-4.23514 Y-3.21534
G01 X-4.23043 Y-3.21088
G01 X-4.22237 Y-3.20418
G01 X-4.21338 Y-3.19803
G01 X-4.20706 Y-3.19439
G01 X-4.20097 Y-3.19129
G01 X-4.19664 Y-3.18936
G01 X-4.18164 Y-3.19319
G01 X-4.17187 Y-3.19620
G01 X-4.15907 Y-3.20081
G01 X-4.14537 Y-3.20673
G01 X-4.13916 Y-3.20980
G01 X-4.13023 Y-3.21469
G01 X-4.12838 Y-3.23156
G01 X-4.12728 Y-3.23917
G01 X-4.12838 Y-3.23156
G01 X-4.13023 Y-3.21469
G01 X-4.13576 Y-3.21159
G01 X-4.14327 Y-3.20776
G01 X-4.14933 Y-3.20751
G01 X-4.15497 Y-3.20762
G01 X-4.15909 Y-3.20795
G01 X-4.16590 Y-3.20887
G01 X-4.17035 Y-3.20978
G01 X-4.17742 Y-3.21164
G01 X-4.18504 Y-3.21439
G01 X-4.18949 Y-3.21635
G01 X-4.19627 Y-3.21988
G01 X-4.19938 Y-3.22180
G01 X-4.20569 Y-3.22612
G01 X-4.21249 Y-3.23180
G01 X-4.21599 Y-3.23518
G01 X-4.22168 Y-3.24151
G01 X-4.22653 Y-3.24803
G01 X-4.22877 Y-3.25150
G01 X-4.23231 Y-3.25776
G01 X-4.23016 Y-3.26146
G01 X-4.23231 Y-3.25776
G01 X-4.32524 Y-3.25780
G01 X-4.33467 Y-3.26649
G01 X-4.34386 Y-3.27403
G01 X-4.35438 Y-3.28134
G01 X-4.36112 Y-3.28538
G01 X-4.39530 Y-3.28540
G01 X-4.40116 Y-3.28701
G01 X-4.40824 Y-3.28838
G01 X-4.41446 Y-3.28905
G01 X-4.41938 Y-3.28924
G01 X-4.44536 Y-3.28924
G01 X-4.44568 Y-3.28936
G01 X-4.44897 Y-3.28938
G01 X-4.56021 Y-3.28938
G01 X-4.56456 Y-3.28460
G01 X-4.56824 Y-3.27939
G01 X-4.56990 Y-3.27663
G01 X-4.57236 Y-3.27157
G01 X-4.57338 Y-3.26897
G01 X-4.57509 Y-3.26345
G01 X-4.57609 Y-3.25860
G01 X-4.57672 Y-3.25240
G01 X-4.57669 Y-3.24699
G01 X-4.57609 Y-3.24135
G01 X-4.57488 Y-3.23570
G01 X-4.57314 Y-3.23035
G01 X-4.57048 Y-3.22442
G01 X-4.56753 Y-3.21945
G01 X-4.56368 Y-3.21434
G01 X-4.56240 Y-3.21374
G01 X-4.56360 Y-3.21430
G01 X-4.59076 Y-3.21427
G01 X-4.59388 Y-3.21409
G01 X-4.59783 Y-3.21349
G01 X-4.60165 Y-3.21254
G01 X-4.60507 Y-3.21140
G01 X-4.60758 Y-3.21032
G01 X-4.61282 Y-3.20747
G01 X-4.61760 Y-3.20389
G01 X-4.61937 Y-3.20227
G01 X-4.80559 Y-3.01608
G01 X-4.80906 Y-3.01203
G01 X-4.81109 Y-3.00916
G01 X-4.81364 Y-3.00463
G01 X-4.81560 Y-2.99981
G01 X-4.81629 Y-2.99754
G01 X-4.81728 Y-2.99323
G01 X-4.81789 Y-2.98717
G01 X-4.81786 Y-2.91207
G01 X-4.81707 Y-2.90573
G01 X-4.81614 Y-2.90196
G01 X-4.81411 Y-2.89638
G01 X-4.81108 Y-2.89082
G01 X-4.80906 Y-2.88797
G01 X-4.80530 Y-2.88362
G01 X-4.67926 Y-2.75761
G01 X-4.67457 Y-2.75379
G01 X-4.67164 Y-2.75189
G01 X-4.66633 Y-2.74920
G01 X-4.66107 Y-2.74740
G01 X-4.65842 Y-2.74676
G01 X-4.65445 Y-2.74616
G01 X-4.65050 Y-2.74587
G01 X-4.15689 Y-2.74585
G01 X-4.15306 Y-2.74604
G01 X-4.15064 Y-2.74631
G01 X-4.14706 Y-2.74699
G01 X-4.14129 Y-2.74878
G01 X-4.13551 Y-2.75153
G01 X-4.13084 Y-2.75463
G01 X-4.12670 Y-2.75821
G01 X-4.09646 Y-2.78844
G01 X-4.09646 Y-2.70019
G01 X-4.27384 Y-2.61150
G01 X-4.27796 Y-2.61317
G01 X-4.28411 Y-2.61499
G01 X-4.29320 Y-2.61656
G01 X-4.30034 Y-2.61691
G01 X-4.30627 Y-2.61659
G01 X-4.30895 Y-2.61629
G01 X-4.31517 Y-2.61517
G01 X-4.32127 Y-2.61342
G01 X-4.32392 Y-2.61246
G01 X-4.32986 Y-2.60988
G01 X-4.33619 Y-2.60627
G01 X-4.33819 Y-2.60491
G01 X-4.34351 Y-2.60082
G01 X-4.34815 Y-2.59646
G01 X-4.35091 Y-2.59331
G01 X-4.64902 Y-2.59331
G01 X-4.65295 Y-2.59757
G01 X-4.65679 Y-2.60109
G01 X-4.66116 Y-2.60448
G01 X-4.66521 Y-2.60715
G01 X-4.66978 Y-2.60970
G01 X-4.67460 Y-2.61190
G01 X-4.67920 Y-2.61359
G01 X-4.68471 Y-2.61513
G01 X-4.68910 Y-2.61601
G01 X-4.69478 Y-2.61670
G01 X-4.69968 Y-2.61690
G01 X-4.70567 Y-2.61665
G01 X-4.71091 Y-2.61601
G01 X-4.71690 Y-2.61474
G01 X-4.72260 Y-2.61298
G01 X-4.72874 Y-2.61042
G01 X-4.73394 Y-2.60766
G01 X-4.73856 Y-2.60465
G01 X-4.74447 Y-2.59999
G01 X-4.74885 Y-2.59572
G01 X-4.75230 Y-2.59172
G01 X-4.75565 Y-2.58711
G01 X-4.75701 Y-2.58499
G01 X-4.75953 Y-2.58054
G01 X-4.76213 Y-2.57482
G01 X-4.76410 Y-2.56919
G01 X-4.76539 Y-2.56408
G01 X-4.76590 Y-2.56146
G01 X-4.76667 Y-2.55561
G01 X-4.76691 Y-2.55000
G01 X-4.76670 Y-2.54476
G01 X-4.76548 Y-2.53629
G01 X-4.76422 Y-2.53121
G01 X-4.76227 Y-2.52553
G01 X-4.75987 Y-2.52014
G01 X-4.75881 Y-2.51812
G01 X-4.75612 Y-2.51358
G01 X-4.75266 Y-2.50873
G01 X-4.74906 Y-2.50452
G01 X-4.74739 Y-2.50279
G01 X-4.74335 Y-2.49903
G01 X-4.73840 Y-2.49520
G01 X-4.73309 Y-2.49185
G01 X-4.72854 Y-2.48950
G01 X-4.72611 Y-2.48842
G01 X-4.72059 Y-2.48634
G01 X-4.71529 Y-2.48486
G01 X-4.70986 Y-2.48384
G01 X-4.70761 Y-2.48353
G01 X-4.70215 Y-2.48312
G01 X-4.69734 Y-2.48314
G01 X-4.69219 Y-2.48355
G01 X-4.68710 Y-2.48435
G01 X-4.68200 Y-2.48556
G01 X-4.67739 Y-2.48703
G01 X-4.67257 Y-2.48897
G01 X-4.66422 Y-2.49346
G01 X-4.65629 Y-2.49934
G01 X-4.65247 Y-2.50291
G01 X-4.64900 Y-2.50669
G01 X-4.35100 Y-2.50669
G01 X-4.34593 Y-2.50137
G01 X-4.34207 Y-2.49797
G01 X-4.33796 Y-2.49492
G01 X-4.33163 Y-2.49105
G01 X-4.32564 Y-2.48820
G01 X-4.31900 Y-2.48585
G01 X-4.31180 Y-2.48416
G01 X-4.30671 Y-2.48343
G01 X-4.30160 Y-2.48313
G01 X-4.29423 Y-2.48334
G01 X-4.18306 Y-2.37219
G01 X-4.17837 Y-2.36835
G01 X-4.17361 Y-2.36545
G01 X-4.17041 Y-2.36392
G01 X-4.16514 Y-2.36205
G01 X-4.15966 Y-2.36089
G01 X-4.15350 Y-2.36044
G01 X-3.79650 Y-2.36044
G01 X-3.79115 Y-2.36082
G01 X-3.78848 Y-2.36119
G01 X-3.78622 Y-2.36173
G01 X-3.78091 Y-2.36337
G01 X-3.77808 Y-2.36461
G01 X-3.77354 Y-2.36707
G01 X-3.77130 Y-2.36862
G01 X-3.76783 Y-2.37139
G01 X-3.65576 Y-2.48334
G01 X-3.64840 Y-2.48313
G01 X-3.64329 Y-2.48343
G01 X-3.63820 Y-2.48416
G01 X-3.63100 Y-2.48585
G01 X-3.62436 Y-2.48820
G01 X-3.61836 Y-2.49105
G01 X-3.61204 Y-2.49492
G01 X-3.60793 Y-2.49797
G01 X-3.60407 Y-2.50137
G01 X-3.59900 Y-2.50669
G01 X-3.30100 Y-2.50669
G01 X-3.29723 Y-2.50261
G01 X-3.29221 Y-2.49812
G01 X-3.28578 Y-2.49346
G01 X-3.27813 Y-2.48930
G01 X-3.27182 Y-2.48675
G01 X-3.26800 Y-2.48556
G01 X-3.26414 Y-2.48461
G01 X-3.25780 Y-2.48355
G01 X-3.25182 Y-2.48312
G01 X-3.24711 Y-2.48316
G01 X-3.24089 Y-2.48372
G01 X-3.23471 Y-2.48486
G01 X-3.22833 Y-2.48670
G01 X-3.22249 Y-2.48901
G01 X-3.21691 Y-2.49185
G01 X-3.21129 Y-2.49542
G01 X-3.20636 Y-2.49928
G01 X-3.20232 Y-2.50307
G01 X-3.20068 Y-2.50482
G01 X-3.19710 Y-2.50903
G01 X-3.19387 Y-2.51358
G01 X-3.19013 Y-2.52014
G01 X-3.18787 Y-2.52518
G01 X-3.18616 Y-2.53001
G01 X-3.18429 Y-2.53741
G01 X-3.18328 Y-2.54514
G01 X-3.18309 Y-2.55000
G01 X-3.18331 Y-2.55527
G01 X-3.18401 Y-2.56093
G01 X-3.18446 Y-2.56341
G01 X-3.18560 Y-2.56814
G01 X-3.18723 Y-2.57316
G01 X-3.19026 Y-2.58013
G01 X-3.19314 Y-2.58527
G01 X-3.19602 Y-2.58951
G01 X-3.20098 Y-2.59553
G01 X-3.20503 Y-2.59954
G01 X-3.20875 Y-2.60266
G01 X-3.21502 Y-2.60703
G01 X-3.22052 Y-2.61006
G01 X-3.22520 Y-2.61212
G01 X-3.22756 Y-2.61302
G01 X-3.23300 Y-2.61471
G01 X-3.23816 Y-2.61585
G01 X-3.24336 Y-2.61657
G01 X-3.25041 Y-2.61690
G01 X-3.25510 Y-2.61671
G01 X-3.26064 Y-2.61606
G01 X-3.26545 Y-2.61510
G01 X-3.27015 Y-2.61380
G01 X-3.27471 Y-2.61218
G01 X-3.27912 Y-2.61024
G01 X-3.28372 Y-2.60779
G01 X-3.28799 Y-2.60507
G01 X-3.29377 Y-2.60059
G01 X-3.29705 Y-2.59757
G01 X-3.30098 Y-2.59331
G01 X-3.59903 Y-2.59331
G01 X-3.60074 Y-2.59527
G01 X-3.60458 Y-2.59912
G01 X-3.60842 Y-2.60242
G01 X-3.61313 Y-2.60583
G01 X-3.61714 Y-2.60828
G01 X-3.62198 Y-2.61076
G01 X-3.62701 Y-2.61284
G01 X-3.63183 Y-2.61439
G01 X-3.63749 Y-2.61573
G01 X-3.64287 Y-2.61653
G01 X-3.64830 Y-2.61689
G01 X-3.65299 Y-2.61684
G01 X-3.65917 Y-2.61628
G01 X-3.66514 Y-2.61515
G01 X-3.66786 Y-2.61360
G01 X-3.66517 Y-2.61514
G01 X-3.55512 Y-2.72509
G01 X-3.21071 Y-2.72509
G01 X-3.20649 Y-2.72531
G01 X-3.20413 Y-2.72560
G01 X-3.19827 Y-2.72693
G01 X-3.19267 Y-2.72905
G01 X-3.18709 Y-2.73214
G01 X-3.18173 Y-2.73631
G01 X-3.13671 Y-2.78131
G01 X-3.13388 Y-2.78464
G01 X-3.13120 Y-2.78863
G01 X-3.12969 Y-2.79137
G01 X-3.12793 Y-2.79540
G01 X-3.12691 Y-2.79835
G01 X-3.12572 Y-2.80339
G01 X-3.12536 Y-2.80612
G01 X-3.12509 Y-2.81071
G01 X-3.12509 Y-3.21762
G01 X-3.12554 Y-3.22381
G01 X-3.12642 Y-3.22815
G01 X-3.12705 Y-3.23046
G01 X-3.12860 Y-3.23464
G01 X-3.13117 Y-3.23967
G01 X-3.13411 Y-3.24399
G01 X-3.13770 Y-3.24807
G01 X-3.31914 Y-3.42950
G01 X-3.32326 Y-3.43307
G01 X-3.32725 Y-3.43574
G01 X-3.32998 Y-3.43726
G01 X-3.33474 Y-3.43930
G01 X-3.33735 Y-3.44014
G01 X-3.34201 Y-3.44123
G01 X-3.34474 Y-3.44158
G01 X-3.34933 Y-3.44186
G01 X-3.82320 Y-3.44177
G01 X-3.82629 Y-3.44160
G01 X-3.83252 Y-3.44044
G01 X-3.83781 Y-3.43866
G01 X-3.84033 Y-3.43754
G01 X-3.84351 Y-3.43583
G01 X-3.84679 Y-3.43366
G01 X-3.85113 Y-3.43010
G01 X-3.88157 Y-3.39962
G01 X-3.88490 Y-3.39554
G01 X-3.88665 Y-3.39295
G01 X-3.88895 Y-3.38873
G01 X-3.89076 Y-3.38425
G01 X-3.89205 Y-3.37959
G01 X-3.89256 Y-3.37683
G01 X-3.89301 Y-3.37241
G01 X-3.89304 Y-3.36634
G01 X-3.89720 Y-3.36513
G01 X-3.90083 Y-3.36343
G01 X-3.90418 Y-3.36123
G01 X-3.90745 Y-3.35828
G01 X-3.91020 Y-3.35485
G01 X-3.91221 Y-3.35138
G01 X-3.91380 Y-3.34727
G01 X-3.91471 Y-3.34306
G01 X-3.98529 Y-3.34306
G01 X-3.98569 Y-3.34533
G01 X-3.98631 Y-3.34766
G01 X-3.98714 Y-3.34992
G01 X-3.98815 Y-3.35209
G01 X-3.98936 Y-3.35418
G01 X-3.99073 Y-3.35615
G01 X-3.99228 Y-3.35799
G01 X-3.99398 Y-3.35969
G01 X-3.99582 Y-3.36123
G01 X-3.99779 Y-3.36261
G01 X-3.99987 Y-3.36382
G01 X-4.00205 Y-3.36483
G01 X-4.00431 Y-3.36565
G01 X-4.00663 Y-3.36627
G01 X-4.00900 Y-3.36669
G01 X-4.01140 Y-3.36690
G01 X-4.08740 Y-3.36693
G01 X-4.09140 Y-3.36664
G01 X-4.09453 Y-3.36599
G01 X-4.09758 Y-3.36498
G01 X-4.10048 Y-3.36363
G01 X-4.10321 Y-3.36194
G01 X-4.10572 Y-3.35996
G01 X-4.10799 Y-3.35769
G01 X-4.10998 Y-3.35518
G01 X-4.11167 Y-3.35242
G01 X-4.11022 Y-3.34670
G01 X-4.10925 Y-3.34352
G01 X-4.10520 Y-3.33223
G01 X-4.10274 Y-3.32336
G01 X-4.10150 Y-3.31729
G01 X-4.10065 Y-3.31132
G01 X-4.10015 Y-3.30534
G01 X-4.10001 Y-3.30054
G01 X-4.10013 Y-3.29505
G01 X-4.10054 Y-3.28969
G01 X-4.10140 Y-3.28334
G01 X-4.10246 Y-3.27781
G01 X-4.10377 Y-3.27257
G01 X-4.10495 Y-3.26857
G01 X-4.10907 Y-3.25703
G01 X-4.10991 Y-3.25435
G01 X-4.11166 Y-3.24755
G01 X-4.11043 Y-3.24548
G01 X-4.10902 Y-3.24354
G01 X-4.10745 Y-3.24172
G01 X-4.10572 Y-3.24004
G01 X-4.10386 Y-3.23852
G01 X-4.10187 Y-3.23717
G01 X-4.09977 Y-3.23600
G01 X-4.09758 Y-3.23502
G01 X-4.09530 Y-3.23423
G01 X-4.09297 Y-3.23364
G01 X-4.09020 Y-3.23321
G01 X-4.08780 Y-3.23307
G01 X-4.01260 Y-3.23307
G01 X-4.00940 Y-3.23326
G01 X-4.00702 Y-3.23364
G01 X-4.00469 Y-3.23423
G01 X-4.00059 Y-3.23582
G01 X-3.99679 Y-3.23805
G01 X-3.99340 Y-3.24086
G01 X-3.99049 Y-3.24417
G01 X-3.98914 Y-3.24616
G01 X-3.98797 Y-3.24826
G01 X-3.98631 Y-3.25234
G01 X-3.98569 Y-3.25467
G01 X-3.98529 Y-3.25694
G01 X-3.91471 Y-3.25694
G01 X-3.91391 Y-3.25311
G01 X-3.91238 Y-3.24898
G01 X-3.91020 Y-3.24515
G01 X-3.90772 Y-3.24201
G01 X-3.90481 Y-3.23926
G01 X-3.90118 Y-3.23676
G01 X-3.89758 Y-3.23502
G01 X-3.89376 Y-3.23381
G01 X-3.89100 Y-3.23331
G01 X-3.88780 Y-3.23307
G01 X-3.81220 Y-3.23307
G01 X-3.80860 Y-3.23336
G01 X-3.80469 Y-3.23423
G01 X-3.80132 Y-3.23549
G01 X-3.79813 Y-3.23717
G01 X-3.79519 Y-3.23926
G01 X-3.79255 Y-3.24172
G01 X-3.79026 Y-3.24450
G01 X-3.78833 Y-3.24757
G01 X-3.79042 Y-3.25546
G01 X-3.79529 Y-3.26935
G01 X-3.79676 Y-3.27458
G01 X-3.79770 Y-3.27858
G01 X-3.79866 Y-3.28368
G01 X-3.79940 Y-3.28909
G01 X-3.79984 Y-3.29449
G01 X-3.79999 Y-3.29939
G01 X-3.79975 Y-3.30702
G01 X-3.79893 Y-3.31458
G01 X-3.79751 Y-3.32229
G01 X-3.79542 Y-3.33025
G01 X-3.79033 Y-3.34485
G01 X-3.78835 Y-3.35240
G01 X-3.78333 Y-3.35574
G01 X-3.78835 Y-3.35240
G01 X-3.78881 Y-3.35040
G01 X-3.78834 Y-3.35245
G01 X-3.79043 Y-3.35574
G01 X-3.78333 Y-3.35574
G01 X-3.77365 Y-3.35803
G01 X-3.76578 Y-3.35930
G01 X-3.75867 Y-3.36003
G01 X-3.75135 Y-3.36034
G01 X-3.74436 Y-3.36020
G01 X-3.73587 Y-3.35950
G01 X-3.72803 Y-3.35834
G01 X-3.71942 Y-3.35648
G01 X-3.68242 Y-3.36300
G01 X-3.67771 Y-3.36359
G01 X-3.67244 Y-3.36387
G01 X-3.45275 Y-3.36389
G01 X-3.44466 Y-3.36657
G01 X-3.43774 Y-3.36822
G01 X-3.43360 Y-3.36892
G01 X-3.42952 Y-3.36942
G01 X-3.42242 Y-3.36979
G01 X-3.37722 Y-3.36979
G01 X-3.36992 Y-3.36936
G01 X-3.36201 Y-3.36817
G01 X-3.35892 Y-3.36601
G01 X-3.35496 Y-3.36291
G01 X-3.35017 Y-3.35861
G01 X-3.34488 Y-3.35297
G01 X-3.34028 Y-3.34705
G01 X-3.33736 Y-3.34265
G01 X-3.33525 Y-3.33908
G01 X-3.33312 Y-3.33506
G01 X-3.33006 Y-3.32828
G01 X-3.32739 Y-3.32099
G01 X-3.32530 Y-3.31388
G01 X-3.29910 Y-3.28768
G01 X-3.29842 Y-3.28719
G01 X-3.29956 Y-3.28801
G01 X-3.30179 Y-3.28910
G01 X-3.30824 Y-3.29148
G01 X-3.31065 Y-3.29205
G01 X-3.31505 Y-3.29276
G01 X-3.31857 Y-3.29303
G01 X-3.33638 Y-3.29305
G01 X-3.34127 Y-3.29091
G01 X-3.34531 Y-3.28937
G01 X-3.45432 Y-3.28937
G01 X-3.45760 Y-3.28812
G01 X-3.46394 Y-3.28535
G01 X-3.46476 Y-3.28432
G01 X-3.46895 Y-3.27829
G01 X-3.47213 Y-3.27210
G01 X-3.47315 Y-3.26959
G01 X-3.47470 Y-3.26481
G01 X-3.47562 Y-3.26106
G01 X-3.47661 Y-3.25417
G01 X-3.47669 Y-3.24760
G01 X-3.47643 Y-3.24413
G01 X-3.47520 Y-3.23695
G01 X-3.47283 Y-3.22953
G01 X-3.46999 Y-3.22360
G01 X-3.46811 Y-3.22038
G01 X-3.46393 Y-3.21464
G01 X-3.45824 Y-3.21214
G01 X-3.45432 Y-3.21064
G01 X-3.34532 Y-3.21061
G01 X-3.33743 Y-3.20740
G01 X-3.33270 Y-3.20201
G01 X-3.29833 Y-3.16765
G01 X-3.29579 Y-3.15963
G01 X-3.29563 Y-3.15966
G01 X-3.29579 Y-3.15963
G01 X-3.29529 Y-3.15697
G01 X-3.29532 Y-3.15427
G01 X-3.29514 Y-3.15426
G01 X-3.29532 Y-3.15427
G01 X-3.29685 Y-3.14356
G01 X-3.29867 Y-3.13490
G01 X-3.30013 Y-3.12912
G01 X-3.30317 Y-3.11921
G01 X-3.30686 Y-3.10933
G01 X-3.31139 Y-3.09901
G01 X-3.31672 Y-3.08851
G01 X-3.32062 Y-3.08170
G01 X-3.32062 Y-3.01269
G01 X-3.31917 Y-3.01221
G01 X-3.32062 Y-3.01269
G01 X-3.32351 Y-3.00933
G01 X-3.32786 Y-3.00349
G01 X-3.33295 Y-2.99520
G01 X-3.33716 Y-2.98642
G01 X-3.34033 Y-2.97765
G01 X-3.34199 Y-2.97141
G01 X-3.34277 Y-2.96781
G01 X-3.34382 Y-2.96101
G01 X-3.34425 Y-2.95562
G01 X-3.34288 Y-2.95494
G01 X-3.34425 Y-2.95562
G01 X-3.36939 Y-2.93048
G01 X-3.36852 Y-2.92836
G01 X-3.36939 Y-2.93048
G01 X-3.37201 Y-2.93066
G01 X-3.42639 Y-2.93070
G01 X-3.43119 Y-2.93042
G01 X-3.43595 Y-2.92973
G01 X-3.44063 Y-2.92862
G01 X-3.44484 Y-2.92724
G01 X-3.44397 Y-2.91236
G01 X-3.44253 Y-2.89732
G01 X-3.44479 Y-2.89536
G01 X-3.44670 Y-2.89330
G01 X-3.44839 Y-2.89107
G01 X-3.44985 Y-2.88867
G01 X-3.45105 Y-2.88614
G01 X-3.45199 Y-2.88349
G01 X-3.45266 Y-2.88077
G01 X-3.45307 Y-2.87769
G01 X-3.45120 Y-2.86973
G01 X-3.44998 Y-2.86223
G01 X-3.44946 Y-2.85680
G01 X-3.44923 Y-2.84860
G01 X-3.44955 Y-2.84203
G01 X-3.45028 Y-2.83561
G01 X-3.45141 Y-2.82927
G01 X-3.45307 Y-2.82235
G01 X-3.45266 Y-2.81923
G01 X-3.45187 Y-2.81612
G01 X-3.45057 Y-2.81276
G01 X-3.44990 Y-2.81142
G01 X-3.44955 Y-2.81121
G01 X-3.44990 Y-2.81142
G01 X-3.45057 Y-2.81276
G01 X-3.45187 Y-2.81612
G01 X-3.45266 Y-2.81923
G01 X-3.45307 Y-2.82235
G01 X-3.45141 Y-2.82927
G01 X-3.45028 Y-2.83561
G01 X-3.44955 Y-2.84203
G01 X-3.44923 Y-2.84860
G01 X-3.44946 Y-2.85680
G01 X-3.44998 Y-2.86223
G01 X-3.45120 Y-2.86973
G01 X-3.45307 Y-2.87769
G01 X-3.45266 Y-2.88077
G01 X-3.45199 Y-2.88349
G01 X-3.45105 Y-2.88614
G01 X-3.44985 Y-2.88867
G01 X-3.44839 Y-2.89107
G01 X-3.44670 Y-2.89330
G01 X-3.44479 Y-2.89536
G01 X-3.44253 Y-2.89732
G01 X-3.44359 Y-2.90756
G01 X-3.44463 Y-2.92290
G01 X-3.44575 Y-2.95285
G01 X-3.44011 Y-2.97714
G01 X-3.43439 Y-2.99601
G01 X-3.41278 Y-2.99587
G01 X-3.40999 Y-2.99615
G01 X-3.40733 Y-2.99699
G01 X-3.40488 Y-2.99835
G01 X-3.39118 Y-3.00752
G01 X-3.38694 Y-3.01017
G01 X-3.38913 Y-3.00492
G01 X-3.39197 Y-2.99709
G01 X-3.39350 Y-2.99220
G01 X-3.39519 Y-2.98583
G01 X-3.39100 Y-2.98027
G01 X-3.39519 Y-2.98583
G01 X-3.42719 Y-2.98582
G01 X-3.43240 Y-2.98562
G01 X-3.43768 Y-2.98516
G01 X-3.44011 Y-2.97714
G01 X-3.44503 Y-2.95595
G01 X-3.44011 Y-2.97714
G01 X-3.43439 Y-2.99601
G01 X-3.41278 Y-2.99587
G01 X-3.41276 Y-2.99572
G01 X-3.41278 Y-2.99587
G01 X-3.40999 Y-2.99615
G01 X-3.40733 Y-2.99699
G01 X-3.40714 Y-2.99655
G01 X-3.40733 Y-2.99699
G01 X-3.40488 Y-2.99835
G01 X-3.39118 Y-3.00752
G01 X-3.37627 Y-3.01654
G01 X-3.37093 Y-3.01954
G01 X-3.36790 Y-3.02183
G01 X-3.36772 Y-3.02161
G01 X-3.36790 Y-3.02183
G01 X-3.35451 Y-3.03600
G01 X-3.34522 Y-3.04679
G01 X-3.34218 Y-3.05053
G01 X-3.33214 Y-3.06385
G01 X-3.32591 Y-3.07305
G01 X-3.31885 Y-3.08467
G01 X-3.32376 Y-3.07639
G01 X-3.33237 Y-3.06352
G01 X-3.33462 Y-3.06038
G01 X-3.34218 Y-3.05053
G01 X-3.34818 Y-3.04335
G01 X-3.34818 Y-3.02239
G01 X-3.34704 Y-3.02205
G01 X-3.34818 Y-3.02239
G01 X-3.35085 Y-3.01869
G01 X-3.35303 Y-3.01535
G01 X-3.35786 Y-3.00706
G01 X-3.36263 Y-2.99695
G01 X-3.36622 Y-2.98720
G01 X-3.36895 Y-2.97718
G01 X-3.36978 Y-2.97328
G01 X-3.37062 Y-2.96822
G01 X-3.36960 Y-2.96767
G01 X-3.37062 Y-2.96822
G01 X-3.38057 Y-2.95827
G01 X-3.37971 Y-2.95618
G01 X-3.38057 Y-2.95827
G01 X-3.42599 Y-2.95827
G01 X-3.43080 Y-2.95810
G01 X-3.43559 Y-2.95766
G01 X-3.44034 Y-2.95694
G01 X-3.44503 Y-2.95595
G01 X-3.44575 Y-2.95285
G01 X-3.44489 Y-2.92819
G01 X-3.44397 Y-2.91236
G01 X-3.44253 Y-2.89732
G01 X-3.44479 Y-2.89536
G01 X-3.44670 Y-2.89330
G01 X-3.44839 Y-2.89107
G01 X-3.44985 Y-2.88867
G01 X-3.45120 Y-2.88577
G01 X-3.45210 Y-2.88311
G01 X-3.45273 Y-2.88038
G01 X-3.45305 Y-2.87761
G01 X-3.45440 Y-2.87978
G01 X-3.45698 Y-2.88326
G01 X-3.46072 Y-2.88745
G01 X-3.46519 Y-2.89148
G01 X-3.46978 Y-2.89475
G01 X-3.47535 Y-2.89788
G01 X-3.48038 Y-2.89998
G01 X-3.48599 Y-2.90166
G01 X-3.48995 Y-2.90242
G01 X-3.56798 Y-2.98045
G01 X-3.57112 Y-2.98328
G01 X-3.57335 Y-2.98499
G01 X-3.57638 Y-2.98698
G01 X-3.57849 Y-2.98814
G01 X-3.58213 Y-2.98986
G01 X-3.58594 Y-2.99119
G01 X-3.58864 Y-2.99192
G01 X-3.59261 Y-2.99266
G01 X-3.59879 Y-2.99306
G01 X-3.60327 Y-2.99787
G01 X-3.60619 Y-3.00057
G01 X-3.61031 Y-3.00386
G01 X-3.61392 Y-3.00635
G01 X-3.61591 Y-3.00752
G01 X-3.62187 Y-3.01070
G01 X-3.62660 Y-3.01267
G01 X-3.63276 Y-3.01464
G01 X-3.63710 Y-3.01565
G01 X-3.64108 Y-3.01630
G01 X-3.64734 Y-3.01686
G01 X-3.65308 Y-3.01683
G01 X-3.66146 Y-3.01592
G01 X-3.66918 Y-3.01406
G01 X-3.67254 Y-3.01297
G01 X-3.67986 Y-3.00988
G01 X-3.68674 Y-3.00589
G01 X-3.68932 Y-3.00411
G01 X-3.69547 Y-2.99908
G01 X-3.70119 Y-2.99306
G01 X-3.99580 Y-2.99306
G01 X-4.00271 Y-2.99250
G01 X-4.00924 Y-2.99090
G01 X-4.01249 Y-2.98965
G01 X-4.01819 Y-2.98678
G01 X-4.02215 Y-2.98405
G01 X-4.02573 Y-2.98095
G01 X-4.17472 Y-2.83197
G01 X-4.23783 Y-2.83197
G01 X-4.23069 Y-2.83857
G01 X-4.20360 Y-2.86562
G01 X-4.19085 Y-2.87090
G01 X-4.19079 Y-2.87078
G01 X-4.19085 Y-2.87090
G01 X-4.18847 Y-2.87217
G01 X-4.18638 Y-2.87389
G01 X-4.18630 Y-2.87378
G01 X-4.18638 Y-2.87389
G01 X-4.05311 Y-3.00715
G01 X-4.04827 Y-3.01180
G01 X-4.04156 Y-3.01772
G01 X-4.02875 Y-3.02747
G01 X-4.01506 Y-3.03616
G01 X-3.99939 Y-3.04431
G01 X-3.99402 Y-3.04672
G01 X-3.72642 Y-3.04672
G01 X-3.72640 Y-3.04654
G01 X-3.72642 Y-3.04672
G01 X-3.72255 Y-3.04728
G01 X-3.71073 Y-3.05064
G01 X-3.69840 Y-3.05355
G01 X-3.69328 Y-3.05456
G01 X-3.68148 Y-3.05647
G01 X-3.67637 Y-3.05711
G01 X-3.66490 Y-3.05813
G01 X-3.65973 Y-3.05841
G01 X-3.65121 Y-3.05864
G01 X-3.64265 Y-3.05852
G01 X-3.63322 Y-3.05803
G01 X-3.62412 Y-3.05719
G01 X-3.61318 Y-3.05571
G01 X-3.60397 Y-3.05405
G01 X-3.58916 Y-3.05061
G01 X-3.57912 Y-3.04778
G01 X-3.57082 Y-3.04510
G01 X-3.56865 Y-3.04458
G01 X-3.56343 Y-3.04375
G01 X-3.55080 Y-3.04124
G01 X-3.53617 Y-3.03737
G01 X-3.51925 Y-3.03162
G01 X-3.48690 Y-3.01835
G01 X-3.47688 Y-3.01195
G01 X-3.46516 Y-3.00509
G01 X-3.46110 Y-3.00287
G01 X-3.46685 Y-2.98382
G01 X-3.47186 Y-2.96228
G01 X-3.52928 Y-3.01969
G01 X-3.53237 Y-3.02261
G01 X-3.53693 Y-3.02652
G01 X-3.54075 Y-3.02944
G01 X-3.54541 Y-3.03261
G01 X-3.54916 Y-3.03492
G01 X-3.55268 Y-3.03685
G01 X-3.55846 Y-3.03967
G01 X-3.56365 Y-3.04180
G01 X-3.57205 Y-3.04457
G01 X-3.57335 Y-3.04492
G01 X-3.57354 Y-3.04459
G01 X-3.57335 Y-3.04492
G01 X-3.57549 Y-3.04664
G01 X-3.57620 Y-3.04687
G01 X-3.57083 Y-3.04507
G01 X-3.55080 Y-3.04124
G01 X-3.53458 Y-3.03689
G01 X-3.51925 Y-3.03162
G01 X-3.49042 Y-3.01981
G01 X-3.46399 Y-2.99338
G01 X-3.46687 Y-2.98382
G01 X-3.47299 Y-2.95741
G01 X-3.47310 Y-2.95743
G01 X-3.47299 Y-2.95741
G01 X-3.47334 Y-2.95401
G01 X-3.47307 Y-2.94369
G01 X-3.47214 Y-2.92127
G01 X-3.47103 Y-2.90502
G01 X-3.47000 Y-2.89489
G01 X-3.46978 Y-2.89475
G01 X-3.47000 Y-2.89489
G01 X-3.47105 Y-2.90526
G01 X-3.47240 Y-2.92640
G01 X-3.47607 Y-2.92752
G01 X-3.47650 Y-2.92680
G01 X-3.47607 Y-2.92752
G01 X-3.55023 Y-3.00160
G01 X-3.55449 Y-3.00528
G01 X-3.55837 Y-3.00813
G01 X-3.56346 Y-3.01136
G01 X-3.56884 Y-3.01410
G01 X-3.57364 Y-3.01611
G01 X-3.58015 Y-3.01821
G01 X-3.58605 Y-3.01951
G01 X-3.58640 Y-3.01882
G01 X-3.58605 Y-3.01951
G01 X-3.58914 Y-3.02224
G01 X-3.59395 Y-3.02604
G01 X-3.60037 Y-3.03037
G01 X-3.60889 Y-3.03502
G01 X-3.61261 Y-3.03675
G01 X-3.61871 Y-3.03913
G01 X-3.62448 Y-3.04095
G01 X-3.62948 Y-3.04220
G01 X-3.63360 Y-3.04301
G01 X-3.64040 Y-3.04397
G01 X-3.64650 Y-3.04440
G01 X-3.65336 Y-3.04441
G01 X-3.65727 Y-3.04413
G01 X-3.66595 Y-3.04311
G01 X-3.66979 Y-3.04233
G01 X-3.67711 Y-3.04046
G01 X-3.68196 Y-3.03888
G01 X-3.69074 Y-3.03522
G01 X-3.69458 Y-3.03325
G01 X-3.70109 Y-3.02941
G01 X-3.70563 Y-3.02632
G01 X-3.71272 Y-3.02062
G01 X-3.71225 Y-3.01920
G01 X-3.71272 Y-3.02062
G01 X-3.99580 Y-3.02062
G01 X-4.00255 Y-3.02026
G01 X-4.00740 Y-3.01966
G01 X-4.01179 Y-3.01873
G01 X-4.01800 Y-3.01703
G01 X-4.02325 Y-3.01503
G01 X-4.02939 Y-3.01208
G01 X-4.03348 Y-3.00972
G01 X-4.03875 Y-3.00605
G01 X-4.04340 Y-3.00213
G01 X-4.18614 Y-2.85953
G01 X-4.18527 Y-2.85743
G01 X-4.18614 Y-2.85953
G01 X-4.20970 Y-2.85953
G01 X-4.23069 Y-2.83857
G01 X-4.23783 Y-2.83197
G01 X-4.26071 Y-2.83197
G01 X-4.25901 Y-2.83602
G01 X-4.25764 Y-2.84101
G01 X-4.25685 Y-2.84626
G01 X-4.25677 Y-2.85203
G01 X-4.24997 Y-2.85826
G01 X-4.22113 Y-2.88705
G01 X-4.21905 Y-2.88876
G01 X-4.21667 Y-2.89003
G01 X-4.20393 Y-2.89531
G01 X-4.07252 Y-3.02672
G01 X-4.06696 Y-3.03206
G01 X-4.05809 Y-3.03982
G01 X-4.04706 Y-3.04828
G01 X-4.04381 Y-3.05055
G01 X-4.02955 Y-3.05961
G01 X-4.02590 Y-3.06169
G01 X-4.01119 Y-3.06922
G01 X-4.00249 Y-3.07311
G01 X-3.99979 Y-3.07398
G01 X-3.99580 Y-3.07428
G01 X-3.72839 Y-3.07428
G01 X-3.71776 Y-3.07728
G01 X-3.70400 Y-3.08053
G01 X-3.69792 Y-3.08173
G01 X-3.68563 Y-3.08371
G01 X-3.67955 Y-3.08448
G01 X-3.66662 Y-3.08564
G01 X-3.65177 Y-3.08619
G01 X-3.63853 Y-3.08594
G01 X-3.62799 Y-3.08526
G01 X-3.62103 Y-3.08458
G01 X-3.61191 Y-3.08339
G01 X-3.59818 Y-3.08100
G01 X-3.58821 Y-3.07878
G01 X-3.58224 Y-3.07729
G01 X-3.57109 Y-3.07415
G01 X-3.56330 Y-3.07164
G01 X-3.55827 Y-3.07083
G01 X-3.54476 Y-3.06813
G01 X-3.52839 Y-3.06381
G01 X-3.50945 Y-3.05737
G01 X-3.47515 Y-3.04341
G01 X-3.47298 Y-3.04217
G01 X-3.46280 Y-3.03565
G01 X-3.45139 Y-3.02896
G01 X-3.44124 Y-3.02358
G01 X-3.41703 Y-3.02343
G01 X-3.40201 Y-3.03327
G01 X-3.38614 Y-3.04261
G01 X-3.37527 Y-3.05413
G01 X-3.36623 Y-3.06462
G01 X-3.36394 Y-3.06745
G01 X-3.35484 Y-3.07948
G01 X-3.34715 Y-3.09101
G01 X-3.34109 Y-3.10138
G01 X-3.33629 Y-3.11083
G01 X-3.33354 Y-3.11694
G01 X-3.33023 Y-3.12536
G01 X-3.32679 Y-3.13616
G01 X-3.32489 Y-3.14392
G01 X-3.32349 Y-3.15144
G01 X-3.32306 Y-3.15457
G01 X-3.32460 Y-3.15925
G01 X-3.32306 Y-3.15457
G01 X-3.32395 Y-3.14869
G01 X-3.32489 Y-3.14392
G01 X-3.32759 Y-3.13340
G01 X-3.33023 Y-3.12536
G01 X-3.33354 Y-3.11694
G01 X-3.33763 Y-3.10804
G01 X-3.34109 Y-3.10138
G01 X-3.34416 Y-3.09603
G01 X-3.34963 Y-3.09374
G01 X-3.35790 Y-3.09116
G01 X-3.36557 Y-3.08957
G01 X-3.37298 Y-3.08877
G01 X-3.37692 Y-3.08860
G01 X-3.42227 Y-3.08858
G01 X-3.42639 Y-3.08877
G01 X-3.43370 Y-3.08948
G01 X-3.43735 Y-3.09009
G01 X-3.44333 Y-3.09148
G01 X-3.45166 Y-3.09422
G01 X-3.45753 Y-3.09678
G01 X-3.46121 Y-3.09868
G01 X-3.46420 Y-3.10039
G01 X-3.46402 Y-3.10114
G01 X-3.46420 Y-3.10039
G01 X-4.01345 Y-3.10039
G01 X-4.01432 Y-3.10249
G01 X-4.01345 Y-3.10039
G01 X-4.22916 Y-2.88468
G01 X-4.23125 Y-2.88554
G01 X-4.22916 Y-2.88468
G01 X-4.22917 Y-2.87903
G01 X-4.22113 Y-2.88705
G01 X-4.21905 Y-2.88876
G01 X-4.21931 Y-2.88915
G01 X-4.21905 Y-2.88876
G01 X-4.21667 Y-2.89003
G01 X-4.20393 Y-2.89531
G01 X-4.07252 Y-3.02672
G01 X-4.06698 Y-3.03208
G01 X-4.05809 Y-3.03982
G01 X-4.04752 Y-3.04799
G01 X-4.04438 Y-3.05017
G01 X-4.02956 Y-3.05964
G01 X-4.02590 Y-3.06169
G01 X-4.01121 Y-3.06924
G01 X-4.00249 Y-3.07311
G01 X-3.99979 Y-3.07398
G01 X-3.99989 Y-3.07451
G01 X-3.99979 Y-3.07398
G01 X-3.99580 Y-3.07428
G01 X-3.72839 Y-3.07428
G01 X-3.71776 Y-3.07728
G01 X-3.70449 Y-3.08045
G01 X-3.69792 Y-3.08173
G01 X-3.68563 Y-3.08373
G01 X-3.67955 Y-3.08448
G01 X-3.66662 Y-3.08566
G01 X-3.65177 Y-3.08619
G01 X-3.64173 Y-3.08607
G01 X-3.63119 Y-3.08551
G01 X-3.62103 Y-3.08458
G01 X-3.61191 Y-3.08339
G01 X-3.59818 Y-3.08100
G01 X-3.58784 Y-3.07871
G01 X-3.58224 Y-3.07729
G01 X-3.57109 Y-3.07415
G01 X-3.56330 Y-3.07164
G01 X-3.55827 Y-3.07083
G01 X-3.54476 Y-3.06813
G01 X-3.52881 Y-3.06393
G01 X-3.52635 Y-3.06320
G01 X-3.50945 Y-3.05737
G01 X-3.50161 Y-3.05428
G01 X-3.47987 Y-3.04527
G01 X-3.47739 Y-3.04527
G01 X-3.47732 Y-3.04568
G01 X-3.47739 Y-3.04527
G01 X-3.47621 Y-3.04474
G01 X-3.47180 Y-3.04291
G01 X-3.46731 Y-3.04127
G01 X-3.45904 Y-3.03863
G01 X-3.45077 Y-3.03661
G01 X-3.44568 Y-3.03558
G01 X-3.44094 Y-3.03484
G01 X-3.42896 Y-3.03369
G01 X-3.42302 Y-3.03347
G01 X-3.40167 Y-3.03347
G01 X-3.38614 Y-3.04261
G01 X-3.37788 Y-3.05125
G01 X-3.36623 Y-3.06462
G01 X-3.35687 Y-3.07667
G01 X-3.34906 Y-3.08800
G01 X-3.34416 Y-3.09603
G01 X-3.34906 Y-3.08800
G01 X-3.35484 Y-3.07948
G01 X-3.36394 Y-3.06745
G01 X-3.36895 Y-3.06147
G01 X-3.37650 Y-3.06105
G01 X-3.42263 Y-3.06103
G01 X-3.42770 Y-3.06123
G01 X-3.43529 Y-3.06191
G01 X-3.44311 Y-3.06314
G01 X-3.44906 Y-3.06450
G01 X-3.45330 Y-3.06567
G01 X-3.46229 Y-3.06879
G01 X-3.47129 Y-3.07283
G01 X-3.56693 Y-3.07283
G01 X-3.56771 Y-3.07309
G01 X-3.56693 Y-3.07283
G01 X-3.47129 Y-3.07283
G01 X-3.47116 Y-3.07344
G01 X-3.47129 Y-3.07283
G01 X-3.46527 Y-3.07004
G01 X-3.46041 Y-3.06806
G01 X-3.45444 Y-3.06602
G01 X-3.44983 Y-3.06469
G01 X-3.44389 Y-3.06331
G01 X-3.43608 Y-3.06200
G01 X-3.42770 Y-3.06123
G01 X-3.42263 Y-3.06103
G01 X-3.37650 Y-3.06105
G01 X-3.36895 Y-3.06147
G01 X-3.36394 Y-3.06745
G01 X-3.35687 Y-3.07667
G01 X-3.34906 Y-3.08800
G01 X-3.34264 Y-3.09859
G01 X-3.33763 Y-3.10804
G01 X-3.33239 Y-3.11971
G01 X-3.33023 Y-3.12536
G01 X-3.32759 Y-3.13340
G01 X-3.32489 Y-3.14392
G01 X-3.32395 Y-3.14869
G01 X-3.32306 Y-3.15457
G01 X-3.32460 Y-3.15925
G01 X-3.32382 Y-3.16323
G01 X-3.32326 Y-3.16947
G01 X-3.32338 Y-3.17534
G01 X-3.32420 Y-3.18156
G01 X-3.32570 Y-3.18759
G01 X-3.32813 Y-3.19391
G01 X-3.32951 Y-3.19677
G01 X-3.33239 Y-3.20165
G01 X-3.33743 Y-3.20740
G01 X-3.34532 Y-3.21061
G01 X-3.45432 Y-3.21064
G01 X-3.45824 Y-3.21214
G01 X-3.46393 Y-3.21464
G01 X-3.46556 Y-3.21674
G01 X-3.46921 Y-3.22214
G01 X-3.47222 Y-3.22810
G01 X-3.47336 Y-3.23098
G01 X-3.47528 Y-3.23727
G01 X-3.47637 Y-3.24375
G01 X-3.47668 Y-3.24721
G01 X-3.47667 Y-3.25301
G01 X-3.47641 Y-3.25609
G01 X-3.47532 Y-3.26258
G01 X-3.47328 Y-3.26923
G01 X-3.47229 Y-3.27175
G01 X-3.46895 Y-3.27829
G01 X-3.46522 Y-3.28370
G01 X-3.46394 Y-3.28535
G01 X-3.46185 Y-3.28633
G01 X-3.46377 Y-3.28543
G01 X-3.49131 Y-3.28543
G01 X-3.49785 Y-3.28078
G01 X-3.50541 Y-3.27484
G01 X-3.51045 Y-3.27049
G01 X-3.51770 Y-3.26378
G01 X-3.65734 Y-3.26378
G01 X-3.65974 Y-3.26357
G01 X-3.65975 Y-3.26369
G01 X-3.65974 Y-3.26357
G01 X-3.66788 Y-3.26213
G01 X-3.67006 Y-3.26155
G01 X-3.67014 Y-3.26179
G01 X-3.67006 Y-3.26155
G01 X-3.67212 Y-3.26063
G01 X-3.68081 Y-3.25602
G01 X-3.68836 Y-3.25244
G01 X-3.69620 Y-3.24915
G01 X-3.70351 Y-3.24648
G01 X-3.71288 Y-3.24363
G01 X-3.72181 Y-3.24150
G01 X-3.72793 Y-3.23891
G01 X-3.73324 Y-3.23725
G01 X-3.74076 Y-3.23572
G01 X-3.74593 Y-3.23517
G01 X-3.75273 Y-3.23510
G01 X-3.75902 Y-3.23567
G01 X-3.76525 Y-3.23686
G01 X-3.77185 Y-3.23882
G01 X-3.77782 Y-3.24130
G01 X-3.78347 Y-3.24432
G01 X-3.78833 Y-3.24757
G01 X-3.78242 Y-3.24373
G01 X-3.77782 Y-3.24130
G01 X-3.77303 Y-3.23928
G01 X-3.77065 Y-3.23842
G01 X-3.76564 Y-3.23696
G01 X-3.75940 Y-3.23573
G01 X-3.75233 Y-3.23508
G01 X-3.74513 Y-3.23522
G01 X-3.73869 Y-3.23604
G01 X-3.73400 Y-3.23704
G01 X-3.72980 Y-3.23828
G01 X-3.72350 Y-3.24069
G01 X-3.71785 Y-3.24356
G01 X-3.71378 Y-3.24607
G01 X-3.71024 Y-3.24865
G01 X-3.70503 Y-3.25312
G01 X-3.70041 Y-3.25804
G01 X-3.69651 Y-3.26314
G01 X-3.69337 Y-3.26820
G01 X-3.69131 Y-3.27215
G01 X-3.68971 Y-3.27590
G01 X-3.66360 Y-3.28543
G01 X-3.46377 Y-3.28543
G01 X-3.46499 Y-3.28401
G01 X-3.46895 Y-3.27829
G01 X-3.47196 Y-3.27245
G01 X-3.47315 Y-3.26959
G01 X-3.47503 Y-3.26370
G01 X-3.47568 Y-3.26068
G01 X-3.47661 Y-3.25417
G01 X-3.47669 Y-3.24798
G01 X-3.47648 Y-3.24451
G01 X-3.47545 Y-3.23802
G01 X-3.47487 Y-3.23577
G01 X-3.47297 Y-3.22989
G01 X-3.47188 Y-3.22741
G01 X-3.46900 Y-3.22178
G01 X-3.46532 Y-3.21640
G01 X-3.46378 Y-3.21457
G01 X-3.49130 Y-3.21457
G01 X-3.49815 Y-3.21945
G01 X-3.50576 Y-3.22545
G01 X-3.51080 Y-3.22981
G01 X-3.51769 Y-3.23622
G01 X-3.65613 Y-3.23622
G01 X-3.66085 Y-3.23538
G01 X-3.66853 Y-3.23134
G01 X-3.67692 Y-3.22735
G01 X-3.69016 Y-3.22196
G01 X-3.70235 Y-3.21794
G01 X-3.70950 Y-3.21603
G01 X-3.71598 Y-3.21457
G01 X-4.04497 Y-3.21448
G01 X-4.05018 Y-3.21393
G01 X-4.05414 Y-3.21305
G01 X-4.05644 Y-3.21235
G01 X-4.06168 Y-3.21022
G01 X-4.06493 Y-3.20849
G01 X-4.06783 Y-3.20658
G01 X-4.07199 Y-3.20538
G01 X-4.07667 Y-3.20378
G01 X-4.08302 Y-3.20130
G01 X-4.09706 Y-3.19654
G01 X-4.11196 Y-3.19350
G01 X-4.12276 Y-3.18729
G01 X-4.12678 Y-3.18518
G01 X-4.13710 Y-3.18018
G01 X-4.14895 Y-3.17517
G01 X-4.15819 Y-3.17174
G01 X-4.16357 Y-3.16992
G01 X-4.17851 Y-3.16546
G01 X-4.19047 Y-3.16249
G01 X-4.19635 Y-3.16120
G01 X-4.21057 Y-3.15855
G01 X-4.21634 Y-3.15763
G01 X-4.23712 Y-3.15511
G01 X-4.26410 Y-3.12814
G01 X-4.23712 Y-3.15511
G01 X-4.25341 Y-3.15394
G01 X-4.27919 Y-3.09170
G01 X-4.28053 Y-3.08922
G01 X-4.28012 Y-3.08895
G01 X-4.28053 Y-3.08922
G01 X-4.28234 Y-3.08707
G01 X-4.28907 Y-3.08053
G01 X-4.30000 Y-3.06922
G01 X-4.30407 Y-3.06473
G01 X-4.31225 Y-3.05517
G01 X-4.31584 Y-3.05069
G01 X-4.32260 Y-3.04167
G01 X-4.31463 Y-3.04333
G01 X-4.30553 Y-3.04429
G01 X-4.30039 Y-3.04443
G01 X-4.29158 Y-3.04409
G01 X-4.28205 Y-3.04274
G01 X-4.27362 Y-3.04066
G01 X-4.27255 Y-3.03708
G01 X-4.27362 Y-3.04066
G01 X-4.13139 Y-3.18289
G01 X-4.13742 Y-3.18004
G01 X-4.14491 Y-3.17680
G01 X-4.14930 Y-3.17501
G01 X-4.15855 Y-3.17161
G01 X-4.17371 Y-3.16678
G01 X-4.19085 Y-3.16241
G01 X-4.28255 Y-3.07071
G01 X-4.28158 Y-3.06807
G01 X-4.28255 Y-3.07071
G01 X-4.29008 Y-3.07162
G01 X-4.29738 Y-3.07193
G01 X-4.30407 Y-3.06473
G01 X-4.31225 Y-3.05517
G01 X-4.31584 Y-3.05069
G01 X-4.32177 Y-3.04285
G01 X-4.32469 Y-3.03873
G01 X-4.33677 Y-3.02079
G01 X-4.34621 Y-3.00759
G01 X-4.34351 Y-3.01123
G01 X-4.34334 Y-3.01149
G01 X-4.35261 Y-2.99906
G01 X-4.36378 Y-2.98499
G01 X-4.36662 Y-2.98118
G01 X-4.36898 Y-2.97783
G01 X-4.37373 Y-2.97052
G01 X-4.37815 Y-2.96287
G01 X-4.38236 Y-2.95465
G01 X-4.38665 Y-2.94506
G01 X-4.38915 Y-2.93876
G01 X-4.39225 Y-2.92999
G01 X-4.39117 Y-2.92525
G01 X-4.38979 Y-2.92087
G01 X-4.37571 Y-2.91007
G01 X-4.38979 Y-2.92087
G01 X-4.39997 Y-2.92087
G01 X-4.38979 Y-2.92087
G01 X-4.39117 Y-2.92525
G01 X-4.39225 Y-2.92999
G01 X-4.39262 Y-2.92891
G01 X-4.39251 Y-2.92886
G01 X-4.39262 Y-2.92891
G01 X-4.39385 Y-2.92627
G01 X-4.39561 Y-2.92394
G01 X-4.39534 Y-2.92372
G01 X-4.39561 Y-2.92394
G01 X-4.39782 Y-2.92204
G01 X-4.39767 Y-2.92181
G01 X-4.39782 Y-2.92204
G01 X-4.40038 Y-2.92064
G01 X-4.40517 Y-2.91866
G01 X-4.40812 Y-2.91772
G01 X-4.41178 Y-2.91719
G01 X-4.42083 Y-2.91536
G01 X-4.43199 Y-2.91243
G01 X-4.44136 Y-2.90930
G01 X-4.44462 Y-2.90805
G01 X-4.45001 Y-2.90577
G01 X-4.45592 Y-2.90292
G01 X-4.45978 Y-2.90251
G01 X-4.46484 Y-2.90146
G01 X-4.46973 Y-2.89995
G01 X-4.47509 Y-2.89766
G01 X-4.48111 Y-2.89417
G01 X-4.48466 Y-2.89160
G01 X-4.48799 Y-2.88871
G01 X-4.49282 Y-2.88352
G01 X-4.49562 Y-2.87974
G01 X-4.49693 Y-2.87765
G01 X-4.49562 Y-2.87974
G01 X-4.49306 Y-2.88322
G01 X-4.48914 Y-2.88759
G01 X-4.48497 Y-2.89135
G01 X-4.48017 Y-2.89480
G01 X-4.47509 Y-2.89766
G01 X-4.46973 Y-2.89995
G01 X-4.46406 Y-2.90166
G01 X-4.45791 Y-2.90275
G01 X-4.45230 Y-2.90314
G01 X-4.44666 Y-2.90290
G01 X-4.44383 Y-2.90257
G01 X-4.43868 Y-2.90156
G01 X-4.43291 Y-2.89974
G01 X-4.43027 Y-2.89867
G01 X-4.42521 Y-2.89615
G01 X-4.42082 Y-2.89331
G01 X-4.34331 Y-2.89331
G01 X-4.34331 Y-2.89905
G01 X-4.34847 Y-2.90387
G01 X-4.35380 Y-2.91023
G01 X-4.35832 Y-2.91720
G01 X-4.36165 Y-2.92401
G01 X-4.36410 Y-2.93091
G01 X-4.36484 Y-2.93353
G01 X-4.36624 Y-2.94057
G01 X-4.36683 Y-2.94698
G01 X-4.36677 Y-2.95390
G01 X-4.36654 Y-2.95683
G01 X-4.36568 Y-2.96277
G01 X-4.36379 Y-2.97012
G01 X-4.36187 Y-2.97547
G01 X-4.35871 Y-2.98209
G01 X-4.35511 Y-2.98794
G01 X-4.35051 Y-2.99387
G01 X-4.34553 Y-2.99903
G01 X-4.34093 Y-3.00290
G01 X-4.33867 Y-3.00458
G01 X-4.33286 Y-3.00828
G01 X-4.32670 Y-3.01133
G01 X-4.32409 Y-3.01240
G01 X-4.31801 Y-3.01444
G01 X-4.31091 Y-3.01601
G01 X-4.30364 Y-3.01679
G01 X-4.30112 Y-3.01688
G01 X-4.29429 Y-3.01667
G01 X-4.28754 Y-3.01573
G01 X-4.28055 Y-3.01399
G01 X-4.27814 Y-3.01323
G01 X-4.27175 Y-3.01065
G01 X-4.26712 Y-3.00819
G01 X-4.07311 Y-3.20220
G01 X-4.06963 Y-3.20526
G01 X-4.06597 Y-3.20785
G01 X-4.06168 Y-3.21022
G01 X-4.05875 Y-3.21150
G01 X-4.05491 Y-3.21284
G01 X-4.05057 Y-3.21386
G01 X-4.04782 Y-3.21426
G01 X-4.04324 Y-3.21456
G01 X-3.91508 Y-3.21457
G01 X-3.92348 Y-3.21751
G01 X-3.93256 Y-3.22197
G01 X-3.96743 Y-3.22197
G01 X-3.97652 Y-3.21751
G01 X-3.98492 Y-3.21457
G01 X-3.78399 Y-3.21457
G01 X-3.78478 Y-3.21473
G01 X-3.78536 Y-3.21457
G01 X-3.46378 Y-3.21457
G01 X-3.46508 Y-3.21607
G01 X-3.46787 Y-3.22004
G01 X-3.46980 Y-3.22323
G01 X-3.47283 Y-3.22953
G01 X-3.47520 Y-3.23695
G01 X-3.48165 Y-3.24152
G01 X-3.48839 Y-3.24688
G01 X-3.49202 Y-3.25000
G01 X-3.48808 Y-3.25337
G01 X-3.48139 Y-3.25867
G01 X-3.47520 Y-3.26305
G01 X-3.47274 Y-3.27068
G01 X-3.46988 Y-3.27660
G01 X-3.46813 Y-3.27960
G01 X-3.46394 Y-3.28535
G01 X-3.45760 Y-3.28812
G01 X-3.45432 Y-3.28937
G01 X-3.34531 Y-3.28937
G01 X-3.34127 Y-3.29091
G01 X-3.33628 Y-3.29314
G01 X-3.33304 Y-3.29735
G01 X-3.33000 Y-3.30228
G01 X-3.32766 Y-3.30712
G01 X-3.32614 Y-3.31106
G01 X-3.32530 Y-3.31388
G01 X-3.32627 Y-3.31069
G01 X-3.32780 Y-3.30676
G01 X-3.33075 Y-3.30094
G01 X-3.33327 Y-3.29702
G01 X-3.33634 Y-3.29307
G01 X-3.33859 Y-3.29205
G01 X-3.33638 Y-3.29305
G01 X-3.31857 Y-3.29303
G01 X-3.31544 Y-3.29281
G01 X-3.31025 Y-3.29197
G01 X-3.30706 Y-3.29112
G01 X-3.30144 Y-3.28894
G01 X-3.29956 Y-3.28801
G01 X-3.29842 Y-3.28719
G01 X-3.29328 Y-3.28293
G01 X-3.28997 Y-3.27981
G01 X-3.21990 Y-3.20974
G01 X-3.21585 Y-3.20532
G01 X-3.21225 Y-3.20083
G01 X-3.21125 Y-3.19897
G01 X-3.21052 Y-3.19548
G01 X-3.21121 Y-3.19875
G01 X-3.21121 Y-3.19979
G01 X-3.21225 Y-3.20083
G01 X-3.21125 Y-3.19897
G01 X-3.21010 Y-3.19305
G01 X-3.20933 Y-3.18652
G01 X-3.20912 Y-3.18184
G01 X-3.20908 Y-3.00020
G01 X-3.20660 Y-2.99466
G01 X-3.20435 Y-2.98900
G01 X-3.20232 Y-2.98304
G01 X-3.20036 Y-2.97603
G01 X-3.19915 Y-2.97052
G01 X-3.19778 Y-2.96150
G01 X-3.19728 Y-2.95522
G01 X-3.19715 Y-2.94992
G01 X-3.19754 Y-2.94101
G01 X-3.19814 Y-2.93559
G01 X-3.19922 Y-2.92909
G01 X-3.20048 Y-2.92349
G01 X-3.20307 Y-2.91464
G01 X-3.20521 Y-2.90873
G01 X-3.20783 Y-2.90250
G01 X-3.21124 Y-2.89546
G01 X-3.21696 Y-2.89182
G01 X-3.22298 Y-2.88879
G01 X-3.22882 Y-2.88653
G01 X-3.23413 Y-2.88502
G01 X-3.23686 Y-2.88441
G01 X-3.24319 Y-2.88345
G01 X-3.24910 Y-2.88310
G01 X-3.25578 Y-2.88334
G01 X-3.32133 Y-2.81791
G01 X-3.32369 Y-2.81592
G01 X-3.32697 Y-2.81364
G01 X-3.33138 Y-2.81121
G01 X-3.22855 Y-2.81121
G01 X-3.21121 Y-2.82855
G01 X-3.21121 Y-2.86894
G01 X-3.21857 Y-2.85894
G01 X-3.22604 Y-2.84985
G01 X-3.23089 Y-2.84439
G01 X-3.23267 Y-2.84012
G01 X-3.23394 Y-2.83774
G01 X-3.23566 Y-2.83565
G01 X-3.23774 Y-2.83394
G01 X-3.24013 Y-2.83266
G01 X-3.29198 Y-2.81121
G01 X-3.24013 Y-2.83266
G01 X-3.23774 Y-2.83394
G01 X-3.23745 Y-2.83350
G01 X-3.23774 Y-2.83394
G01 X-3.23566 Y-2.83565
G01 X-3.23394 Y-2.83774
G01 X-3.23358 Y-2.83748
G01 X-3.23394 Y-2.83774
G01 X-3.23267 Y-2.84012
G01 X-3.23089 Y-2.84439
G01 X-3.22604 Y-2.84985
G01 X-3.21856 Y-2.85893
G01 X-3.21121 Y-2.86894
G01 X-3.21121 Y-2.89552
G01 X-3.21696 Y-2.89182
G01 X-3.22264 Y-2.88895
G01 X-3.22846 Y-2.88665
G01 X-3.23347 Y-2.88520
G01 X-3.23733 Y-2.87978
G01 X-3.24383 Y-2.87150
G01 X-3.25275 Y-2.86135
G01 X-3.25427 Y-2.85940
G01 X-3.25446 Y-2.85953
G01 X-3.25427 Y-2.85940
G01 X-3.25594 Y-2.85595
G01 X-3.30252 Y-2.83667
G01 X-3.32161 Y-2.81765
G01 X-3.32432 Y-2.81546
G01 X-3.32866 Y-2.81260
G01 X-3.33138 Y-2.81121
G01 X-3.33826 Y-2.80993
G01 X-3.34403 Y-2.80930
G01 X-3.34830 Y-2.80912
G01 X-3.35406 Y-2.80911
G01 X-3.36423 Y-2.80530
G01 X-3.37441 Y-2.80403
G01 X-3.42559 Y-2.80403
G01 X-3.43287 Y-2.80468
G01 X-3.44015 Y-2.80663
G01 X-3.44743 Y-2.80988
G01 X-3.44955 Y-2.81121
G01 X-3.46213 Y-2.81121
G01 X-3.45763 Y-2.81594
G01 X-3.45471 Y-2.81979
G01 X-3.45307 Y-2.82237
G01 X-3.45471 Y-2.81979
G01 X-3.45763 Y-2.81594
G01 X-3.46213 Y-2.81121
G01 X-3.46886 Y-2.80880
G01 X-3.47514 Y-2.80699
G01 X-3.48124 Y-2.80565
G01 X-3.48717 Y-2.80473
G01 X-3.49628 Y-2.80407
G01 X-3.50221 Y-2.80412
G01 X-3.50581 Y-2.80434
G01 X-3.51179 Y-2.80501
G01 X-3.51770 Y-2.80606
G01 X-3.52433 Y-2.80769
G01 X-3.52779 Y-2.80874
G01 X-3.53476 Y-2.81123
G01 X-3.53915 Y-2.81585
G01 X-3.54334 Y-2.82158
G01 X-3.54673 Y-2.82783
G01 X-3.54912 Y-2.83406
G01 X-3.55628 Y-2.83886
G01 X-3.56120 Y-2.84262
G01 X-3.56417 Y-2.84420
G01 X-3.56787 Y-2.84577
G01 X-3.57351 Y-2.84792
G01 X-3.58172 Y-2.85074
G01 X-3.59559 Y-2.85441
G01 X-3.60649 Y-2.85657
G01 X-3.61408 Y-2.85775
G01 X-3.61669 Y-2.85789
G01 X-3.61928 Y-2.85753
G01 X-3.62176 Y-2.85670
G01 X-3.65001 Y-2.84380
G01 X-3.66042 Y-2.83949
G01 X-3.66578 Y-2.83748
G01 X-3.67588 Y-2.83400
G01 X-3.68671 Y-2.83077
G01 X-3.69803 Y-2.82787
G01 X-3.71082 Y-2.82510
G01 X-3.71857 Y-2.82368
G01 X-3.72945 Y-2.82754
G01 X-3.73348 Y-2.82826
G01 X-3.74610 Y-2.82848
G01 X-3.80592 Y-2.82848
G01 X-3.81766 Y-2.83931
G01 X-3.83263 Y-2.85130
G01 X-3.84955 Y-2.86273
G01 X-3.86452 Y-2.87104
G01 X-3.88072 Y-2.87810
G01 X-3.89710 Y-2.88323
G01 X-3.88461 Y-2.87938
G01 X-3.71274 Y-2.87938
G01 X-3.71225 Y-2.88083
G01 X-3.71274 Y-2.87938
G01 X-3.70825 Y-2.87563
G01 X-3.70126 Y-2.87065
G01 X-3.69357 Y-2.86623
G01 X-3.68936 Y-2.86413
G01 X-3.68334 Y-2.86161
G01 X-3.67713 Y-2.85951
G01 X-3.67076 Y-2.85784
G01 X-3.66189 Y-2.85629
G01 X-3.65182 Y-2.85557
G01 X-3.64778 Y-2.85557
G01 X-3.64137 Y-2.85597
G01 X-3.63548 Y-2.85668
G01 X-3.62883 Y-2.85795
G01 X-3.62461 Y-2.85902
G01 X-3.61700 Y-2.86149
G01 X-3.61191 Y-2.86361
G01 X-3.61080 Y-2.86856
G01 X-3.61191 Y-2.86361
G01 X-3.60447 Y-2.85618
G01 X-3.61408 Y-2.85775
G01 X-3.61669 Y-2.85789
G01 X-3.61672 Y-2.85831
G01 X-3.61669 Y-2.85789
G01 X-3.61928 Y-2.85753
G01 X-3.62176 Y-2.85670
G01 X-3.62180 Y-2.85681
G01 X-3.62176 Y-2.85670
G01 X-3.65001 Y-2.84380
G01 X-3.66042 Y-2.83949
G01 X-3.66578 Y-2.83748
G01 X-3.67588 Y-2.83400
G01 X-3.68180 Y-2.83221
G01 X-3.68657 Y-2.83359
G01 X-3.69369 Y-2.83606
G01 X-3.70028 Y-2.83882
G01 X-3.70498 Y-2.84108
G01 X-3.71372 Y-2.84597
G01 X-3.71913 Y-2.84945
G01 X-3.72242 Y-2.85182
G01 X-3.72205 Y-2.85304
G01 X-3.72242 Y-2.85182
G01 X-3.83337 Y-2.85182
G01 X-3.84849 Y-2.86211
G01 X-3.86451 Y-2.87107
G01 X-3.88071 Y-2.87814
G01 X-3.89864 Y-2.88365
G01 X-3.91527 Y-2.88663
G01 X-3.93110 Y-2.88754
G01 X-3.96421 Y-2.88753
G01 X-3.96690 Y-2.88726
G01 X-3.96700 Y-2.88776
G01 X-3.96690 Y-2.88726
G01 X-3.96949 Y-2.88648
G01 X-4.01889 Y-2.86602
G01 X-4.04434 Y-2.84056
G01 X-3.97796 Y-2.90694
G01 X-3.70121 Y-2.90694
G01 X-3.69549 Y-2.90094
G01 X-3.69111 Y-2.89721
G01 X-3.68625 Y-2.89377
G01 X-3.67851 Y-2.88947
G01 X-3.67321 Y-2.88726
G01 X-3.66898 Y-2.88584
G01 X-3.66465 Y-2.88471
G01 X-3.65835 Y-2.88362
G01 X-3.65041 Y-2.88310
G01 X-3.64319 Y-2.88347
G01 X-3.64027 Y-2.88382
G01 X-3.63350 Y-2.88516
G01 X-3.62656 Y-2.88734
G01 X-3.62031 Y-2.89006
G01 X-3.61795 Y-2.89128
G01 X-3.61349 Y-2.89394
G01 X-3.60954 Y-2.89671
G01 X-3.60760 Y-2.89828
G01 X-3.55089 Y-2.84157
G01 X-3.54958 Y-2.83558
G01 X-3.54762 Y-2.82998
G01 X-3.54639 Y-2.82713
G01 X-3.54355 Y-2.82191
G01 X-3.53915 Y-2.81585
G01 X-3.53479 Y-2.81127
G01 X-3.53140 Y-2.80996
G01 X-3.53469 Y-2.81121
G01 X-3.56452 Y-2.81121
G01 X-3.56860 Y-2.81386
G01 X-3.57628 Y-2.81939
G01 X-3.57812 Y-2.82015
G01 X-3.58300 Y-2.82204
G01 X-3.59171 Y-2.82493
G01 X-3.59974 Y-2.82708
G01 X-3.60886 Y-2.82895
G01 X-3.61334 Y-2.82605
G01 X-3.61594 Y-2.82417
G01 X-3.62231 Y-2.81865
G01 X-3.70711 Y-2.73386
G01 X-3.70670 Y-2.72398
G01 X-3.70711 Y-2.73386
G01 X-3.71036 Y-2.73686
G01 X-3.71319 Y-2.73911
G01 X-3.71615 Y-2.74117
G01 X-3.71924 Y-2.74303
G01 X-3.72244 Y-2.74468
G01 X-3.72612 Y-2.74627
G01 X-3.72953 Y-2.74747
G01 X-3.73300 Y-2.74844
G01 X-3.73653 Y-2.74918
G01 X-3.74130 Y-2.74981
G01 X-3.74570 Y-2.75002
G01 X-3.85649 Y-2.75002
G01 X-3.82893 Y-2.77758
G01 X-3.74570 Y-2.77758
G01 X-3.74129 Y-2.77744
G01 X-3.73730 Y-2.77711
G01 X-3.73095 Y-2.77618
G01 X-3.72470 Y-2.77476
G01 X-3.71820 Y-2.77273
G01 X-3.71225 Y-2.77033
G01 X-3.71045 Y-2.76950
G01 X-3.70934 Y-2.76447
G01 X-3.71045 Y-2.76950
G01 X-3.67424 Y-2.80571
G01 X-3.66710 Y-2.80788
G01 X-3.65663 Y-2.81148
G01 X-3.65008 Y-2.81392
G01 X-3.63884 Y-2.81860
G01 X-3.61416 Y-2.82989
G01 X-3.59974 Y-2.82708
G01 X-3.58994 Y-2.82439
G01 X-3.58123 Y-2.82138
G01 X-3.57628 Y-2.81939
G01 X-3.56860 Y-2.81386
G01 X-3.56452 Y-2.81121
G01 X-3.57340 Y-2.81120
G01 X-3.57717 Y-2.81099
G01 X-3.57995 Y-2.81062
G01 X-3.58429 Y-2.80969
G01 X-3.58924 Y-2.80801
G01 X-3.59325 Y-2.80611
G01 X-3.59568 Y-2.80471
G01 X-3.59995 Y-2.80168
G01 X-3.60340 Y-2.79860
G01 X-3.71854 Y-2.68345
G01 X-3.71854 Y-2.69530
G01 X-3.71883 Y-2.69889
G01 X-3.71928 Y-2.70126
G01 X-3.72007 Y-2.70395
G01 X-3.72096 Y-2.70618
G01 X-3.72203 Y-2.70833
G01 X-3.72352 Y-2.71071
G01 X-3.72551 Y-2.71322
G01 X-3.72748 Y-2.71522
G01 X-3.72964 Y-2.71700
G01 X-3.73197 Y-2.71856
G01 X-3.73482 Y-2.72004
G01 X-3.73743 Y-2.72106
G01 X-3.74013 Y-2.72180
G01 X-3.74330 Y-2.72232
G01 X-3.74610 Y-2.72246
G01 X-3.88390 Y-2.72246
G01 X-3.88789 Y-2.72217
G01 X-3.89142 Y-2.72141
G01 X-3.89481 Y-2.72020
G01 X-3.89768 Y-2.71877
G01 X-3.90036 Y-2.71700
G01 X-3.90300 Y-2.71476
G01 X-3.90602 Y-2.70670
G01 X-3.90750 Y-2.69490
G01 X-3.90750 Y-2.67520
G01 X-3.90897 Y-2.66340
G01 X-3.91200 Y-2.65533
G01 X-3.91497 Y-2.65286
G01 X-3.91802 Y-2.65094
G01 X-3.92092 Y-2.64959
G01 X-3.92397 Y-2.64858
G01 X-3.92711 Y-2.64793
G01 X-3.93030 Y-2.64765
G01 X-4.00788 Y-2.64764
G01 X-4.22712 Y-2.53802
G01 X-4.13566 Y-2.44656
G01 X-4.09646 Y-2.44656
G01 X-4.09646 Y-2.46604
G01 X-4.11250 Y-2.48208
G01 X-4.12402 Y-2.50990
G01 X-4.12402 Y-2.53255
G01 X-4.10144 Y-2.56908
G01 X-4.09646 Y-2.57585
G01 X-4.10144 Y-2.56908
G01 X-4.12964 Y-2.52346
G01 X-4.11250 Y-2.48208
G01 X-4.09646 Y-2.46604
G01 X-4.09646 Y-2.44656
G01 X-4.09643 Y-2.57800
G01 X-4.09622 Y-2.58040
G01 X-4.09581 Y-2.58276
G01 X-4.09518 Y-2.58509
G01 X-4.09436 Y-2.58735
G01 X-4.09335 Y-2.58953
G01 X-4.09214 Y-2.59161
G01 X-4.08949 Y-2.59512
G01 X-4.08752 Y-2.59712
G01 X-4.08536 Y-2.59890
G01 X-4.08303 Y-2.60046
G01 X-4.08018 Y-2.60194
G01 X-4.07757 Y-2.60296
G01 X-4.07447 Y-2.60379
G01 X-4.07170 Y-2.60422
G01 X-4.06890 Y-2.60436
G01 X-3.92950 Y-2.60431
G01 X-3.92711 Y-2.60407
G01 X-3.92474 Y-2.60362
G01 X-3.92205 Y-2.60283
G01 X-3.91982 Y-2.60194
G01 X-3.91732 Y-2.60067
G01 X-3.91529 Y-2.59938
G01 X-3.91338 Y-2.59791
G01 X-3.91146 Y-2.59613
G01 X-3.91146 Y-2.62952
G01 X-3.92073 Y-2.61893
G01 X-3.92336 Y-2.61626
G01 X-3.92544 Y-2.61454
G01 X-3.92783 Y-2.61327
G01 X-3.93041 Y-2.61248
G01 X-3.93310 Y-2.61222
G01 X-4.00116 Y-2.61222
G01 X-4.03446 Y-2.60436
G01 X-4.00116 Y-2.61222
G01 X-3.93310 Y-2.61219
G01 X-3.93041 Y-2.61248
G01 X-3.93034 Y-2.61219
G01 X-3.93041 Y-2.61248
G01 X-3.92783 Y-2.61327
G01 X-3.92544 Y-2.61454
G01 X-3.92521 Y-2.61417
G01 X-3.92544 Y-2.61454
G01 X-3.92336 Y-2.61626
G01 X-3.92070 Y-2.61890
G01 X-3.91146 Y-2.62952
G01 X-3.91146 Y-2.65677
G01 X-3.91200 Y-2.65533
G01 X-3.91401 Y-2.65358
G01 X-3.91697 Y-2.65154
G01 X-3.92018 Y-2.64989
G01 X-3.92320 Y-2.64880
G01 X-3.92592 Y-2.64813
G01 X-3.92910 Y-2.64771
G01 X-3.93222 Y-2.64764
G01 X-3.93910 Y-2.63978
G01 X-4.00277 Y-2.63978
G01 X-4.00279 Y-2.63995
G01 X-4.00277 Y-2.63978
G01 X-4.00593 Y-2.63941
G01 X-4.04080 Y-2.63118
G01 X-4.11857 Y-2.59229
G01 X-4.12459 Y-2.58404
G01 X-4.15679 Y-2.53194
G01 X-4.15794 Y-2.52961
G01 X-4.15863 Y-2.52710
G01 X-4.15884 Y-2.52450
G01 X-4.15856 Y-2.52192
G01 X-4.15780 Y-2.51943
G01 X-4.13691 Y-2.46901
G01 X-4.13564 Y-2.46662
G01 X-4.13392 Y-2.46454
G01 X-4.11595 Y-2.44656
G01 X-4.13392 Y-2.46454
G01 X-4.13564 Y-2.46662
G01 X-4.13691 Y-2.46901
G01 X-4.14948 Y-2.49935
G01 X-4.18060 Y-2.53047
G01 X-4.19992 Y-2.53360
G01 X-4.18060 Y-2.53047
G01 X-4.14746 Y-2.54704
G01 X-4.12459 Y-2.58404
G01 X-4.11857 Y-2.59229
G01 X-4.12460 Y-2.58406
G01 X-4.15681 Y-2.53196
G01 X-4.15794 Y-2.52961
G01 X-4.15821 Y-2.52970
G01 X-4.15794 Y-2.52961
G01 X-4.15863 Y-2.52710
G01 X-4.15884 Y-2.52450
G01 X-4.15935 Y-2.52450
G01 X-4.15884 Y-2.52450
G01 X-4.15856 Y-2.52192
G01 X-4.15780 Y-2.51943
G01 X-4.15791 Y-2.51939
G01 X-4.15780 Y-2.51943
G01 X-4.13691 Y-2.46901
G01 X-4.13564 Y-2.46662
G01 X-4.13605 Y-2.46635
G01 X-4.13564 Y-2.46662
G01 X-4.13392 Y-2.46454
G01 X-4.11595 Y-2.44656
G01 X-4.09646 Y-2.44656
G01 X-4.08890 Y-2.43900
G01 X-4.08390 Y-2.43462
G01 X-4.07890 Y-2.43150
G01 X-4.07390 Y-2.42962
G01 X-4.06890 Y-2.42900
G01 X-3.93110 Y-2.42900
G01 X-3.92610 Y-2.42962
G01 X-3.92110 Y-2.43150
G01 X-3.91610 Y-2.43462
G01 X-3.91110 Y-2.43900
G01 X-3.90354 Y-2.44656
G01 X-3.88405 Y-2.44656
G01 X-3.87451 Y-2.45610
G01 X-3.83036 Y-2.47438
G01 X-3.82883 Y-2.47453
G01 X-3.82625 Y-2.47532
G01 X-3.82335 Y-2.47652
G01 X-3.82575 Y-2.47412
G01 X-3.82488 Y-2.47202
G01 X-3.82575 Y-2.47412
G01 X-3.83101 Y-2.47412
G01 X-3.83036 Y-2.47438
G01 X-3.82883 Y-2.47453
G01 X-3.82622 Y-2.47522
G01 X-3.75681 Y-2.50408
G01 X-3.71661 Y-2.54429
G01 X-3.71687 Y-2.54805
G01 X-3.71676 Y-2.55443
G01 X-3.71594 Y-2.56119
G01 X-3.71542 Y-2.56396
G01 X-3.71382 Y-2.57009
G01 X-3.71148 Y-2.57638
G01 X-3.70797 Y-2.58341
G01 X-3.70722 Y-2.58404
G01 X-3.70784 Y-2.58360
G01 X-3.71112 Y-2.58313
G01 X-3.71854 Y-2.58298
G01 X-3.71855 Y-2.55630
G01 X-3.71883 Y-2.55310
G01 X-3.71959 Y-2.54958
G01 X-3.72049 Y-2.54692
G01 X-3.72165 Y-2.54437
G01 X-3.72286 Y-2.54229
G01 X-3.72448 Y-2.54001
G01 X-3.72633 Y-2.53790
G01 X-3.72838 Y-2.53599
G01 X-3.73062 Y-2.53430
G01 X-3.73302 Y-2.53284
G01 X-3.73592 Y-2.53149
G01 X-3.73897 Y-2.53048
G01 X-3.74211 Y-2.52983
G01 X-3.74530 Y-2.52955
G01 X-3.85057 Y-2.52954
G01 X-3.90354 Y-2.47659
G01 X-3.90354 Y-2.44656
G01 X-3.90354 Y-2.46604
G01 X-3.89206 Y-2.47752
G01 X-3.88997 Y-2.47924
G01 X-3.88759 Y-2.48051
G01 X-3.83865 Y-2.50078
G01 X-3.83607 Y-2.50156
G01 X-3.83454 Y-2.50171
G01 X-3.76736 Y-2.52954
G01 X-3.83454 Y-2.50171
G01 X-3.83607 Y-2.50156
G01 X-3.83865 Y-2.50078
G01 X-3.84156 Y-2.49958
G01 X-3.83865 Y-2.50078
G01 X-3.83868 Y-2.50088
G01 X-3.83865 Y-2.50078
G01 X-3.83607 Y-2.50156
G01 X-3.83454 Y-2.50171
G01 X-3.83389 Y-2.50198
G01 X-3.83915 Y-2.50198
G01 X-3.84002 Y-2.50408
G01 X-3.83915 Y-2.50198
G01 X-3.84156 Y-2.49958
G01 X-3.88759 Y-2.48051
G01 X-3.88997 Y-2.47924
G01 X-3.89024 Y-2.47964
G01 X-3.88997 Y-2.47924
G01 X-3.89206 Y-2.47752
G01 X-3.90354 Y-2.46605
G01 X-3.90354 Y-2.44656
G01 X-3.81433 Y-2.44656
G01 X-3.71661 Y-2.54429
G01 X-3.71687 Y-2.54805
G01 X-3.71676 Y-2.55443
G01 X-3.71551 Y-2.56356
G01 X-3.71382 Y-2.57009
G01 X-3.71176 Y-2.57566
G01 X-3.71069 Y-2.57814
G01 X-3.70787 Y-2.58358
G01 X-3.69836 Y-2.59049
G01 X-3.69224 Y-2.59540
G01 X-3.68396 Y-2.60251
G01 X-3.68046 Y-2.60524
G01 X-3.67207 Y-2.61103
G01 X-3.66514 Y-2.61515
G01 X-3.65804 Y-2.61641
G01 X-3.65374 Y-2.61680
G01 X-3.64830 Y-2.61689
G01 X-3.64287 Y-2.61653
G01 X-3.63859 Y-2.61592
G01 X-3.63178 Y-2.61438
G01 X-3.62626 Y-2.61601
G01 X-3.61919 Y-2.61779
G01 X-3.60662 Y-2.62028
G01 X-3.59360 Y-2.62206
G01 X-3.58081 Y-2.62313
G01 X-3.57861 Y-2.62347
G01 X-3.57854 Y-2.62321
G01 X-3.57861 Y-2.62347
G01 X-3.57649 Y-2.62415
G01 X-3.52510 Y-2.64542
G01 X-3.32557 Y-2.64542
G01 X-3.32554 Y-2.64522
G01 X-3.32557 Y-2.64542
G01 X-3.32157 Y-2.64601
G01 X-3.31611 Y-2.64764
G01 X-3.30604 Y-2.65033
G01 X-3.29705 Y-2.65236
G01 X-3.28861 Y-2.65395
G01 X-3.27946 Y-2.65531
G01 X-3.27086 Y-2.65626
G01 X-3.26189 Y-2.65690
G01 X-3.25552 Y-2.65714
G01 X-3.24334 Y-2.65711
G01 X-3.23324 Y-2.65659
G01 X-3.22602 Y-2.65594
G01 X-3.21535 Y-2.65457
G01 X-3.18686 Y-2.65028
G01 X-3.16238 Y-2.64709
G01 X-3.14112 Y-2.64462
G01 X-3.09793 Y-2.64021
G01 X-3.07430 Y-2.63748
G01 X-3.06806 Y-2.63660
G01 X-3.05000 Y-2.63362
G01 X-3.05000 Y-2.35000
G01 X-3.13192 Y-2.35000
G01 X-3.12345 Y-2.35528
G01 X-3.11784 Y-2.35900
G01 X-3.11236 Y-2.36293
G01 X-3.10604 Y-2.36777
G01 X-3.10110 Y-2.37175
G01 X-3.09570 Y-2.37641
G01 X-3.08499 Y-2.38656
G01 X-3.08054 Y-2.39116
G01 X-3.07625 Y-2.39592
G01 X-3.07029 Y-2.40288
G01 X-3.06584 Y-2.40846
G01 X-3.06230 Y-2.41324
G01 X-3.05680 Y-2.42110
G01 X-3.05309 Y-2.42683
G01 X-3.05000 Y-2.43197
G01 X-3.05000 Y-2.38418
G01 X-3.05803 Y-2.37493
G01 X-3.06548 Y-2.36709
G01 X-3.07592 Y-2.35714
G01 X-3.08415 Y-2.35000
G01 X-4.90000 Y-2.35000
G01 X-4.90000 Y-2.43197
G01 X-4.89691 Y-2.42683
G01 X-4.89320 Y-2.42110
G01 X-4.88770 Y-2.41324
G01 X-4.88415 Y-2.40846
G01 X-4.87971 Y-2.40288
G01 X-4.87375 Y-2.39592
G01 X-4.86946 Y-2.39116
G01 X-4.86501 Y-2.38656
G01 X-4.85430 Y-2.37641
G01 X-4.84890 Y-2.37175
G01 X-4.84396 Y-2.36777
G01 X-4.83764 Y-2.36293
G01 X-4.83216 Y-2.35900
G01 X-4.82655 Y-2.35528
G01 X-4.81808 Y-2.35000
G01 X-4.86585 Y-2.35000
G01 X-4.87408 Y-2.35714
G01 X-4.88452 Y-2.36709
G01 X-4.89196 Y-2.37493
G01 X-4.90000 Y-2.38418
G01 X-4.90000 Y-2.69643
G01 X-4.89045 Y-2.69704
G01 X-4.87953 Y-2.69733
G01 X-4.88507 Y-2.69033
G01 X-4.89139 Y-2.68155
G01 X-4.89584 Y-2.67487
G01 X-4.90000 Y-2.66803
G01 X-4.89584 Y-2.67487
G01 X-4.89139 Y-2.68155
G01 X-4.88507 Y-2.69033
G01 X-4.87953 Y-2.69733
G01 X-4.85508 Y-2.69764
G01 X-4.83323 Y-2.69701
G01 X-4.80883 Y-2.69527
G01 X-4.78686 Y-2.69264
G01 X-4.76784 Y-2.68943
G01 X-4.75032 Y-2.68561
G01 X-4.71730 Y-2.67722
G01 X-4.69756 Y-2.67255
G01 X-4.67714 Y-2.66804
G01 X-4.64381 Y-2.66126
G01 X-4.63395 Y-2.65885
G01 X-4.62523 Y-2.65638
G01 X-4.62129 Y-2.65581
G01 X-4.37875 Y-2.65580
G01 X-4.37499 Y-2.65633
G01 X-4.36463 Y-2.65919
G01 X-4.35290 Y-2.66196
G01 X-4.34851 Y-2.66285
G01 X-4.33769 Y-2.66473
G01 X-4.32359 Y-2.66646
G01 X-4.31957 Y-2.66681
G01 X-4.30559 Y-2.66752
G01 X-4.29567 Y-2.66754
G01 X-4.28190 Y-2.66693
G01 X-4.27801 Y-2.66728
G01 X-4.15372 Y-2.69661
G01 X-4.14683 Y-2.69841
G01 X-4.13783 Y-2.70119
G01 X-4.13040 Y-2.70393
G01 X-4.12276 Y-2.70716
G01 X-4.12039 Y-2.70847
G01 X-4.11833 Y-2.71022
G01 X-4.11664 Y-2.71233
G01 X-4.11334 Y-2.71749
G01 X-4.10723 Y-2.72815
G01 X-4.10278 Y-2.73733
G01 X-4.09646 Y-2.75244
G01 X-4.09646 Y-2.78844
G01 X-4.12192 Y-2.76298
G01 X-4.12793 Y-2.74861
G01 X-4.13250 Y-2.73934
G01 X-4.13753 Y-2.73080
G01 X-4.14049 Y-2.72957
G01 X-4.14795 Y-2.72686
G01 X-4.15462 Y-2.72485
G01 X-4.16017 Y-2.72341
G01 X-4.28242 Y-2.69455
G01 X-4.29516 Y-2.69510
G01 X-4.30585 Y-2.69508
G01 X-4.31102 Y-2.69494
G01 X-4.32655 Y-2.69388
G01 X-4.34180 Y-2.69198
G01 X-4.35381 Y-2.68993
G01 X-4.37115 Y-2.68597
G01 X-4.38066 Y-2.68336
G01 X-4.61929 Y-2.68337
G01 X-4.62970 Y-2.68622
G01 X-4.63777 Y-2.68816
G01 X-4.67145 Y-2.69500
G01 X-4.69137 Y-2.69940
G01 X-4.71073 Y-2.70399
G01 X-4.74379 Y-2.71238
G01 X-4.75757 Y-2.71548
G01 X-4.76294 Y-2.71655
G01 X-4.78294 Y-2.71992
G01 X-4.80110 Y-2.72220
G01 X-4.80624 Y-2.72271
G01 X-4.82679 Y-2.72428
G01 X-4.83228 Y-2.72456
G01 X-4.85475 Y-2.72520
G01 X-4.86013 Y-2.72523
G01 X-4.88640 Y-2.72478
G01 X-4.90000 Y-2.72405
G01 X-4.90000 Y-2.78345
G01 X-4.84136 Y-2.72482
G01 X-4.85981 Y-2.72523
G01 X-4.88040 Y-2.72488
G01 X-4.90000 Y-2.74448
G01 X-4.90000 Y-3.27243
G01 X-4.83458 Y-3.33784
G01 X-4.80754 Y-3.32591
G01 X-4.90000 Y-3.23346
G01 X-4.90000 Y-3.31140
G01 X-4.86109 Y-3.35030
G01 X-4.83440 Y-3.33775
G01 X-4.79251 Y-3.31940
G01 X-4.74152 Y-3.29916
G01 X-4.68015 Y-3.27700
G01 X-4.64426 Y-3.25217
G01 X-4.64469 Y-3.25246
G01 X-4.65022 Y-3.24837
G01 X-4.65425 Y-3.24507
G01 X-4.65806 Y-3.24153
G01 X-4.84483 Y-3.05479
G01 X-4.84912 Y-3.05006
G01 X-4.85464 Y-3.04313
G01 X-4.85820 Y-3.03777
G01 X-4.86197 Y-3.03116
G01 X-4.86391 Y-3.02725
G01 X-4.86563 Y-3.02324
G01 X-4.86750 Y-3.01838
G01 X-4.86907 Y-3.01347
G01 X-4.87146 Y-3.00338
G01 X-4.87214 Y-2.99907
G01 X-4.87268 Y-2.99390
G01 X-4.87302 Y-2.98671
G01 X-4.87301 Y-2.91324
G01 X-4.87289 Y-2.90889
G01 X-4.87226 Y-2.90218
G01 X-4.87084 Y-2.89349
G01 X-4.86918 Y-2.88692
G01 X-4.86663 Y-2.87931
G01 X-4.86421 Y-2.87341
G01 X-4.86134 Y-2.86772
G01 X-4.85709 Y-2.86045
G01 X-4.85294 Y-2.85460
G01 X-4.84808 Y-2.84872
G01 X-4.84455 Y-2.84493
G01 X-4.71736 Y-2.71779
G01 X-4.71186 Y-2.71299
G01 X-4.70741 Y-2.70953
G01 X-4.70349 Y-2.70679
G01 X-4.69733 Y-2.70311
G01 X-4.69232 Y-2.70051
G01 X-4.68857 Y-2.69876
G01 X-4.67145 Y-2.69500
G01 X-4.65053 Y-2.69075
G01 X-4.34898 Y-2.69074
G01 X-4.65053 Y-2.69075
G01 X-4.67145 Y-2.69500
G01 X-4.69137 Y-2.69940
G01 X-4.71073 Y-2.70399
G01 X-4.74379 Y-2.71238
G01 X-4.75757 Y-2.71549
G01 X-4.77851 Y-2.71927
G01 X-4.79957 Y-2.72200
G01 X-4.88463 Y-2.80708
G01 X-4.88840 Y-2.81112
G01 X-4.89175 Y-2.81500
G01 X-4.89608 Y-2.82030
G01 X-4.90000 Y-2.82555
G01 X-4.90000 Y-2.90211
G01 X-4.89864 Y-2.89224
G01 X-4.89702 Y-2.88433
G01 X-4.89494 Y-2.87694
G01 X-4.89144 Y-2.86702
G01 X-4.88783 Y-2.85891
G01 X-4.88321 Y-2.85037
G01 X-4.87915 Y-2.84386
G01 X-4.87441 Y-2.83732
G01 X-4.86899 Y-2.83077
G01 X-4.86404 Y-2.82545
G01 X-4.75306 Y-2.71447
G01 X-4.86376 Y-2.82516
G01 X-4.86899 Y-2.83077
G01 X-4.87416 Y-2.83700
G01 X-4.87801 Y-2.84219
G01 X-4.88177 Y-2.84794
G01 X-4.88539 Y-2.85426
G01 X-4.88818 Y-2.85963
G01 X-4.89068 Y-2.86515
G01 X-4.89286 Y-2.87080
G01 X-4.89530 Y-2.87809
G01 X-4.89682 Y-2.88354
G01 X-4.89806 Y-2.88906
G01 X-4.89896 Y-2.89423
G01 X-4.90000 Y-2.90211
G01 X-4.90000 Y-3.19449
G01 X-4.78002 Y-3.31444
G01 X-4.75213 Y-3.30336
G01 X-4.90000 Y-3.15551
G01 X-4.90000 Y-3.11654
G01 X-4.72378 Y-3.29273
G01 X-4.69507 Y-3.28242
G01 X-4.88407 Y-3.09349
G01 X-4.89099 Y-3.08591
G01 X-4.89557 Y-3.08035
G01 X-4.89941 Y-3.07528
G01 X-4.90000 Y-3.07445
G01 X-4.90000 Y-2.99771
G01 X-4.89945 Y-3.00278
G01 X-4.89865 Y-3.00787
G01 X-4.89640 Y-3.01799
G01 X-4.89378 Y-3.02673
G01 X-4.89017 Y-3.03602
G01 X-4.88623 Y-3.04425
G01 X-4.88082 Y-3.05358
G01 X-4.87584 Y-3.06081
G01 X-4.86978 Y-3.06831
G01 X-4.86375 Y-3.07484
G01 X-4.67783 Y-3.26073
G01 X-4.67317 Y-3.26513
G01 X-4.66851 Y-3.26905
G01 X-4.62745 Y-3.24041
G01 X-4.61139 Y-3.22893
G01 X-4.59652 Y-3.21798
G01 X-4.59115 Y-3.21427
G01 X-4.59652 Y-3.21798
G01 X-4.60483 Y-3.22417
G01 X-4.61987 Y-3.23499
G01 X-4.62470 Y-3.23245
G01 X-4.62819 Y-3.23035
G01 X-4.63119 Y-3.22823
G01 X-4.63562 Y-3.22474
G01 X-4.63886 Y-3.22175
G01 X-4.82613 Y-3.03447
G01 X-4.83026 Y-3.02964
G01 X-4.83249 Y-3.02672
G01 X-4.83473 Y-3.02332
G01 X-4.83772 Y-3.01807
G01 X-4.83958 Y-3.01413
G01 X-4.84162 Y-3.00891
G01 X-4.84290 Y-3.00474
G01 X-4.84410 Y-2.99967
G01 X-4.84497 Y-2.99418
G01 X-4.84546 Y-2.98710
G01 X-4.84545 Y-2.91325
G01 X-4.84530 Y-2.90929
G01 X-4.84414 Y-2.90055
G01 X-4.84337 Y-2.89700
G01 X-4.84249 Y-2.89389
G01 X-4.84080 Y-2.88890
G01 X-4.83944 Y-2.88553
G01 X-4.83787 Y-2.88226
G01 X-4.83552 Y-2.87801
G01 X-4.83361 Y-2.87491
G01 X-4.83126 Y-2.87162
G01 X-4.82768 Y-2.86727
G01 X-4.82506 Y-2.86441
G01 X-4.69933 Y-2.73869
G01 X-4.69605 Y-2.73567
G01 X-4.69161 Y-2.73213
G01 X-4.68798 Y-2.72957
G01 X-4.68415 Y-2.72732
G01 X-4.67872 Y-2.72455
G01 X-4.67381 Y-2.72256
G01 X-4.66839 Y-2.72082
G01 X-4.66363 Y-2.71969
G01 X-4.65683 Y-2.71868
G01 X-4.65209 Y-2.71834
G01 X-4.18186 Y-2.71829
G01 X-4.15462 Y-2.72485
G01 X-4.14679 Y-2.72725
G01 X-4.13753 Y-2.73080
G01 X-4.13250 Y-2.73934
G01 X-4.12871 Y-2.74689
G01 X-4.12192 Y-2.76298
G01 X-4.09646 Y-2.78844
G01 X-4.09646 Y-2.75244
G01 X-4.10278 Y-2.73733
G01 X-4.10720 Y-2.72814
G01 X-4.10856 Y-2.72568
G01 X-4.11332 Y-2.71748
G01 X-4.11664 Y-2.71233
G01 X-4.11833 Y-2.71022
G01 X-4.11799 Y-2.70989
G01 X-4.11833 Y-2.71022
G01 X-4.12039 Y-2.70847
G01 X-4.12276 Y-2.70716
G01 X-4.12267 Y-2.70700
G01 X-4.12276 Y-2.70716
G01 X-4.13040 Y-2.70393
G01 X-4.13937 Y-2.70062
G01 X-4.14722 Y-2.69830
G01 X-4.15372 Y-2.69661
G01 X-4.27801 Y-2.66728
G01 X-4.28190 Y-2.66693
G01 X-4.29567 Y-2.66754
G01 X-4.30960 Y-2.66739
G01 X-4.32359 Y-2.66646
G01 X-4.33368 Y-2.66530
G01 X-4.34468 Y-2.66352
G01 X-4.35464 Y-2.65911
G01 X-4.36410 Y-2.65380
G01 X-4.36784 Y-2.65143
G01 X-4.37203 Y-2.64843
G01 X-4.37172 Y-2.64734
G01 X-4.37203 Y-2.64843
G01 X-4.62788 Y-2.64843
G01 X-4.62820 Y-2.64734
G01 X-4.62788 Y-2.64843
G01 X-4.63169 Y-2.65110
G01 X-4.63735 Y-2.65472
G01 X-4.64568 Y-2.65926
G01 X-4.65144 Y-2.66194
G01 X-4.65566 Y-2.66368
G01 X-4.67724 Y-2.66806
G01 X-4.69468 Y-2.67189
G01 X-4.69993 Y-2.67202
G01 X-4.70747 Y-2.67180
G01 X-4.71540 Y-2.67102
G01 X-4.71974 Y-2.67042
G01 X-4.72950 Y-2.66841
G01 X-4.73755 Y-2.66608
G01 X-4.74358 Y-2.66396
G01 X-4.75204 Y-2.66038
G01 X-4.75984 Y-2.65633
G01 X-4.76531 Y-2.65304
G01 X-4.77290 Y-2.64786
G01 X-4.78035 Y-2.64184
G01 X-4.78701 Y-2.63553
G01 X-4.79135 Y-2.63087
G01 X-4.79670 Y-2.62443
G01 X-4.80245 Y-2.61628
G01 X-4.80713 Y-2.60839
G01 X-4.80986 Y-2.60306
G01 X-4.81342 Y-2.59502
G01 X-4.81647 Y-2.58636
G01 X-4.81780 Y-2.58177
G01 X-4.81956 Y-2.57439
G01 X-4.82034 Y-2.57007
G01 X-4.82138 Y-2.56255
G01 X-4.82174 Y-2.55817
G01 X-4.82202 Y-2.55099
G01 X-4.82163 Y-2.54023
G01 X-4.82113 Y-2.53547
G01 X-4.81994 Y-2.52757
G01 X-4.81750 Y-2.51707
G01 X-4.81623 Y-2.51288
G01 X-4.81399 Y-2.50646
G01 X-4.81250 Y-2.50276
G01 X-4.80986 Y-2.49694
G01 X-4.80752 Y-2.49231
G01 X-4.80393 Y-2.48608
G01 X-4.80180 Y-2.48272
G01 X-4.79836 Y-2.47781
G01 X-4.79546 Y-2.47400
G01 X-4.79106 Y-2.46882
G01 X-4.78555 Y-2.46302
G01 X-4.78118 Y-2.45891
G01 X-4.77785 Y-2.45604
G01 X-4.77250 Y-2.45186
G01 X-4.76860 Y-2.44909
G01 X-4.76253 Y-2.44523
G01 X-4.75872 Y-2.44304
G01 X-4.75195 Y-2.43960
G01 X-4.74721 Y-2.43749
G01 X-4.74087 Y-2.43504
G01 X-4.73633 Y-2.43352
G01 X-4.72941 Y-2.43158
G01 X-4.72395 Y-2.43037
G01 X-4.71567 Y-2.42898
G01 X-4.70812 Y-2.42827
G01 X-4.70298 Y-2.42801
G01 X-4.69545 Y-2.42806
G01 X-4.68596 Y-2.42878
G01 X-4.67656 Y-2.43025
G01 X-4.66733 Y-2.43243
G01 X-4.65830 Y-2.43532
G01 X-4.65200 Y-2.43782
G01 X-4.64834 Y-2.43946
G01 X-4.63734 Y-2.44531
G01 X-4.63287 Y-2.44811
G01 X-4.62804 Y-2.45157
G01 X-4.62840 Y-2.45277
G01 X-4.62804 Y-2.45157
G01 X-4.37206 Y-2.45157
G01 X-4.37173 Y-2.45268
G01 X-4.37206 Y-2.45157
G01 X-4.36816 Y-2.44879
G01 X-4.36481 Y-2.44663
G01 X-4.35614 Y-2.44166
G01 X-4.34636 Y-2.43712
G01 X-4.33583 Y-2.43335
G01 X-4.32656 Y-2.43091
G01 X-4.31824 Y-2.42939
G01 X-4.31767 Y-2.43043
G01 X-4.31824 Y-2.42939
G01 X-4.23884 Y-2.35000
G01 X-4.27781 Y-2.35000
G01 X-4.33161 Y-2.40380
G01 X-4.33112 Y-2.40466
G01 X-4.33161 Y-2.40380
G01 X-4.34054 Y-2.40602
G01 X-4.34732 Y-2.40813
G01 X-4.35736 Y-2.41185
G01 X-4.36637 Y-2.41596
G01 X-4.37300 Y-2.41946
G01 X-4.38063 Y-2.42401
G01 X-4.38038 Y-2.42496
G01 X-4.38063 Y-2.42401
G01 X-4.61936 Y-2.42401
G01 X-4.61959 Y-2.42491
G01 X-4.61936 Y-2.42401
G01 X-4.62085 Y-2.42307
G01 X-4.62607 Y-2.42003
G01 X-4.63560 Y-2.41500
G01 X-4.64066 Y-2.41269
G01 X-4.64695 Y-2.41015
G01 X-4.65642 Y-2.40692
G01 X-4.66170 Y-2.40540
G01 X-4.66788 Y-2.40391
G01 X-4.67258 Y-2.40295
G01 X-4.67811 Y-2.40205
G01 X-4.68620 Y-2.40107
G01 X-4.69260 Y-2.40060
G01 X-4.69780 Y-2.40044
G01 X-4.70710 Y-2.40059
G01 X-4.71826 Y-2.40153
G01 X-4.72960 Y-2.40339
G01 X-4.73728 Y-2.40515
G01 X-4.74754 Y-2.40817
G01 X-4.75865 Y-2.41240
G01 X-4.76333 Y-2.41449
G01 X-4.76938 Y-2.41750
G01 X-4.77661 Y-2.42154
G01 X-4.78430 Y-2.42644
G01 X-4.79037 Y-2.43083
G01 X-4.79778 Y-2.43680
G01 X-4.80535 Y-2.44383
G01 X-4.81034 Y-2.44902
G01 X-4.81682 Y-2.45657
G01 X-4.82087 Y-2.46191
G01 X-4.82631 Y-2.46987
G01 X-4.83138 Y-2.47850
G01 X-4.83462 Y-2.48482
G01 X-4.83880 Y-2.49424
G01 X-4.84204 Y-2.50318
G01 X-4.84427 Y-2.51051
G01 X-4.84651 Y-2.51982
G01 X-4.84762 Y-2.52603
G01 X-4.84895 Y-2.53625
G01 X-4.84958 Y-2.54859
G01 X-4.84953 Y-2.55343
G01 X-4.84920 Y-2.56061
G01 X-4.84866 Y-2.56650
G01 X-4.84774 Y-2.57319
G01 X-4.84609 Y-2.58211
G01 X-4.84448 Y-2.58870
G01 X-4.84316 Y-2.59336
G01 X-4.84061 Y-2.60097
G01 X-4.83895 Y-2.60540
G01 X-4.83710 Y-2.60975
G01 X-4.83358 Y-2.61731
G01 X-4.83138 Y-2.62150
G01 X-4.82800 Y-2.62738
G01 X-4.82477 Y-2.63250
G01 X-4.82110 Y-2.63776
G01 X-4.81543 Y-2.64511
G01 X-4.81098 Y-2.65028
G01 X-4.80768 Y-2.65383
G01 X-4.80194 Y-2.65945
G01 X-4.79835 Y-2.66270
G01 X-4.78872 Y-2.67044
G01 X-4.77853 Y-2.67730
G01 X-4.77379 Y-2.68011
G01 X-4.76748 Y-2.68348
G01 X-4.76287 Y-2.68573
G01 X-4.75878 Y-2.68751
G01 X-4.76784 Y-2.68943
G01 X-4.78276 Y-2.69203
G01 X-4.80235 Y-2.69457
G01 X-4.80950 Y-2.68922
G01 X-4.81832 Y-2.68184
G01 X-4.82660 Y-2.67389
G01 X-4.83276 Y-2.66725
G01 X-4.83985 Y-2.65873
G01 X-4.84658 Y-2.64943
G01 X-4.85148 Y-2.64181
G01 X-4.85719 Y-2.63169
G01 X-4.86219 Y-2.62116
G01 X-4.86529 Y-2.61371
G01 X-4.86909 Y-2.60277
G01 X-4.87165 Y-2.59366
G01 X-4.87410 Y-2.58267
G01 X-4.87591 Y-2.57074
G01 X-4.87673 Y-2.56191
G01 X-4.87714 Y-2.55000
G01 X-4.87673 Y-2.53809
G01 X-4.87591 Y-2.52926
G01 X-4.87410 Y-2.51733
G01 X-4.87165 Y-2.50634
G01 X-4.86909 Y-2.49723
G01 X-4.86529 Y-2.48629
G01 X-4.86219 Y-2.47884
G01 X-4.85719 Y-2.46831
G01 X-4.85148 Y-2.45819
G01 X-4.84658 Y-2.45057
G01 X-4.83976 Y-2.44115
G01 X-4.83228 Y-2.43222
G01 X-4.82599 Y-2.42549
G01 X-4.81755 Y-2.41749
G01 X-4.81139 Y-2.41228
G01 X-4.80243 Y-2.40547
G01 X-4.79776 Y-2.40230
G01 X-4.79062 Y-2.39780
G01 X-4.78181 Y-2.39291
G01 X-4.77534 Y-2.38968
G01 X-4.76982 Y-2.38720
G01 X-4.76160 Y-2.38394
G01 X-4.75591 Y-2.38191
G01 X-4.75052 Y-2.38023
G01 X-4.74199 Y-2.37791
G01 X-4.73608 Y-2.37658
G01 X-4.72858 Y-2.37521
G01 X-4.71819 Y-2.37381
G01 X-4.71020 Y-2.37316
G01 X-4.70460 Y-2.37292
G01 X-4.69254 Y-2.37301
G01 X-4.67934 Y-2.37406
G01 X-4.66664 Y-2.37602
G01 X-4.65455 Y-2.37879
G01 X-4.64889 Y-2.38040
G01 X-4.64126 Y-2.38288
G01 X-4.63633 Y-2.38471
G01 X-4.62897 Y-2.38772
G01 X-4.62146 Y-2.39126
G01 X-4.61175 Y-2.39645
G01 X-4.61194 Y-2.39724
G01 X-4.61175 Y-2.39645
G01 X-4.38826 Y-2.39645
G01 X-4.38810 Y-2.39717
G01 X-4.38826 Y-2.39645
G01 X-4.38311 Y-2.39356
G01 X-4.37698 Y-2.39048
G01 X-4.36745 Y-2.38620
G01 X-4.35727 Y-2.38241
G01 X-4.35076 Y-2.38028
G01 X-4.34565 Y-2.37886
G01 X-4.34525 Y-2.37949
G01 X-4.34565 Y-2.37886
G01 X-4.31679 Y-2.35000
G01 X-4.35576 Y-2.35000
G01 X-4.36008 Y-2.35431
G01 X-4.35971 Y-2.35489
G01 X-4.36008 Y-2.35431
G01 X-4.36156 Y-2.35478
G01 X-4.37137 Y-2.35817
G01 X-4.37808 Y-2.36077
G01 X-4.38466 Y-2.36365
G01 X-4.39366 Y-2.36798
G01 X-4.39542 Y-2.36890
G01 X-4.39527 Y-2.36955
G01 X-4.39542 Y-2.36890
G01 X-4.60478 Y-2.36890
G01 X-4.60494 Y-2.36962
G01 X-4.60478 Y-2.36890
G01 X-4.61134 Y-2.36551
G01 X-4.61864 Y-2.36216
G01 X-4.62790 Y-2.35842
G01 X-4.63457 Y-2.35604
G01 X-4.64297 Y-2.35340
G01 X-4.64924 Y-2.35170
G01 X-4.65640 Y-2.35000
G01 X-4.74361 Y-2.35000
G01 X-4.75066 Y-2.35168
G01 X-4.75875 Y-2.35393
G01 X-4.76484 Y-2.35584
G01 X-4.77123 Y-2.35812
G01 X-4.77941 Y-2.36134
G01 X-4.78563 Y-2.36407
G01 X-4.79458 Y-2.36849
G01 X-4.80056 Y-2.37170
G01 X-4.81114 Y-2.37814
G01 X-4.81811 Y-2.38280
G01 X-4.82767 Y-2.39002
G01 X-4.83443 Y-2.39563
G01 X-4.84351 Y-2.40406
G01 X-4.84967 Y-2.41035
G01 X-4.85783 Y-2.41968
G01 X-4.86401 Y-2.42752
G01 X-4.87045 Y-2.43665
G01 X-4.87513 Y-2.44405
G01 X-4.88104 Y-2.45447
G01 X-4.88528 Y-2.46306
G01 X-4.89023 Y-2.47441
G01 X-4.89443 Y-2.48605
G01 X-4.89733 Y-2.49558
G01 X-4.90000 Y-2.50642
G01 X-4.90000 Y-2.59358
G01 X-4.89784 Y-2.60250
G01 X-4.89601 Y-2.60902
G01 X-4.89180 Y-2.62149
G01 X-4.88979 Y-2.62670
G01 X-4.88743 Y-2.63221
G01 X-4.88410 Y-2.63947
G01 X-4.88141 Y-2.64483
G01 X-4.87431 Y-2.65731
G01 X-4.86842 Y-2.66630
G01 X-4.86401 Y-2.67247
G01 X-4.85988 Y-2.67783
G01 X-4.85080 Y-2.68843
G01 X-4.84670 Y-2.69276
G01 X-4.84213 Y-2.69727
G01 X-4.82871 Y-2.69678
G01 X-4.80402 Y-2.69478
G01 X-4.78686 Y-2.69264
G01 X-4.76784 Y-2.68943
G01 X-4.75032 Y-2.68561
G01 X-4.71730 Y-2.67722
G01 X-4.69756 Y-2.67255
G01 X-4.67714 Y-2.66804
G01 X-4.64381 Y-2.66126
G01 X-4.63395 Y-2.65885
G01 X-4.62523 Y-2.65638
G01 X-4.62129 Y-2.65581
G01 X-4.62132 Y-2.65562
G01 X-4.62129 Y-2.65581
G01 X-4.37875 Y-2.65580
G01 X-4.37873 Y-2.65562
G01 X-4.37875 Y-2.65580
G01 X-4.37499 Y-2.65633
G01 X-4.36463 Y-2.65919
G01 X-4.35290 Y-2.66196
G01 X-4.34851 Y-2.66285
G01 X-4.33769 Y-2.66473
G01 X-4.32359 Y-2.66646
G01 X-4.31957 Y-2.66681
G01 X-4.30559 Y-2.66752
G01 X-4.29567 Y-2.66754
G01 X-4.28190 Y-2.66693
G01 X-4.27801 Y-2.66728
G01 X-4.27799 Y-2.66709
G01 X-4.27801 Y-2.66728
G01 X-4.17553 Y-2.69147
G01 X-4.27586 Y-2.64130
G01 X-4.27565 Y-2.63977
G01 X-4.27586 Y-2.64130
G01 X-4.27950 Y-2.64221
G01 X-4.28899 Y-2.64382
G01 X-4.29740 Y-2.64440
G01 X-4.30233 Y-2.64443
G01 X-4.31000 Y-2.64393
G01 X-4.31366 Y-2.64345
G01 X-4.32162 Y-2.64196
G01 X-4.32901 Y-2.63987
G01 X-4.33244 Y-2.63872
G01 X-4.34019 Y-2.63547
G01 X-4.34443 Y-2.63334
G01 X-4.35235 Y-2.62863
G01 X-4.35980 Y-2.62312
G01 X-4.36243 Y-2.62087
G01 X-4.36192 Y-2.61939
G01 X-4.36243 Y-2.62087
G01 X-4.63757 Y-2.62087
G01 X-4.63811 Y-2.61932
G01 X-4.63757 Y-2.62087
G01 X-4.63862 Y-2.62181
G01 X-4.64537 Y-2.62707
G01 X-4.65212 Y-2.63143
G01 X-4.65748 Y-2.63436
G01 X-4.66383 Y-2.63727
G01 X-4.66999 Y-2.63957
G01 X-4.67629 Y-2.64143
G01 X-4.68230 Y-2.64278
G01 X-4.68603 Y-2.64342
G01 X-4.69212 Y-2.64414
G01 X-4.69870 Y-2.64446
G01 X-4.70479 Y-2.64434
G01 X-4.70875 Y-2.64404
G01 X-4.71502 Y-2.64327
G01 X-4.72159 Y-2.64196
G01 X-4.72916 Y-2.63983
G01 X-4.73379 Y-2.63819
G01 X-4.74086 Y-2.63517
G01 X-4.74801 Y-2.63136
G01 X-4.75546 Y-2.62647
G01 X-4.76116 Y-2.62197
G01 X-4.76463 Y-2.61887
G01 X-4.76803 Y-2.61553
G01 X-4.77040 Y-2.61297
G01 X-4.77493 Y-2.60752
G01 X-4.77988 Y-2.60043
G01 X-4.78386 Y-2.59350
G01 X-4.78726 Y-2.58616
G01 X-4.79038 Y-2.57746
G01 X-4.79217 Y-2.57060
G01 X-4.79312 Y-2.56578
G01 X-4.79418 Y-2.55734
G01 X-4.79446 Y-2.54942
G01 X-4.79408 Y-2.54143
G01 X-4.79285 Y-2.53261
G01 X-4.79122 Y-2.52553
G01 X-4.79027 Y-2.52217
G01 X-4.78873 Y-2.51766
G01 X-4.78693 Y-2.51309
G01 X-4.78367 Y-2.50614
G01 X-4.77925 Y-2.49858
G01 X-4.77462 Y-2.49207
G01 X-4.76940 Y-2.48592
G01 X-4.76312 Y-2.47974
G01 X-4.75938 Y-2.47656
G01 X-4.75355 Y-2.47218
G01 X-4.74599 Y-2.46748
G01 X-4.73837 Y-2.46368
G01 X-4.73045 Y-2.46058
G01 X-4.72307 Y-2.45840
G01 X-4.71908 Y-2.45750
G01 X-4.71191 Y-2.45628
G01 X-4.70466 Y-2.45565
G01 X-4.69734 Y-2.45557
G01 X-4.69121 Y-2.45596
G01 X-4.68716 Y-2.45642
G01 X-4.68071 Y-2.45752
G01 X-4.67448 Y-2.45905
G01 X-4.66713 Y-2.46144
G01 X-4.65999 Y-2.46443
G01 X-4.65252 Y-2.46838
G01 X-4.64720 Y-2.47170
G01 X-4.63884 Y-2.47801
G01 X-4.63755 Y-2.47913
G01 X-4.63803 Y-2.48057
G01 X-4.63755 Y-2.47913
G01 X-4.36239 Y-2.47913
G01 X-4.36191 Y-2.48056
G01 X-4.36239 Y-2.47913
G01 X-4.35842 Y-2.47576
G01 X-4.35320 Y-2.47195
G01 X-4.35046 Y-2.47016
G01 X-4.34453 Y-2.46669
G01 X-4.33610 Y-2.46270
G01 X-4.32693 Y-2.45945
G01 X-4.31746 Y-2.45716
G01 X-4.31027 Y-2.45610
G01 X-4.30560 Y-2.45574
G01 X-4.30493 Y-2.45710
G01 X-4.30560 Y-2.45574
G01 X-4.20314 Y-2.35328
G01 X-4.19956 Y-2.35000
G01 X-3.75044 Y-2.35000
G01 X-3.74686 Y-2.35328
G01 X-3.64439 Y-2.45574
G01 X-3.64507 Y-2.45710
G01 X-3.64439 Y-2.45574
G01 X-3.63973 Y-2.45610
G01 X-3.63254 Y-2.45716
G01 X-3.62307 Y-2.45945
G01 X-3.61390 Y-2.46270
G01 X-3.60547 Y-2.46669
G01 X-3.59954 Y-2.47016
G01 X-3.59680 Y-2.47195
G01 X-3.59158 Y-2.47576
G01 X-3.58761 Y-2.47913
G01 X-3.58809 Y-2.48056
G01 X-3.58761 Y-2.47913
G01 X-3.31245 Y-2.47913
G01 X-3.31197 Y-2.48057
G01 X-3.31245 Y-2.47913
G01 X-3.31179 Y-2.47854
G01 X-3.30892 Y-2.47620
G01 X-3.30344 Y-2.47216
G01 X-3.29885 Y-2.46916
G01 X-3.29148 Y-2.46516
G01 X-3.28814 Y-2.46357
G01 X-3.28169 Y-2.46101
G01 X-3.27515 Y-2.45894
G01 X-3.26888 Y-2.45744
G01 X-3.26284 Y-2.45642
G01 X-3.25920 Y-2.45599
G01 X-3.25308 Y-2.45558
G01 X-3.24656 Y-2.45559
G01 X-3.24013 Y-2.45607
G01 X-3.23647 Y-2.45652
G01 X-3.22971 Y-2.45774
G01 X-3.22032 Y-2.46031
G01 X-3.21088 Y-2.46401
G01 X-3.20259 Y-2.46829
G01 X-3.19713 Y-2.47173
G01 X-3.19379 Y-2.47410
G01 X-3.18840 Y-2.47838
G01 X-3.18339 Y-2.48305
G01 X-3.18087 Y-2.48562
G01 X-3.17693 Y-2.49016
G01 X-3.17464 Y-2.49305
G01 X-3.17075 Y-2.49858
G01 X-3.16595 Y-2.50686
G01 X-3.16290 Y-2.51346
G01 X-3.16154 Y-2.51689
G01 X-3.15939 Y-2.52328
G01 X-3.15783 Y-2.52940
G01 X-3.15701 Y-2.53341
G01 X-3.15605 Y-2.54021
G01 X-3.15577 Y-2.54347
G01 X-3.15553 Y-2.55019
G01 X-3.18309 Y-2.55000
G01 X-3.07286 Y-2.55039
G01 X-3.05000 Y-2.59352
G01 X-3.05000 Y-2.50642
G01 X-3.05226 Y-2.49711
G01 X-3.05422 Y-2.49022
G01 X-3.05752 Y-2.48039
G01 X-3.06021 Y-2.47330
G01 X-3.06273 Y-2.46742
G01 X-3.06713 Y-2.45802
G01 X-3.07029 Y-2.45201
G01 X-3.07446 Y-2.44473
G01 X-3.07780 Y-2.43931
G01 X-3.08112 Y-2.43435
G01 X-3.08647 Y-2.42688
G01 X-3.09089 Y-2.42122
G01 X-3.09712 Y-2.41392
G01 X-3.10170 Y-2.40889
G01 X-3.10649 Y-2.40406
G01 X-3.11318 Y-2.39775
G01 X-3.11922 Y-2.39252
G01 X-3.12612 Y-2.38707
G01 X-3.13157 Y-2.38303
G01 X-3.13718 Y-2.37922
G01 X-3.14564 Y-2.37391
G01 X-3.15223 Y-2.37016
G01 X-3.16221 Y-2.36509
G01 X-3.16985 Y-2.36165
G01 X-3.17989 Y-2.35770
G01 X-3.18743 Y-2.35509
G01 X-3.19818 Y-2.35198
G01 X-3.20639 Y-2.35000
G01 X-3.29360 Y-2.35000
G01 X-3.30076 Y-2.35170
G01 X-3.30702 Y-2.35340
G01 X-3.31542 Y-2.35604
G01 X-3.32210 Y-2.35842
G01 X-3.33135 Y-2.36216
G01 X-3.33866 Y-2.36551
G01 X-3.34522 Y-2.36890
G01 X-3.34505 Y-2.36962
G01 X-3.34522 Y-2.36890
G01 X-3.55458 Y-2.36890
G01 X-3.55473 Y-2.36955
G01 X-3.55458 Y-2.36890
G01 X-3.55634 Y-2.36798
G01 X-3.56534 Y-2.36365
G01 X-3.57192 Y-2.36077
G01 X-3.57862 Y-2.35817
G01 X-3.58844 Y-2.35478
G01 X-3.58992 Y-2.35431
G01 X-3.59029 Y-2.35489
G01 X-3.58992 Y-2.35431
G01 X-3.59423 Y-2.35000
G01 X-3.63321 Y-2.35000
G01 X-3.60435 Y-2.37886
G01 X-3.60474 Y-2.37949
G01 X-3.60435 Y-2.37886
G01 X-3.59924 Y-2.38028
G01 X-3.59273 Y-2.38241
G01 X-3.58255 Y-2.38620
G01 X-3.57302 Y-2.39048
G01 X-3.56689 Y-2.39356
G01 X-3.56173 Y-2.39645
G01 X-3.56190 Y-2.39717
G01 X-3.56173 Y-2.39645
G01 X-3.33825 Y-2.39645
G01 X-3.33807 Y-2.39719
G01 X-3.33825 Y-2.39645
G01 X-3.33803 Y-2.39633
G01 X-3.32854 Y-2.39126
G01 X-3.32103 Y-2.38772
G01 X-3.30912 Y-2.38301
G01 X-3.30111 Y-2.38040
G01 X-3.29621 Y-2.37899
G01 X-3.28415 Y-2.37618
G01 X-3.27146 Y-2.37416
G01 X-3.26628 Y-2.37362
G01 X-3.25827 Y-2.37305
G01 X-3.24700 Y-2.37289
G01 X-3.24100 Y-2.37309
G01 X-3.23341 Y-2.37366
G01 X-3.22820 Y-2.37420
G01 X-3.22261 Y-2.37500
G01 X-3.21510 Y-2.37635
G01 X-3.20958 Y-2.37753
G01 X-3.20450 Y-2.37882
G01 X-3.19639 Y-2.38116
G01 X-3.19066 Y-2.38310
G01 X-3.18316 Y-2.38598
G01 X-3.17430 Y-2.38985
G01 X-3.16286 Y-2.39577
G01 X-3.15835 Y-2.39843
G01 X-3.15157 Y-2.40274
G01 X-3.14496 Y-2.40737
G01 X-3.13704 Y-2.41355
G01 X-3.13155 Y-2.41830
G01 X-3.12429 Y-2.42521
G01 X-3.11905 Y-2.43072
G01 X-3.11225 Y-2.43863
G01 X-3.10805 Y-2.44404
G01 X-3.10297 Y-2.45121
G01 X-3.09872 Y-2.45785
G01 X-3.09376 Y-2.46653
G01 X-3.09066 Y-2.47264
G01 X-3.08668 Y-2.48143
G01 X-3.08386 Y-2.48855
G01 X-3.08079 Y-2.49761
G01 X-3.07893 Y-2.50405
G01 X-3.07695 Y-2.51219
G01 X-3.07541 Y-2.52011
G01 X-3.07395 Y-2.53046
G01 X-3.07329 Y-2.53769
G01 X-3.07289 Y-2.54685
G01 X-3.07292 Y-2.55433
G01 X-3.07340 Y-2.56383
G01 X-3.07401 Y-2.57010
G01 X-3.07527 Y-2.57913
G01 X-3.07667 Y-2.58649
G01 X-3.07897 Y-2.59612
G01 X-3.08085 Y-2.60255
G01 X-3.08403 Y-2.61192
G01 X-3.08666 Y-2.61851
G01 X-3.09096 Y-2.62802
G01 X-3.09687 Y-2.63900
G01 X-3.09754 Y-2.64017
G01 X-3.09793 Y-2.64021
G01 X-3.07430 Y-2.63748
G01 X-3.06424 Y-2.63597
G01 X-3.05972 Y-2.62549
G01 X-3.05644 Y-2.61652
G01 X-3.05285 Y-2.60511
G01 X-3.05000 Y-2.59352
G01 X-3.07286 Y-2.55039
G01 X-3.12797 Y-2.55020
G01 X-3.12829 Y-2.55857
G01 X-3.12881 Y-2.56412
G01 X-3.12997 Y-2.57201
G01 X-3.13169 Y-2.57980
G01 X-3.13316 Y-2.58518
G01 X-3.13584 Y-2.59311
G01 X-3.13909 Y-2.60084
G01 X-3.14115 Y-2.60516
G01 X-3.14521 Y-2.61250
G01 X-3.14819 Y-2.61723
G01 X-3.15303 Y-2.62407
G01 X-3.15835 Y-2.63054
G01 X-3.16212 Y-2.63464
G01 X-3.16813 Y-2.64048
G01 X-3.17454 Y-2.64588
G01 X-3.17899 Y-2.64922
G01 X-3.16238 Y-2.64709
G01 X-3.13352 Y-2.64382
G01 X-3.13284 Y-2.64299
G01 X-3.12965 Y-2.63883
G01 X-3.12530 Y-2.63259
G01 X-3.12274 Y-2.62861
G01 X-3.12035 Y-2.62453
G01 X-3.11709 Y-2.61861
G01 X-3.11464 Y-2.61366
G01 X-3.11144 Y-2.60635
G01 X-3.10928 Y-2.60069
G01 X-3.10699 Y-2.59383
G01 X-3.10564 Y-2.58919
G01 X-3.10376 Y-2.58137
G01 X-3.10280 Y-2.57663
G01 X-3.10156 Y-2.56828
G01 X-3.10106 Y-2.56387
G01 X-3.10042 Y-2.55141
G01 X-3.10073 Y-2.54057
G01 X-3.10148 Y-2.53233
G01 X-3.10318 Y-2.52136
G01 X-3.10573 Y-2.51051
G01 X-3.10708 Y-2.50587
G01 X-3.10913 Y-2.49978
G01 X-3.11195 Y-2.49241
G01 X-3.11659 Y-2.48234
G01 X-3.12139 Y-2.47367
G01 X-3.12568 Y-2.46683
G01 X-3.13196 Y-2.45812
G01 X-3.13886 Y-2.44992
G01 X-3.14437 Y-2.44411
G01 X-3.15252 Y-2.43654
G01 X-3.16088 Y-2.42987
G01 X-3.16701 Y-2.42557
G01 X-3.17645 Y-2.41974
G01 X-3.18596 Y-2.41483
G01 X-3.19318 Y-2.41166
G01 X-3.20358 Y-2.40780
G01 X-3.21424 Y-2.40475
G01 X-3.21924 Y-2.40362
G01 X-3.22550 Y-2.40247
G01 X-3.23292 Y-2.40140
G01 X-3.24330 Y-2.40056
G01 X-3.25300 Y-2.40045
G01 X-3.25820 Y-2.40065
G01 X-3.26583 Y-2.40126
G01 X-3.27623 Y-2.40274
G01 X-3.28095 Y-2.40365
G01 X-3.28716 Y-2.40511
G01 X-3.29625 Y-2.40776
G01 X-3.30117 Y-2.40944
G01 X-3.30750 Y-2.41193
G01 X-3.31547 Y-2.41553
G01 X-3.32429 Y-2.42022
G01 X-3.32949 Y-2.42328
G01 X-3.33064 Y-2.42401
G01 X-3.33042 Y-2.42487
G01 X-3.33064 Y-2.42401
G01 X-3.56937 Y-2.42401
G01 X-3.56962 Y-2.42496
G01 X-3.56937 Y-2.42401
G01 X-3.57700 Y-2.41946
G01 X-3.58363 Y-2.41596
G01 X-3.59264 Y-2.41185
G01 X-3.60268 Y-2.40813
G01 X-3.60945 Y-2.40602
G01 X-3.61838 Y-2.40380
G01 X-3.61888 Y-2.40466
G01 X-3.61838 Y-2.40380
G01 X-3.67219 Y-2.35000
G01 X-3.71116 Y-2.35000
G01 X-3.63176 Y-2.42939
G01 X-3.63233 Y-2.43043
G01 X-3.63176 Y-2.42939
G01 X-3.62344 Y-2.43091
G01 X-3.61417 Y-2.43335
G01 X-3.60364 Y-2.43712
G01 X-3.59386 Y-2.44166
G01 X-3.58519 Y-2.44663
G01 X-3.58184 Y-2.44879
G01 X-3.57794 Y-2.45157
G01 X-3.57827 Y-2.45268
G01 X-3.57794 Y-2.45157
G01 X-3.32196 Y-2.45157
G01 X-3.32160 Y-2.45275
G01 X-3.32196 Y-2.45157
G01 X-3.31813 Y-2.44879
G01 X-3.31266 Y-2.44531
G01 X-3.30454 Y-2.44089
G01 X-3.29947 Y-2.43845
G01 X-3.29318 Y-2.43588
G01 X-3.28947 Y-2.43454
G01 X-3.28342 Y-2.43264
G01 X-3.27305 Y-2.43017
G01 X-3.26639 Y-2.42909
G01 X-3.26207 Y-2.42858
G01 X-3.25495 Y-2.42807
G01 X-3.24860 Y-2.42800
G01 X-3.24385 Y-2.42813
G01 X-3.23790 Y-2.42860
G01 X-3.23195 Y-2.42933
G01 X-3.22292 Y-2.43101
G01 X-3.21443 Y-2.43329
G01 X-3.20950 Y-2.43490
G01 X-3.20205 Y-2.43780
G01 X-3.19661 Y-2.44030
G01 X-3.18953 Y-2.44401
G01 X-3.18174 Y-2.44887
G01 X-3.17750 Y-2.45186
G01 X-3.17061 Y-2.45733
G01 X-3.16416 Y-2.46330
G01 X-3.16053 Y-2.46703
G01 X-3.15529 Y-2.47307
G01 X-3.15211 Y-2.47716
G01 X-3.14733 Y-2.48405
G01 X-3.14326 Y-2.49091
G01 X-3.14048 Y-2.49621
G01 X-3.13673 Y-2.50461
G01 X-3.13377 Y-2.51288
G01 X-3.13220 Y-2.51822
G01 X-3.13020 Y-2.52678
G01 X-3.12886 Y-2.53547
G01 X-3.12829 Y-2.54143
G01 X-3.12797 Y-2.55020
G01 X-3.15553 Y-2.55019
G01 X-3.15591 Y-2.55844
G01 X-3.15701 Y-2.56662
G01 X-3.15891 Y-2.57505
G01 X-3.16106 Y-2.58180
G01 X-3.16229 Y-2.58507
G01 X-3.16418 Y-2.58944
G01 X-3.16635 Y-2.59385
G01 X-3.17017 Y-2.60052
G01 X-3.17519 Y-2.60768
G01 X-3.18025 Y-2.61371
G01 X-3.18636 Y-2.61982
G01 X-3.19270 Y-2.62510
G01 X-3.19886 Y-2.62941
G01 X-3.20621 Y-2.63368
G01 X-3.21062 Y-2.63585
G01 X-3.21792 Y-2.63884
G01 X-3.22355 Y-2.64068
G01 X-3.22692 Y-2.64159
G01 X-3.23309 Y-2.64294
G01 X-3.23973 Y-2.64389
G01 X-3.24369 Y-2.64424
G01 X-3.24972 Y-2.64447
G01 X-3.25659 Y-2.64424
G01 X-3.26261 Y-2.64360
G01 X-3.26634 Y-2.64303
G01 X-3.27278 Y-2.64167
G01 X-3.27909 Y-2.63988
G01 X-3.28551 Y-2.63754
G01 X-3.29142 Y-2.63490
G01 X-3.29753 Y-2.63164
G01 X-3.30468 Y-2.62703
G01 X-3.31107 Y-2.62207
G01 X-3.31243 Y-2.62087
G01 X-3.31189 Y-2.61932
G01 X-3.31243 Y-2.62087
G01 X-3.58758 Y-2.62087
G01 X-3.58824 Y-2.61912
G01 X-3.58758 Y-2.62087
G01 X-3.58941 Y-2.62246
G01 X-3.59737 Y-2.62162
G01 X-3.60299 Y-2.62086
G01 X-3.61146 Y-2.61942
G01 X-3.62256 Y-2.61698
G01 X-3.63178 Y-2.61438
G01 X-3.63859 Y-2.61592
G01 X-3.64287 Y-2.61653
G01 X-3.64830 Y-2.61689
G01 X-3.65374 Y-2.61680
G01 X-3.65842 Y-2.61637
G01 X-3.66517 Y-2.61514
G01 X-3.63942 Y-2.64086
G01 X-3.62918 Y-2.64373
G01 X-3.61672 Y-2.64652
G01 X-3.60713 Y-2.64810
G01 X-3.60096 Y-2.64895
G01 X-3.58495 Y-2.65047
G01 X-3.53312 Y-2.67193
G01 X-3.53053 Y-2.67271
G01 X-3.53063 Y-2.67323
G01 X-3.53053 Y-2.67271
G01 X-3.52784 Y-2.67298
G01 X-3.32761 Y-2.67298
G01 X-3.31583 Y-2.67629
G01 X-3.30570 Y-2.67870
G01 X-3.29297 Y-2.68118
G01 X-3.28623 Y-2.68220
G01 X-3.27339 Y-2.68372
G01 X-3.26336 Y-2.68442
G01 X-3.25295 Y-2.68477
G01 X-3.24256 Y-2.68466
G01 X-3.23126 Y-2.68408
G01 X-3.21950 Y-2.68295
G01 X-3.18312 Y-2.67759
G01 X-3.15897 Y-2.67444
G01 X-3.13819 Y-2.67202
G01 X-3.09493 Y-2.66761
G01 X-3.07097 Y-2.66483
G01 X-3.06374 Y-2.66382
G01 X-3.05000 Y-2.66155
G01 X-3.05000 Y-2.67310
G01 X-3.05991 Y-2.66319
G01 X-3.05000 Y-2.67310
G01 X-3.05000 Y-2.76773
G01 X-3.05197 Y-2.76277
G01 X-3.05506 Y-2.75580
G01 X-3.05759 Y-2.75082
G01 X-3.06038 Y-2.74598
G01 X-3.06427 Y-2.73991
G01 X-3.06748 Y-2.73537
G01 X-3.07117 Y-2.73070
G01 X-3.07592 Y-2.72527
G01 X-3.12242 Y-2.67865
G01 X-3.12858 Y-2.67295
G01 X-3.13063 Y-2.67123
G01 X-3.13819 Y-2.67202
G01 X-3.09453 Y-2.66756
G01 X-3.05868 Y-2.70340
G01 X-3.05464 Y-2.70772
G01 X-3.05000 Y-2.71305
G01 X-3.05000 Y-3.51114
G01 X-3.13886 Y-3.60000
G01 X-3.87592 Y-3.60000
G01 X-3.88431 Y-3.59753
G01 X-3.89264 Y-3.59467
G01 X-3.90010 Y-3.59184
G01 X-3.90779 Y-3.58854
G01 X-3.91569 Y-3.58473
G01 X-3.92415 Y-3.58018
G01 X-3.93103 Y-3.57615
G01 X-3.93774 Y-3.57183
G01 X-3.94490 Y-3.56677
G01 X-3.95252 Y-3.56090
G01 X-3.95925 Y-3.55526
G01 X-3.96543 Y-3.54959
G01 X-3.98482 Y-3.53027
G01 X-3.98388 Y-3.52751
G01 X-3.98482 Y-3.53027
G01 X-3.99541 Y-3.53152
G01 X-4.00659 Y-3.53219
G01 X-4.08940 Y-3.53227
G01 X-4.09820 Y-3.53198
G01 X-4.10733 Y-3.53125
G01 X-4.10889 Y-3.49971
G01 X-4.10871 Y-3.50335
G01 X-4.10259 Y-3.50402
G01 X-4.09620 Y-3.50449
G01 X-4.08740 Y-3.50472
G01 X-4.00939 Y-3.50469
G01 X-4.00180 Y-3.50437
G01 X-3.99383 Y-3.50366
G01 X-3.98590 Y-3.50256
G01 X-3.97804 Y-3.50107
G01 X-3.97560 Y-3.50053
G01 X-3.97458 Y-3.49725
G01 X-3.97560 Y-3.50053
G01 X-3.94623 Y-3.52982
G01 X-3.94003 Y-3.53545
G01 X-3.93323 Y-3.54102
G01 X-3.92487 Y-3.54724
G01 X-3.91686 Y-3.55251
G01 X-3.90677 Y-3.55828
G01 X-3.89858 Y-3.56243
G01 X-3.88979 Y-3.56628
G01 X-3.88040 Y-3.56977
G01 X-3.87165 Y-3.57258
G01 X-3.86314 Y-3.57480
G01 X-3.85215 Y-3.57701
G01 X-3.84348 Y-3.57832
G01 X-3.83357 Y-3.57924
G01 X-3.82402 Y-3.57957
G01 X-3.34936 Y-3.57965
G01 X-3.34147 Y-3.57947
G01 X-3.33313 Y-3.57889
G01 X-3.32638 Y-3.57818
G01 X-3.31965 Y-3.57720
G01 X-3.30908 Y-3.57508
G01 X-3.30204 Y-3.57334
G01 X-3.29624 Y-3.57168
G01 X-3.28560 Y-3.56803
G01 X-3.27408 Y-3.56321
G01 X-3.26398 Y-3.55825
G01 X-3.25459 Y-3.55282
G01 X-3.24416 Y-3.54592
G01 X-3.23961 Y-3.54257
G01 X-3.23486 Y-3.53881
G01 X-3.22754 Y-3.53248
G01 X-3.22173 Y-3.52697
G01 X-3.05000 Y-3.35524
G01 X-3.05000 Y-3.39421
G01 X-3.20223 Y-3.54645
G01 X-3.20736 Y-3.55137
G01 X-3.21300 Y-3.55640
G01 X-3.21792 Y-3.56056
G01 X-3.22266 Y-3.56430
G01 X-3.22751 Y-3.56789
G01 X-3.23280 Y-3.57156
G01 X-3.23956 Y-3.57593
G01 X-3.24539 Y-3.57944
G01 X-3.25134 Y-3.58274
G01 X-3.25741 Y-3.58583
G01 X-3.26321 Y-3.58854
G01 X-3.27060 Y-3.59172
G01 X-3.27655 Y-3.59408
G01 X-3.28258 Y-3.59624
G01 X-3.28907 Y-3.59831
G01 X-3.29506 Y-3.60000
G01 X-3.22608 Y-3.60000
G01 X-3.21613 Y-3.59355
G01 X-3.20795 Y-3.58773
G01 X-3.20035 Y-3.58179
G01 X-3.19180 Y-3.57446
G01 X-3.18533 Y-3.56847
G01 X-3.05000 Y-3.43319
G01 X-3.05000 Y-3.47216
G01 X-3.16410 Y-3.58626
G01 X-3.17099 Y-3.59280
G01 X-3.17916 Y-3.60000
G01 X-3.13886 Y-3.60000
G01 X-3.05000 Y-3.51114
G01 X-3.05000 Y-3.55011
G01 X-3.09989 Y-3.60000
G01 X-4.10363 Y-3.60000
G01 X-4.10656 Y-3.54631
G01 X-4.10586 Y-3.55907
G01 X-4.09701 Y-3.55963
G01 X-4.08860 Y-3.55984
G01 X-4.00779 Y-3.55979
G01 X-3.99493 Y-3.55913
G01 X-3.99403 Y-3.55680
G01 X-3.99493 Y-3.55913
G01 X-3.98490 Y-3.56909
G01 X-3.97756 Y-3.57585
G01 X-3.96961 Y-3.58252
G01 X-3.96101 Y-3.58914
G01 X-3.95311 Y-3.59470
G01 X-3.94485 Y-3.60000
G01 X-3.99175 Y-3.60000
G01 X-3.99885 Y-3.59378
G01 X-4.00571 Y-3.58731
G01 X-4.00499 Y-3.58544
G01 X-4.00571 Y-3.58731
G01 X-4.00900 Y-3.58738
G01 X-4.08900 Y-3.58740
G01 X-4.09620 Y-3.58724
G01 X-4.10435 Y-3.58682
G01 X-4.10889 Y-3.49971
G01 X-4.10775 Y-3.47009
G01 X-4.10668 Y-3.44791
G01 X-4.09741 Y-3.44915
G01 X-4.09261 Y-3.44948
G01 X-4.08780 Y-3.44961
G01 X-4.01100 Y-3.44959
G01 X-4.00339 Y-3.44922
G01 X-3.99662 Y-3.44844
G01 X-3.99148 Y-3.44756
G01 X-3.98679 Y-3.44654
G01 X-3.98214 Y-3.44531
G01 X-3.97754 Y-3.44388
G01 X-3.97302 Y-3.44225
G01 X-3.96857 Y-3.44043
G01 X-3.96420 Y-3.43841
G01 X-3.95993 Y-3.43621
G01 X-3.95782 Y-3.43503
G01 X-3.95551 Y-3.42616
G01 X-3.95782 Y-3.43503
G01 X-3.95392 Y-3.44115
G01 X-3.94991 Y-3.44663
G01 X-3.94432 Y-3.45347
G01 X-3.93943 Y-3.45875
G01 X-3.90900 Y-3.48915
G01 X-3.90490 Y-3.49295
G01 X-3.90093 Y-3.49630
G01 X-3.89322 Y-3.50211
G01 X-3.88646 Y-3.50649
G01 X-3.87762 Y-3.51133
G01 X-3.86993 Y-3.51485
G01 X-3.86047 Y-3.51834
G01 X-3.85275 Y-3.52061
G01 X-3.84843 Y-3.52161
G01 X-3.84248 Y-3.52275
G01 X-3.83409 Y-3.52391
G01 X-3.82845 Y-3.52432
G01 X-3.82321 Y-3.52445
G01 X-3.34935 Y-3.52454
G01 X-3.34225 Y-3.52431
G01 X-3.33304 Y-3.52347
G01 X-3.32431 Y-3.52200
G01 X-3.31417 Y-3.51951
G01 X-3.30621 Y-3.51690
G01 X-3.29732 Y-3.51323
G01 X-3.28979 Y-3.50955
G01 X-3.28290 Y-3.50552
G01 X-3.27463 Y-3.49994
G01 X-3.26750 Y-3.49424
G01 X-3.26042 Y-3.48771
G01 X-3.07868 Y-3.30596
G01 X-3.07511 Y-3.30217
G01 X-3.07089 Y-3.29730
G01 X-3.06767 Y-3.29321
G01 X-3.06464 Y-3.28897
G01 X-3.06048 Y-3.28256
G01 X-3.05676 Y-3.27592
G01 X-3.05307 Y-3.26827
G01 X-3.05000 Y-3.26059
G01 X-3.06997 Y-3.21762
G01 X-3.12509 Y-3.21762
G01 X-3.06997 Y-3.21762
G01 X-3.05000 Y-3.26059
G01 X-3.05000 Y-3.31528
G01 X-3.05516 Y-3.32119
G01 X-3.05975 Y-3.32602
G01 X-3.24121 Y-3.50747
G01 X-3.24546 Y-3.51153
G01 X-3.25054 Y-3.51599
G01 X-3.25453 Y-3.51926
G01 X-3.25895 Y-3.52262
G01 X-3.26788 Y-3.52863
G01 X-3.27645 Y-3.53366
G01 X-3.28463 Y-3.53774
G01 X-3.29493 Y-3.54210
G01 X-3.30432 Y-3.54534
G01 X-3.30967 Y-3.54685
G01 X-3.31629 Y-3.54846
G01 X-3.32614 Y-3.55033
G01 X-3.33210 Y-3.55111
G01 X-3.33892 Y-3.55170
G01 X-3.34935 Y-3.55209
G01 X-3.82321 Y-3.55201
G01 X-3.83002 Y-3.55184
G01 X-3.83641 Y-3.55137
G01 X-3.84514 Y-3.55025
G01 X-3.85619 Y-3.54812
G01 X-3.86510 Y-3.54578
G01 X-3.87425 Y-3.54272
G01 X-3.88245 Y-3.53948
G01 X-3.89007 Y-3.53592
G01 X-3.89925 Y-3.53093
G01 X-3.90673 Y-3.52626
G01 X-3.91165 Y-3.52280
G01 X-3.91709 Y-3.51866
G01 X-3.92141 Y-3.51512
G01 X-3.92558 Y-3.51140
G01 X-3.96032 Y-3.47681
G01 X-3.96695 Y-3.46938
G01 X-3.96561 Y-3.46481
G01 X-3.96695 Y-3.46938
G01 X-3.96933 Y-3.47020
G01 X-3.97738 Y-3.47259
G01 X-3.98518 Y-3.47441
G01 X-3.99346 Y-3.47583
G01 X-4.00181 Y-3.47674
G01 X-4.01180 Y-3.47716
G01 X-4.08900 Y-3.47716
G01 X-4.09859 Y-3.47671
G01 X-4.10796 Y-3.47562
G01 X-4.10683 Y-3.45062
G01 X-4.10464 Y-3.41167
G01 X-4.10379 Y-3.39968
G01 X-4.10235 Y-3.38320
G01 X-4.10314 Y-3.39219
G01 X-4.09855 Y-3.39335
G01 X-4.09380 Y-3.39412
G01 X-4.08740 Y-3.39449
G01 X-4.01260 Y-3.39449
G01 X-4.00660 Y-3.39416
G01 X-4.00028 Y-3.39309
G01 X-3.99717 Y-3.39229
G01 X-3.99375 Y-3.39116
G01 X-3.99040 Y-3.38982
G01 X-3.98750 Y-3.38844
G01 X-3.98469 Y-3.38690
G01 X-3.98164 Y-3.38497
G01 X-3.97810 Y-3.38236
G01 X-3.97507 Y-3.37974
G01 X-3.97223 Y-3.37690
G01 X-3.96936 Y-3.37356
G01 X-3.96719 Y-3.37062
G01 X-3.96835 Y-3.36810
G01 X-3.96719 Y-3.37062
G01 X-3.93281 Y-3.37062
G01 X-3.93157 Y-3.36799
G01 X-3.93281 Y-3.37062
G01 X-3.92910 Y-3.37541
G01 X-3.92493 Y-3.37974
G01 X-3.92064 Y-3.38334
G01 X-3.91921 Y-3.38438
G01 X-3.91808 Y-3.38367
G01 X-3.91921 Y-3.38438
G01 X-3.91806 Y-3.38911
G01 X-3.91623 Y-3.39484
G01 X-3.91339 Y-3.40149
G01 X-3.91048 Y-3.40680
G01 X-3.90781 Y-3.41091
G01 X-3.90327 Y-3.41666
G01 X-3.90021 Y-3.42003
G01 X-3.87004 Y-3.45015
G01 X-3.86675 Y-3.45306
G01 X-3.86198 Y-3.45670
G01 X-3.85836 Y-3.45907
G01 X-3.85417 Y-3.46140
G01 X-3.85136 Y-3.46282
G01 X-3.84811 Y-3.46423
G01 X-3.84324 Y-3.46598
G01 X-3.83985 Y-3.46701
G01 X-3.83640 Y-3.46782
G01 X-3.83164 Y-3.46868
G01 X-3.82763 Y-3.46915
G01 X-3.82320 Y-3.46933
G01 X-3.34933 Y-3.46942
G01 X-3.34618 Y-3.46933
G01 X-3.34101 Y-3.46891
G01 X-3.33480 Y-3.46788
G01 X-3.32970 Y-3.46662
G01 X-3.32581 Y-3.46538
G01 X-3.31980 Y-3.46290
G01 X-3.31613 Y-3.46113
G01 X-3.31260 Y-3.45908
G01 X-3.30758 Y-3.45575
G01 X-3.30445 Y-3.45331
G01 X-3.30054 Y-3.44985
G01 X-3.11793 Y-3.26727
G01 X-3.11415 Y-3.26310
G01 X-3.11188 Y-3.26029
G01 X-3.10867 Y-3.25566
G01 X-3.10679 Y-3.25258
G01 X-3.10304 Y-3.24498
G01 X-3.10120 Y-3.24004
G01 X-3.10013 Y-3.23660
G01 X-3.09887 Y-3.23110
G01 X-3.09824 Y-3.22759
G01 X-3.09784 Y-3.22404
G01 X-3.09754 Y-3.21882
G01 X-3.09754 Y-2.80992
G01 X-3.09796 Y-2.80318
G01 X-3.09867 Y-2.79811
G01 X-3.10022 Y-2.79147
G01 X-3.10185 Y-2.78643
G01 X-3.10455 Y-2.78007
G01 X-3.10681 Y-2.77573
G01 X-3.11074 Y-2.76961
G01 X-3.11415 Y-2.76523
G01 X-3.11823 Y-2.76076
G01 X-3.16166 Y-2.71736
G01 X-3.16522 Y-2.71415
G01 X-3.17192 Y-2.70914
G01 X-3.17494 Y-2.70729
G01 X-3.17916 Y-2.70499
G01 X-3.18311 Y-2.70315
G01 X-3.18723 Y-2.70158
G01 X-3.19024 Y-2.70056
G01 X-3.19369 Y-2.69963
G01 X-3.19840 Y-2.69863
G01 X-3.20192 Y-2.69808
G01 X-3.20711 Y-2.69765
G01 X-3.21071 Y-2.69753
G01 X-3.54371 Y-2.69753
G01 X-3.54458 Y-2.69963
G01 X-3.54371 Y-2.69753
G01 X-3.59133 Y-2.64996
G01 X-3.60068 Y-2.64898
G01 X-3.60685 Y-2.64814
G01 X-3.61671 Y-2.64648
G01 X-3.62918 Y-2.64373
G01 X-3.63942 Y-2.64086
G01 X-3.63341 Y-2.64262
G01 X-3.62554 Y-2.64461
G01 X-3.61671 Y-2.64648
G01 X-3.61131 Y-2.64744
G01 X-3.59663 Y-2.64945
G01 X-3.58495 Y-2.65047
G01 X-3.53312 Y-2.67193
G01 X-3.53053 Y-2.67271
G01 X-3.52784 Y-2.67298
G01 X-3.32761 Y-2.67298
G01 X-3.31238 Y-2.67715
G01 X-3.30264 Y-2.67935
G01 X-3.29297 Y-2.68116
G01 X-3.28303 Y-2.68263
G01 X-3.27339 Y-2.68370
G01 X-3.26336 Y-2.68442
G01 X-3.25295 Y-2.68475
G01 X-3.24256 Y-2.68466
G01 X-3.23516 Y-2.68433
G01 X-3.22310 Y-2.68335
G01 X-3.21149 Y-2.68186
G01 X-3.19610 Y-2.67946
G01 X-3.17545 Y-2.67655
G01 X-3.17137 Y-2.67820
G01 X-3.16742 Y-2.68005
G01 X-3.16175 Y-2.68308
G01 X-3.15792 Y-2.68537
G01 X-3.15389 Y-2.68810
G01 X-3.14938 Y-2.69153
G01 X-3.14599 Y-2.69433
G01 X-3.14275 Y-2.69731
G01 X-3.09875 Y-2.74127
G01 X-3.09503 Y-2.74524
G01 X-3.09041 Y-2.75074
G01 X-3.08651 Y-2.75624
G01 X-3.08209 Y-2.76346
G01 X-3.07872 Y-2.77031
G01 X-3.07652 Y-2.77551
G01 X-3.07488 Y-2.78005
G01 X-3.07351 Y-2.78467
G01 X-3.07208 Y-2.79057
G01 X-3.07124 Y-2.79495
G01 X-3.07064 Y-2.79937
G01 X-3.07014 Y-2.80544
G01 X-3.06997 Y-2.80990
G01 X-3.06997 Y-3.21804
G01 X-3.07031 Y-3.22545
G01 X-3.07094 Y-3.23136
G01 X-3.07242 Y-3.23921
G01 X-3.07388 Y-3.24504
G01 X-3.07589 Y-3.25115
G01 X-3.07765 Y-3.25569
G01 X-3.07968 Y-3.26012
G01 X-3.08283 Y-3.26619
G01 X-3.08554 Y-3.27064
G01 X-3.08918 Y-3.27595
G01 X-3.09213 Y-3.27974
G01 X-3.09632 Y-3.28453
G01 X-3.28157 Y-3.46984
G01 X-3.28598 Y-3.47378
G01 X-3.28905 Y-3.47629
G01 X-3.29256 Y-3.47888
G01 X-3.29690 Y-3.48176
G01 X-3.30032 Y-3.48387
G01 X-3.30420 Y-3.48599
G01 X-3.31227 Y-3.48966
G01 X-3.31638 Y-3.49128
G01 X-3.32020 Y-3.49255
G01 X-3.32918 Y-3.49486
G01 X-3.33678 Y-3.49616
G01 X-3.34527 Y-3.49688
G01 X-3.82320 Y-3.49689
G01 X-3.82878 Y-3.49670
G01 X-3.83472 Y-3.49608
G01 X-3.84224 Y-3.49475
G01 X-3.84854 Y-3.49320
G01 X-3.85662 Y-3.49048
G01 X-3.86261 Y-3.48799
G01 X-3.87017 Y-3.48407
G01 X-3.87538 Y-3.48092
G01 X-3.88259 Y-3.47567
G01 X-3.88748 Y-3.47156
G01 X-3.92050 Y-3.43869
G01 X-3.92420 Y-3.43458
G01 X-3.92874 Y-3.42895
G01 X-3.93133 Y-3.42536
G01 X-3.93351 Y-3.42198
G01 X-3.93632 Y-3.41709
G01 X-3.93835 Y-3.41318
G01 X-3.94048 Y-3.40842
G01 X-3.94293 Y-3.40204
G01 X-3.94359 Y-3.40002
G01 X-3.94300 Y-3.39963
G01 X-3.94359 Y-3.40002
G01 X-3.94551 Y-3.39818
G01 X-3.94472 Y-3.39619
G01 X-3.94551 Y-3.39818
G01 X-3.95448 Y-3.39818
G01 X-3.95509 Y-3.39652
G01 X-3.95448 Y-3.39818
G01 X-3.95884 Y-3.40219
G01 X-3.96227 Y-3.40496
G01 X-3.96550 Y-3.40732
G01 X-3.96919 Y-3.40974
G01 X-3.97301 Y-3.41195
G01 X-3.97948 Y-3.41513
G01 X-3.98621 Y-3.41772
G01 X-3.99314 Y-3.41973
G01 X-4.00022 Y-3.42111
G01 X-4.00579 Y-3.42177
G01 X-4.01180 Y-3.42204
G01 X-4.08820 Y-3.42204
G01 X-4.09261 Y-3.42188
G01 X-4.09700 Y-3.42149
G01 X-4.10097 Y-3.42093
G01 X-4.10511 Y-3.42013
G01 X-4.10379 Y-3.39968
G01 X-4.10235 Y-3.38320
G01 X-4.10134 Y-3.37414
G01 X-4.09985 Y-3.36395
G01 X-4.10353 Y-3.36171
G01 X-4.10660 Y-3.35914
G01 X-4.10951 Y-3.35583
G01 X-4.11167 Y-3.35240
G01 X-4.11421 Y-3.35419
G01 X-4.11944 Y-3.35732
G01 X-4.12728 Y-3.36086
G01 X-4.12866 Y-3.37053
G01 X-4.12976 Y-3.38031
G01 X-4.13127 Y-3.39762
G01 X-4.13215 Y-3.41003
G01 X-4.13436 Y-3.44926
G01 X-4.13556 Y-3.47607
G01 X-4.14164 Y-3.47772
G01 X-4.15017 Y-3.47960
G01 X-4.15880 Y-3.48096
G01 X-4.16714 Y-3.48185
G01 X-4.17512 Y-3.48222
G01 X-4.41697 Y-3.48228
G01 X-4.41703 Y-3.48190
G01 X-4.41697 Y-3.48228
G01 X-4.42239 Y-3.48433
G01 X-4.42985 Y-3.48682
G01 X-4.43562 Y-3.48848
G01 X-4.44784 Y-3.49125
G01 X-4.45816 Y-3.49282
G01 X-4.46821 Y-3.49374
G01 X-4.47538 Y-3.49407
G01 X-4.52311 Y-3.49408
G01 X-4.53186 Y-3.49377
G01 X-4.54223 Y-3.49281
G01 X-4.55253 Y-3.49117
G01 X-4.56080 Y-3.48938
G01 X-4.56999 Y-3.48687
G01 X-4.57800 Y-3.48418
G01 X-4.58740 Y-3.48046
G01 X-4.59710 Y-3.47587
G01 X-4.60243 Y-3.47302
G01 X-4.60836 Y-3.46951
G01 X-4.61306 Y-3.46653
G01 X-4.61731 Y-3.46360
G01 X-4.62281 Y-3.45954
G01 X-4.62715 Y-3.45606
G01 X-4.63291 Y-3.45105
G01 X-4.63725 Y-3.44697
G01 X-4.64284 Y-3.44121
G01 X-4.64635 Y-3.43733
G01 X-4.64997 Y-3.43301
G01 X-4.65434 Y-3.42739
G01 X-4.65786 Y-3.42249
G01 X-4.66184 Y-3.41639
G01 X-4.66453 Y-3.41198
G01 X-4.66723 Y-3.40711
G01 X-4.67038 Y-3.40099
G01 X-4.67276 Y-3.39588
G01 X-4.67579 Y-3.38857
G01 X-4.67762 Y-3.38367
G01 X-4.67938 Y-3.37832
G01 X-4.68142 Y-3.37137
G01 X-4.68275 Y-3.36597
G01 X-4.68423 Y-3.35889
G01 X-4.68521 Y-3.35301
G01 X-4.68610 Y-3.34584
G01 X-4.68660 Y-3.34033
G01 X-4.68688 Y-3.33480
G01 X-4.68699 Y-3.32751
G01 X-4.68685 Y-3.32151
G01 X-4.68626 Y-3.31325
G01 X-4.68574 Y-3.30835
G01 X-4.67148 Y-3.30317
G01 X-4.57044 Y-3.30315
G01 X-4.56888 Y-3.30034
G01 X-4.56617 Y-3.29624
G01 X-4.56302 Y-3.29231
G01 X-4.56021 Y-3.28938
G01 X-4.56528 Y-3.28368
G01 X-4.56868 Y-3.27872
G01 X-4.57041 Y-3.27560
G01 X-4.62968 Y-3.27558
G01 X-4.62897 Y-3.27509
G01 X-4.62886 Y-3.27558
G01 X-4.62897 Y-3.27509
G01 X-4.60396 Y-3.25749
G01 X-4.60341 Y-3.26226
G01 X-4.60281 Y-3.26570
G01 X-4.60155 Y-3.27127
G01 X-4.60024 Y-3.27555
G01 X-4.60155 Y-3.27127
G01 X-4.60281 Y-3.26570
G01 X-4.60341 Y-3.26226
G01 X-4.60396 Y-3.25749
G01 X-4.57511 Y-3.23663
G01 X-4.57435 Y-3.23389
G01 X-4.57252 Y-3.22880
G01 X-4.57048 Y-3.22442
G01 X-4.56753 Y-3.21945
G01 X-4.56368 Y-3.21434
G01 X-4.55949 Y-3.21248
G01 X-4.55470 Y-3.21063
G01 X-4.45113 Y-3.21062
G01 X-4.44933 Y-3.20705
G01 X-4.44642 Y-3.20030
G01 X-4.44424 Y-3.19398
G01 X-4.44269 Y-3.18813
G01 X-4.44159 Y-3.18219
G01 X-4.44109 Y-3.17794
G01 X-4.44080 Y-3.17211
G01 X-4.44094 Y-3.16657
G01 X-4.44153 Y-3.16079
G01 X-4.44259 Y-3.15486
G01 X-4.44417 Y-3.14875
G01 X-4.44624 Y-3.14266
G01 X-4.44907 Y-3.13603
G01 X-4.45244 Y-3.12945
G01 X-4.45430 Y-3.12624
G01 X-4.45835 Y-3.11998
G01 X-4.45835 Y-3.05913
G01 X-4.58286 Y-2.93440
G01 X-4.58454 Y-2.93227
G01 X-4.58720 Y-2.92828
G01 X-4.58921 Y-2.92435
G01 X-4.59040 Y-2.92141
G01 X-4.59191 Y-2.91645
G01 X-4.59273 Y-2.91173
G01 X-4.59300 Y-2.90863
G01 X-4.59302 Y-2.90391
G01 X-4.63336 Y-2.94426
G01 X-4.63312 Y-2.94796
G01 X-4.63315 Y-2.95268
G01 X-4.63366 Y-2.95866
G01 X-4.63482 Y-2.96509
G01 X-4.63634 Y-2.97058
G01 X-4.63863 Y-2.97666
G01 X-4.64122 Y-2.98197
G01 X-4.64405 Y-2.98670
G01 X-4.64786 Y-2.99193
G01 X-4.65162 Y-2.99622
G01 X-4.65599 Y-3.00040
G01 X-4.66034 Y-3.00389
G01 X-4.66498 Y-3.00701
G01 X-4.67060 Y-3.01008
G01 X-4.67304 Y-3.01122
G01 X-4.67894 Y-3.01351
G01 X-4.68476 Y-3.01512
G01 X-4.57168 Y-3.12820
G01 X-4.55599 Y-3.12820
G01 X-4.55330 Y-3.12614
G01 X-4.54900 Y-3.12341
G01 X-4.54230 Y-3.12016
G01 X-4.53712 Y-3.11836
G01 X-4.53255 Y-3.11725
G01 X-4.53016 Y-3.11681
