( pcb2gcode 3.0.1 )
( Gcode for linuxcnc )

G94 ( Inches per minute feed rate. )
G20 ( Units == INCHES. )

G90 ( Absolute coordinates. )
G00 S12000 ( RPM spindle speed. )
G64 P0.00040 ( set maximum deviation from commanded toolpath )
G01 F360.00000 ( Feedrate. )

o101 sub ( G01 with Z-correction subroutine )
    #4 = 0 ( x-tile offset [minus the initial offset] )
    #5 = 0 ( y-tile offset [minus the initial offset] )
    #6 = [ FIX[ [ #1 - 4.68508 + #4 ] / 0.38397 ] ] ( Lower left point X index )
    #7 = [ FIX[ [ #2 - -3.35492 + #5 ] / 0.29947 ] ] ( Lower left point Y index )
    #8 = [ #6 * 4 + [ #7 + 1 ] + 500 ] ( Upper left point parameter number )
    #9 = [ [ #6 + 1 ] *4 + [ #7 + 1 ] + 500 ] ( Upper right point parameter number )
    #10 = [ #6 * 4 + #7 + 500 ] ( Lower left point parameter number )
    #11 = [ [ #6 + 1 ] * 4 + #7 + 500 ] ( Lower right point parameter number )
    #12 = [ [ #2 + #5 - -3.35492 - #7 * 0.29947 ] / 0.29947 ] ( Distance between the point and the left border of the rectangle, normalized to 1 )
    #13 = [ [ #1 + #4 - 4.68508 - #6 * 0.38397 ] / 0.38397 ] ( Distance between the point and the bottom border of the rectangle, normalized to 1 ) 
    #14 = [ ##10 + [ ##8 - ##10 ] * #12 ] ( Linear interpolation of the x-min elements )
    #15 = [ ##11 + [ ##9 - ##11 ] * #12 ] ( Linear interpolation of the x-max elements )
    #16 = [ #14 + [ #15 - #14 ] * #13 ] ( Linear interpolation of previously interpolated points )
    G01 X#1 Y#2 Z[#3 + #16]
o101 endsub

o102 sub ( Y probe subroutine )
    G0 Z0.080 ( Move to probe height )
    X[#201 * 0.38397 + 4.68508] Y[#202 * 0.29947 + -3.35492] ( Move to the current probe point )
    G38.2 Z-0.1 F2.362205 ( Probe it )
    #[#201 * 4 + #202 + 500] = #5063 ( Save the probe in the correct parameter )
    #202 = [#202 + #203] ( Increment/decrement by 1 the Y counter )
o102 endsub

o103 sub ( X probe subroutine )
    o104 repeat [#204]
        o102 call
    o104 endrepeat
    #204 = 4
    #203 = [0 - #203]
    #202 = [#202 + #203]
    #201 = [#201 + 1] ( Increment by 1 the X counter )
o103 endsub

#207 = 0
#208 = 0

(MSG, Attach the probe tool)
M0 ( Temporary machine stop. )
G0 Z0.080 ( Move Z to safe height )
G0 X4.68508 Y-3.35492 ( Move XY to start point )
G0 Z0.080 ( Move Z to probe height )
(PROBEOPEN RawProbeLog.txt) ( Record all probes in RawProbeLog.txt )
G38.2 Z-0.1 F2.362205 ( Z-probe )
#500 = 0 ( Probe point [0, 0] is our reference )
G10 L20 P0 Z0 ( Set the current Z as zero-value )

( We now start the real probing: move the Z axis to the probing height, move to )
( the probing XY position, probe it and save the result, parameter #5063, )
( in a numbered parameter; we will make 6 probes on the X-axis and )
( 4 probes on the Y-axis, for a grand total of 24 probes )

#201 = 0 ( X iterator )
#202 = 1 ( Y iterator )
#203 = 1 ( UP or DOWN increment )
#204 = 3 ( number of Y points; the 1st Y row can be done one time less )
o105 repeat [6]
    o103 call
o105 endrepeat

G0 Z0.080 ( Move Z to safe height )
(PROBECLOSE) ( Close the probe log file )
( Probing has ended, each Z-coordinate will be corrected with a bilinear interpolation )
(MSG, Detach the probe tool)
M0 ( Temporary machine stop. )


G00 Z1.00000 (Retract to tool change height)
T1
M5      (Spindle stop.)
G04 P1.00000 (Wait for spindle to stop)
(MSG, Change tool bit to mill diameter 0.00000in)
M6      (Tool change.)
M0      (Temporary machine stop.)
M3 ( Spindle on clockwise. )
G04 P1.00000 (Wait for spindle to get up to speed)
G04 P0 ( dwell for no time -- G64 should not smooth over this point )
G00 Z0.08000 ( retract )

G00 X4.68508 Y-2.47619 ( rapid move to begin. )
G01 F180.00000
( Mill infeed pass 1/1 )
o101 call [4.68508] [-2.47619] [-0.04000]
G04 P0 ( dwell for no time -- G64 should not smooth over this point )
G01 F360.00000
o101 call [4.68508] [-2.75598] [-0.04000]
o101 call [4.68509] [-2.97699] [-0.04000]
o101 call [4.68528] [-2.97899] [-0.04000]
o101 call [4.68566] [-2.98096] [-0.04000]
o101 call [4.68685] [-2.98437] [-0.04000]
o101 call [4.68865] [-2.98750] [-0.04000]
o101 call [4.68988] [-2.98908] [-0.04000]
o101 call [4.69127] [-2.99053] [-0.04000]
o101 call [4.69280] [-2.99183] [-0.04000]
o101 call [4.69446] [-2.99296] [-0.04000]
o101 call [4.69769] [-2.99456] [-0.04000]
o101 call [4.69960] [-2.99519] [-0.04000]
o101 call [4.70156] [-2.99561] [-0.04000]
o101 call [4.70356] [-2.99584] [-0.04000]
o101 call [4.70556] [-2.99586] [-0.04000]
o101 call [4.70914] [-2.99538] [-0.04000]
o101 call [4.71257] [-2.99426] [-0.04000]
o101 call [4.71574] [-2.99253] [-0.04000]
o101 call [4.71854] [-2.99025] [-0.04000]
o101 call [4.72087] [-2.98750] [-0.04000]
o101 call [4.72250] [-2.98473] [-0.04000]
o101 call [4.72376] [-2.98135] [-0.04000]
o101 call [4.72438] [-2.97779] [-0.04000]
o101 call [4.72444] [-2.75598] [-0.04000]
o101 call [4.72445] [-2.73397] [-0.04000]
o101 call [4.87143] [-2.73397] [-0.04000]
o101 call [4.87383] [-2.73382] [-0.04000]
o101 call [4.87697] [-2.73317] [-0.04000]
o101 call [4.88033] [-2.73184] [-0.04000]
o101 call [4.88338] [-2.72992] [-0.04000]
o101 call [4.88577] [-2.72777] [-0.04000]
o101 call [4.88799] [-2.72493] [-0.04000]
o101 call [4.88965] [-2.72173] [-0.04000]
o101 call [4.89070] [-2.71827] [-0.04000]
o101 call [4.89110] [-2.71509] [-0.04000]
o101 call [4.89091] [-2.71148] [-0.04000]
o101 call [4.89007] [-2.70797] [-0.04000]
o101 call [4.88861] [-2.70467] [-0.04000]
o101 call [4.88656] [-2.70170] [-0.04000]
o101 call [4.88401] [-2.69915] [-0.04000]
o101 call [4.88104] [-2.69710] [-0.04000]
o101 call [4.87924] [-2.69622] [-0.04000]
o101 call [4.87736] [-2.69551] [-0.04000]
o101 call [4.87383] [-2.69475] [-0.04000]
o101 call [4.87143] [-2.69460] [-0.04000]
o101 call [4.72445] [-2.69460] [-0.04000]
o101 call [4.72445] [-2.49587] [-0.04000]
o101 call [4.94286] [-2.49587] [-0.04000]
o101 call [4.94606] [-2.49561] [-0.04000]
o101 call [4.94879] [-2.49496] [-0.04000]
o101 call [4.95176] [-2.49375] [-0.04000]
o101 call [4.95449] [-2.49207] [-0.04000]
o101 call [4.95692] [-2.48997] [-0.04000]
o101 call [4.95897] [-2.48750] [-0.04000]
o101 call [4.96041] [-2.48509] [-0.04000]
o101 call [4.96163] [-2.48212] [-0.04000]
o101 call [4.96234] [-2.47899] [-0.04000]
o101 call [4.96254] [-2.47579] [-0.04000]
o101 call [4.96221] [-2.47260] [-0.04000]
o101 call [4.96137] [-2.46950] [-0.04000]
o101 call [4.96004] [-2.46658] [-0.04000]
o101 call [4.95849] [-2.46423] [-0.04000]
o101 call [4.95634] [-2.46185] [-0.04000]
o101 call [4.95383] [-2.45985] [-0.04000]
o101 call [4.95103] [-2.45828] [-0.04000]
o101 call [4.94879] [-2.45742] [-0.04000]
o101 call [4.94684] [-2.45691] [-0.04000]
o101 call [4.94486] [-2.45661] [-0.04000]
o101 call [4.94286] [-2.45650] [-0.04000]
o101 call [4.70396] [-2.45652] [-0.04000]
o101 call [4.70117] [-2.45683] [-0.04000]
o101 call [4.69883] [-2.45742] [-0.04000]
o101 call [4.69622] [-2.45845] [-0.04000]
o101 call [4.69378] [-2.45985] [-0.04000]
o101 call [4.69157] [-2.46158] [-0.04000]
o101 call [4.68962] [-2.46360] [-0.04000]
o101 call [4.68799] [-2.46589] [-0.04000]
o101 call [4.68685] [-2.46801] [-0.04000]
o101 call [4.68599] [-2.47026] [-0.04000]
o101 call [4.68548] [-2.47220] [-0.04000]
o101 call [4.68518] [-2.47418] [-0.04000]
o101 call [4.68508] [-2.47619] [-0.04000]
G04 P0 ( dwell for no time -- G64 should not smooth over this point )
G00 Z0.08000 ( retract )

G00 X5.11365 Y-2.64286 ( rapid move to begin. )
G01 F180.00000
( Mill infeed pass 1/1 )
o101 call [5.11365] [-2.64286] [-0.04000]
G04 P0 ( dwell for no time -- G64 should not smooth over this point )
G01 F360.00000
o101 call [5.11366] [-2.75598] [-0.04000]
o101 call [5.11368] [-2.97739] [-0.04000]
o101 call [5.11391] [-2.97939] [-0.04000]
o101 call [5.11434] [-2.98135] [-0.04000]
o101 call [5.11560] [-2.98473] [-0.04000]
o101 call [5.11656] [-2.98649] [-0.04000]
o101 call [5.11770] [-2.98815] [-0.04000]
o101 call [5.12014] [-2.99080] [-0.04000]
o101 call [5.12303] [-2.99296] [-0.04000]
o101 call [5.12479] [-2.99392] [-0.04000]
o101 call [5.12664] [-2.99470] [-0.04000]
o101 call [5.12856] [-2.99529] [-0.04000]
o101 call [5.13053] [-2.99567] [-0.04000]
o101 call [5.13253] [-2.99586] [-0.04000]
o101 call [5.13454] [-2.99584] [-0.04000]
o101 call [5.13810] [-2.99529] [-0.04000]
o101 call [5.14114] [-2.99426] [-0.04000]
o101 call [5.14431] [-2.99253] [-0.04000]
o101 call [5.14711] [-2.99025] [-0.04000]
o101 call [5.14945] [-2.98750] [-0.04000]
o101 call [5.15107] [-2.98473] [-0.04000]
o101 call [5.15233] [-2.98135] [-0.04000]
o101 call [5.15295] [-2.97779] [-0.04000]
o101 call [5.15301] [-2.75598] [-0.04000]
o101 call [5.15302] [-2.74274] [-0.04000]
o101 call [5.17332] [-2.70214] [-0.04000]
o101 call [5.19261] [-2.68284] [-0.04000]
o101 call [5.23322] [-2.66254] [-0.04000]
o101 call [5.27779] [-2.66248] [-0.04000]
o101 call [5.28096] [-2.66195] [-0.04000]
o101 call [5.28400] [-2.66093] [-0.04000]
o101 call [5.28683] [-2.65942] [-0.04000]
o101 call [5.28938] [-2.65747] [-0.04000]
o101 call [5.29107] [-2.65575] [-0.04000]
o101 call [5.29253] [-2.65383] [-0.04000]
o101 call [5.29375] [-2.65176] [-0.04000]
o101 call [5.29483] [-2.64917] [-0.04000]
o101 call [5.29554] [-2.64645] [-0.04000]
o101 call [5.29584] [-2.64406] [-0.04000]
o101 call [5.29584] [-2.64165] [-0.04000]
o101 call [5.29554] [-2.63926] [-0.04000]
o101 call [5.29496] [-2.63693] [-0.04000]
o101 call [5.29392] [-2.63431] [-0.04000]
o101 call [5.29275] [-2.63221] [-0.04000]
o101 call [5.29133] [-2.63027] [-0.04000]
o101 call [5.28968] [-2.62852] [-0.04000]
o101 call [5.28782] [-2.62698] [-0.04000]
o101 call [5.28580] [-2.62568] [-0.04000]
o101 call [5.28363] [-2.62463] [-0.04000]
o101 call [5.28174] [-2.62397] [-0.04000]
o101 call [5.27978] [-2.62350] [-0.04000]
o101 call [5.27619] [-2.62317] [-0.04000]
o101 call [5.22817] [-2.62317] [-0.04000]
o101 call [5.22541] [-2.62343] [-0.04000]
o101 call [5.22271] [-2.62406] [-0.04000]
o101 call [5.21977] [-2.62525] [-0.04000]
o101 call [5.17076] [-2.64982] [-0.04000]
o101 call [5.16881] [-2.65117] [-0.04000]
o101 call [5.16732] [-2.65247] [-0.04000]
o101 call [5.15302] [-2.66676] [-0.04000]
o101 call [5.15301] [-2.64245] [-0.04000]
o101 call [5.15269] [-2.63926] [-0.04000]
o101 call [5.15170] [-2.63579] [-0.04000]
o101 call [5.15031] [-2.63290] [-0.04000]
o101 call [5.14847] [-2.63027] [-0.04000]
o101 call [5.14592] [-2.62772] [-0.04000]
o101 call [5.14431] [-2.62652] [-0.04000]
o101 call [5.14223] [-2.62530] [-0.04000]
o101 call [5.14002] [-2.62434] [-0.04000]
o101 call [5.13771] [-2.62366] [-0.04000]
o101 call [5.13534] [-2.62327] [-0.04000]
o101 call [5.13293] [-2.62318] [-0.04000]
o101 call [5.13053] [-2.62337] [-0.04000]
o101 call [5.12856] [-2.62376] [-0.04000]
o101 call [5.12627] [-2.62448] [-0.04000]
o101 call [5.12443] [-2.62530] [-0.04000]
o101 call [5.12235] [-2.62652] [-0.04000]
o101 call [5.12044] [-2.62798] [-0.04000]
o101 call [5.11872] [-2.62967] [-0.04000]
o101 call [5.11722] [-2.63155] [-0.04000]
o101 call [5.11615] [-2.63325] [-0.04000]
o101 call [5.11511] [-2.63542] [-0.04000]
o101 call [5.11444] [-2.63731] [-0.04000]
o101 call [5.11398] [-2.63926] [-0.04000]
o101 call [5.11365] [-2.64286] [-0.04000]
G04 P0 ( dwell for no time -- G64 should not smooth over this point )
G00 Z0.08000 ( retract )

G00 X5.39936 Y-2.73809 ( rapid move to begin. )
G01 F180.00000
( Mill infeed pass 1/1 )
o101 call [5.39936] [-2.73809] [-0.04000]
G04 P0 ( dwell for no time -- G64 should not smooth over this point )
G01 F360.00000
o101 call [5.39937] [-2.75598] [-0.04000]
o101 call [5.39946] [-2.88293] [-0.04000]
o101 call [5.40014] [-2.88643] [-0.04000]
o101 call [5.40127] [-2.88940] [-0.04000]
o101 call [5.42525] [-2.93737] [-0.04000]
o101 call [5.42644] [-2.93943] [-0.04000]
o101 call [5.42894] [-2.94249] [-0.04000]
o101 call [5.45275] [-2.96630] [-0.04000]
o101 call [5.45301] [-2.96653] [-0.04000]
o101 call [5.45484] [-2.96811] [-0.04000]
o101 call [5.45786] [-2.96999] [-0.04000]
o101 call [5.50548] [-2.99380] [-0.04000]
o101 call [5.50767] [-2.99473] [-0.04000]
o101 call [5.51034] [-2.99548] [-0.04000]
o101 call [5.51429] [-2.99587] [-0.04000]
o101 call [5.58571] [-2.99587] [-0.04000]
o101 call [5.58809] [-2.99573] [-0.04000]
o101 call [5.59120] [-2.99510] [-0.04000]
o101 call [5.59416] [-2.99397] [-0.04000]
o101 call [5.64214] [-2.96999] [-0.04000]
o101 call [5.64419] [-2.96880] [-0.04000]
o101 call [5.64725] [-2.96630] [-0.04000]
o101 call [5.67106] [-2.94249] [-0.04000]
o101 call [5.67288] [-2.94040] [-0.04000]
o101 call [5.67475] [-2.93737] [-0.04000]
o101 call [5.69873] [-2.88940] [-0.04000]
o101 call [5.69986] [-2.88643] [-0.04000]
o101 call [5.70044] [-2.88372] [-0.04000]
o101 call [5.70064] [-2.88095] [-0.04000]
o101 call [5.70055] [-2.75598] [-0.04000]
o101 call [5.70054] [-2.73611] [-0.04000]
o101 call [5.70015] [-2.73377] [-0.04000]
o101 call [5.69949] [-2.73148] [-0.04000]
o101 call [5.69873] [-2.72965] [-0.04000]
o101 call [5.67475] [-2.68167] [-0.04000]
o101 call [5.67263] [-2.67833] [-0.04000]
o101 call [5.67106] [-2.67656] [-0.04000]
o101 call [5.64725] [-2.65275] [-0.04000]
o101 call [5.64419] [-2.65025] [-0.04000]
o101 call [5.64214] [-2.64906] [-0.04000]
o101 call [5.59452] [-2.62525] [-0.04000]
o101 call [5.59233] [-2.62432] [-0.04000]
o101 call [5.58927] [-2.62350] [-0.04000]
o101 call [5.58611] [-2.62317] [-0.04000]
o101 call [5.51429] [-2.62317] [-0.04000]
o101 call [5.51034] [-2.62357] [-0.04000]
o101 call [5.50805] [-2.62419] [-0.04000]
o101 call [5.50620] [-2.62491] [-0.04000]
o101 call [5.45614] [-2.65003] [-0.04000]
o101 call [5.45452] [-2.65117] [-0.04000]
o101 call [5.45301] [-2.65252] [-0.04000]
o101 call [5.45275] [-2.65275] [-0.04000]
o101 call [5.42894] [-2.67656] [-0.04000]
o101 call [5.42712] [-2.67865] [-0.04000]
o101 call [5.42525] [-2.68167] [-0.04000]
o101 call [5.40127] [-2.72965] [-0.04000]
o101 call [5.40014] [-2.73261] [-0.04000]
o101 call [5.39956] [-2.73533] [-0.04000]
o101 call [5.39936] [-2.73809] [-0.04000]
G04 P0 ( dwell for no time -- G64 should not smooth over this point )
G00 Z0.08000 ( retract )

G00 X5.43873 Y-2.87630 ( rapid move to begin. )
G01 F180.00000
( Mill infeed pass 1/1 )
o101 call [5.43873] [-2.87630] [-0.04000]
G04 P0 ( dwell for no time -- G64 should not smooth over this point )
G01 F360.00000
o101 call [5.43873] [-2.75598] [-0.04000]
o101 call [5.43873] [-2.74274] [-0.04000]
o101 call [5.45301] [-2.71419] [-0.04000]
o101 call [5.45904] [-2.70214] [-0.04000]
o101 call [5.47833] [-2.68284] [-0.04000]
o101 call [5.51893] [-2.66254] [-0.04000]
o101 call [5.58107] [-2.66254] [-0.04000]
o101 call [5.62167] [-2.68284] [-0.04000]
o101 call [5.64096] [-2.70214] [-0.04000]
o101 call [5.66127] [-2.74274] [-0.04000]
o101 call [5.66127] [-2.75598] [-0.04000]
o101 call [5.66127] [-2.87630] [-0.04000]
o101 call [5.64096] [-2.91691] [-0.04000]
o101 call [5.62167] [-2.93620] [-0.04000]
o101 call [5.58107] [-2.95650] [-0.04000]
o101 call [5.51893] [-2.95650] [-0.04000]
o101 call [5.47833] [-2.93620] [-0.04000]
o101 call [5.45904] [-2.91691] [-0.04000]
o101 call [5.45301] [-2.90485] [-0.04000]
o101 call [5.43873] [-2.87630] [-0.04000]
G04 P0 ( dwell for no time -- G64 should not smooth over this point )
G00 Z0.08000 ( retract )

G00 X5.87555 Y-2.97619 ( rapid move to begin. )
G01 F180.00000
( Mill infeed pass 1/1 )
o101 call [5.87555] [-2.97619] [-0.04000]
G04 P0 ( dwell for no time -- G64 should not smooth over this point )
G01 F360.00000
o101 call [5.87556] [-2.75598] [-0.04000]
o101 call [5.87556] [-2.64245] [-0.04000]
o101 call [5.87575] [-2.64005] [-0.04000]
o101 call [5.87624] [-2.63770] [-0.04000]
o101 call [5.87701] [-2.63542] [-0.04000]
o101 call [5.87806] [-2.63325] [-0.04000]
o101 call [5.87936] [-2.63122] [-0.04000]
o101 call [5.88090] [-2.62937] [-0.04000]
o101 call [5.88265] [-2.62772] [-0.04000]
o101 call [5.88460] [-2.62630] [-0.04000]
o101 call [5.88706] [-2.62495] [-0.04000]
o101 call [5.88969] [-2.62397] [-0.04000]
o101 call [5.89244] [-2.62337] [-0.04000]
o101 call [5.89564] [-2.62318] [-0.04000]
o101 call [5.89844] [-2.62343] [-0.04000]
o101 call [5.90117] [-2.62409] [-0.04000]
o101 call [5.90378] [-2.62512] [-0.04000]
o101 call [5.90622] [-2.62652] [-0.04000]
o101 call [5.90843] [-2.62825] [-0.04000]
o101 call [5.91037] [-2.63027] [-0.04000]
o101 call [5.91201] [-2.63255] [-0.04000]
o101 call [5.91331] [-2.63505] [-0.04000]
o101 call [5.91413] [-2.63731] [-0.04000]
o101 call [5.91472] [-2.64005] [-0.04000]
o101 call [5.91492] [-2.64245] [-0.04000]
o101 call [5.91492] [-2.64672] [-0.04000]
o101 call [5.95822] [-2.62508] [-0.04000]
o101 call [5.96043] [-2.62419] [-0.04000]
o101 call [5.96311] [-2.62350] [-0.04000]
o101 call [5.96667] [-2.62317] [-0.04000]
o101 call [6.03810] [-2.62317] [-0.04000]
o101 call [6.04086] [-2.62337] [-0.04000]
o101 call [6.04396] [-2.62406] [-0.04000]
o101 call [6.04654] [-2.62508] [-0.04000]
o101 call [6.09487] [-2.64924] [-0.04000]
o101 call [6.09722] [-2.65070] [-0.04000]
o101 call [6.09906] [-2.65220] [-0.04000]
o101 call [6.10096] [-2.65421] [-0.04000]
o101 call [6.10235] [-2.65614] [-0.04000]
o101 call [6.12730] [-2.70584] [-0.04000]
o101 call [6.12863] [-2.70957] [-0.04000]
o101 call [6.12917] [-2.71310] [-0.04000]
o101 call [6.12918] [-2.75598] [-0.04000]
o101 call [6.12920] [-2.97659] [-0.04000]
o101 call [6.12901] [-2.97899] [-0.04000]
o101 call [6.12852] [-2.98135] [-0.04000]
o101 call [6.12789] [-2.98326] [-0.04000]
o101 call [6.12690] [-2.98545] [-0.04000]
o101 call [6.12563] [-2.98750] [-0.04000]
o101 call [6.12413] [-2.98938] [-0.04000]
o101 call [6.12271] [-2.99080] [-0.04000]
o101 call [6.12083] [-2.99230] [-0.04000]
o101 call [6.11878] [-2.99356] [-0.04000]
o101 call [6.11659] [-2.99456] [-0.04000]
o101 call [6.11390] [-2.99538] [-0.04000]
o101 call [6.11153] [-2.99577] [-0.04000]
o101 call [6.10912] [-2.99587] [-0.04000]
o101 call [6.10672] [-2.99567] [-0.04000]
o101 call [6.10398] [-2.99508] [-0.04000]
o101 call [6.10171] [-2.99426] [-0.04000]
o101 call [6.09956] [-2.99317] [-0.04000]
o101 call [6.09757] [-2.99183] [-0.04000]
o101 call [6.09575] [-2.99025] [-0.04000]
o101 call [6.09389] [-2.98815] [-0.04000]
o101 call [6.09234] [-2.98580] [-0.04000]
o101 call [6.09130] [-2.98363] [-0.04000]
o101 call [6.09053] [-2.98135] [-0.04000]
o101 call [6.08999] [-2.97859] [-0.04000]
o101 call [6.08984] [-2.97619] [-0.04000]
o101 call [6.08984] [-2.75598] [-0.04000]
o101 call [6.08984] [-2.71893] [-0.04000]
o101 call [6.07104] [-2.68134] [-0.04000]
o101 call [6.03345] [-2.66254] [-0.04000]
o101 call [5.97131] [-2.66254] [-0.04000]
o101 call [5.93071] [-2.68284] [-0.04000]
o101 call [5.91492] [-2.69863] [-0.04000]
o101 call [5.91492] [-2.75598] [-0.04000]
o101 call [5.91492] [-2.97619] [-0.04000]
o101 call [5.91477] [-2.97859] [-0.04000]
o101 call [5.91413] [-2.98174] [-0.04000]
o101 call [5.91314] [-2.98437] [-0.04000]
o101 call [5.91158] [-2.98717] [-0.04000]
o101 call [5.90985] [-2.98938] [-0.04000]
o101 call [5.90782] [-2.99133] [-0.04000]
o101 call [5.90520] [-2.99317] [-0.04000]
o101 call [5.90230] [-2.99456] [-0.04000]
o101 call [5.89962] [-2.99538] [-0.04000]
o101 call [5.89644] [-2.99584] [-0.04000]
o101 call [5.89363] [-2.99581] [-0.04000]
o101 call [5.89047] [-2.99529] [-0.04000]
o101 call [5.88780] [-2.99441] [-0.04000]
o101 call [5.88493] [-2.99296] [-0.04000]
o101 call [5.88265] [-2.99133] [-0.04000]
o101 call [5.88063] [-2.98938] [-0.04000]
o101 call [5.87868] [-2.98683] [-0.04000]
o101 call [5.87733] [-2.98437] [-0.04000]
o101 call [5.87635] [-2.98174] [-0.04000]
o101 call [5.87575] [-2.97899] [-0.04000]
o101 call [5.87555] [-2.97619] [-0.04000]
G04 P0 ( dwell for no time -- G64 should not smooth over this point )
G00 Z0.08000 ( retract )

G00 X6.25652 Y-2.64366 ( rapid move to begin. )
G01 F180.00000
( Mill infeed pass 1/1 )
o101 call [6.25652] [-2.64366] [-0.04000]
G04 P0 ( dwell for no time -- G64 should not smooth over this point )
G01 F360.00000
o101 call [6.25671] [-2.64566] [-0.04000]
o101 call [6.25709] [-2.64763] [-0.04000]
o101 call [6.25782] [-2.64992] [-0.04000]
o101 call [6.25901] [-2.65247] [-0.04000]
o101 call [6.26055] [-2.65481] [-0.04000]
o101 call [6.26241] [-2.65692] [-0.04000]
o101 call [6.26455] [-2.65874] [-0.04000]
o101 call [6.26693] [-2.66023] [-0.04000]
o101 call [6.26950] [-2.66137] [-0.04000]
o101 call [6.27220] [-2.66213] [-0.04000]
o101 call [6.27419] [-2.66244] [-0.04000]
o101 call [6.27619] [-2.66254] [-0.04000]
o101 call [6.32793] [-2.66254] [-0.04000]
o101 call [6.32796] [-2.75598] [-0.04000]
o101 call [6.32800] [-2.90635] [-0.04000]
o101 call [6.32861] [-2.90986] [-0.04000]
o101 call [6.32984] [-2.91321] [-0.04000]
o101 call [6.35479] [-2.96291] [-0.04000]
o101 call [6.35618] [-2.96483] [-0.04000]
o101 call [6.35779] [-2.96658] [-0.04000]
o101 call [6.35992] [-2.96835] [-0.04000]
o101 call [6.36192] [-2.96962] [-0.04000]
o101 call [6.41024] [-2.99380] [-0.04000]
o101 call [6.41206] [-2.99459] [-0.04000]
o101 call [6.41433] [-2.99530] [-0.04000]
o101 call [6.41667] [-2.99573] [-0.04000]
o101 call [6.41865] [-2.99587] [-0.04000]
o101 call [6.46747] [-2.99586] [-0.04000]
o101 call [6.46986] [-2.99561] [-0.04000]
o101 call [6.47221] [-2.99508] [-0.04000]
o101 call [6.47448] [-2.99426] [-0.04000]
o101 call [6.47697] [-2.99296] [-0.04000]
o101 call [6.47894] [-2.99158] [-0.04000]
o101 call [6.48073] [-2.98997] [-0.04000]
o101 call [6.48230] [-2.98815] [-0.04000]
o101 call [6.48344] [-2.98649] [-0.04000]
o101 call [6.48457] [-2.98437] [-0.04000]
o101 call [6.48544] [-2.98212] [-0.04000]
o101 call [6.48602] [-2.97978] [-0.04000]
o101 call [6.48631] [-2.97739] [-0.04000]
o101 call [6.48631] [-2.97499] [-0.04000]
o101 call [6.48602] [-2.97260] [-0.04000]
o101 call [6.48555] [-2.97064] [-0.04000]
o101 call [6.48473] [-2.96838] [-0.04000]
o101 call [6.48365] [-2.96623] [-0.04000]
o101 call [6.48230] [-2.96423] [-0.04000]
o101 call [6.48073] [-2.96241] [-0.04000]
o101 call [6.47925] [-2.96105] [-0.04000]
o101 call [6.47697] [-2.95942] [-0.04000]
o101 call [6.47411] [-2.95797] [-0.04000]
o101 call [6.47144] [-2.95709] [-0.04000]
o101 call [6.46827] [-2.95657] [-0.04000]
o101 call [6.42369] [-2.95650] [-0.04000]
o101 call [6.38610] [-2.93771] [-0.04000]
o101 call [6.36730] [-2.90011] [-0.04000]
o101 call [6.36730] [-2.75598] [-0.04000]
o101 call [6.36730] [-2.66254] [-0.04000]
o101 call [6.46667] [-2.66254] [-0.04000]
o101 call [6.46867] [-2.66244] [-0.04000]
o101 call [6.47065] [-2.66213] [-0.04000]
o101 call [6.47260] [-2.66163] [-0.04000]
o101 call [6.47448] [-2.66093] [-0.04000]
o101 call [6.47628] [-2.66004] [-0.04000]
o101 call [6.47797] [-2.65897] [-0.04000]
o101 call [6.47956] [-2.65773] [-0.04000]
o101 call [6.48100] [-2.65634] [-0.04000]
o101 call [6.48230] [-2.65481] [-0.04000]
o101 call [6.48344] [-2.65316] [-0.04000]
o101 call [6.48440] [-2.65140] [-0.04000]
o101 call [6.48518] [-2.64955] [-0.04000]
o101 call [6.48576] [-2.64763] [-0.04000]
o101 call [6.48615] [-2.64566] [-0.04000]
o101 call [6.48633] [-2.64205] [-0.04000]
o101 call [6.48615] [-2.64005] [-0.04000]
o101 call [6.48576] [-2.63809] [-0.04000]
o101 call [6.48489] [-2.63542] [-0.04000]
o101 call [6.48344] [-2.63255] [-0.04000]
o101 call [6.48180] [-2.63027] [-0.04000]
o101 call [6.47986] [-2.62825] [-0.04000]
o101 call [6.47764] [-2.62652] [-0.04000]
o101 call [6.47484] [-2.62495] [-0.04000]
o101 call [6.47221] [-2.62397] [-0.04000]
o101 call [6.46907] [-2.62332] [-0.04000]
o101 call [6.46667] [-2.62317] [-0.04000]
o101 call [6.36730] [-2.62317] [-0.04000]
o101 call [6.36730] [-2.47619] [-0.04000]
o101 call [6.36710] [-2.47339] [-0.04000]
o101 call [6.36672] [-2.47142] [-0.04000]
o101 call [6.36613] [-2.46950] [-0.04000]
o101 call [6.36535] [-2.46765] [-0.04000]
o101 call [6.36439] [-2.46589] [-0.04000]
o101 call [6.36326] [-2.46423] [-0.04000]
o101 call [6.36168] [-2.46241] [-0.04000]
o101 call [6.36020] [-2.46105] [-0.04000]
o101 call [6.35860] [-2.45985] [-0.04000]
o101 call [6.35688] [-2.45882] [-0.04000]
o101 call [6.35506] [-2.45797] [-0.04000]
o101 call [6.35316] [-2.45730] [-0.04000]
o101 call [6.35121] [-2.45683] [-0.04000]
o101 call [6.34882] [-2.45654] [-0.04000]
o101 call [6.34682] [-2.45652] [-0.04000]
o101 call [6.34482] [-2.45670] [-0.04000]
o101 call [6.34285] [-2.45709] [-0.04000]
o101 call [6.34018] [-2.45797] [-0.04000]
o101 call [6.33732] [-2.45942] [-0.04000]
o101 call [6.33473] [-2.46131] [-0.04000]
o101 call [6.33248] [-2.46360] [-0.04000]
o101 call [6.33085] [-2.46589] [-0.04000]
o101 call [6.32939] [-2.46875] [-0.04000]
o101 call [6.32852] [-2.47142] [-0.04000]
o101 call [6.32800] [-2.47458] [-0.04000]
o101 call [6.32793] [-2.62317] [-0.04000]
o101 call [6.27579] [-2.62318] [-0.04000]
o101 call [6.27260] [-2.62350] [-0.04000]
o101 call [6.26988] [-2.62421] [-0.04000]
o101 call [6.26658] [-2.62568] [-0.04000]
o101 call [6.26361] [-2.62772] [-0.04000]
o101 call [6.26105] [-2.63027] [-0.04000]
o101 call [6.25901] [-2.63325] [-0.04000]
o101 call [6.25754] [-2.63654] [-0.04000]
o101 call [6.25671] [-2.64005] [-0.04000]
o101 call [6.25652] [-2.64366] [-0.04000]
G04 P0 ( dwell for no time -- G64 should not smooth over this point )
G00 Z0.08000 ( retract )

G00 X6.49508 Y-3.30000 ( rapid move to begin. )
G01 F180.00000
( Mill infeed pass 1/1 )
o101 call [6.49508] [-3.30000] [-0.04000]
G04 P0 ( dwell for no time -- G64 should not smooth over this point )
G01 F360.00000
o101 call [6.49514] [-3.30081] [-0.04000]
o101 call [6.49549] [-3.30198] [-0.04000]
o101 call [6.49638] [-3.30333] [-0.04000]
o101 call [6.49766] [-3.30433] [-0.04000]
o101 call [6.49879] [-3.30477] [-0.04000]
o101 call [6.49959] [-3.30490] [-0.04000]
o101 call [6.54508] [-3.30492] [-0.04000]
o101 call [6.54509] [-3.35041] [-0.04000]
o101 call [6.54523] [-3.35121] [-0.04000]
o101 call [6.54567] [-3.35234] [-0.04000]
o101 call [6.54667] [-3.35362] [-0.04000]
o101 call [6.54802] [-3.35451] [-0.04000]
o101 call [6.54919] [-3.35485] [-0.04000]
o101 call [6.55000] [-3.35492] [-0.04000]
o101 call [6.55081] [-3.35485] [-0.04000]
o101 call [6.55198] [-3.35451] [-0.04000]
o101 call [6.55333] [-3.35362] [-0.04000]
o101 call [6.55433] [-3.35234] [-0.04000]
o101 call [6.55477] [-3.35121] [-0.04000]
o101 call [6.55490] [-3.35041] [-0.04000]
o101 call [6.55492] [-3.30492] [-0.04000]
o101 call [6.60041] [-3.30490] [-0.04000]
o101 call [6.60121] [-3.30477] [-0.04000]
o101 call [6.60234] [-3.30433] [-0.04000]
o101 call [6.60302] [-3.30388] [-0.04000]
o101 call [6.60388] [-3.30302] [-0.04000]
o101 call [6.60433] [-3.30234] [-0.04000]
o101 call [6.60477] [-3.30121] [-0.04000]
o101 call [6.60490] [-3.29959] [-0.04000]
o101 call [6.60477] [-3.29879] [-0.04000]
o101 call [6.60433] [-3.29766] [-0.04000]
o101 call [6.60333] [-3.29638] [-0.04000]
o101 call [6.60198] [-3.29549] [-0.04000]
o101 call [6.60041] [-3.29509] [-0.04000]
o101 call [6.55492] [-3.29508] [-0.04000]
o101 call [6.55490] [-3.24959] [-0.04000]
o101 call [6.55477] [-3.24879] [-0.04000]
o101 call [6.55433] [-3.24766] [-0.04000]
o101 call [6.55333] [-3.24638] [-0.04000]
o101 call [6.55198] [-3.24549] [-0.04000]
o101 call [6.55081] [-3.24514] [-0.04000]
o101 call [6.55000] [-3.24508] [-0.04000]
o101 call [6.54919] [-3.24514] [-0.04000]
o101 call [6.54802] [-3.24549] [-0.04000]
o101 call [6.54667] [-3.24638] [-0.04000]
o101 call [6.54567] [-3.24766] [-0.04000]
o101 call [6.54523] [-3.24879] [-0.04000]
o101 call [6.54509] [-3.24959] [-0.04000]
o101 call [6.54508] [-3.29508] [-0.04000]
o101 call [6.49959] [-3.29509] [-0.04000]
o101 call [6.49879] [-3.29523] [-0.04000]
o101 call [6.49766] [-3.29567] [-0.04000]
o101 call [6.49638] [-3.29667] [-0.04000]
o101 call [6.49549] [-3.29802] [-0.04000]
o101 call [6.49514] [-3.29919] [-0.04000]
o101 call [6.49508] [-3.30000] [-0.04000]

G04 P0 ( dwell for no time -- G64 should not smooth over this point )
G00 Z1.000000 ( retract )

M5 ( Spindle off. )
G04 P1.000000
M9 ( Coolant off. )
M2 ( Program end. )

