( pcb2gcode 3.0.1 )
( Software-independent Gcode )

G94 ( Inches per minute feed rate. )
G20 ( Units == INCHES. )

G90 ( Absolute coordinates. )
G00 S24000 ( RPM spindle speed. )
G64 P0.00040 ( set maximum deviation from commanded toolpath )
G01 F0.04000 ( Feedrate. )


G00 Z1.60000 (Retract to tool change height)
T1
M5      (Spindle stop.)
G04 P1.00000 (Wait for spindle to stop)
(MSG, Change tool bit to cutter diameter 0.02000in)
M6      (Tool change.)
M0      (Temporary machine stop.)
M3 ( Spindle on clockwise. )
G04 P1.00000 (Wait for spindle to get up to speed)
G04 P0 ( dwell for no time -- G64 should not smooth over this point )
G00 Z0.05000 ( retract )

G00 X5.46000 Y-3.99000 ( rapid move to begin. )
G01 Z-0.04000 F0.02000 ( plunge. )
G04 P0 ( dwell for no time -- G64 should not smooth over this point )
G01 F0.04000
G01 X5.46000 Y-3.86000
G01 X5.64000 Y-3.86000
G01 X5.64000 Y-3.99000
G01 X5.46000 Y-3.99000
G01 Z-0.08000 F0.02000 ( plunge. )
G04 P0 ( dwell for no time -- G64 should not smooth over this point )
G01 F0.04000
G01 X5.46000 Y-3.86000
G01 X5.64000 Y-3.86000
G01 X5.64000 Y-3.99000
G01 X5.46000 Y-3.99000
G04 P0 ( dwell for no time -- G64 should not smooth over this point )
G00 Z0.05000 ( retract )

G00 X5.66000 Y-4.24000 ( rapid move to begin. )
G01 Z-0.04000 F0.02000 ( plunge. )
G04 P0 ( dwell for no time -- G64 should not smooth over this point )
G01 F0.04000
G01 X5.66000 Y-4.01000
G01 X5.99000 Y-4.01000
G01 X5.99000 Y-4.24000
G01 X5.66000 Y-4.24000
G01 Z-0.08000 F0.02000 ( plunge. )
G04 P0 ( dwell for no time -- G64 should not smooth over this point )
G01 F0.04000
G01 X5.66000 Y-4.01000
G01 X5.99000 Y-4.01000
G01 X5.99000 Y-4.24000
G01 X5.66000 Y-4.24000
G04 P0 ( dwell for no time -- G64 should not smooth over this point )
G00 Z0.05000 ( retract )

G00 X6.01000 Y-2.99000 ( rapid move to begin. )
G01 Z-0.04000 F0.02000 ( plunge. )
G04 P0 ( dwell for no time -- G64 should not smooth over this point )
G01 F0.04000
G01 X6.01000 Y-2.71000
G01 X6.29000 Y-2.71000
G01 X6.29000 Y-2.99000
G01 X6.01000 Y-2.99000
G01 Z-0.08000 F0.02000 ( plunge. )
G04 P0 ( dwell for no time -- G64 should not smooth over this point )
G01 F0.04000
G01 X6.01000 Y-2.71000
G01 X6.29000 Y-2.71000
G01 X6.29000 Y-2.99000
G01 X6.01000 Y-2.99000
G04 P0 ( dwell for no time -- G64 should not smooth over this point )
G00 Z0.05000 ( retract )

G00 X5.46000 Y-3.14000 ( rapid move to begin. )
G01 Z-0.04000 F0.02000 ( plunge. )
G04 P0 ( dwell for no time -- G64 should not smooth over this point )
G01 F0.04000
G01 X5.46000 Y-2.61000
G01 X5.89000 Y-2.61000
G01 X5.89000 Y-2.69000
G01 X5.55000 Y-2.69000
G01 X5.54761 Y-2.69029
G01 X5.54571 Y-2.69096
G01 X5.54368 Y-2.69225
G01 X5.54225 Y-2.69367
G01 X5.54134 Y-2.69500
G01 X5.54065 Y-2.69645
G01 X5.54013 Y-2.69840
G01 X5.54000 Y-2.70000
G01 X5.54000 Y-3.14000
G01 X5.46000 Y-3.14000
G01 Z-0.08000 F0.02000 ( plunge. )
G04 P0 ( dwell for no time -- G64 should not smooth over this point )
G01 F0.04000
G01 X5.46000 Y-2.61000
G01 X5.89000 Y-2.61000
G01 X5.89000 Y-2.69000
G01 X5.55000 Y-2.69000
G01 X5.54761 Y-2.69029
G01 X5.54571 Y-2.69096
G01 X5.54368 Y-2.69225
G01 X5.54225 Y-2.69367
G01 X5.54134 Y-2.69500
G01 X5.54065 Y-2.69645
G01 X5.54013 Y-2.69840
G01 X5.54000 Y-2.70000
G01 X5.54000 Y-3.14000
G01 X5.46000 Y-3.14000
G04 P0 ( dwell for no time -- G64 should not smooth over this point )
G00 Z0.05000 ( retract )

G00 X5.58052 Y-3.35107 ( rapid move to begin. )
G01 Z-0.04000 F0.02000 ( plunge. )
G04 P0 ( dwell for no time -- G64 should not smooth over this point )
G01 F0.04000
G01 X5.58054 Y-3.34867
G01 X5.58085 Y-3.34629
G01 X5.58145 Y-3.34394
G01 X5.58220 Y-3.34201
G01 X5.58333 Y-3.33986
G01 X5.58470 Y-3.33790
G01 X5.58630 Y-3.33611
G01 X5.58813 Y-3.33451
G01 X5.58983 Y-3.33335
G01 X5.59201 Y-3.33220
G01 X5.59394 Y-3.33145
G01 X5.59629 Y-3.33085
G01 X5.59864 Y-3.33054
G01 X5.77048 Y-3.33047
G01 X5.77248 Y-3.33027
G01 X5.77439 Y-3.32967
G01 X5.77616 Y-3.32870
G01 X5.77740 Y-3.32768
G01 X5.77870 Y-3.32615
G01 X5.77967 Y-3.32439
G01 X5.78027 Y-3.32247
G01 X5.78047 Y-3.32047
G01 X5.78047 Y-3.15037
G01 X5.78073 Y-3.14691
G01 X5.78153 Y-3.14368
G01 X5.78292 Y-3.14055
G01 X5.78505 Y-3.13745
G01 X5.78748 Y-3.13503
G01 X5.79055 Y-3.13292
G01 X5.79368 Y-3.13153
G01 X5.79708 Y-3.13070
G01 X5.80057 Y-3.13049
G01 X5.80400 Y-3.13090
G01 X5.80732 Y-3.13191
G01 X5.81037 Y-3.13347
G01 X5.81310 Y-3.13553
G01 X5.81545 Y-3.13807
G01 X5.81733 Y-3.14102
G01 X5.81865 Y-3.14425
G01 X5.81936 Y-3.14754
G01 X5.81953 Y-3.15031
G01 X5.81954 Y-3.35040
G01 X5.81992 Y-3.35278
G01 X5.82108 Y-3.35534
G01 X5.82260 Y-3.35721
G01 X5.82488 Y-3.35885
G01 X5.82713 Y-3.35971
G01 X5.82953 Y-3.36000
G01 X6.24000 Y-3.36000
G01 X6.24000 Y-3.74000
G01 X5.81000 Y-3.74000
G01 X5.81000 Y-3.37953
G01 X5.80961 Y-3.37675
G01 X5.80866 Y-3.37453
G01 X5.80721 Y-3.37260
G01 X5.80500 Y-3.37087
G01 X5.80278 Y-3.36992
G01 X5.80040 Y-3.36953
G01 X5.59814 Y-3.36943
G01 X5.59636 Y-3.36917
G01 X5.59394 Y-3.36855
G01 X5.59201 Y-3.36780
G01 X5.58986 Y-3.36667
G01 X5.58790 Y-3.36530
G01 X5.58611 Y-3.36370
G01 X5.58454 Y-3.36189
G01 X5.58319 Y-3.35991
G01 X5.58211 Y-3.35777
G01 X5.58128 Y-3.35549
G01 X5.58080 Y-3.35348
G01 X5.58052 Y-3.35107
G01 Z-0.08000 F0.02000 ( plunge. )
G04 P0 ( dwell for no time -- G64 should not smooth over this point )
G01 F0.04000
G01 X5.58054 Y-3.34867
G01 X5.58085 Y-3.34629
G01 X5.58145 Y-3.34394
G01 X5.58220 Y-3.34201
G01 X5.58333 Y-3.33986
G01 X5.58470 Y-3.33790
G01 X5.58630 Y-3.33611
G01 X5.58813 Y-3.33451
G01 X5.58983 Y-3.33335
G01 X5.59201 Y-3.33220
G01 X5.59394 Y-3.33145
G01 X5.59629 Y-3.33085
G01 X5.59864 Y-3.33054
G01 X5.77048 Y-3.33047
G01 X5.77248 Y-3.33027
G01 X5.77439 Y-3.32967
G01 X5.77616 Y-3.32870
G01 X5.77740 Y-3.32768
G01 X5.77870 Y-3.32615
G01 X5.77967 Y-3.32439
G01 X5.78027 Y-3.32247
G01 X5.78047 Y-3.32047
G01 X5.78047 Y-3.15037
G01 X5.78073 Y-3.14691
G01 X5.78153 Y-3.14368
G01 X5.78292 Y-3.14055
G01 X5.78505 Y-3.13745
G01 X5.78748 Y-3.13503
G01 X5.79055 Y-3.13292
G01 X5.79368 Y-3.13153
G01 X5.79708 Y-3.13070
G01 X5.80057 Y-3.13049
G01 X5.80400 Y-3.13090
G01 X5.80732 Y-3.13191
G01 X5.81037 Y-3.13347
G01 X5.81310 Y-3.13553
G01 X5.81545 Y-3.13807
G01 X5.81733 Y-3.14102
G01 X5.81865 Y-3.14425
G01 X5.81936 Y-3.14754
G01 X5.81953 Y-3.15031
G01 X5.81954 Y-3.35040
G01 X5.81992 Y-3.35278
G01 X5.82108 Y-3.35534
G01 X5.82260 Y-3.35721
G01 X5.82488 Y-3.35885
G01 X5.82713 Y-3.35971
G01 X5.82953 Y-3.36000
G01 X6.24000 Y-3.36000
G01 X6.24000 Y-3.74000
G01 X5.81000 Y-3.74000
G01 X5.81000 Y-3.37953
G01 X5.80961 Y-3.37675
G01 X5.80866 Y-3.37453
G01 X5.80721 Y-3.37260
G01 X5.80500 Y-3.37087
G01 X5.80278 Y-3.36992
G01 X5.80040 Y-3.36953
G01 X5.59814 Y-3.36943
G01 X5.59636 Y-3.36917
G01 X5.59394 Y-3.36855
G01 X5.59201 Y-3.36780
G01 X5.58986 Y-3.36667
G01 X5.58790 Y-3.36530
G01 X5.58611 Y-3.36370
G01 X5.58454 Y-3.36189
G01 X5.58319 Y-3.35991
G01 X5.58211 Y-3.35777
G01 X5.58128 Y-3.35549
G01 X5.58080 Y-3.35348
G01 X5.58052 Y-3.35107
G04 P0 ( dwell for no time -- G64 should not smooth over this point )
G00 Z0.05000 ( retract )

G00 X4.99000 Y-4.50000 ( rapid move to begin. )
G01 Z-0.04000 F0.02000 ( plunge. )
G04 P0 ( dwell for no time -- G64 should not smooth over this point )
G01 F0.04000
G01 X4.99000 Y-2.50000
G01 X4.99013 Y-2.49839
G01 X4.99051 Y-2.49683
G01 X4.99115 Y-2.49535
G01 X4.99200 Y-2.49399
G01 X4.99337 Y-2.49251
G01 X4.99535 Y-2.49114
G01 X4.99761 Y-2.49029
G01 X5.00000 Y-2.49000
G01 X6.50000 Y-2.49000
G01 X6.50160 Y-2.49013
G01 X6.50317 Y-2.49051
G01 X6.50465 Y-2.49114
G01 X6.50601 Y-2.49200
G01 X6.50748 Y-2.49337
G01 X6.50885 Y-2.49535
G01 X6.50971 Y-2.49761
G01 X6.51000 Y-2.50000
G01 X6.51000 Y-3.18547
G01 X6.50987 Y-3.18707
G01 X6.50936 Y-3.18900
G01 X6.50868 Y-3.19044
G01 X6.50752 Y-3.19207
G01 X6.50637 Y-3.19318
G01 X6.47264 Y-3.21494
G01 X6.43866 Y-3.24494
G01 X6.40970 Y-3.27981
G01 X6.38684 Y-3.31789
G01 X6.38591 Y-3.31981
G01 X6.36982 Y-3.35948
G01 X6.36905 Y-3.36192
G01 X6.35902 Y-3.40481
G01 X6.35553 Y-3.44992
G01 X6.35570 Y-3.45193
G01 X6.35608 Y-3.45351
G01 X6.35685 Y-3.45538
G01 X6.35771 Y-3.45676
G01 X6.35902 Y-3.45830
G01 X6.36026 Y-3.45935
G01 X6.36198 Y-3.46041
G01 X6.36349 Y-3.46103
G01 X6.36545 Y-3.46150
G01 X6.36707 Y-3.46162
G01 X6.36909 Y-3.46146
G01 X6.37067 Y-3.46108
G01 X6.37254 Y-3.46030
G01 X6.37392 Y-3.45945
G01 X6.37546 Y-3.45813
G01 X6.37660 Y-3.45679
G01 X6.37783 Y-3.45464
G01 X6.37859 Y-3.45209
G01 X6.38209 Y-3.40838
G01 X6.39164 Y-3.36777
G01 X6.40732 Y-3.32910
G01 X6.42853 Y-3.29361
G01 X6.45542 Y-3.26120
G01 X6.48639 Y-3.23381
G01 X6.49495 Y-3.22826
G01 X6.49756 Y-3.22720
G01 X6.49996 Y-3.22689
G01 X6.50197 Y-3.22709
G01 X6.50389 Y-3.22768
G01 X6.50566 Y-3.22865
G01 X6.50747 Y-3.23025
G01 X6.50885 Y-3.23224
G01 X6.50971 Y-3.23449
G01 X6.51000 Y-3.23689
G01 X6.51000 Y-4.50000
G01 X6.50987 Y-4.50160
G01 X6.50948 Y-4.50317
G01 X6.50885 Y-4.50465
G01 X6.50799 Y-4.50601
G01 X6.50663 Y-4.50748
G01 X6.50465 Y-4.50885
G01 X6.50239 Y-4.50971
G01 X6.50000 Y-4.51000
G01 X5.00000 Y-4.51000
G01 X4.99840 Y-4.50987
G01 X4.99645 Y-4.50935
G01 X4.99465 Y-4.50845
G01 X4.99307 Y-4.50721
G01 X4.99177 Y-4.50568
G01 X4.99080 Y-4.50392
G01 X4.99020 Y-4.50200
G01 X4.99000 Y-4.50000
G01 Z-0.08000 F0.02000 ( plunge. )
G04 P0 ( dwell for no time -- G64 should not smooth over this point )
G01 F0.04000
G01 X4.99000 Y-2.50000
G01 X4.99013 Y-2.49839
G01 X4.99051 Y-2.49683
G01 X4.99115 Y-2.49535
G01 X4.99200 Y-2.49399
G01 X4.99337 Y-2.49251
G01 X4.99535 Y-2.49114
G01 X4.99761 Y-2.49029
G01 X5.00000 Y-2.49000
G01 X6.50000 Y-2.49000
G01 X6.50160 Y-2.49013
G01 X6.50317 Y-2.49051
G01 X6.50465 Y-2.49114
G01 X6.50601 Y-2.49200
G01 X6.50748 Y-2.49337
G01 X6.50885 Y-2.49535
G01 X6.50971 Y-2.49761
G01 X6.51000 Y-2.50000
G01 X6.51000 Y-3.18547
G01 X6.50987 Y-3.18707
G01 X6.50936 Y-3.18900
G01 X6.50868 Y-3.19044
G01 X6.50752 Y-3.19207
G01 X6.50637 Y-3.19318
G01 X6.47264 Y-3.21494
G01 X6.43866 Y-3.24494
G01 X6.40970 Y-3.27981
G01 X6.38684 Y-3.31789
G01 X6.38591 Y-3.31981
G01 X6.36982 Y-3.35948
G01 X6.36905 Y-3.36192
G01 X6.35902 Y-3.40481
G01 X6.35553 Y-3.44992
G01 X6.35570 Y-3.45193
G01 X6.35608 Y-3.45351
G01 X6.35685 Y-3.45538
G01 X6.35771 Y-3.45676
G01 X6.35902 Y-3.45830
G01 X6.36026 Y-3.45935
G01 X6.36198 Y-3.46041
G01 X6.36349 Y-3.46103
G01 X6.36545 Y-3.46150
G01 X6.36707 Y-3.46162
G01 X6.36909 Y-3.46146
G01 X6.37067 Y-3.46108
G01 X6.37254 Y-3.46030
G01 X6.37392 Y-3.45945
G01 X6.37546 Y-3.45813
G01 X6.37660 Y-3.45679
G01 X6.37783 Y-3.45464
G01 X6.37859 Y-3.45209
G01 X6.38209 Y-3.40838
G01 X6.39164 Y-3.36777
G01 X6.40732 Y-3.32910
G01 X6.42853 Y-3.29361
G01 X6.45542 Y-3.26120
G01 X6.48639 Y-3.23381
G01 X6.49495 Y-3.22826
G01 X6.49756 Y-3.22720
G01 X6.49996 Y-3.22689
G01 X6.50197 Y-3.22709
G01 X6.50389 Y-3.22768
G01 X6.50566 Y-3.22865
G01 X6.50747 Y-3.23025
G01 X6.50885 Y-3.23224
G01 X6.50971 Y-3.23449
G01 X6.51000 Y-3.23689
G01 X6.51000 Y-4.50000
G01 X6.50987 Y-4.50160
G01 X6.50948 Y-4.50317
G01 X6.50885 Y-4.50465
G01 X6.50799 Y-4.50601
G01 X6.50663 Y-4.50748
G01 X6.50465 Y-4.50885
G01 X6.50239 Y-4.50971
G01 X6.50000 Y-4.51000
G01 X5.00000 Y-4.51000
G01 X4.99840 Y-4.50987
G01 X4.99645 Y-4.50935
G01 X4.99465 Y-4.50845
G01 X4.99307 Y-4.50721
G01 X4.99177 Y-4.50568
G01 X4.99080 Y-4.50392
G01 X4.99020 Y-4.50200
G01 X4.99000 Y-4.50000

G04 P0 ( dwell for no time -- G64 should not smooth over this point )
G00 Z1.600000 ( retract )

M5 ( Spindle off. )
G04 P1.000000
M9 ( Coolant off. )
M2 ( Program end. )

