( pcb2gcode 2.5.0 )
( Software-independent Gcode )

G94 ( Millimeters per minute feed rate. )
G21 ( Units == Millimeters. )

G90 ( Absolute coordinates. )
G00 S1000 ( RPM spindle speed. )
G64 P0.01016 ( set maximum deviation from commanded toolpath )
G01 F30.00000 ( Feedrate. )


G00 Z10.00000 (Retract to tool change height)
T1
M5      (Spindle stop.)
G04 P5.00000 (Wait for spindle to stop)
(MSG, Change tool bit to mill diameter 1.00000mm)
M6      (Tool change.)
M0      (Temporary machine stop.)
M3 ( Spindle on clockwise. )
G04 P3.00000 (Wait for spindle to get up to speed)
G04 P0 ( dwell for no time -- G64 should not smooth over this point )
G00 Z1.00000 ( retract )

G00 X-43.88066 Y29.29240 ( rapid move to begin. )
G01 F20.00000
( Mill infeed pass 1/1 )
G01 Z-0.30000
G04 P0 ( dwell for no time -- G64 should not smooth over this point )
G01 F30.00000
G01 X-43.88066 Y29.29240
G01 X-43.61718 Y29.20180
G01 X-43.35244 Y29.09867
G01 X-43.10131 Y28.98915
G01 X-42.83547 Y28.86128
G01 X-42.58386 Y28.72788
G01 X-42.35526 Y28.59494
G01 X-42.09766 Y28.43103
G01 X-41.87200 Y28.27566
G01 X-41.65262 Y28.11158
G01 X-41.43980 Y27.93903
G01 X-41.20342 Y27.73088
G01 X-41.00449 Y27.54252
G01 X-40.81308 Y27.34650
G01 X-40.62948 Y27.14318
G01 X-40.44086 Y26.91686
G01 X-40.27914 Y26.70840
G01 X-40.11968 Y26.48565
G01 X-39.96903 Y26.25682
G01 X-39.81176 Y25.99563
G01 X-39.67848 Y25.75552
G01 X-39.55471 Y25.51039
G01 X-39.44066 Y25.26058
G01 X-39.34018 Y25.01598
G01 X-39.24569 Y24.75814
G01 X-39.15049 Y24.46818
G01 X-39.07508 Y24.20460
G01 X-39.00782 Y23.92835
G01 X-38.95364 Y23.65959
G01 X-38.90584 Y23.35875
G01 X-38.87180 Y23.06582
G01 X-38.84795 Y22.77392
G01 X-38.83698 Y22.51156
G01 X-38.83513 Y19.51363
G01 X-38.83937 Y19.27974
G01 X-38.85865 Y18.94454
G01 X-38.88864 Y18.64162
G01 X-38.93180 Y18.34030
G01 X-38.98801 Y18.04114
G01 X-39.04163 Y17.80291
G01 X-39.09187 Y17.60581
G01 X-39.15372 Y17.39074
G01 X-39.21915 Y17.18742
G01 X-39.29075 Y16.98620
G01 X-39.37231 Y16.77782
G01 X-39.45633 Y16.58145
G01 X-39.55819 Y16.35963
G01 X-39.65725 Y16.15976
G01 X-39.76759 Y15.95427
G01 X-39.87424 Y15.76997
G01 X-40.00294 Y15.56342
G01 X-40.17378 Y15.31173
G01 X-40.34297 Y15.08374
G01 X-40.40012 Y15.01069
G01 X-40.42494 Y15.01884
G01 X-40.40012 Y15.01069
G01 X-40.40038 Y5.73921
G01 X-40.41125 Y5.40517
G01 X-40.43934 Y5.05112
G01 X-40.47627 Y4.74896
G01 X-40.53009 Y4.42877
G01 X-40.59400 Y4.13116
G01 X-40.68064 Y3.79621
G01 X-40.77040 Y3.50459
G01 X-40.87642 Y3.20766
G01 X-41.00645 Y2.88755
G01 X-41.13355 Y2.61094
G01 X-41.27739 Y2.33121
G01 X-41.44381 Y2.04018
G01 X-41.59430 Y1.79921
G01 X-41.76626 Y1.54803
G01 X-41.93647 Y1.32055
G01 X-42.14764 Y1.06129
G01 X-42.29412 Y0.89444
G01 X-42.45282 Y0.72507
G01 X-43.17655 Y0.00000
G01 X-43.88358 Y0.00000
G01 X-42.86260 Y1.02123
G01 X-42.63807 Y1.25966
G01 X-42.46463 Y1.46154
G01 X-42.28671 Y1.68509
G01 X-42.12450 Y1.90736
G01 X-41.97734 Y2.12771
G01 X-41.79811 Y2.42446
G01 X-41.66103 Y2.67475
G01 X-41.52651 Y2.94927
G01 X-41.39743 Y3.24871
G01 X-41.28519 Y3.54457
G01 X-41.19006 Y3.83553
G01 X-41.10876 Y4.13065
G01 X-41.02979 Y4.47873
G01 X-40.97711 Y4.77987
G01 X-40.93761 Y5.09331
G01 X-40.91081 Y5.42689
G01 X-40.90038 Y5.73943
G01 X-40.90010 Y15.18610
G01 X-40.92661 Y15.19509
G01 X-40.90010 Y15.18610
G01 X-40.68684 Y15.45725
G01 X-40.49789 Y15.72158
G01 X-40.32240 Y15.99504
G01 X-40.18021 Y16.24124
G01 X-40.04445 Y16.50253
G01 X-39.90736 Y16.79773
G01 X-39.80142 Y17.05089
G01 X-39.70292 Y17.31795
G01 X-39.61912 Y17.57929
G01 X-39.54640 Y17.84396
G01 X-39.47991 Y18.13169
G01 X-39.43012 Y18.39194
G01 X-39.38969 Y18.66412
G01 X-39.36167 Y18.92760
G01 X-39.34262 Y19.21116
G01 X-39.33513 Y19.50362
G01 X-39.33510 Y22.34999
G01 X-39.34389 Y22.68789
G01 X-39.35776 Y22.89228
G01 X-39.37973 Y23.11613
G01 X-39.40213 Y23.29764
G01 X-39.43129 Y23.48845
G01 X-39.46611 Y23.67831
G01 X-39.50884 Y23.87697
G01 X-39.55517 Y24.06434
G01 X-39.60703 Y24.25029
G01 X-39.67719 Y24.47318
G01 X-39.77813 Y24.76134
G01 X-39.86807 Y24.98811
G01 X-39.97074 Y25.22057
G01 X-40.08242 Y25.44887
G01 X-40.19299 Y25.65486
G01 X-40.33685 Y25.90117
G01 X-40.46789 Y26.10772
G01 X-40.60660 Y26.30917
G01 X-40.75902 Y26.51331
G01 X-40.93863 Y26.73528
G01 X-41.10629 Y26.92712
G01 X-41.27421 Y27.10497
G01 X-41.44869 Y27.27637
G01 X-41.65216 Y27.46192
G01 X-41.83855 Y27.62032
G01 X-42.08788 Y27.81432
G01 X-42.34635 Y27.99598
G01 X-42.63034 Y28.17698
G01 X-42.92308 Y28.34340
G01 X-43.19636 Y28.48135
G01 X-43.51244 Y28.62372
G01 X-43.81627 Y28.74218
G01 X-44.12564 Y28.84526
G01 X-44.13540 Y28.84823
G01 X-44.39100 Y28.40271
G01 X-44.07626 Y28.30368
G01 X-43.78201 Y28.19395
G01 X-43.48472 Y28.06469
G01 X-43.16715 Y27.90693
G01 X-42.87698 Y27.74183
G01 X-42.58719 Y27.55542
G01 X-42.32387 Y27.36634
G01 X-42.07114 Y27.16334
G01 X-41.80652 Y26.92659
G01 X-41.57640 Y26.69827
G01 X-41.36553 Y26.46556
G01 X-41.14129 Y26.19032
G01 X-40.95593 Y25.93685
G01 X-40.77873 Y25.66538
G01 X-40.60012 Y25.35799
G01 X-40.44752 Y25.05949
G01 X-40.33525 Y24.80925
G01 X-40.23451 Y24.55413
G01 X-40.13203 Y24.25586
G01 X-40.05364 Y23.99284
G01 X-39.98735 Y23.72650
G01 X-39.93332 Y23.45741
G01 X-39.89296 Y23.19622
G01 X-39.86058 Y22.90237
G01 X-39.84244 Y22.64694
G01 X-39.83530 Y22.40120
G01 X-39.83510 Y19.51355
G01 X-39.84244 Y19.22683
G01 X-39.86708 Y18.89178
G01 X-39.89593 Y18.65036
G01 X-39.93454 Y18.41030
G01 X-39.98064 Y18.18190
G01 X-40.04699 Y17.90499
G01 X-40.11386 Y17.67053
G01 X-40.18684 Y17.44856
G01 X-40.27213 Y17.22016
G01 X-40.36665 Y16.99542
G01 X-40.48204 Y16.74589
G01 X-40.59314 Y16.52854
G01 X-40.72339 Y16.29842
G01 X-40.86365 Y16.07424
G01 X-41.04963 Y15.80716
G01 X-41.26776 Y15.52633
G01 X-41.40010 Y15.36918
G01 X-41.42852 Y15.37919
G01 X-41.40010 Y15.36918
G01 X-41.40065 Y5.71802
G01 X-41.40556 Y5.54396
G01 X-41.41625 Y5.35988
G01 X-41.43375 Y5.15671
G01 X-41.45582 Y4.96550
G01 X-41.48077 Y4.79506
G01 X-41.51249 Y4.61548
G01 X-41.54747 Y4.44685
G01 X-41.59199 Y4.25920
G01 X-41.66403 Y3.99570
G01 X-41.74797 Y3.73578
G01 X-41.86248 Y3.43240
G01 X-41.97030 Y3.18097
G01 X-42.09410 Y2.92580
G01 X-42.22476 Y2.68549
G01 X-42.38666 Y2.41579
G01 X-42.54990 Y2.17155
G01 X-42.68163 Y1.99177
G01 X-42.82653 Y1.80876
G01 X-42.96517 Y1.64442
G01 X-43.11660 Y1.47780
G01 X-44.59061 Y0.00000
G01 X-45.30026 Y0.00000
G01 X-43.50553 Y1.79433
G01 X-43.38046 Y1.92961
G01 X-43.25341 Y2.07688
G01 X-43.11249 Y2.25168
G01 X-42.99052 Y2.41475
G01 X-42.82458 Y2.65895
G01 X-42.66131 Y2.92936
G01 X-42.53024 Y3.17101
G01 X-42.40728 Y3.42821
G01 X-42.28650 Y3.71993
G01 X-42.19059 Y3.98747
G01 X-42.10860 Y4.25961
G01 X-42.03540 Y4.55590
G01 X-41.97911 Y4.84574
G01 X-41.93847 Y5.13819
G01 X-41.91038 Y5.46336
G01 X-41.90022 Y5.75915
G01 X-41.90007 Y15.56118
G01 X-41.93189 Y15.57310
G01 X-41.90007 Y15.56118
G01 X-41.77180 Y15.70365
G01 X-41.66108 Y15.83515
G01 X-41.54112 Y15.98640
G01 X-41.37160 Y16.21589
G01 X-41.23591 Y16.41940
G01 X-41.10942 Y16.62869
G01 X-40.98770 Y16.85249
G01 X-40.87645 Y17.08168
G01 X-40.77363 Y17.31427
G01 X-40.68478 Y17.54111
G01 X-40.60607 Y17.77167
G01 X-40.53764 Y18.00548
G01 X-40.46835 Y18.29206
G01 X-40.42253 Y18.52171
G01 X-40.38384 Y18.77329
G01 X-40.35770 Y19.01624
G01 X-40.34191 Y19.24982
G01 X-40.33523 Y19.48320
G01 X-40.33507 Y22.34999
G01 X-40.33817 Y22.53435
G01 X-40.35704 Y22.84105
G01 X-40.39474 Y23.17542
G01 X-40.44551 Y23.47631
G01 X-40.51290 Y23.77394
G01 X-40.57569 Y23.99932
G01 X-40.65427 Y24.24151
G01 X-40.72649 Y24.44206
G01 X-40.80246 Y24.63035
G01 X-40.88963 Y24.82489
G01 X-40.98897 Y25.02489
G01 X-41.08628 Y25.20310
G01 X-41.20543 Y25.40478
G01 X-41.32097 Y25.58468
G01 X-41.44343 Y25.75992
G01 X-41.57261 Y25.93033
G01 X-41.72755 Y26.11958
G01 X-41.86240 Y26.27219
G01 X-42.00995 Y26.42692
G01 X-42.16342 Y26.57582
G01 X-42.32979 Y26.72616
G01 X-42.55701 Y26.91468
G01 X-42.78572 Y27.08488
G01 X-43.06550 Y27.27068
G01 X-43.31896 Y27.42037
G01 X-43.57096 Y27.55184
G01 X-43.87637 Y27.69192
G01 X-44.16074 Y27.80340
G01 X-44.43136 Y27.89304
G01 X-44.64761 Y27.95542
G01 X-44.88523 Y27.50025
G01 X-44.70151 Y27.45156
G01 X-44.48777 Y27.38681
G01 X-44.30619 Y27.32428
G01 X-44.13646 Y27.25862
G01 X-43.96006 Y27.18267
G01 X-43.75808 Y27.08661
G01 X-43.57751 Y26.99200
G01 X-43.40969 Y26.89537
G01 X-43.25427 Y26.79789
G01 X-43.06118 Y26.66731
G01 X-42.89867 Y26.54704
G01 X-42.74891 Y26.42677
G01 X-42.61140 Y26.30762
G01 X-42.43306 Y26.14224
G01 X-42.29786 Y26.00584
G01 X-42.16128 Y25.85674
G01 X-42.04363 Y25.71796
G01 X-41.90525 Y25.54321
G01 X-41.78640 Y25.37965
G01 X-41.68518 Y25.22845
G01 X-41.58437 Y25.06497
G01 X-41.46865 Y24.86200
G01 X-41.38008 Y24.69086
G01 X-41.29405 Y24.50716
G01 X-41.21554 Y24.32014
G01 X-41.15143 Y24.14920
G01 X-41.07680 Y23.92728
G01 X-41.01902 Y23.73206
G01 X-40.97152 Y23.54453
G01 X-40.92941 Y23.34532
G01 X-40.89695 Y23.15464
G01 X-40.87078 Y22.95271
G01 X-40.84516 Y22.66734
G01 X-40.83533 Y22.40120
G01 X-40.83588 Y19.43341
G01 X-40.84604 Y19.19262
G01 X-40.87078 Y18.91022
G01 X-40.90606 Y18.65998
G01 X-40.95178 Y18.42173
G01 X-41.00002 Y18.21396
G01 X-41.05059 Y18.02803
G01 X-41.10830 Y17.84416
G01 X-41.17304 Y17.66268
G01 X-41.24871 Y17.47446
G01 X-41.34856 Y17.25196
G01 X-41.43797 Y17.07022
G01 X-41.52468 Y16.90985
G01 X-41.63317 Y16.72692
G01 X-41.75503 Y16.54040
G01 X-41.87294 Y16.37571
G01 X-42.02255 Y16.18331
G01 X-42.20616 Y15.96723
G01 X-42.40007 Y15.76352
G01 X-42.43497 Y15.77729
G01 X-42.40007 Y15.76352
G01 X-42.40007 Y5.78980
G01 X-42.40342 Y5.61708
G01 X-42.41272 Y5.44457
G01 X-42.43019 Y5.24215
G01 X-42.45333 Y5.05150
G01 X-42.48020 Y4.88175
G01 X-42.51084 Y4.72295
G01 X-42.59204 Y4.38727
G01 X-42.68186 Y4.09501
G01 X-42.79273 Y3.79933
G01 X-42.91472 Y3.52174
G01 X-43.05823 Y3.24312
G01 X-43.22844 Y2.95559
G01 X-43.39224 Y2.71252
G01 X-43.51340 Y2.55064
G01 X-43.66103 Y2.36891
G01 X-43.78940 Y2.22280
G01 X-43.92333 Y2.08181
G01 X-45.60280 Y0.40264
G01 X-45.82025 Y0.20338
G01 X-46.06793 Y0.00000
G01 X-46.97758 Y0.00000
G01 X-46.70821 Y0.16030
G01 X-46.47446 Y0.31986
G01 X-46.25119 Y0.49380
G01 X-46.01477 Y0.70068
G01 X-44.26257 Y2.44993
G01 X-44.08228 Y2.64566
G01 X-43.90098 Y2.86672
G01 X-43.80352 Y2.99700
G01 X-43.71083 Y3.13070
G01 X-43.62839 Y3.25902
G01 X-43.53463 Y3.41660
G01 X-43.39537 Y3.67647
G01 X-43.33009 Y3.81432
G01 X-43.26951 Y3.95430
G01 X-43.20207 Y4.12532
G01 X-43.15374 Y4.26034
G01 X-43.10380 Y4.41645
G01 X-43.06481 Y4.55445
G01 X-43.02290 Y4.72316
G01 X-42.98869 Y4.88221
G01 X-42.96024 Y5.04238
G01 X-42.93885 Y5.19341
G01 X-42.90959 Y5.50702
G01 X-42.90007 Y5.78985
G01 X-42.90007 Y15.97061
G01 X-42.93629 Y15.98521
G01 X-42.90007 Y15.97061
G01 X-42.69110 Y16.18036
G01 X-42.49336 Y16.39827
G01 X-42.29661 Y16.64429
G01 X-42.14315 Y16.85887
G01 X-42.01290 Y17.06461
G01 X-41.89397 Y17.27711
G01 X-41.78249 Y17.50494
G01 X-41.67695 Y17.74695
G01 X-41.58544 Y17.99392
G01 X-41.50855 Y18.24584
G01 X-41.44602 Y18.50225
G01 X-41.39931 Y18.74177
G01 X-41.36565 Y18.98345
G01 X-41.34234 Y19.26783
G01 X-41.33510 Y19.50331
G01 X-41.33703 Y22.48314
G01 X-41.35016 Y22.71834
G01 X-41.37777 Y22.98255
G01 X-41.41178 Y23.20417
G01 X-41.46141 Y23.44364
G01 X-41.50441 Y23.61148
G01 X-41.54769 Y23.75809
G01 X-41.61526 Y23.96106
G01 X-41.67510 Y24.12256
G01 X-41.74106 Y24.28166
G01 X-41.80429 Y24.41984
G01 X-41.87683 Y24.56480
G01 X-41.95958 Y24.71585
G01 X-42.05272 Y24.87361
G01 X-42.14584 Y25.01925
G01 X-42.24447 Y25.16119
G01 X-42.34848 Y25.29926
G01 X-42.47700 Y25.45723
G01 X-42.58417 Y25.57963
G01 X-42.70992 Y25.71260
G01 X-42.83357 Y25.83340
G01 X-43.04604 Y26.02337
G01 X-43.26087 Y26.19428
G01 X-43.48571 Y26.35176
G01 X-43.74685 Y26.51364
G01 X-43.99999 Y26.64846
G01 X-44.27786 Y26.77599
G01 X-44.53397 Y26.87480
G01 X-44.80545 Y26.96113
G01 X-44.96143 Y27.00393
G01 X-45.12313 Y27.04201
G01 X-45.36303 Y26.57993
G01 X-45.20532 Y26.54818
G01 X-45.03704 Y26.50691
G01 X-44.84096 Y26.44976
G01 X-44.68543 Y26.39804
G01 X-44.54167 Y26.34381
G01 X-44.38137 Y26.27574
G01 X-44.20636 Y26.19273
G01 X-44.05404 Y26.11283
G01 X-43.89669 Y26.02118
G01 X-43.74284 Y25.92240
G01 X-43.59984 Y25.82301
G01 X-43.46933 Y25.72388
G01 X-43.33524 Y25.61278
G01 X-43.19806 Y25.48966
G01 X-43.07289 Y25.36861
G01 X-42.96001 Y25.24978
G01 X-42.85209 Y25.12642
G01 X-42.72973 Y24.97511
G01 X-42.63194 Y24.84359
G01 X-42.53962 Y24.70818
G01 X-42.45290 Y24.56909
G01 X-42.35176 Y24.39276
G01 X-42.27271 Y24.24001
G01 X-42.20032 Y24.08400
G01 X-42.13471 Y23.92502
G01 X-42.08254 Y23.78250
G01 X-42.01566 Y23.57907
G01 X-41.96357 Y23.39233
G01 X-41.92466 Y23.22330
G01 X-41.89479 Y23.06277
G01 X-41.87147 Y22.90120
G01 X-41.85110 Y22.70806
G01 X-41.83979 Y22.54453
G01 X-41.83510 Y22.37047
G01 X-41.83659 Y19.41251
G01 X-41.85100 Y19.15892
G01 X-41.87556 Y18.93491
G01 X-41.91076 Y18.72270
G01 X-41.96344 Y18.48355
G01 X-42.00784 Y18.31739
G01 X-42.05613 Y18.16288
G01 X-42.11424 Y18.00101
G01 X-42.17523 Y17.85107
G01 X-42.26331 Y17.65658
G01 X-42.33591 Y17.51094
G01 X-42.42458 Y17.35079
G01 X-42.51498 Y17.20339
G01 X-42.60581 Y17.06837
G01 X-42.70825 Y16.92907
G01 X-42.84774 Y16.75369
G01 X-42.96801 Y16.61566
G01 X-43.07296 Y16.50495
G01 X-43.40004 Y16.17772
G01 X-43.43758 Y16.19313
G01 X-43.40004 Y16.17772
G01 X-43.40009 Y5.77990
G01 X-43.40614 Y5.57914
G01 X-43.42366 Y5.35694
G01 X-43.44746 Y5.16377
G01 X-43.48061 Y4.97200
G01 X-43.55302 Y4.66420
G01 X-43.63334 Y4.40314
G01 X-43.74680 Y4.10893
G01 X-43.86354 Y3.85823
G01 X-43.93082 Y3.73159
G01 X-44.01790 Y3.58087
G01 X-44.16748 Y3.34828
G01 X-44.33278 Y3.12659
G01 X-44.43689 Y3.00012
G01 X-44.53872 Y2.88521
G01 X-44.65213 Y2.76705
G01 X-46.28782 Y1.13139
G01 X-46.43486 Y0.99433
G01 X-46.60504 Y0.85016
G01 X-46.75005 Y0.73779
G01 X-46.90854 Y0.62652
G01 X-47.06348 Y0.52829
G01 X-47.24954 Y0.42093
G01 X-47.41324 Y0.33612
G01 X-47.57128 Y0.26302
G01 X-47.76089 Y0.18552
G01 X-47.93427 Y0.12273
G01 X-48.15967 Y0.05425
G01 X-48.38299 Y0.00000
G01 X-72.60900 Y0.00000
G01 X-73.55025 Y0.94343
G01 X-73.70315 Y1.10576
G01 X-73.85891 Y1.27927
G01 X-74.03681 Y1.48791
G01 X-74.18403 Y1.66868
G01 X-74.32068 Y1.84493
G01 X-74.45908 Y2.03258
G01 X-74.59853 Y2.23192
G01 X-74.72086 Y2.41625
G01 X-72.95627 Y4.34406
G01 X-72.84850 Y4.14825
G01 X-72.71957 Y3.92958
G01 X-72.60600 Y3.74975
G01 X-72.49279 Y3.58178
G01 X-72.36272 Y3.40086
G01 X-72.23326 Y3.23212
G01 X-72.09874 Y3.06741
G01 X-71.93305 Y2.87525
G01 X-71.80290 Y2.73350
G01 X-71.66892 Y2.59537
G01 X-69.07355 Y0.00000
G01 X-69.78063 Y0.00000
G01 X-72.02965 Y2.24904
G01 X-72.23333 Y2.46205
G01 X-72.49422 Y2.76085
G01 X-72.70991 Y3.03073
G01 X-72.92452 Y3.32697
G01 X-73.12975 Y3.64206
G01 X-73.31309 Y3.95407
G01 X-72.23186 Y5.13588
G01 X-72.13793 Y4.93906
G01 X-72.02975 Y4.73268
G01 X-71.89297 Y4.49514
G01 X-71.76374 Y4.28889
G01 X-71.63801 Y4.10454
G01 X-71.49932 Y3.91698
G01 X-71.36643 Y3.75054
G01 X-71.19366 Y3.54858
G01 X-70.95467 Y3.29524
G01 X-67.65935 Y0.00000
G01 X-68.36644 Y0.00000
G01 X-71.31535 Y2.94889
G01 X-71.55772 Y3.20561
G01 X-71.72942 Y3.40510
G01 X-71.86394 Y3.57129
G01 X-71.99290 Y3.74180
G01 X-72.12193 Y3.92488
G01 X-72.26079 Y4.13819
G01 X-72.38649 Y4.34802
G01 X-72.50087 Y4.55262
G01 X-72.59617 Y4.73766
G01 X-70.69554 Y6.81337
G01 X-70.63473 Y6.57017
G01 X-70.56059 Y6.33583
G01 X-70.46504 Y6.08729
G01 X-70.36834 Y5.87245
G01 X-70.25411 Y5.65478
G01 X-70.11248 Y5.41828
G01 X-69.96821 Y5.20827
G01 X-69.81741 Y5.01569
G01 X-69.67891 Y4.85501
G01 X-69.55465 Y4.72371
G01 X-65.98331 Y1.15232
G01 X-65.87373 Y1.04734
G01 X-65.74473 Y0.93289
G01 X-65.52390 Y0.75552
G01 X-65.40891 Y0.67282
G01 X-65.26533 Y0.57727
G01 X-65.13627 Y0.49743
G01 X-65.01315 Y0.42738
G01 X-64.87859 Y0.35723
G01 X-64.72222 Y0.28270
G01 X-64.59073 Y0.22545
G01 X-64.45728 Y0.17295
G01 X-64.31229 Y0.12205
G01 X-64.15578 Y0.07363
G01 X-64.00907 Y0.03284
G01 X-63.87150 Y0.00000
G01 X-65.27358 Y0.00000
G01 X-65.48740 Y0.12596
G01 X-65.70950 Y0.27287
G01 X-65.89898 Y0.41285
G01 X-66.08862 Y0.56929
G01 X-66.21854 Y0.68519
G01 X-66.34404 Y0.80592
G01 X-69.90118 Y4.36308
G01 X-70.10110 Y4.57744
G01 X-70.26361 Y4.77177
G01 X-70.40380 Y4.95724
G01 X-70.53966 Y5.15823
G01 X-70.67039 Y5.37543
G01 X-70.78180 Y5.58104
G01 X-70.88236 Y5.79217
G01 X-70.97951 Y6.02734
G01 X-71.05543 Y6.23778
G01 X-71.09811 Y6.37311
G01 X-69.98734 Y7.58718
G01 X-69.56186 Y8.08556
G01 X-69.20824 Y8.56770
G01 X-69.16219 Y8.63658
G01 X-68.90337 Y9.06158
G01 X-68.67827 Y9.50826
G01 X-68.51574 Y9.91149
G01 X-68.39174 Y10.31464
G01 X-68.37939 Y10.36594
G01 X-68.30837 Y10.71298
G01 X-68.29527 Y10.79754
G01 X-68.25930 Y11.13191
G01 X-68.25049 Y11.38144
G01 X-68.22572 Y11.45111
G01 X-68.13024 Y11.76195
G01 X-67.97139 Y12.46208
G01 X-67.80286 Y12.75883
G01 X-67.57043 Y13.14346
G01 X-67.54772 Y13.18979
G01 X-67.53880 Y13.18671
G01 X-67.54772 Y13.18979
G01 X-67.53499 Y13.23980
G01 X-67.52107 Y13.33508
G01 X-67.48983 Y13.62255
G01 X-67.47777 Y13.83736
G01 X-67.47469 Y14.05092
G01 X-67.48262 Y14.27020
G01 X-67.49908 Y14.48567
G01 X-67.53177 Y14.73683
G01 X-67.56669 Y14.93840
G01 X-67.63885 Y15.25224
G01 X-67.66862 Y15.36154
G01 X-67.64056 Y15.25994
G01 X-67.63885 Y15.25224
G01 X-67.67076 Y15.36885
G01 X-67.73847 Y15.58841
G01 X-67.74782 Y15.68986
G01 X-67.78503 Y15.97043
G01 X-67.84541 Y16.26794
G01 X-67.94492 Y16.62481
G01 X-68.00535 Y16.80195
G01 X-68.02821 Y16.85061
G01 X-68.02008 Y16.85554
G01 X-68.02821 Y16.85061
G01 X-68.06095 Y16.89326
G01 X-68.19097 Y17.02956
G01 X-71.34995 Y20.18914
G01 X-71.48403 Y20.54936
G01 X-71.59127 Y20.94735
G01 X-71.65520 Y21.35261
G01 X-71.66064 Y21.41030
G01 X-71.67408 Y21.75784
G01 X-71.65114 Y22.12851
G01 X-71.58774 Y22.50991
G01 X-71.48495 Y22.88520
G01 X-71.21373 Y23.16229
G01 X-70.95678 Y23.38057
G01 X-70.77304 Y23.51481
G01 X-70.70329 Y23.52772
G01 X-70.39585 Y23.57006
G01 X-70.01342 Y23.58969
G01 X-69.67281 Y23.57628
G01 X-69.36707 Y23.53950
G01 X-68.96953 Y23.45672
G01 X-68.63608 Y23.35690
G01 X-68.34655 Y23.24832
G01 X-67.37066 Y22.84410
G01 X-67.19407 Y22.77445
G01 X-67.10553 Y22.14623
G01 X-67.08971 Y22.07321
G01 X-66.95051 Y21.53488
G01 X-66.80802 Y21.13951
G01 X-66.40606 Y20.16910
G01 X-66.29263 Y19.92346
G01 X-66.24300 Y19.83237
G01 X-66.04511 Y19.51256
G01 X-65.99281 Y19.44271
G01 X-65.80317 Y19.21137
G01 X-65.56248 Y18.97667
G01 X-65.38745 Y18.83923
G01 X-65.38582 Y18.61264
G01 X-65.36720 Y18.38145
G01 X-65.34729 Y18.19516
G04 P0 ( dwell for no time -- G64 should not smooth over this point )
G00 Z1.00000 ( retract )

G00 X-67.74947 Y15.70218 ( rapid move to begin. )
G01 F20.00000
( Mill infeed pass 1/1 )
G01 Z-0.30000
G04 P0 ( dwell for no time -- G64 should not smooth over this point )
G01 F30.00000
G01 X-67.74947 Y15.70218
G01 X-67.74947 Y16.92450
G01 X-67.71142 Y16.94028
G01 X-67.74947 Y16.92450
G01 X-71.28685 Y20.46280
G01 X-71.35670 Y20.53760
G01 X-71.42747 Y20.62518
G01 X-71.50438 Y20.73372
G01 X-71.55729 Y20.81792
G01 X-71.60130 Y20.99561
G01 X-71.65520 Y21.35261
G01 X-71.66064 Y21.41030
G01 X-71.67408 Y21.75784
G01 X-71.64530 Y22.17710
G01 X-71.57672 Y22.55873
G01 X-71.56000 Y22.61812
G01 X-71.52168 Y22.68179
G01 X-71.46981 Y22.75802
G01 X-71.39559 Y22.85586
G01 X-71.28708 Y22.97862
G01 X-71.22036 Y23.04222
G01 X-71.12030 Y23.12853
G01 X-71.04842 Y23.18357
G01 X-70.97334 Y23.23417
G01 X-70.81436 Y23.32556
G01 X-70.66478 Y23.39236
G01 X-70.56872 Y23.42779
G01 X-70.48066 Y23.45507
G01 X-70.29056 Y23.49619
G01 X-70.12790 Y23.51573
G01 X-69.92318 Y23.51870
G01 X-69.78033 Y23.50646
G01 X-69.58876 Y23.47283
G01 X-69.48985 Y23.44621
G01 X-69.36369 Y23.40379
G01 X-69.27817 Y23.36937
G01 X-69.19491 Y23.32980
G01 X-69.08693 Y23.27120
G01 X-68.99996 Y23.21707
G01 X-68.92503 Y23.16340
G01 X-68.81480 Y23.07493
G01 X-68.73458 Y23.00039
G01 X-66.76166 Y21.02759
G01 X-66.81180 Y21.14918
G01 X-66.95003 Y21.53503
G01 X-67.08602 Y22.05901
G01 X-68.22509 Y23.19800
G01 X-68.15864 Y23.71166
G01 X-68.03387 Y23.66000
G01 X-67.24348 Y23.66023
G01 X-67.03642 Y23.67257
G01 X-66.84396 Y23.70122
G01 X-66.62727 Y23.75317
G01 X-66.45615 Y23.81128
G01 X-66.25585 Y23.89815
G01 X-66.25521 Y25.95189
G01 X-66.47569 Y25.93734
G01 X-66.48005 Y25.87351
G01 X-66.49532 Y25.78095
G01 X-66.53708 Y25.65105
G01 X-66.60027 Y25.53017
G01 X-66.68313 Y25.42179
G01 X-66.79159 Y25.32250
G01 X-66.90693 Y25.24966
G01 X-67.03296 Y25.19743
G01 X-67.16182 Y25.16800
G01 X-67.27500 Y25.15994
G01 X-71.45861 Y25.15994
G01 X-73.04997 Y23.56858
G01 X-73.04997 Y19.43130
G01 X-69.38802 Y15.76514
G01 X-69.32381 Y15.67739
G01 X-69.28086 Y15.59951
G01 X-69.25704 Y15.54610
G01 X-69.22607 Y15.45239
G01 X-69.20852 Y15.36390
G01 X-69.20258 Y15.31290
G01 X-69.20080 Y15.02374
G01 X-69.12318 Y14.95966
G01 X-69.03060 Y14.86573
G01 X-68.91899 Y14.72194
G01 X-68.84132 Y14.58943
G01 X-68.78754 Y14.46728
G01 X-68.76997 Y14.42011
G01 X-68.73131 Y14.28321
G01 X-68.71269 Y14.18128
G01 X-68.70167 Y14.06609
G01 X-68.70093 Y13.95039
G01 X-68.70817 Y13.85722
G01 X-68.73276 Y13.71023
G01 X-68.76009 Y13.60929
G01 X-68.79974 Y13.50058
G01 X-68.84888 Y13.39586
G01 X-68.89554 Y13.31486
G01 X-68.97411 Y13.20152
G01 X-69.06471 Y13.09751
G01 X-69.13176 Y13.03244
G01 X-69.20006 Y12.97577
G01 X-69.20052 Y12.72004
G01 X-69.21467 Y12.60069
G01 X-69.23738 Y12.51148
G01 X-69.26532 Y12.43414
G01 X-69.29229 Y12.37770
G01 X-69.34396 Y12.29210
G01 X-69.40608 Y12.21405
G01 X-69.70001 Y11.91862
G01 X-69.70174 Y11.36241
G01 X-69.72115 Y11.23031
G01 X-69.76659 Y11.09289
G01 X-69.81434 Y11.00104
G01 X-69.84944 Y10.94753
G01 X-69.91530 Y10.86645
G01 X-69.99171 Y10.79518
G01 X-70.04268 Y10.75652
G01 X-70.13191 Y10.70219
G01 X-70.23776 Y10.65685
G01 X-70.29915 Y10.63882
G01 X-70.39105 Y10.61994
G01 X-70.49529 Y10.61288
G01 X-70.55922 Y10.61507
G01 X-70.65226 Y10.62716
G01 X-70.75312 Y10.65431
G01 X-70.80728 Y10.67394
G01 X-70.88779 Y10.71278
G01 X-70.95546 Y10.75535
G01 X-71.00242 Y10.79025
G01 X-71.07585 Y10.85731
G01 X-71.13445 Y10.92523
G01 X-71.18485 Y10.99944
G01 X-71.21301 Y11.05070
G01 X-71.24911 Y11.13198
G01 X-71.27834 Y11.22848
G01 X-71.28990 Y11.28994
G01 X-71.29998 Y11.41250
G01 X-71.29983 Y12.26137
G01 X-71.29315 Y12.35408
G01 X-71.27405 Y12.45166
G01 X-71.22803 Y12.58136
G01 X-71.18612 Y12.66050
G01 X-71.15495 Y12.70894
G01 X-71.08680 Y12.79337
G01 X-70.85716 Y13.02365
G01 X-70.96666 Y13.13083
G01 X-71.04304 Y13.22421
G01 X-71.11096 Y13.32530
G01 X-71.19849 Y13.49662
G01 X-71.23433 Y13.59205
G01 X-71.25985 Y13.67963
G01 X-71.29000 Y13.84656
G01 X-71.29678 Y13.92250
G01 X-71.29836 Y14.05491
G01 X-71.29521 Y14.10703
G01 X-71.27415 Y14.25783
G01 X-71.23471 Y14.40439
G01 X-71.21510 Y14.46101
G01 X-71.15338 Y14.59969
G01 X-71.07499 Y14.72966
G01 X-71.04050 Y14.77866
G01 X-70.94289 Y14.89492
G01 X-70.85675 Y14.97536
G01 X-74.42312 Y18.54192
G01 X-74.48413 Y18.61289
G01 X-74.52030 Y18.66395
G01 X-74.57521 Y18.76262
G01 X-74.60170 Y18.82920
G01 X-74.63523 Y18.94726
G01 X-74.64999 Y19.09999
G01 X-74.64999 Y23.89998
G01 X-74.63988 Y24.02274
G01 X-74.63048 Y24.07524
G01 X-74.60849 Y24.15400
G01 X-74.56251 Y24.26368
G01 X-74.50107 Y24.36480
G01 X-74.41565 Y24.46566
G01 X-72.34128 Y26.53942
G01 X-72.24682 Y26.61552
G01 X-72.18840 Y26.65349
G01 X-72.06889 Y26.70914
G01 X-71.99079 Y26.73363
G01 X-71.89361 Y26.75321
G01 X-71.78998 Y26.75997
G01 X-67.27500 Y26.75997
G01 X-67.17088 Y26.75313
G01 X-67.04584 Y26.72636
G01 X-66.96072 Y26.69522
G01 X-66.91234 Y26.67284
G01 X-66.84038 Y26.63114
G01 X-66.79646 Y26.60084
G01 X-66.72471 Y26.54041
G01 X-66.68044 Y26.49421
G01 X-66.62141 Y26.42128
G01 X-66.57249 Y26.34127
G01 X-66.54805 Y26.29385
G01 X-66.51790 Y26.21636
G01 X-66.49933 Y26.15509
G01 X-66.48181 Y26.06294
G01 X-66.47569 Y25.93734
G01 X-66.25521 Y25.95189
G01 X-66.25486 Y28.56654
G01 X-66.39293 Y28.61696
G01 X-66.50876 Y28.65303
G01 X-66.62618 Y28.68343
G01 X-66.76489 Y28.71269
G01 X-66.88379 Y28.73245
G01 X-66.99347 Y28.74551
G01 X-67.14449 Y28.75651
G01 X-67.25491 Y28.75984
G01 X-71.86026 Y28.75892
G01 X-72.08200 Y28.74447
G01 X-72.27217 Y28.71785
G01 X-72.50077 Y28.66774
G01 X-72.68726 Y28.61219
G01 X-72.84055 Y28.55425
G01 X-73.00839 Y28.47919
G01 X-73.13498 Y28.41531
G01 X-73.25771 Y28.34437
G01 X-73.36793 Y28.27236
G01 X-73.48220 Y28.18844
G01 X-73.62612 Y28.07269
G01 X-73.74783 Y27.96156
G01 X-75.82985 Y25.87983
G01 X-75.92753 Y25.77643
G01 X-76.08908 Y25.58085
G01 X-76.21516 Y25.39774
G01 X-76.28804 Y25.27635
G01 X-76.34061 Y25.17920
G01 X-76.39304 Y25.07069
G01 X-76.44519 Y24.95017
G01 X-76.48489 Y24.84707
G01 X-76.52296 Y24.73274
G01 X-76.56159 Y24.59627
G01 X-76.58971 Y24.47760
G01 X-76.62606 Y24.25705
G01 X-76.64155 Y24.10463
G01 X-76.64859 Y23.98189
G01 X-76.64740 Y18.98734
G01 X-76.62603 Y18.74256
G01 X-76.59345 Y18.54035
G01 X-76.54724 Y18.35132
G01 X-76.47498 Y18.12719
G01 X-76.40150 Y17.94703
G01 X-76.31422 Y17.77309
G01 X-76.20063 Y17.57924
G01 X-76.07125 Y17.39577
G01 X-75.94770 Y17.24640
G01 X-75.84417 Y17.13454
G01 X-73.25398 Y14.54424
G01 X-73.20232 Y14.56225
G01 X-73.25398 Y14.54424
G01 X-73.28753 Y14.28280
G01 X-73.29825 Y14.06982
G01 X-73.29327 Y13.79670
G01 X-73.27189 Y13.57691
G01 X-73.23554 Y13.35679
G01 X-73.20808 Y13.22682
G01 X-73.17110 Y13.08898
G01 X-73.15655 Y13.08887
G01 X-73.17110 Y13.08898
G01 X-73.19058 Y13.02474
G01 X-73.22355 Y12.89840
G01 X-73.25457 Y12.75022
G01 X-73.28454 Y12.54150
G01 X-73.29894 Y12.32027
G01 X-73.29993 Y11.41250
G01 X-73.29691 Y11.28961
G01 X-73.28883 Y11.17722
G01 X-73.26947 Y11.00460
G01 X-73.24951 Y10.88377
G01 X-73.22368 Y10.76406
G01 X-73.17445 Y10.58695
G01 X-73.13013 Y10.45256
G01 X-73.07826 Y10.32088
G01 X-73.01479 Y10.18271
G01 X-72.95520 Y10.06655
G01 X-72.88433 Y9.94514
G01 X-72.79579 Y9.81011
G01 X-72.71880 Y9.70470
G01 X-72.62985 Y9.59582
G01 X-72.51499 Y9.46848
G01 X-72.41479 Y9.36988
G01 X-72.30140 Y9.26953
G01 X-72.19980 Y9.18756
G01 X-72.09406 Y9.11098
G01 X-71.95022 Y9.01758
G01 X-71.82825 Y8.94771
G01 X-71.68373 Y8.87575
G01 X-71.57293 Y8.82632
G01 X-71.45990 Y8.78233
G01 X-71.33519 Y8.74093
G01 X-71.18840 Y8.69881
G01 X-71.05967 Y8.66905
G01 X-70.91954 Y8.64464
G01 X-70.76791 Y8.62602
G01 X-70.63618 Y8.61588
G01 X-70.51429 Y8.61271
G01 X-70.39237 Y8.61548
G01 X-70.22976 Y8.62587
G01 X-70.10865 Y8.64001
G01 X-69.98835 Y8.66005
G01 X-69.82917 Y8.69480
G01 X-69.71248 Y8.72561
G01 X-69.58640 Y8.90128
G01 X-69.31556 Y9.34954
G01 X-69.11454 Y9.75769
G01 X-68.96887 Y10.13142
G01 X-68.86555 Y10.48283
G01 X-68.79948 Y10.80701
G01 X-68.75838 Y11.16780
G01 X-68.74614 Y11.47064
G01 X-68.75048 Y11.47140
G01 X-68.74614 Y11.47064
G01 X-68.73479 Y11.51285
G01 X-68.70141 Y11.60516
G01 X-68.61404 Y11.88989
G01 X-68.48513 Y12.45182
G01 X-68.45104 Y12.60810
G01 X-68.45452 Y12.60935
G01 X-68.45104 Y12.60810
G01 X-68.42585 Y12.67369
G01 X-68.27159 Y12.94732
G01 X-68.02206 Y13.36436
G01 X-67.98823 Y13.66263
G01 X-67.97744 Y13.85519
G01 X-67.97525 Y14.04653
G01 X-67.98160 Y14.23802
G01 X-67.99651 Y14.43007
G01 X-68.02610 Y14.66177
G01 X-68.05750 Y14.84097
G01 X-68.12412 Y15.13172
G01 X-68.14988 Y15.22590
G01 X-68.22333 Y15.45620
G01 X-68.23413 Y15.51600
G01 X-68.24406 Y15.62857
G01 X-68.27893 Y15.89011
G01 X-68.33433 Y16.16182
G01 X-68.42204 Y16.47396
G01 X-68.46034 Y16.58755
G01 X-68.54670 Y16.67800
G01 X-71.73869 Y19.87080
G01 X-71.76978 Y19.90870
G01 X-71.77880 Y19.90281
G01 X-71.76978 Y19.90870
G01 X-71.79287 Y19.95190
G01 X-71.83394 Y20.05109
G01 X-71.95980 Y20.39272
G01 X-72.07651 Y20.82665
G01 X-72.09508 Y20.91408
G01 X-72.15299 Y21.29869
G01 X-72.16000 Y21.38408
G01 X-72.17494 Y21.75939
G01 X-72.17250 Y21.83361
G01 X-72.14182 Y22.24326
G01 X-72.07933 Y22.60138
G01 X-72.06300 Y22.67519
G01 X-71.95751 Y23.05172
G01 X-71.92416 Y23.13681
G01 X-71.93623 Y23.14382
G01 X-71.92416 Y23.13681
G01 X-71.86534 Y23.21108
G01 X-71.60471 Y23.48080
G01 X-71.54248 Y23.54014
G01 X-71.21980 Y23.80940
G01 X-71.02081 Y23.95258
G01 X-71.02226 Y23.95517
G01 X-71.02081 Y23.95258
G01 X-70.97359 Y23.97938
G01 X-70.92173 Y23.99535
G01 X-70.92290 Y23.99957
G01 X-70.92173 Y23.99535
G01 X-70.77677 Y24.02230
G01 X-70.45874 Y24.06612
G01 X-70.38632 Y24.07356
G01 X-70.01231 Y24.09017
G01 X-69.61840 Y24.07379
G01 X-69.30210 Y24.03528
G01 X-69.24035 Y24.02586
G01 X-68.84165 Y23.94059
G01 X-68.47759 Y23.83114
G01 X-68.16547 Y23.71438
G01 X-67.18130 Y23.30686
G01 X-66.98729 Y23.23069
G01 X-66.25478 Y23.65512
G01 X-66.25552 Y24.51357
G01 X-66.25519 Y24.47722
G01 X-66.35323 Y24.41466
G01 X-66.48813 Y24.34120
G01 X-66.64828 Y24.27305
G01 X-66.77462 Y24.23104
G01 X-66.92351 Y24.19528
G01 X-67.05196 Y24.17387
G01 X-67.17261 Y24.16348
G01 X-67.27500 Y24.15997
G01 X-71.04438 Y24.15997
G01 X-71.06013 Y24.19795
G01 X-71.04438 Y24.15997
G01 X-72.05000 Y23.15439
G01 X-72.08807 Y23.17016
G01 X-72.05000 Y23.15439
G01 X-72.05000 Y22.72264
G01 X-72.07933 Y22.60138
G01 X-72.14095 Y22.24314
G01 X-72.14951 Y22.16907
G01 X-72.17250 Y21.83361
G01 X-72.17410 Y21.75939
G01 X-72.16000 Y21.38408
G01 X-72.15233 Y21.29874
G01 X-72.09467 Y20.91416
G01 X-72.05000 Y20.72564
G01 X-72.05000 Y19.84543
G01 X-72.08802 Y19.82970
G01 X-72.05000 Y19.84543
G01 X-68.66471 Y16.45694
G01 X-68.58744 Y16.36494
G01 X-68.50426 Y16.25072
G01 X-68.44556 Y16.15745
G01 X-68.38833 Y16.05046
G01 X-68.33705 Y15.93878
G01 X-68.29115 Y15.81429
G01 X-68.25699 Y15.69903
G01 X-68.24406 Y15.62857
G04 P0 ( dwell for no time -- G64 should not smooth over this point )
G00 Z1.00000 ( retract )

G00 X-68.29984 Y10.76632 ( rapid move to begin. )
G01 F20.00000
( Mill infeed pass 1/1 )
G01 Z-0.30000
G04 P0 ( dwell for no time -- G64 should not smooth over this point )
G01 F30.00000
G01 X-68.29984 Y10.76632
G01 X-68.29997 Y7.75005
G01 X-68.29646 Y7.64761
G01 X-68.28724 Y7.53692
G01 X-68.27243 Y7.43783
G01 X-68.24221 Y7.29976
G01 X-68.21795 Y7.21289
G01 X-68.18498 Y7.11830
G01 X-68.13492 Y6.99712
G01 X-68.09021 Y6.90743
G01 X-68.03461 Y6.81078
G01 X-67.97932 Y6.72457
G01 X-67.92460 Y6.65033
G01 X-67.84007 Y6.54909
G01 X-67.77970 Y6.48416
G01 X-64.18593 Y2.89161
G01 X-64.09367 Y2.81043
G01 X-64.01290 Y2.74744
G01 X-63.90246 Y2.67310
G01 X-63.81425 Y2.62110
G01 X-63.69517 Y2.56202
G01 X-63.60305 Y2.52265
G01 X-63.50848 Y2.48953
G01 X-63.38212 Y2.45290
G01 X-63.29378 Y2.43317
G01 X-63.19439 Y2.41752
G01 X-63.05235 Y2.40350
G01 X-62.94999 Y2.40000
G01 X-49.29998 Y2.40000
G01 X-49.14676 Y2.40701
G01 X-49.03724 Y2.41930
G01 X-48.87900 Y2.45085
G01 X-48.77247 Y2.47904
G01 X-48.66828 Y2.51498
G01 X-48.52891 Y2.57350
G01 X-48.43112 Y2.62433
G01 X-48.30000 Y2.70345
G01 X-48.20841 Y2.76906
G01 X-48.09907 Y2.85991
G01 X-48.02711 Y2.92727
G01 X-46.38444 Y4.57144
G01 X-46.28502 Y4.68815
G01 X-46.21360 Y4.78485
G01 X-46.12432 Y4.93113
G01 X-46.06925 Y5.03799
G01 X-45.99391 Y5.22625
G01 X-45.96694 Y5.31442
G01 X-45.94238 Y5.41338
G01 X-45.91492 Y5.57126
G01 X-45.90011 Y5.78028
G01 X-45.89998 Y17.21322
G01 X-45.93750 Y17.22864
G01 X-45.89998 Y17.21322
G01 X-44.84820 Y18.26519
G01 X-44.76831 Y18.35407
G01 X-44.66816 Y18.48213
G01 X-44.59971 Y18.58419
G01 X-44.54449 Y18.68239
G01 X-44.47527 Y18.83075
G01 X-44.43395 Y18.93557
G01 X-44.39798 Y19.05307
G01 X-44.36628 Y19.19196
G01 X-44.34888 Y19.30077
G01 X-44.33849 Y19.42142
G01 X-44.33499 Y19.52381
G01 X-44.33499 Y22.34999
G01 X-44.33849 Y22.45236
G01 X-44.35254 Y22.59449
G01 X-44.37423 Y22.72378
G01 X-44.40423 Y22.84105
G01 X-44.46308 Y23.01479
G01 X-44.51612 Y23.13689
G01 X-44.60024 Y23.28898
G01 X-44.66572 Y23.38982
G01 X-44.76493 Y23.51682
G01 X-44.85272 Y23.61303
G01 X-44.95622 Y23.70927
G01 X-45.03323 Y23.77336
G01 X-45.11436 Y23.83218
G01 X-45.22615 Y23.90361
G01 X-45.31611 Y23.95258
G01 X-45.43549 Y24.00838
G01 X-45.52892 Y24.04466
G01 X-45.64464 Y24.08095
G01 X-45.74372 Y24.10689
G01 X-45.84436 Y24.12601
G01 X-45.97644 Y24.14245
G01 X-46.07865 Y24.14908
G01 X-46.18106 Y24.14872
G01 X-46.31393 Y24.14079
G01 X-46.41553 Y24.12789
G01 X-46.51977 Y24.10727
G01 X-46.52010 Y23.59160
G01 X-46.36648 Y23.62883
G01 X-46.23704 Y23.64529
G01 X-46.07555 Y23.64859
G01 X-45.90501 Y23.62932
G01 X-45.79737 Y23.60470
G01 X-45.69971 Y23.57471
G01 X-45.63280 Y23.54897
G01 X-45.49325 Y23.48055
G01 X-45.36316 Y23.39602
G01 X-45.30687 Y23.35164
G01 X-45.23069 Y23.28324
G01 X-45.14652 Y23.19373
G01 X-45.05371 Y23.07143
G01 X-44.97151 Y22.92977
G01 X-44.92295 Y22.81692
G01 X-44.86841 Y22.64250
G01 X-44.84875 Y22.53333
G01 X-44.83504 Y22.36023
G01 X-44.83517 Y19.50428
G01 X-44.84172 Y19.39427
G01 X-44.85063 Y19.32315
G01 X-44.87588 Y19.20293
G01 X-44.89798 Y19.12404
G01 X-44.93877 Y19.01904
G01 X-44.98172 Y18.92574
G01 X-45.01624 Y18.86174
G01 X-45.07962 Y18.76666
G01 X-45.18142 Y18.64065
G01 X-46.39998 Y17.42034
G01 X-46.43783 Y17.43596
G01 X-46.39998 Y17.42034
G01 X-46.39998 Y5.79999
G01 X-46.40890 Y5.65353
G01 X-46.42597 Y5.54220
G01 X-46.46577 Y5.39173
G01 X-46.53194 Y5.22935
G01 X-46.62437 Y5.06999
G01 X-46.72475 Y4.94060
G01 X-48.39594 Y3.26586
G01 X-48.49045 Y3.18364
G01 X-48.56267 Y3.12933
G01 X-48.67506 Y3.06078
G01 X-48.75713 Y3.01879
G01 X-48.86150 Y2.97645
G01 X-48.94931 Y2.94841
G01 X-49.07912 Y2.91912
G01 X-49.18065 Y2.90586
G01 X-49.29998 Y2.89999
G01 X-62.94999 Y2.89999
G01 X-63.11328 Y2.91150
G01 X-63.22652 Y2.92976
G01 X-63.40455 Y2.98211
G01 X-63.47092 Y3.00921
G01 X-63.56406 Y3.05425
G01 X-63.62776 Y3.09098
G01 X-63.71435 Y3.14856
G01 X-63.84107 Y3.25364
G01 X-67.41922 Y6.83075
G01 X-67.47002 Y6.88548
G01 X-67.55326 Y6.98807
G01 X-67.59791 Y7.05482
G01 X-67.65877 Y7.16107
G01 X-67.69346 Y7.23532
G01 X-67.73045 Y7.33080
G01 X-67.75414 Y7.40923
G01 X-67.78084 Y7.52914
G01 X-67.79227 Y7.61027
G01 X-67.79877 Y7.70123
G01 X-67.79933 Y12.00948
G01 X-67.78221 Y12.18260
G01 X-67.74475 Y12.34161
G01 X-67.70500 Y12.45530
G01 X-67.63067 Y12.60996
G01 X-67.53550 Y12.75398
G01 X-67.44866 Y12.85591
G01 X-67.24947 Y13.05611
G01 X-67.21254 Y13.04102
G01 X-67.24947 Y13.05611
G01 X-67.24947 Y17.13159
G01 X-67.21142 Y17.14734
G01 X-67.24947 Y17.13159
G01 X-70.93328 Y20.81629
G01 X-71.00054 Y20.89071
G01 X-71.09577 Y21.02213
G01 X-71.15708 Y21.12861
G01 X-71.22554 Y21.28754
G01 X-71.24736 Y21.35469
G01 X-71.26638 Y21.43310
G01 X-71.28688 Y21.54311
G01 X-71.29549 Y21.61319
G01 X-71.29925 Y21.69378
G01 X-71.29658 Y21.79546
G01 X-71.29158 Y21.86699
G01 X-71.28144 Y21.93795
G01 X-71.24080 Y22.10712
G01 X-71.19849 Y22.22246
G01 X-71.12627 Y22.36942
G01 X-71.06531 Y22.46412
G01 X-70.97067 Y22.58499
G01 X-70.89173 Y22.66531
G01 X-70.76503 Y22.77143
G01 X-70.63374 Y22.85454
G01 X-70.53550 Y22.90496
G01 X-70.39394 Y22.95909
G01 X-70.27748 Y22.98982
G01 X-70.12793 Y23.01415
G01 X-69.97649 Y23.01974
G01 X-69.85627 Y23.01215
G01 X-69.70685 Y22.98695
G01 X-69.56171 Y22.94346
G01 X-69.45914 Y22.90254
G01 X-69.34271 Y22.84148
G01 X-69.27446 Y22.79914
G01 X-69.16966 Y22.71989
G01 X-69.10235 Y22.66079
G01 X-66.19331 Y19.75221
G01 X-66.47185 Y21.68121
G01 X-66.59575 Y22.16026
G01 X-66.53563 Y22.28309
G01 X-66.46403 Y22.40661
G01 X-66.36073 Y22.55815
G01 X-66.28638 Y22.65538
G01 X-66.20624 Y22.74786
G01 X-66.11323 Y22.84232
G01 X-65.98361 Y22.95726
G01 X-65.88796 Y23.03356
G01 X-65.78778 Y23.10387
G01 X-65.68349 Y23.16792
G01 X-65.59375 Y23.21634
G01 X-65.45362 Y23.28372
G01 X-64.04996 Y23.32805
G01 X-63.67516 Y22.95317
G01 X-63.47303 Y22.73214
G01 X-63.41440 Y22.66208
G01 X-63.23442 Y22.42241
G01 X-63.08999 Y22.17877
G01 X-63.04999 Y22.10049
G04 P0 ( dwell for no time -- G64 should not smooth over this point )
G00 Z1.00000 ( retract )

G00 X-66.25440 Y25.23485 ( rapid move to begin. )
G01 F20.00000
( Mill infeed pass 1/1 )
G01 Z-0.30000
G04 P0 ( dwell for no time -- G64 should not smooth over this point )
G01 F30.00000
G01 X-66.25440 Y25.23485
G01 X-66.25473 Y25.15608
G01 X-66.28834 Y25.11405
G01 X-66.34935 Y25.04737
G01 X-66.43124 Y24.97186
G01 X-66.49349 Y24.92108
G01 X-66.55115 Y24.88090
G01 X-66.68138 Y24.80340
G01 X-66.83896 Y24.73551
G01 X-66.95430 Y24.70081
G01 X-67.04406 Y24.68098
G01 X-67.12509 Y24.66873
G01 X-67.27500 Y24.65997
G01 X-71.25150 Y24.65997
G01 X-71.26722 Y24.69782
G01 X-71.25150 Y24.65997
G01 X-72.54999 Y23.36150
G01 X-72.58804 Y23.37725
G01 X-72.54999 Y23.36150
G01 X-72.54999 Y19.63837
G01 X-72.58792 Y19.62269
G01 X-72.54999 Y19.63837
G01 X-69.06666 Y16.15415
G01 X-68.99813 Y16.07817
G01 X-68.91889 Y15.97132
G01 X-68.86539 Y15.88399
G01 X-68.80553 Y15.76306
G01 X-68.75899 Y15.63667
G01 X-68.73065 Y15.52768
G01 X-68.70517 Y15.36563
G01 X-68.70144 Y15.24432
G01 X-68.72432 Y15.23540
G01 X-68.70144 Y15.24432
G01 X-68.60764 Y15.13995
G01 X-68.50477 Y15.00205
G01 X-68.40052 Y14.82557
G01 X-68.32445 Y14.65595
G01 X-68.29633 Y14.58049
G01 X-68.25084 Y14.42456
G01 X-68.22133 Y14.27543
G01 X-68.20210 Y14.08659
G01 X-68.20322 Y13.89675
G01 X-68.21518 Y13.76675
G01 X-68.23507 Y13.64775
G01 X-68.28470 Y13.45430
G01 X-68.33621 Y13.31305
G01 X-68.38638 Y13.20335
G01 X-68.42280 Y13.13310
G01 X-68.48419 Y13.02923
G01 X-68.57652 Y12.89832
G01 X-68.67342 Y12.78339
G01 X-68.70017 Y12.75504
G01 X-68.72117 Y12.76426
G01 X-68.70017 Y12.75504
G01 X-68.70068 Y12.70792
G01 X-68.70809 Y12.61392
G01 X-68.73014 Y12.47211
G01 X-68.75333 Y12.38291
G01 X-68.79036 Y12.27640
G01 X-68.81800 Y12.20881
G01 X-68.85054 Y12.14344
G01 X-68.93598 Y12.00305
G01 X-69.04515 Y11.86774
G01 X-69.20009 Y11.71156
G01 X-69.23476 Y11.72535
G01 X-69.20009 Y11.71156
G01 X-69.20022 Y11.39205
G01 X-69.20616 Y11.29289
G01 X-69.22097 Y11.18060
G01 X-69.24411 Y11.07892
G01 X-69.28874 Y10.94115
G01 X-69.33519 Y10.83627
G01 X-69.41571 Y10.69530
G01 X-69.51980 Y10.55888
G01 X-69.57433 Y10.49990
G01 X-69.64873 Y10.43107
G01 X-69.75109 Y10.35017
G01 X-69.84495 Y10.29015
G01 X-69.90636 Y10.25594
G01 X-70.06394 Y10.18804
G01 X-70.18909 Y10.15108
G01 X-70.28823 Y10.13000
G01 X-70.36786 Y10.11946
G01 X-70.48911 Y10.11288
G01 X-70.58947 Y10.11583
G01 X-70.72003 Y10.13150
G01 X-70.82790 Y10.15505
G01 X-70.96415 Y10.19820
G01 X-71.07649 Y10.24793
G01 X-71.16882 Y10.29795
G01 X-71.27283 Y10.36721
G01 X-71.37718 Y10.45360
G01 X-71.44471 Y10.51974
G01 X-71.53262 Y10.62281
G01 X-71.60336 Y10.72584
G01 X-71.65056 Y10.80773
G01 X-71.70679 Y10.92924
G01 X-71.73722 Y11.01623
G01 X-71.77237 Y11.14613
G01 X-71.78845 Y11.24918
G01 X-71.79991 Y11.40224
G01 X-71.79978 Y12.26950
G01 X-71.79318 Y12.38001
G01 X-71.78218 Y12.46332
G01 X-71.75315 Y12.59566
G01 X-71.71390 Y12.71402
G01 X-71.67375 Y12.80820
G01 X-71.61050 Y12.92530
G01 X-71.52663 Y13.04641
G01 X-71.44258 Y13.04120
G01 X-71.52663 Y13.04641
G01 X-71.64235 Y13.26373
G01 X-71.71507 Y13.45390
G01 X-71.75538 Y13.60305
G01 X-71.79026 Y13.81463
G01 X-71.79625 Y13.89578
G01 X-71.79828 Y14.03812
G01 X-71.79315 Y14.15285
G01 X-71.77014 Y14.32446
G01 X-71.74631 Y14.43172
G01 X-71.69147 Y14.61544
G01 X-71.61167 Y14.80073
G01 X-71.57946 Y14.86281
G01 X-71.53110 Y14.94264
G01 X-71.40382 Y14.95986
G01 X-71.53110 Y14.94264
G01 X-74.76922 Y18.18074
G01 X-74.87315 Y18.29885
G01 X-74.93998 Y18.39209
G01 X-75.02075 Y18.53562
G01 X-75.07188 Y18.65848
G01 X-75.10843 Y18.77573
G01 X-75.12858 Y18.86567
G01 X-75.14572 Y19.00791
G01 X-75.14991 Y19.08973
G01 X-75.14991 Y23.91021
G01 X-75.13620 Y24.08321
G01 X-75.11666 Y24.19190
G01 X-75.06952 Y24.35012
G01 X-75.02931 Y24.44600
G01 X-74.99685 Y24.51199
G01 X-74.90407 Y24.66076
G01 X-74.78413 Y24.80394
G01 X-72.68047 Y26.90680
G01 X-72.55538 Y27.00904
G01 X-72.46983 Y27.06799
G01 X-72.37867 Y27.11775
G01 X-72.22843 Y27.18349
G01 X-72.13072 Y27.21414
G01 X-72.01080 Y27.24081
G01 X-71.91949 Y27.25321
G01 X-71.80948 Y27.25976
G01 X-67.27500 Y27.25994
G01 X-67.15542 Y27.25405
G01 X-67.04099 Y27.23832
G01 X-66.90131 Y27.20503
G01 X-66.75791 Y27.15242
G01 X-66.64993 Y27.09906
G01 X-66.52120 Y27.01910
G01 X-66.38841 Y26.91041
G01 X-66.32453 Y26.84653
G01 X-66.25420 Y26.76403
G01 X-66.25433 Y26.73543
G01 X-66.25557 Y27.44338
G01 X-66.38877 Y27.52560
G01 X-66.48808 Y27.57881
G01 X-66.59110 Y27.62438
G01 X-66.73393 Y27.67650
G01 X-66.84973 Y27.70876
G01 X-66.97927 Y27.73533
G01 X-67.09092 Y27.75029
G01 X-67.22377 Y27.75905
G01 X-71.82068 Y27.75961
G01 X-71.96315 Y27.75128
G01 X-72.08238 Y27.73589
G01 X-72.24083 Y27.70200
G01 X-72.35881 Y27.66764
G01 X-72.50171 Y27.61130
G01 X-72.61309 Y27.55969
G01 X-72.70321 Y27.51102
G01 X-72.83988 Y27.42070
G01 X-73.00493 Y27.28755
G01 X-75.13658 Y25.15873
G01 X-75.20932 Y25.07846
G01 X-75.29827 Y24.96863
G01 X-75.35540 Y24.88631
G01 X-75.42380 Y24.77315
G01 X-75.47531 Y24.67295
G01 X-75.52804 Y24.55070
G01 X-75.56236 Y24.45421
G01 X-75.59604 Y24.33602
G01 X-75.61826 Y24.23602
G01 X-75.63236 Y24.14494
G01 X-75.64646 Y24.00234
G01 X-75.64996 Y23.89998
G01 X-75.64991 Y19.08973
G01 X-75.64572 Y18.98739
G01 X-75.63236 Y18.85500
G01 X-75.61826 Y18.76392
G01 X-75.59858 Y18.67385
G01 X-75.57341 Y18.58518
G01 X-75.52792 Y18.44929
G01 X-75.48842 Y18.35480
G01 X-75.44252 Y18.26323
G01 X-75.37717 Y18.14838
G01 X-75.32210 Y18.06420
G01 X-75.25515 Y17.97611
G01 X-75.16371 Y17.86979
G01 X-72.13902 Y14.84348
G01 X-72.05896 Y14.86344
G01 X-72.13902 Y14.84348
G01 X-72.18914 Y14.70322
G01 X-72.23801 Y14.52814
G01 X-72.26094 Y14.42065
G01 X-72.28977 Y14.21094
G01 X-72.29820 Y14.07165
G01 X-72.29627 Y13.88897
G01 X-72.28990 Y13.78511
G01 X-72.27633 Y13.68196
G01 X-72.23859 Y13.47249
G01 X-72.18639 Y13.28618
G01 X-72.11459 Y13.09535
G01 X-72.10257 Y13.06794
G01 X-72.06582 Y13.06764
G01 X-72.10257 Y13.06794
G01 X-72.10897 Y13.05563
G01 X-72.17092 Y12.91872
G01 X-72.22754 Y12.75532
G01 X-72.25314 Y12.65613
G01 X-72.28025 Y12.51537
G01 X-72.29213 Y12.41362
G01 X-72.29980 Y12.27046
G01 X-72.29980 Y11.39200
G01 X-72.29572 Y11.29990
G01 X-72.28362 Y11.17806
G01 X-72.25647 Y11.01946
G01 X-72.21339 Y10.86355
G01 X-72.16612 Y10.73150
G01 X-72.10257 Y10.59363
G01 X-72.04309 Y10.48609
G01 X-71.95850 Y10.35787
G01 X-71.88952 Y10.26879
G01 X-71.79427 Y10.16165
G01 X-71.71324 Y10.08337
G01 X-71.59572 Y9.98446
G01 X-71.50392 Y9.91918
G01 X-71.37321 Y9.83854
G01 X-71.23608 Y9.77031
G01 X-71.13433 Y9.72802
G01 X-70.98048 Y9.67862
G01 X-70.87121 Y9.65121
G01 X-70.76018 Y9.63206
G01 X-70.59724 Y9.61522
G01 X-70.48462 Y9.61291
G01 X-70.34144 Y9.61992
G01 X-70.20931 Y9.63625
G01 X-70.06902 Y9.66567
G01 X-69.96034 Y9.69531
G01 X-69.85419 Y9.73303
G01 X-69.73164 Y9.78499
G01 X-69.62234 Y9.84118
G01 X-69.48322 Y9.92769
G01 X-69.38406 Y10.00026
G01 X-69.26067 Y10.10798
G01 X-69.18099 Y10.18766
G01 X-69.10753 Y10.27308
G01 X-69.01487 Y10.39553
G01 X-68.94924 Y10.49945
G01 X-68.87736 Y10.63391
G01 X-68.82508 Y10.75378
G01 X-68.79179 Y10.85675
G01 X-68.86555 Y10.48283
G01 X-68.96887 Y10.13142
G01 X-69.11454 Y9.75769
G01 X-69.24871 Y9.48375
G01 X-69.38000 Y9.40382
G01 X-69.50481 Y9.33915
G01 X-69.67179 Y9.26749
G01 X-69.80420 Y9.22028
G01 X-69.94936 Y9.18017
G01 X-70.12724 Y9.14303
G01 X-70.26659 Y9.12459
G01 X-70.42788 Y9.11438
G01 X-70.56846 Y9.11355
G01 X-70.70875 Y9.12256
G01 X-70.87903 Y9.14425
G01 X-71.02673 Y9.17377
G01 X-71.20202 Y9.22307
G01 X-71.32782 Y9.26668
G01 X-71.45043 Y9.31857
G01 X-71.60509 Y9.39543
G01 X-71.71837 Y9.46219
G01 X-71.86130 Y9.55871
G01 X-71.97260 Y9.64626
G01 X-72.09373 Y9.75434
G01 X-72.19259 Y9.85573
G01 X-72.30468 Y9.98680
G01 X-72.38307 Y10.09239
G01 X-72.47158 Y10.22845
G01 X-72.54070 Y10.35207
G01 X-72.61482 Y10.50877
G01 X-72.66696 Y10.64235
G01 X-72.71288 Y10.78880
G01 X-72.74580 Y10.91656
G01 X-72.77024 Y11.04626
G01 X-72.79048 Y11.21816
G01 X-72.79866 Y11.34080
G01 X-72.79983 Y12.27099
G01 X-72.78743 Y12.48781
G01 X-72.76315 Y12.65804
G01 X-72.71601 Y12.86563
G01 X-72.68649 Y12.96241
G01 X-72.64448 Y13.08042
G01 X-72.62322 Y13.08009
G01 X-72.64448 Y13.08042
G01 X-72.70166 Y13.26576
G01 X-72.73676 Y13.41084
G01 X-72.77115 Y13.60970
G01 X-72.78591 Y13.72065
G01 X-72.79444 Y13.83223
G01 X-72.79650 Y14.13632
G01 X-72.78662 Y14.26705
G01 X-72.76287 Y14.44777
G01 X-72.74418 Y14.55608
G01 X-72.72203 Y14.65351
G01 X-72.70811 Y14.70546
G01 X-72.64740 Y14.72451
G01 X-72.70811 Y14.70546
G01 X-75.51826 Y17.51691
G01 X-75.67574 Y17.70167
G01 X-75.73587 Y17.78345
G01 X-75.79177 Y17.86816
G01 X-75.91176 Y18.08162
G01 X-75.95954 Y18.18366
G01 X-76.00150 Y18.28823
G01 X-76.06764 Y18.49277
G01 X-76.10785 Y18.66217
G01 X-76.13320 Y18.83440
G01 X-76.14481 Y18.95668
G01 X-76.14971 Y19.06925
G01 X-76.14983 Y23.92045
G01 X-76.14552 Y24.03305
G01 X-76.13213 Y24.17552
G01 X-76.10061 Y24.37381
G01 X-76.05847 Y24.54001
G01 X-76.01544 Y24.67496
G01 X-75.96706 Y24.79723
G01 X-75.89441 Y24.95362
G01 X-75.83038 Y25.06848
G01 X-75.73681 Y25.21514
G01 X-75.65718 Y25.32184
G01 X-75.54549 Y25.45352
G01 X-73.37339 Y27.62791
G01 X-73.25317 Y27.73243
G01 X-73.08309 Y27.86144
G01 X-72.94560 Y27.94843
G01 X-72.81067 Y28.01958
G01 X-72.58573 Y28.11747
G01 X-72.47923 Y28.15422
G01 X-72.37080 Y28.18488
G01 X-72.23102 Y28.21668
G01 X-72.12005 Y28.23611
G01 X-72.00814 Y28.24924
G01 X-71.87400 Y28.25816
G01 X-67.25397 Y28.25981
G01 X-67.06738 Y28.25016
G01 X-66.92676 Y28.23337
G01 X-66.74711 Y28.19822
G01 X-66.59880 Y28.15816
G01 X-66.40685 Y28.08917
G01 X-66.25471 Y28.02118
G01 X-66.25402 Y27.94914
G01 X-66.25382 Y29.09763
G01 X-66.47381 Y29.16103
G01 X-66.72440 Y29.21348
G01 X-66.94775 Y29.24340
G01 X-67.19303 Y29.25879
G01 X-71.81045 Y29.25983
G01 X-71.96402 Y29.25486
G01 X-72.12741 Y29.24241
G01 X-72.26973 Y29.22483
G01 X-72.40100 Y29.20243
G01 X-72.58103 Y29.16296
G01 X-72.70979 Y29.12900
G01 X-72.84662 Y29.08610
G01 X-72.99079 Y29.03291
G01 X-73.11337 Y28.98092
G01 X-73.28032 Y28.90307
G01 X-73.40719 Y28.83624
G01 X-73.51329 Y28.77416
G01 X-73.62525 Y28.70208
G01 X-73.73391 Y28.62511
G01 X-73.87938 Y28.51206
G01 X-73.98136 Y28.42646
G01 X-74.12337 Y28.29339
G01 X-76.23348 Y26.18209
G01 X-76.35654 Y26.04478
G01 X-76.50389 Y25.86109
G01 X-76.60917 Y25.70973
G01 X-76.71608 Y25.53500
G01 X-76.80767 Y25.36330
G01 X-76.89634 Y25.16736
G01 X-76.96619 Y24.98573
G01 X-77.01857 Y24.81966
G01 X-77.07229 Y24.61143
G01 X-77.11138 Y24.39993
G01 X-77.13985 Y24.14554
G01 X-77.14986 Y23.92045
G01 X-77.14966 Y19.05899
G01 X-77.14221 Y18.88503
G01 X-77.12225 Y18.68124
G01 X-77.09827 Y18.51911
G01 X-77.06314 Y18.34858
G01 X-77.01816 Y18.18035
G01 X-76.94844 Y17.96618
G01 X-76.88483 Y17.80410
G01 X-76.81194 Y17.64596
G01 X-76.70498 Y17.44774
G01 X-76.61476 Y17.29882
G01 X-76.50998 Y17.14711
G01 X-76.38951 Y16.99428
G01 X-76.28923 Y16.87794
G01 X-76.19784 Y16.78109
G01 X-73.78182 Y14.36500
G01 X-73.73706 Y14.38199
G01 X-73.78182 Y14.36500
G01 X-73.78347 Y14.34894
G01 X-73.79785 Y14.10452
G01 X-73.79396 Y13.79916
G01 X-73.78151 Y13.62667
G01 X-73.75914 Y13.45517
G01 X-73.70923 Y13.17589
G01 X-73.69023 Y13.09355
G01 X-73.68055 Y13.09347
G01 X-73.69023 Y13.09355
G01 X-73.69858 Y13.06111
G01 X-73.75350 Y12.80056
G01 X-73.77923 Y12.61801
G01 X-73.79426 Y12.43427
G01 X-73.79993 Y12.24999
G01 X-73.79990 Y11.40224
G01 X-73.79650 Y11.26912
G01 X-73.78718 Y11.13627
G01 X-73.76709 Y10.95312
G01 X-73.74466 Y10.81146
G01 X-73.71778 Y10.68106
G01 X-73.68240 Y10.54207
G01 X-73.62899 Y10.36566
G01 X-73.58098 Y10.23054
G01 X-73.52655 Y10.09787
G01 X-73.44827 Y9.93097
G01 X-73.37641 Y9.79515
G01 X-73.29769 Y9.66320
G01 X-73.19576 Y9.50958
G01 X-73.09810 Y9.37798
G01 X-73.00684 Y9.26737
G01 X-72.89053 Y9.13780
G01 X-72.76719 Y9.01489
G01 X-72.62955 Y8.89226
G01 X-72.50206 Y8.78929
G01 X-72.37760 Y8.69917
G01 X-72.22320 Y8.59848
G01 X-72.08147 Y8.51621
G01 X-71.94469 Y8.44624
G01 X-71.78639 Y8.37372
G01 X-71.62429 Y8.31012
G01 X-71.46861 Y8.25894
G01 X-71.27128 Y8.20412
G01 X-71.10100 Y8.16780
G01 X-70.93903 Y8.14273
G01 X-70.74558 Y8.12195
G01 X-70.57166 Y8.11334
G01 X-70.38731 Y8.11522
G01 X-70.18162 Y8.12820
G01 X-69.95589 Y8.39389
G01 X-69.71248 Y8.72561
G01 X-69.99077 Y8.35022
G01 X-70.36377 Y7.91627
G01 X-70.63892 Y7.61510
G01 X-71.48495 Y5.95099
G01 X-71.40722 Y5.74934
G01 X-71.31520 Y5.53585
G01 X-71.21335 Y5.32684
G01 X-71.10189 Y5.12280
G01 X-70.97103 Y4.90484
G01 X-70.84736 Y4.71861
G01 X-70.71548 Y4.53807
G01 X-70.58218 Y4.37142
G01 X-70.41576 Y4.17899
G01 X-70.24759 Y4.00238
G01 X-66.67619 Y0.43114
G01 X-66.45562 Y0.22596
G01 X-66.30833 Y0.10015
G01 X-66.18244 Y0.00000
G01 X-66.94968 Y0.00000
G01 X-67.00055 Y0.04892
G01 X-70.60834 Y3.65608
G01 X-70.83186 Y3.89415
G01 X-71.00367 Y4.09656
G01 X-71.14217 Y4.27330
G01 X-71.27337 Y4.45554
G01 X-71.40786 Y4.66026
G01 X-71.54878 Y4.89704
G01 X-71.66041 Y5.10289
G01 X-71.76745 Y5.32257
G01 X-71.86176 Y5.53982
G04 P0 ( dwell for no time -- G64 should not smooth over this point )
G00 Z1.00000 ( retract )

G00 X-71.90191 Y0.00000 ( rapid move to begin. )
G01 F20.00000
( Mill infeed pass 1/1 )
G01 Z-0.30000
G04 P0 ( dwell for no time -- G64 should not smooth over this point )
G01 F30.00000
G01 X-71.90191 Y0.00000
G01 X-73.10448 Y1.20269
G01 X-73.38258 Y1.49619
G01 X-73.62835 Y1.77894
G01 X-73.83986 Y2.03977
G01 X-74.04148 Y2.30828
G01 X-74.23295 Y2.58415
G01 X-74.37107 Y2.79778
G01 X-74.02004 Y3.18132
G01 X-73.80707 Y2.84673
G01 X-73.57318 Y2.51496
G01 X-73.33016 Y2.20261
G01 X-73.06587 Y1.89189
G01 X-72.90732 Y1.71836
G01 X-72.75843 Y1.56380
G01 X-71.19480 Y0.00000
G01 X-70.48772 Y0.00000
G01 X-72.39043 Y1.90279
G01 X-72.53915 Y2.05671
G01 X-72.68373 Y2.21458
G01 X-72.96092 Y2.54104
G01 X-73.09343 Y2.70914
G01 X-73.21540 Y2.87249
G01 X-73.33318 Y3.03888
G01 X-73.45223 Y3.21676
G01 X-73.55581 Y3.38041
G01 X-73.66732 Y3.56687
G01 X-74.70071 Y3.17845
G01 X-74.73988 Y3.13571
G01 X-74.99134 Y3.26911
G01 X-75.27315 Y3.43118
G01 X-75.52334 Y3.58673
G01 X-75.79421 Y3.76707
G01 X-76.03388 Y3.93840
G01 X-76.26782 Y4.11747
G01 X-76.49578 Y4.30411
G01 X-76.73327 Y4.51140
G01 X-76.91227 Y4.67695
G01 X-77.07953 Y4.84012
G01 X-77.24249 Y5.00756
G01 X-77.40785 Y5.18673
G01 X-77.58204 Y5.38571
G01 X-77.73787 Y5.57324
G01 X-77.89474 Y5.77299
G01 X-78.03998 Y5.96882
G01 X-78.17985 Y6.16854
G01 X-78.32573 Y6.38912
G01 X-78.45504 Y6.59580
G01 X-78.57871 Y6.80593
G01 X-78.70144 Y7.02828
G01 X-78.80421 Y7.22676
G01 X-78.92395 Y7.47392
G01 X-79.02476 Y7.69617
G01 X-79.12712 Y7.93994
G01 X-79.22230 Y8.18660
G01 X-79.31018 Y8.43595
G01 X-79.39364 Y8.69749
G01 X-79.47581 Y8.98131
G01 X-79.54416 Y9.24761
G01 X-79.60434 Y9.51586
G01 X-79.65806 Y9.79584
G01 X-79.69997 Y10.05723
G01 X-79.73764 Y10.35009
G01 X-79.77025 Y10.68382
G01 X-79.78925 Y10.97699
G01 X-79.79910 Y11.30104
G01 X-79.79979 Y11.89787
G01 X-79.76258 Y11.91341
G01 X-79.79979 Y11.89787
G01 X-80.51114 Y12.61036
G01 X-80.67802 Y12.78649
G01 X-80.84673 Y12.97462
G01 X-81.10139 Y13.27823
G01 X-81.33768 Y13.58458
G01 X-81.55493 Y13.89235
G01 X-81.76974 Y14.22631
G01 X-81.97492 Y14.57843
G01 X-82.14312 Y14.89281
G01 X-82.30723 Y15.23210
G01 X-82.45701 Y15.57800
G01 X-82.60248 Y15.95859
G01 X-82.72798 Y16.33578
G01 X-82.83097 Y16.68775
G01 X-82.92181 Y17.05356
G01 X-82.97446 Y17.30273
G01 X-83.01667 Y17.53321
G01 X-83.04995 Y17.74454
G01 X-83.08183 Y17.98693
G01 X-83.10959 Y18.25020
G01 X-83.12996 Y18.50266
G01 X-83.14281 Y18.74545
G01 X-83.14911 Y18.98853
G01 X-83.14814 Y24.07219
G01 X-83.13666 Y24.38606
G01 X-83.11332 Y24.70940
G01 X-83.07575 Y25.06337
G01 X-83.02841 Y25.39583
G01 X-82.97659 Y25.68633
G01 X-82.92206 Y25.94524
G01 X-82.85485 Y26.22212
G01 X-82.77362 Y26.51648
G01 X-82.69293 Y26.77864
G01 X-82.60085 Y27.04780
G01 X-82.50405 Y27.30444
G01 X-82.40349 Y27.54869
G01 X-82.28802 Y27.80899
G01 X-82.16930 Y28.05626
G01 X-82.03829 Y28.30876
G01 X-81.90446 Y28.54818
G01 X-81.74208 Y28.81848
G01 X-81.59377 Y29.04952
G01 X-81.43850 Y29.27594
G01 X-81.26410 Y29.51373
G01 X-81.09481 Y29.72986
G01 X-80.89953 Y29.96413
G01 X-80.71894 Y30.16877
G01 X-80.53923 Y30.36057
G01 X-78.36588 Y32.53595
G01 X-78.16185 Y32.73367
G01 X-77.95925 Y32.91812
G01 X-77.76677 Y33.08332
G01 X-77.56969 Y33.24306
G01 X-77.32822 Y33.42924
G01 X-77.13109 Y33.57222
G01 X-76.92169 Y33.71545
G01 X-76.70836 Y33.85271
G01 X-76.49124 Y33.98390
G01 X-76.28832 Y34.09914
G01 X-76.09147 Y34.20443
G01 X-75.87381 Y34.31367
G01 X-75.68100 Y34.40440
G01 X-75.44831 Y34.50839
G01 X-75.22256 Y34.60227
G01 X-74.98476 Y34.69348
G01 X-74.75416 Y34.77468
G01 X-74.52142 Y34.84959
G01 X-74.28674 Y34.91814
G01 X-74.05027 Y34.98030
G01 X-73.81204 Y35.03620
G01 X-73.58324 Y35.08472
G01 X-73.34326 Y35.12899
G01 X-73.12228 Y35.16384
G01 X-72.90051 Y35.19317
G01 X-72.62744 Y35.22165
G01 X-72.34278 Y35.24278
G01 X-72.07674 Y35.25520
G01 X-71.80021 Y35.25977
G01 X-67.17254 Y35.25919
G01 X-66.94724 Y35.25380
G01 X-66.72214 Y35.24278
G01 X-66.47815 Y35.22518
G01 X-66.25229 Y35.20326
G01 X-66.25145 Y34.19640
G01 X-66.50497 Y34.22371
G01 X-66.75935 Y34.24316
G01 X-67.00187 Y34.25513
G01 X-67.25476 Y34.25977
G01 X-71.85066 Y34.25957
G01 X-72.06308 Y34.25513
G01 X-72.25510 Y34.24626
G01 X-72.50841 Y34.22825
G01 X-72.72073 Y34.20735
G01 X-72.94248 Y34.17938
G01 X-73.14331 Y34.14860
G01 X-73.36325 Y34.10885
G01 X-73.56216 Y34.06739
G01 X-73.78055 Y34.01687
G01 X-74.00714 Y33.95795
G01 X-74.21248 Y33.89836
G01 X-74.42576 Y33.83011
G01 X-74.63709 Y33.75589
G01 X-74.84623 Y33.67578
G01 X-75.04369 Y33.59389
G01 X-75.26703 Y33.49414
G01 X-75.46012 Y33.40288
G01 X-75.65075 Y33.30649
G01 X-75.82982 Y33.20999
G01 X-76.01516 Y33.10382
G01 X-76.20620 Y32.98731
G01 X-76.38545 Y32.87116
G01 X-76.56982 Y32.74438
G01 X-76.74247 Y32.61860
G01 X-77.11016 Y32.32879
G01 X-77.28036 Y32.18353
G01 X-77.44643 Y32.03354
G01 X-77.65161 Y31.83606
G01 X-79.76903 Y29.71820
G01 X-80.02011 Y29.45061
G01 X-80.27845 Y29.14871
G01 X-80.42407 Y28.96596
G01 X-80.55229 Y28.79545
G01 X-80.68170 Y28.61320
G01 X-80.80042 Y28.43596
G01 X-80.92498 Y28.23827
G01 X-81.04523 Y28.03647
G01 X-81.14993 Y27.84930
G01 X-81.25879 Y27.64117
G01 X-81.35280 Y27.44843
G01 X-81.44162 Y27.25323
G01 X-81.53375 Y27.03708
G01 X-81.62331 Y26.80894
G01 X-81.69920 Y26.59748
G01 X-81.76611 Y26.39372
G01 X-81.82750 Y26.18826
G01 X-81.89181 Y25.95199
G01 X-81.94459 Y25.73401
G01 X-81.98922 Y25.52471
G01 X-82.02826 Y25.31425
G01 X-82.06163 Y25.10282
G01 X-82.08935 Y24.89055
G01 X-82.11668 Y24.62743
G01 X-82.13319 Y24.41562
G01 X-82.14444 Y24.19332
G01 X-82.14982 Y23.89998
G01 X-82.14751 Y18.90776
G01 X-82.13253 Y18.57423
G01 X-82.10055 Y18.21071
G01 X-82.06024 Y17.88747
G01 X-82.00680 Y17.56613
G01 X-81.94032 Y17.24723
G01 X-81.86359 Y16.94111
G01 X-81.77484 Y16.63830
G01 X-81.65909 Y16.29029
G01 X-81.55470 Y16.01414
G01 X-81.44431 Y15.75135
G01 X-81.32463 Y15.49265
G01 X-81.19580 Y15.23837
G01 X-81.04320 Y14.96200
G01 X-80.89260 Y14.70904
G01 X-80.73281 Y14.46179
G01 X-80.55806 Y14.21239
G01 X-80.38650 Y13.98577
G01 X-80.23311 Y13.79649
G01 X-80.04051 Y13.57219
G01 X-79.85412 Y13.36970
G01 X-78.79956 Y12.31184
G01 X-78.76200 Y12.32731
G01 X-78.79959 Y12.31069
G01 X-78.79928 Y11.32144
G01 X-78.79443 Y11.11913
G01 X-78.78445 Y10.91705
G01 X-78.75890 Y10.60445
G01 X-78.71325 Y10.22101
G01 X-78.66268 Y9.91042
G01 X-78.59545 Y9.58225
G01 X-78.51455 Y9.25718
G01 X-78.41458 Y8.91573
G01 X-78.30444 Y8.58837
G01 X-78.18796 Y8.28487
G01 X-78.05080 Y7.96788
G01 X-77.90048 Y7.65546
G01 X-77.74211 Y7.35802
G01 X-77.57671 Y7.07619
G01 X-77.40020 Y6.80108
G01 X-77.24358 Y6.57418
G01 X-77.07300 Y6.34469
G01 X-76.88781 Y6.11363
G01 X-76.67409 Y5.86628
G01 X-76.47965 Y5.65666
G01 X-76.26317 Y5.43989
G01 X-76.04618 Y5.23837
G01 X-75.81453 Y5.03776
G01 X-75.58392 Y4.85196
G01 X-75.35489 Y4.68079
G01 X-75.11138 Y4.51226
G01 X-74.83627 Y4.33575
G01 X-74.58116 Y4.18536
G01 X-74.31156 Y4.03984
G01 X-74.03620 Y3.90439
G01 X-72.50300 Y5.58028
G01 X-73.68200 Y4.29156
G01 X-73.91380 Y4.39999
G01 X-74.11316 Y4.50017
G01 X-74.31834 Y4.61119
G01 X-74.50257 Y4.71808
G01 X-74.70076 Y4.84109
G01 X-74.90417 Y4.97548
G01 X-75.10308 Y5.11579
G01 X-75.28933 Y5.25625
G01 X-75.47112 Y5.40243
G01 X-75.65631 Y5.56097
G01 X-75.82929 Y5.71746
G01 X-75.99015 Y5.87212
G01 X-76.14630 Y6.03148
G01 X-76.30442 Y6.20298
G01 X-76.47099 Y6.39468
G01 X-76.61864 Y6.57527
G01 X-76.73632 Y6.72788
G01 X-76.85590 Y6.89171
G01 X-77.07683 Y7.22023
G01 X-77.17869 Y7.38383
G01 X-77.28133 Y7.55881
G01 X-77.45854 Y7.88954
G01 X-77.63294 Y8.25741
G01 X-77.78107 Y8.61550
G01 X-77.91051 Y8.98075
G01 X-78.02456 Y9.36087
G01 X-78.11280 Y9.71479
G01 X-78.18714 Y10.09259
G01 X-78.24081 Y10.46363
G01 X-78.27922 Y10.85698
G01 X-78.29240 Y11.07900
G01 X-78.29901 Y11.30130
G01 X-78.29926 Y12.34216
G01 X-78.29514 Y12.51450
G01 X-78.25689 Y12.53020
G01 X-78.29514 Y12.51450
G01 X-79.47200 Y13.69352
G01 X-79.65161 Y13.88732
G01 X-79.83766 Y14.10302
G01 X-79.99730 Y14.29972
G01 X-80.15021 Y14.50170
G01 X-80.31891 Y14.74229
G01 X-80.48338 Y14.99794
G01 X-80.62742 Y15.24239
G01 X-80.78805 Y15.53756
G01 X-80.91401 Y15.79314
G01 X-81.03017 Y16.05328
G01 X-81.13636 Y16.31767
G01 X-81.23570 Y16.59555
G01 X-81.33105 Y16.89656
G01 X-81.40977 Y17.18097
G01 X-81.47936 Y17.47820
G01 X-81.53334 Y17.75795
G01 X-81.58066 Y18.06981
G01 X-81.61647 Y18.39336
G01 X-81.63781 Y18.67560
G01 X-81.64868 Y18.96857
G01 X-81.64982 Y23.91009
G01 X-81.64523 Y24.16277
G01 X-81.63542 Y24.36470
G01 X-81.61927 Y24.57638
G01 X-81.59316 Y24.82901
G01 X-81.56545 Y25.04059
G01 X-81.53347 Y25.24133
G01 X-81.49405 Y25.45105
G01 X-81.45097 Y25.64968
G01 X-81.39996 Y25.85692
G01 X-81.33773 Y26.08242
G01 X-81.27571 Y26.28618
G01 X-81.20454 Y26.49766
G01 X-81.13077 Y26.69746
G01 X-81.05137 Y26.89509
G01 X-80.95008 Y27.12796
G01 X-80.85958 Y27.32075
G01 X-80.75892 Y27.51991
G01 X-80.65242 Y27.71597
G01 X-80.54533 Y27.90010
G01 X-80.42773 Y28.09108
G01 X-80.29898 Y28.28714
G01 X-80.17612 Y28.46258
G01 X-80.04208 Y28.64251
G01 X-79.90919 Y28.81046
G01 X-79.75867 Y28.99032
G01 X-79.57642 Y29.19542
G01 X-79.37962 Y29.40093
G01 X-77.27638 Y31.50405
G01 X-77.12961 Y31.64533
G01 X-76.98669 Y31.77581
G01 X-76.78575 Y31.94827
G01 X-76.57884 Y32.11398
G01 X-76.39240 Y32.25579
G01 X-76.20160 Y32.39173
G01 X-76.00666 Y32.52163
G01 X-75.79901 Y32.65063
G01 X-75.60506 Y32.76288
G01 X-75.38977 Y32.87865
G01 X-75.07856 Y33.03052
G01 X-74.87409 Y33.12249
G01 X-74.69584 Y33.19737
G01 X-74.34344 Y33.32988
G01 X-73.99462 Y33.44167
G01 X-73.63084 Y33.53869
G01 X-73.24222 Y33.62300
G01 X-72.86998 Y33.68467
G01 X-72.50529 Y33.72663
G01 X-72.14837 Y33.75124
G01 X-71.83095 Y33.75970
G01 X-67.23400 Y33.75970
G01 X-66.98823 Y33.75431
G01 X-66.72232 Y33.73953
G01 X-66.47978 Y33.71898
G01 X-66.25102 Y33.69229
G01 X-66.25130 Y33.13059
G01 X-66.25125 Y33.18767
G01 X-66.27091 Y33.19043
G01 X-66.48290 Y33.21660
G01 X-66.69557 Y33.23628
G01 X-66.93946 Y33.25178
G01 X-67.16311 Y33.25891
G01 X-71.83064 Y33.25970
G01 X-72.11532 Y33.25226
G01 X-72.41979 Y33.23219
G01 X-72.78284 Y33.19198
G01 X-73.15324 Y33.13097
G01 X-73.54049 Y33.04614
G01 X-73.89378 Y32.95005
G01 X-74.24158 Y32.83562
G01 X-74.58291 Y32.70316
G01 X-74.94494 Y32.54111
G01 X-75.27056 Y32.37616
G01 X-75.46518 Y32.26709
G01 X-75.63899 Y32.16260
G01 X-75.80970 Y32.05312
G01 X-75.99373 Y31.92704
G01 X-76.18171 Y31.78901
G01 X-76.37422 Y31.63857
G01 X-76.53945 Y31.50222
G01 X-76.70046 Y31.36087
G01 X-76.93726 Y31.13618
G01 X-79.03317 Y29.04025
G01 X-79.22186 Y28.84233
G01 X-79.38955 Y28.65262
G01 X-79.51993 Y28.49664
G01 X-79.64589 Y28.33751
G01 X-79.76718 Y28.17482
G01 X-79.88371 Y28.00866
G01 X-80.00083 Y27.83063
G01 X-80.11295 Y27.64892
G01 X-80.21533 Y27.47315
G01 X-80.30784 Y27.30348
G01 X-80.40012 Y27.12217
G01 X-80.48709 Y26.93827
G01 X-80.57309 Y26.74249
G01 X-80.65005 Y26.55415
G01 X-80.72150 Y26.36370
G01 X-80.78739 Y26.17125
G01 X-80.84767 Y25.97696
G01 X-80.90276 Y25.78118
G01 X-80.95026 Y25.59472
G01 X-80.99674 Y25.38715
G01 X-81.03514 Y25.18827
G01 X-81.06776 Y24.98834
G01 X-81.09577 Y24.77752
G01 X-81.12095 Y24.53538
G01 X-81.13509 Y24.35413
G01 X-81.14528 Y24.15240
G01 X-81.14982 Y23.91006
G01 X-81.14977 Y19.06968
G01 X-81.14414 Y18.81726
G01 X-81.12938 Y18.56522
G01 X-81.10149 Y18.27253
G01 X-81.07053 Y18.03039
G01 X-81.03116 Y17.78950
G01 X-80.98340 Y17.55010
G01 X-80.92984 Y17.32239
G01 X-80.86301 Y17.07705
G01 X-80.76555 Y16.76618
G01 X-80.66999 Y16.49791
G01 X-80.55155 Y16.20571
G01 X-80.42453 Y15.92829
G01 X-80.28554 Y15.65666
G01 X-80.11500 Y15.35509
G01 X-79.95331 Y15.09563
G01 X-79.78043 Y14.84351
G01 X-79.63431 Y14.64737
G01 X-79.47490 Y14.44864
G01 X-79.28978 Y14.23279
G01 X-79.10398 Y14.03218
G01 X-77.78463 Y12.71107
G01 X-77.74264 Y12.72756
G01 X-77.78463 Y12.71107
G01 X-77.79626 Y12.47371
G01 X-77.79977 Y12.28049
G01 X-77.79982 Y11.40239
G01 X-77.79527 Y11.16005
G01 X-77.77617 Y10.83744
G01 X-77.73957 Y10.48372
G01 X-77.69334 Y10.17123
G01 X-77.63739 Y9.88106
G01 X-77.55623 Y9.54423
G01 X-77.45636 Y9.20206
G01 X-77.35179 Y8.89470
G01 X-77.22913 Y8.58312
G01 X-77.07848 Y8.24995
G01 X-76.92669 Y7.95061
G01 X-76.76594 Y7.66762
G01 X-76.58659 Y7.38363
G01 X-76.37137 Y7.07494
G01 X-76.13988 Y6.77827
G01 X-75.87275 Y6.47111
G01 X-75.61842 Y6.20773
G01 X-75.34303 Y5.95130
G01 X-75.18110 Y5.81160
G01 X-75.03137 Y5.68942
G01 X-74.88646 Y5.57754
G01 X-74.72208 Y5.45770
G01 X-74.40922 Y5.24812
G01 X-74.14839 Y5.08978
G01 X-73.88995 Y4.94767
G01 X-73.59800 Y4.80332
G01 X-73.32518 Y4.68160
G01 X-72.96508 Y5.07520
G01 X-74.38875 Y3.51907
G01 X-74.66109 Y3.65872
G01 X-74.93655 Y3.81295
G01 X-75.19749 Y3.97185
G01 X-75.47839 Y4.15671
G01 X-75.73564 Y4.33969
G01 X-75.96998 Y4.51940
G01 X-76.20569 Y4.71376
G01 X-76.45011 Y4.92961
G01 X-76.67178 Y5.13987
G01 X-76.88572 Y5.35795
G01 X-77.08496 Y5.57596
G01 X-77.29692 Y5.82374
G01 X-77.48702 Y6.06290
G01 X-77.66251 Y6.30047
G01 X-77.82961 Y6.54393
G01 X-78.00530 Y6.81866
G01 X-78.18039 Y7.11736
G01 X-78.34318 Y7.42295
G01 X-78.50221 Y7.75279
G01 X-78.63573 Y8.05904
G01 X-78.76062 Y8.37982
G01 X-78.86931 Y8.69574
G01 X-78.97482 Y9.04578
G01 X-79.06182 Y9.38032
G01 X-79.13708 Y9.72812
G01 X-79.19618 Y10.06874
G01 X-79.24140 Y10.41146
G01 X-79.27663 Y10.78530
G01 X-79.29062 Y11.01776
G01 X-79.29844 Y11.26061
G01 X-79.29979 Y12.10495
G01 X-79.26271 Y12.12022
G01 X-79.29979 Y12.10495
G01 X-80.10124 Y12.90653
G01 X-80.27827 Y13.09073
G01 X-80.46989 Y13.30325
G01 X-80.67388 Y13.54493
G01 X-80.85658 Y13.77635
G01 X-81.01940 Y13.99738
G01 X-81.19740 Y14.25750
G01 X-81.36037 Y14.51534
G01 X-81.53410 Y14.81460
G01 X-81.67436 Y15.07449
G01 X-81.80548 Y15.33911
G01 X-81.92734 Y15.60812
G01 X-82.04350 Y15.89070
G01 X-82.14606 Y16.16766
G01 X-82.26354 Y16.52593
G01 X-82.35391 Y16.83903
G01 X-82.43669 Y17.17523
G01 X-82.50753 Y17.52453
G01 X-82.56506 Y17.88658
G01 X-82.60829 Y18.26097
G01 X-82.63473 Y18.59402
G01 X-82.64807 Y18.92785
G01 X-82.64980 Y23.91009
G01 X-82.64200 Y24.26437
G01 X-82.62810 Y24.50696
G01 X-82.60928 Y24.72891
G01 X-82.57959 Y25.00168
G01 X-82.54477 Y25.25298
G01 X-82.50431 Y25.49314
G01 X-82.45485 Y25.74196
G01 X-82.40281 Y25.96952
G01 X-82.34187 Y26.20533
G01 X-82.27182 Y26.45014
G01 X-82.20123 Y26.67348
G01 X-82.12450 Y26.89479
G01 X-82.04172 Y27.11392
G01 X-81.94893 Y27.34003
G01 X-81.84187 Y27.58244
G01 X-81.74129 Y27.79395
G01 X-81.63014 Y28.01165
G01 X-81.51779 Y28.21716
G01 X-81.39455 Y28.42826
G01 X-81.25567 Y28.65260
G01 X-81.11612 Y28.86377
G01 X-80.97629 Y29.06253
G01 X-80.83088 Y29.25719
G01 X-80.68633 Y29.43977
G01 X-80.51663 Y29.64259
G01 X-80.29910 Y29.88678
G01 X-80.09400 Y30.10070
G01 X-77.99075 Y32.20392
G01 X-77.82270 Y32.36623
G01 X-77.65026 Y32.52389
G01 X-77.45019 Y32.69630
G01 X-77.26083 Y32.84987
G01 X-77.02720 Y33.03001
G01 X-76.80470 Y33.19041
G01 X-76.58567 Y33.33801
G01 X-76.36218 Y33.47872
G01 X-76.13442 Y33.61243
G01 X-75.90259 Y33.73900
G01 X-75.53858 Y33.91946
G01 X-75.30668 Y34.02470
G01 X-75.10991 Y34.10844
G01 X-74.72952 Y34.25411
G01 X-74.53681 Y34.32007
G01 X-74.33285 Y34.38434
G01 X-74.13714 Y34.44075
G01 X-73.93023 Y34.49493
G01 X-73.48408 Y34.59465
G01 X-73.08507 Y34.66394
G01 X-72.67316 Y34.71515
G01 X-72.24801 Y34.74743
G01 X-71.85106 Y34.75957
G01 X-67.26481 Y34.75977
G01 X-67.01023 Y34.75566
G01 X-66.77624 Y34.74514
G01 X-66.50177 Y34.72538
G01 X-66.25189 Y34.70003
G01 X-66.25496 Y31.16024
G01 X-66.47767 Y31.19951
G01 X-66.70002 Y31.22846
G01 X-66.97388 Y31.25079
G01 X-67.19463 Y31.25922
G01 X-71.80001 Y31.25986
G01 X-72.07103 Y31.25196
G01 X-72.33318 Y31.23176
G01 X-72.60387 Y31.19694
G01 X-72.85246 Y31.15158
G01 X-73.13910 Y31.08485
G01 X-73.38276 Y31.01485
G01 X-73.62259 Y30.93258
G01 X-73.84862 Y30.84225
G01 X-74.11669 Y30.72033
G01 X-74.28840 Y30.63347
G01 X-74.43909 Y30.55018
G01 X-74.60399 Y30.45104
G01 X-74.74824 Y30.35701
G01 X-74.88093 Y30.26402
G01 X-75.01857 Y30.16057
G01 X-75.19322 Y30.02120
G01 X-75.34651 Y29.88879
G01 X-75.53754 Y29.70759
G01 X-77.59756 Y27.64760
G01 X-77.73142 Y27.50845
G01 X-77.85321 Y27.37195
G01 X-77.97709 Y27.22400
G01 X-78.07084 Y27.10485
G01 X-78.25296 Y26.84986
G01 X-78.43530 Y26.55705
G01 X-78.51516 Y26.41486
G01 X-78.59486 Y26.26101
G01 X-78.66921 Y26.10449
G01 X-78.74264 Y25.93617
G01 X-78.85570 Y25.64112
G01 X-78.90970 Y25.47650
G01 X-78.96093 Y25.30018
G01 X-79.00192 Y25.14282
G01 X-79.03779 Y24.98423
G01 X-79.08026 Y24.75441
G01 X-79.11308 Y24.51273
G01 X-79.13776 Y24.24798
G01 X-79.14904 Y23.99215
G01 X-79.14752 Y18.94634
G01 X-79.13553 Y18.72130
G01 X-79.11196 Y18.47720
G01 X-79.08193 Y18.25612
G01 X-79.04211 Y18.03659
G01 X-78.99497 Y17.82887
G01 X-78.94190 Y17.63311
G01 X-78.86560 Y17.39077
G01 X-78.78996 Y17.18086
G01 X-78.70909 Y16.98384
G01 X-78.61544 Y16.78132
G01 X-78.52738 Y16.60992
G01 X-78.40754 Y16.39682
G01 X-78.29514 Y16.21432
G01 X-78.18679 Y16.05349
G01 X-78.06609 Y15.88887
G01 X-77.93223 Y15.72148
G01 X-77.77940 Y15.54406
G01 X-77.62621 Y15.38125
G01 X-75.78126 Y13.53607
G01 X-75.75532 Y13.54872
G01 X-75.78126 Y13.53607
G01 X-75.75405 Y13.27696
G01 X-75.72936 Y13.11092
G01 X-75.72530 Y13.11090
G01 X-75.72936 Y13.11092
G01 X-75.73952 Y13.04729
G01 X-75.76736 Y12.83508
G01 X-75.78247 Y12.67272
G01 X-75.79500 Y12.47087
G01 X-75.79987 Y12.26002
G01 X-75.79977 Y11.38177
G01 X-75.79525 Y11.19744
G01 X-75.78392 Y11.01339
G01 X-75.76076 Y10.77925
G01 X-75.73482 Y10.58708
G01 X-75.68941 Y10.33600
G01 X-75.62863 Y10.07770
G01 X-75.54605 Y9.79416
G01 X-75.45664 Y9.53630
G01 X-75.35332 Y9.28370
G01 X-75.23660 Y9.03559
G01 X-75.11720 Y8.81050
G01 X-74.98100 Y8.58319
G01 X-74.83988 Y8.37082
G01 X-74.69508 Y8.17367
G01 X-74.54743 Y7.99160
G01 X-74.37143 Y7.79325
G01 X-74.20770 Y7.62546
G01 X-74.03630 Y7.46554
G01 X-73.83465 Y7.29336
G01 X-73.64110 Y7.14378
G01 X-73.44898 Y7.00946
G01 X-73.22525 Y6.86709
G01 X-73.01266 Y6.74614
G01 X-72.79437 Y6.63567
G01 X-72.55449 Y6.52706
G01 X-72.32876 Y6.43816
G01 X-72.11830 Y6.36638
G01 X-71.85358 Y6.28884
G01 X-71.46674 Y6.71093
G01 X-71.70288 Y6.76613
G01 X-71.97562 Y6.84571
G01 X-72.20605 Y6.92605
G01 X-72.43178 Y7.01873
G01 X-72.67164 Y7.13227
G01 X-72.88809 Y7.24883
G01 X-73.08063 Y7.36592
G01 X-73.30963 Y7.52094
G01 X-73.50516 Y7.66991
G01 X-73.70023 Y7.83577
G01 X-73.87951 Y8.00397
G01 X-74.04245 Y8.17413
G01 X-74.21669 Y8.37552
G01 X-74.36137 Y8.56143
G01 X-74.49614 Y8.75467
G01 X-74.64821 Y8.99777
G01 X-74.76627 Y9.21342
G01 X-74.87288 Y9.43432
G01 X-74.96066 Y9.64006
G01 X-75.03810 Y9.84992
G01 X-75.11687 Y10.10267
G01 X-75.17130 Y10.30943
G01 X-75.21959 Y10.53856
G01 X-75.25588 Y10.76990
G01 X-75.28479 Y11.04412
G01 X-75.29792 Y11.27933
G01 X-75.29932 Y12.32169
G01 X-75.29139 Y12.52639
G01 X-75.27244 Y12.76121
G01 X-75.24008 Y13.00490
G01 X-75.22213 Y13.10884
G01 X-75.21705 Y13.10884
G01 X-75.22213 Y13.10884
G01 X-75.25644 Y13.32801
G01 X-75.28608 Y13.61935
G01 X-75.29337 Y13.75527
G01 X-75.26302 Y13.76919
G01 X-75.29337 Y13.75527
G01 X-77.26540 Y15.72745
G01 X-77.39736 Y15.86700
G01 X-77.54325 Y16.03576
G01 X-77.66434 Y16.18661
G01 X-77.78466 Y16.35089
G01 X-77.89197 Y16.51185
G01 X-77.99735 Y16.68610
G01 X-78.11041 Y16.89075
G01 X-78.20043 Y17.07225
G01 X-78.28991 Y17.27637
G01 X-78.36240 Y17.46557
G01 X-78.43583 Y17.68732
G01 X-78.48173 Y17.84276
G01 X-78.52890 Y18.02938
G01 X-78.56807 Y18.21785
G01 X-78.60055 Y18.41784
G01 X-78.62631 Y18.63979
G01 X-78.64140 Y18.82356
G01 X-78.64894 Y19.00779
G01 X-78.64894 Y23.99215
G01 X-78.63721 Y24.23770
G01 X-78.60980 Y24.51158
G01 X-78.57541 Y24.74153
G01 X-78.52918 Y24.96937
G01 X-78.44871 Y25.27356
G01 X-78.35885 Y25.54590
G01 X-78.30363 Y25.68931
G01 X-78.23551 Y25.84953
G01 X-78.11646 Y26.09914
G01 X-77.97703 Y26.34978
G01 X-77.88605 Y26.49736
G01 X-77.80172 Y26.62443
G01 X-77.63297 Y26.85372
G01 X-77.43774 Y27.08773
G01 X-77.25115 Y27.28689
G01 X-75.17681 Y29.36118
G01 X-74.99208 Y29.53502
G01 X-74.86099 Y29.64713
G01 X-74.69363 Y29.77982
G01 X-74.57153 Y29.87073
G01 X-74.42954 Y29.96867
G01 X-74.28390 Y30.06110
G01 X-74.13483 Y30.14789
G01 X-73.99157 Y30.22430
G01 X-73.83645 Y30.29976
G01 X-73.61367 Y30.39875
G01 X-73.40592 Y30.47944
G01 X-73.18474 Y30.55272
G01 X-72.96008 Y30.61444
G01 X-72.71202 Y30.66994
G01 X-72.48159 Y30.70977
G01 X-72.25952 Y30.73662
G01 X-71.99478 Y30.75521
G01 X-71.80021 Y30.75986
G01 X-67.19303 Y30.75912
G01 X-66.96791 Y30.74937
G01 X-66.71287 Y30.72679
G01 X-66.48976 Y30.69509
G01 X-66.25496 Y30.64967
G01 X-66.25496 Y30.13695
G01 X-66.49974 Y30.18909
G01 X-66.71958 Y30.22384
G01 X-66.93090 Y30.24558
G01 X-67.19405 Y30.25907
G01 X-71.78998 Y30.25988
G01 X-71.97202 Y30.25574
G01 X-72.21609 Y30.23850
G01 X-72.42955 Y30.21203
G01 X-72.63125 Y30.17619
G01 X-72.87928 Y30.11917
G01 X-73.08350 Y30.06070
G01 X-73.28436 Y29.99146
G01 X-73.47196 Y29.91569
G01 X-73.70298 Y29.80959
G01 X-73.83874 Y29.73997
G01 X-73.97173 Y29.66522
G01 X-74.21197 Y29.51236
G01 X-74.33600 Y29.42354
G01 X-74.48103 Y29.31124
G01 X-74.69055 Y29.13377
G01 X-74.83046 Y29.00048
G01 X-76.89047 Y26.94048
G01 X-77.06233 Y26.75750
G01 X-77.24470 Y26.53858
G01 X-77.39022 Y26.34043
G01 X-77.54442 Y26.09898
G01 X-77.66782 Y25.87823
G01 X-77.77292 Y25.65936
G01 X-77.88087 Y25.39698
G01 X-77.95870 Y25.16701
G01 X-78.03134 Y24.90211
G01 X-78.07797 Y24.68278
G01 X-78.11224 Y24.46119
G01 X-78.13888 Y24.19678
G01 X-78.14907 Y23.98192
G01 X-78.14970 Y19.05899
G01 X-78.14516 Y18.90542
G01 X-78.13563 Y18.76232
G01 X-78.11717 Y18.57959
G01 X-78.09842 Y18.43921
G01 X-78.04605 Y18.16085
G01 X-78.01252 Y18.02323
G01 X-77.97122 Y17.87721
G01 X-77.90251 Y17.66481
G01 X-77.83495 Y17.48488
G01 X-77.75031 Y17.29001
G01 X-77.66020 Y17.10886
G01 X-77.54112 Y16.89618
G01 X-77.43365 Y16.72394
G01 X-77.31155 Y16.54922
G01 X-77.18031 Y16.38125
G01 X-77.04231 Y16.21993
G01 X-76.90465 Y16.07370
G01 X-74.79754 Y13.96652
G01 X-74.76439 Y13.98115
G01 X-74.79754 Y13.96652
G01 X-74.78865 Y13.67465
G01 X-74.77605 Y13.52255
G01 X-74.75766 Y13.37104
G01 X-74.71387 Y13.10256
G01 X-74.70813 Y13.10254
G01 X-74.71387 Y13.10256
G01 X-74.73457 Y12.99540
G01 X-74.76886 Y12.76525
G01 X-74.78707 Y12.57389
G01 X-74.79886 Y12.34102
G01 X-74.79858 Y11.31006
G01 X-74.78730 Y11.09525
G01 X-74.75969 Y10.83150
G01 X-74.72449 Y10.61098
G01 X-74.67704 Y10.39277
G01 X-74.60574 Y10.13805
G01 X-74.53412 Y9.92439
G01 X-74.45055 Y9.71512
G01 X-74.34273 Y9.48388
G01 X-74.23808 Y9.28743
G01 X-74.12269 Y9.09714
G01 X-73.98629 Y8.89569
G01 X-73.85136 Y8.71870
G01 X-73.67989 Y8.51863
G01 X-73.53330 Y8.36483
G01 X-73.37123 Y8.21230
G01 X-73.17798 Y8.04842
G01 X-72.99206 Y7.90854
G01 X-72.78977 Y7.77342
G01 X-72.59858 Y7.65947
G01 X-72.41045 Y7.56077
G01 X-72.17852 Y7.45383
G01 X-71.96882 Y7.37133
G01 X-71.76460 Y7.30374
G01 X-71.50905 Y7.23280
G01 X-71.28980 Y7.18579
G01 X-71.06463 Y7.15068
G01 X-72.23041 Y5.87764
G01 X-72.47420 Y5.95907
G01 X-72.71161 Y6.05086
G01 X-72.93529 Y6.14924
G01 X-73.19081 Y6.27474
G01 X-73.41306 Y6.39727
G01 X-73.62086 Y6.52442
G01 X-73.84047 Y6.67144
G01 X-74.04478 Y6.82196
G01 X-74.23419 Y6.97520
G01 X-74.43257 Y7.14980
G01 X-74.60828 Y7.31853
G01 X-74.78321 Y7.50240
G01 X-74.96340 Y7.70936
G01 X-75.12136 Y7.90799
G01 X-75.25845 Y8.09696
G01 X-75.40986 Y8.32584
G01 X-75.55052 Y8.56107
G01 X-75.68385 Y8.81207
G01 X-75.80955 Y9.07915
G01 X-75.92162 Y9.35231
G01 X-76.01575 Y9.62139
G01 X-76.10236 Y9.91375
G01 X-76.16723 Y10.17933
G01 X-76.21885 Y10.44783
G01 X-76.25100 Y10.66828
G01 X-76.27790 Y10.92142
G01 X-76.29342 Y11.14623
G01 X-76.29972 Y11.37150
G01 X-76.29715 Y12.42253
G01 X-76.28839 Y12.60505
G01 X-76.27272 Y12.80782
G01 X-76.24991 Y13.00958
G01 X-76.23556 Y13.11102
G01 X-76.23246 Y13.11110
G01 X-76.23594 Y13.11349
G01 X-76.26172 Y13.30942
G01 X-76.23660 Y13.32182
G01 X-76.26172 Y13.30942
G01 X-77.95834 Y15.00607
G01 X-78.15468 Y15.21366
G01 X-78.35326 Y15.44607
G01 X-78.48463 Y15.61328
G01 X-78.61524 Y15.79377
G01 X-78.74384 Y15.98795
G01 X-78.85397 Y16.16984
G01 X-78.97769 Y16.39174
G01 X-79.08320 Y16.60002
G01 X-79.18376 Y16.82194
G01 X-79.27081 Y17.03857
G01 X-79.34541 Y17.24906
G01 X-79.42715 Y17.51114
G01 X-79.48480 Y17.72689
G01 X-79.53568 Y17.95475
G01 X-79.57683 Y18.18457
G01 X-79.60820 Y18.41594
G01 X-79.63461 Y18.69059
G01 X-79.64711 Y18.92584
G01 X-79.64988 Y19.09999
G01 X-79.64871 Y24.01265
G01 X-79.63538 Y24.29914
G01 X-79.60581 Y24.60460
G01 X-79.56672 Y24.87739
G01 X-79.51838 Y25.12792
G01 X-79.47640 Y25.30678
G01 X-79.42308 Y25.50384
G01 X-79.37330 Y25.66909
G01 X-79.31838 Y25.83266
G01 X-79.25834 Y25.99446
G01 X-79.19326 Y26.15430
G01 X-79.11536 Y26.33114
G01 X-79.03644 Y26.49593
G01 X-78.96172 Y26.64013
G01 X-78.87259 Y26.79967
G01 X-78.76222 Y26.98267
G01 X-78.66837 Y27.12809
G01 X-78.56995 Y27.27051
G01 X-78.46713 Y27.40972
G01 X-78.36637 Y27.53777
G01 X-78.24211 Y27.68651
G01 X-78.10660 Y27.83916
G01 X-77.95831 Y27.99390
G01 X-75.87676 Y30.07540
G01 X-75.67828 Y30.26286
G01 X-75.54090 Y30.38229
G01 X-75.40760 Y30.49082
G01 X-75.22187 Y30.63403
G01 X-75.05596 Y30.75236
G01 X-74.88575 Y30.86448
G01 X-74.72032 Y30.96509
G01 X-74.55144 Y31.05981
G01 X-74.37933 Y31.14850
G01 X-74.08349 Y31.28541
G01 X-73.84870 Y31.38165
G01 X-73.57110 Y31.47959
G01 X-73.30826 Y31.55729
G01 X-72.99185 Y31.63311
G01 X-72.71174 Y31.68604
G01 X-72.42924 Y31.72440
G01 X-72.14502 Y31.74837
G01 X-71.96252 Y31.75714
G01 X-71.78998 Y31.75986
G01 X-67.20393 Y31.75940
G01 X-66.97058 Y31.75142
G01 X-66.71716 Y31.73270
G01 X-66.48524 Y31.70583
G01 X-66.25496 Y31.66918
G01 X-66.25379 Y29.09085
G01 X-66.25496 Y29.62044
G01 X-66.44226 Y29.66707
G01 X-66.66202 Y29.71002
G01 X-66.85346 Y29.73634
G01 X-67.05603 Y29.75303
G01 X-67.26502 Y29.75988
G01 X-71.79993 Y29.75988
G01 X-71.92937 Y29.75712
G01 X-72.10001 Y29.74673
G01 X-72.24141 Y29.73294
G01 X-72.39213 Y29.71180
G01 X-72.53186 Y29.68617
G01 X-72.70036 Y29.64851
G01 X-72.84684 Y29.60985
G01 X-72.99150 Y29.56489
G01 X-73.13409 Y29.51371
G01 X-73.28357 Y29.45239
G01 X-73.46871 Y29.36753
G01 X-73.61398 Y29.29311
G01 X-73.74687 Y29.21726
G01 X-73.87633 Y29.13565
G01 X-74.01034 Y29.04249
G01 X-74.18019 Y28.91170
G01 X-74.29015 Y28.82057
G01 X-74.46968 Y28.65415
G01 X-76.62278 Y26.49799
G01 X-76.79787 Y26.29659
G01 X-76.94003 Y26.11153
G01 X-77.07488 Y25.90881
G01 X-77.20256 Y25.68870
G01 X-77.30173 Y25.48814
G01 X-77.40419 Y25.24409
G01 X-77.47993 Y25.02281
G01 X-77.54699 Y24.77785
G01 X-77.58674 Y24.58959
G01 X-77.61608 Y24.39942
G01 X-77.63977 Y24.16607
G01 X-77.64937 Y23.96142
G01 X-77.64894 Y19.01802
G01 X-77.64054 Y18.84411
G01 X-77.62207 Y18.65089
G01 X-77.60045 Y18.49077
G01 X-77.57145 Y18.33179
G01 X-77.53518 Y18.17433
G01 X-77.49459 Y18.02839
G01 X-77.43576 Y17.84495
G01 X-77.37234 Y17.67459
G01 X-77.31280 Y17.53530
G01 X-77.24270 Y17.38973
G01 X-77.14087 Y17.20281
G01 X-77.06330 Y17.07246
G01 X-76.98016 Y16.94558
G01 X-76.88550 Y16.81439
G01 X-76.79779 Y16.70327
G01 X-76.67142 Y16.55524
G01 X-76.54422 Y16.42031
G01 X-74.29619 Y14.17226
G01 X-74.26074 Y14.18737
G01 X-74.29619 Y14.17226
G01 X-74.29802 Y14.00632
G01 X-74.29071 Y13.72319
G01 X-74.27752 Y13.56248
G01 X-74.25845 Y13.41252
G01 X-74.21253 Y13.14148
G01 X-74.20374 Y13.09776
G01 X-74.19701 Y13.09766
G01 X-74.20374 Y13.09776
G01 X-74.22799 Y12.98301
G01 X-74.26521 Y12.76238
G01 X-74.28512 Y12.58039
G01 X-74.29820 Y12.35951
G01 X-74.29917 Y11.34080
G01 X-74.28977 Y11.14641
G01 X-74.26734 Y10.92319
G01 X-74.23498 Y10.71334
G01 X-74.18995 Y10.50582
G01 X-74.12076 Y10.26193
G01 X-74.05484 Y10.07001
G01 X-73.97377 Y9.87298
G01 X-73.86785 Y9.65299
G01 X-73.76371 Y9.46653
G01 X-73.64875 Y9.28624
G01 X-73.52469 Y9.11238
G01 X-73.39028 Y8.94641
G01 X-73.24029 Y8.78004
G01 X-73.07298 Y8.61659
G01 X-72.90379 Y8.46978
G01 X-72.73475 Y8.33925
G01 X-72.52383 Y8.19683
G01 X-72.34014 Y8.08784
G01 X-72.15017 Y7.99028
G01 X-71.91809 Y7.88708
G01 X-71.71812 Y7.81352
G01 X-71.49455 Y7.74563
G01 X-71.29788 Y7.69727
G01 X-71.08871 Y7.65884
G01 X-70.84698 Y7.62897
G01 X-70.63892 Y7.61510
G01 X-72.60077 Y5.47342
G01 X-72.84354 Y5.56473
G01 X-73.07656 Y5.66397
G01 X-73.33298 Y5.78589
G01 X-73.56554 Y5.90878
G01 X-73.78388 Y6.03644
G01 X-74.03089 Y6.19564
G01 X-74.22954 Y6.33524
G01 X-74.43031 Y6.48907
G01 X-74.65525 Y6.67817
G01 X-74.84234 Y6.84837
G01 X-75.02208 Y7.02630
G01 X-75.20089 Y7.21921
G01 X-75.37879 Y7.42714
G01 X-75.54107 Y7.63415
G01 X-75.68268 Y7.83138
G01 X-75.84402 Y8.07700
G01 X-75.99876 Y8.33808
G01 X-76.13559 Y8.59760
G01 X-76.27320 Y8.89145
G01 X-76.38824 Y9.17273
G01 X-76.48578 Y9.44987
G01 X-76.58166 Y9.77095
G01 X-76.65441 Y10.06665
G01 X-76.71036 Y10.35566
G01 X-76.73795 Y10.53630
G01 X-76.76002 Y10.71768
G01 X-76.78054 Y10.93152
G01 X-76.79347 Y11.13599
G01 X-76.79972 Y11.37150
G01 X-76.79972 Y12.29096
G01 X-76.79563 Y12.47531
G01 X-76.78656 Y12.64923
G01 X-76.76985 Y12.86162
G01 X-76.74849 Y13.05268
G01 X-76.74427 Y13.08489
G01 X-76.69657 Y13.10241
G01 X-76.74427 Y13.08489
G01 X-78.36223 Y14.70363
G01 X-78.55727 Y14.91391
G01 X-78.75506 Y15.14767
G01 X-78.89857 Y15.33185
G01 X-79.04056 Y15.52981
G01 X-79.17980 Y15.74198
G01 X-79.29987 Y15.94223
G01 X-79.43273 Y16.18259
G01 X-79.54203 Y16.40055
G01 X-79.64635 Y16.63210
G01 X-79.74437 Y16.87736
G01 X-79.82516 Y17.10741
G01 X-79.91234 Y17.38925
G01 X-79.97698 Y17.63484
G01 X-80.02920 Y17.87299
G01 X-80.07172 Y18.11307
G01 X-80.10672 Y18.37487
G01 X-80.13370 Y18.65988
G01 X-80.14734 Y18.92584
G01 X-80.14790 Y24.05362
G01 X-80.13136 Y24.37072
G01 X-80.09466 Y24.72571
G01 X-80.05003 Y25.01641
G01 X-79.98663 Y25.32436
G01 X-79.94246 Y25.50147
G01 X-79.88767 Y25.69698
G01 X-79.83355 Y25.87087
G01 X-79.77759 Y26.03350
G01 X-79.71328 Y26.20388
G01 X-79.64782 Y26.36294
G01 X-79.56578 Y26.54841
G01 X-79.47802 Y26.73076
G01 X-79.39382 Y26.89222
G01 X-79.30477 Y27.05108
G01 X-79.18963 Y27.24221
G01 X-79.09657 Y27.38714
G01 X-78.99352 Y27.53761
G01 X-78.88597 Y27.68488
G01 X-78.78034 Y27.82090
G01 X-78.65095 Y27.97749
G01 X-78.48874 Y28.16222
G01 X-78.31910 Y28.34018
G01 X-76.23747 Y30.42181
G01 X-76.04003 Y30.60984
G01 X-75.90373 Y30.73014
G01 X-75.75598 Y30.85257
G01 X-75.57983 Y30.99044
G01 X-75.42421 Y31.10499
G01 X-75.27343 Y31.20885
G01 X-75.11092 Y31.31342
G01 X-74.94511 Y31.41271
G01 X-74.78519 Y31.50179
G01 X-74.50364 Y31.64365
G01 X-74.17831 Y31.78843
G01 X-73.88436 Y31.90133
G01 X-73.59462 Y31.99577
G01 X-73.29056 Y32.07779
G01 X-72.94331 Y32.15300
G01 X-72.62325 Y32.20448
G01 X-72.31098 Y32.23781
G01 X-72.04598 Y32.25437
G01 X-71.81045 Y32.25980
G01 X-67.21353 Y32.25952
G01 X-66.97802 Y32.25249
G01 X-66.69357 Y32.23265
G01 X-66.43220 Y32.20321
G01 X-66.25460 Y32.17654
G01 X-66.25460 Y32.17309
G01 X-66.25285 Y32.68254
G01 X-66.48574 Y32.71380
G01 X-66.70916 Y32.73580
G01 X-66.96235 Y32.75231
G01 X-67.21445 Y32.75955
G01 X-71.81014 Y32.75980
G01 X-72.06229 Y32.75411
G01 X-72.31504 Y32.73897
G01 X-72.62942 Y32.70778
G01 X-72.96198 Y32.65785
G01 X-73.31161 Y32.58632
G01 X-73.60742 Y32.51223
G01 X-73.91872 Y32.41799
G01 X-74.21547 Y32.31197
G01 X-74.49741 Y32.19580
G01 X-74.82942 Y32.04152
G01 X-75.02789 Y31.93898
G01 X-75.21395 Y31.83481
G01 X-75.39650 Y31.72457
G01 X-75.58375 Y31.60273
G01 X-75.75847 Y31.48051
G01 X-75.92911 Y31.35262
G01 X-76.12893 Y31.19379
G01 X-76.30782 Y31.04129
G01 X-76.45136 Y30.91048
G01 X-76.57643 Y30.78985
G01 X-78.65819 Y28.70822
G01 X-78.80553 Y28.55600
G01 X-78.94782 Y28.39905
G01 X-79.09248 Y28.22920
G01 X-79.20777 Y28.08653
G01 X-79.32506 Y27.93246
G01 X-79.43190 Y27.78331
G01 X-79.54005 Y27.62270
G01 X-79.64338 Y27.45892
G01 X-79.75303 Y27.27467
G01 X-79.84223 Y27.11412
G01 X-79.93144 Y26.94196
G01 X-80.01117 Y26.77648
G01 X-80.16898 Y26.41105
G01 X-80.24170 Y26.22034
G01 X-80.29875 Y26.05651
G01 X-80.35440 Y25.88146
G01 X-80.40799 Y25.69505
G01 X-80.45684 Y25.50785
G01 X-80.50007 Y25.31930
G01 X-80.53583 Y25.13957
G01 X-80.56961 Y24.93879
G01 X-80.59829 Y24.72690
G01 X-80.62176 Y24.50351
G01 X-80.63629 Y24.31969
G01 X-80.64558 Y24.13554
G01 X-80.64985 Y23.89998
G01 X-80.64751 Y18.92584
G01 X-80.63278 Y18.62915
G01 X-80.60411 Y18.32369
G01 X-80.56659 Y18.04154
G01 X-80.51477 Y17.75135
G01 X-80.45229 Y17.47368
G01 X-80.37772 Y17.19900
G01 X-80.27264 Y16.86936
G01 X-80.17431 Y16.60225
G01 X-80.07673 Y16.36761
G01 X-79.97005 Y16.13695
G01 X-79.85442 Y15.91066
G01 X-79.72041 Y15.67063
G01 X-79.59959 Y15.47028
G01 X-79.46588 Y15.26601
G01 X-79.33065 Y15.07508
G01 X-79.17597 Y14.87322
G01 X-78.92115 Y14.57066
G01 X-78.79174 Y14.42926
G01 X-78.66535 Y14.29888
G01 X-77.26827 Y12.90180
G01 X-77.22372 Y12.91880
G01 X-77.26827 Y12.90180
G01 X-77.29327 Y12.54247
G01 X-77.29982 Y12.27016
G01 X-77.29751 Y11.23836
G01 X-77.28125 Y10.92124
G01 X-77.24828 Y10.58563
G01 X-77.20691 Y10.29355
G01 X-77.15019 Y9.99373
G01 X-77.07424 Y9.67720
G01 X-76.97094 Y9.32533
G01 X-76.86040 Y9.00773
G01 X-76.74171 Y8.71494
G01 X-76.58679 Y8.38205
G01 X-76.43465 Y8.09315
G01 X-76.26817 Y7.81225
G01 X-76.07701 Y7.52257
G01 X-75.95796 Y7.35681
G01 X-75.84008 Y7.20288
G01 X-75.71110 Y7.04472
G01 X-75.58423 Y6.89793
G01 X-75.46071 Y6.76199
G01 X-75.31903 Y6.61507
G01 X-75.18022 Y6.47969
G01 X-75.04504 Y6.35536
G01 X-74.88334 Y6.21454
G01 X-74.74153 Y6.09778
G01 X-74.58834 Y5.97893
G01 X-74.42335 Y5.85884
G01 X-74.26315 Y5.74959
G01 X-74.08288 Y5.63347
G01 X-73.90798 Y5.52834
G01 X-73.74781 Y5.43842
G01 X-73.55782 Y5.33931
G01 X-73.34626 Y5.23753
G01 X-73.15068 Y5.15064
G01 X-72.96508 Y5.07520
G01 X-72.50300 Y5.58028
G01 X-75.08954 Y2.75397
G01 X-75.37348 Y2.91043
G01 X-75.65207 Y3.07660
G01 X-75.94219 Y3.26339
G01 X-76.20917 Y3.44762
G01 X-76.46972 Y3.64086
G01 X-76.72352 Y3.84287
G01 X-76.98593 Y4.06695
G01 X-77.21841 Y4.27835
G01 X-77.45095 Y4.50451
G01 X-77.66182 Y4.72364
G01 X-77.89913 Y4.98790
G01 X-78.10812 Y5.23601
G01 X-78.30238 Y5.48302
G01 X-78.50007 Y5.75287
G01 X-78.67145 Y6.00410
G01 X-78.86245 Y6.30354
G01 X-79.04208 Y6.60949
G01 X-79.21015 Y6.92196
G01 X-79.38404 Y7.27743
G01 X-79.52834 Y7.60156
G01 X-79.66042 Y7.93085
G01 X-79.78013 Y8.26483
G01 X-79.89613 Y8.63262
G01 X-79.98877 Y8.96460
G01 X-80.07797 Y9.33933
G01 X-80.15191 Y9.71735
G01 X-80.20776 Y10.07798
G01 X-80.25303 Y10.47125
G01 X-80.28572 Y10.89574
G01 X-80.29943 Y11.33140
G01 X-80.29976 Y11.69076
G01 X-80.26357 Y11.70605
G01 X-80.29976 Y11.69076
G01 X-80.85079 Y12.24252
G01 X-81.09420 Y12.50066
G01 X-81.30159 Y12.73670
G01 X-81.52773 Y13.01072
G01 X-81.71330 Y13.25166
G01 X-81.89105 Y13.49842
G01 X-82.05528 Y13.74224
G01 X-82.21716 Y13.99969
G01 X-82.36572 Y14.25336
G01 X-82.53237 Y14.55722
G01 X-82.66587 Y14.82087
G01 X-82.79945 Y15.10713
G01 X-82.91573 Y15.37881
G01 X-83.03062 Y15.67307
G01 X-83.14530 Y15.99999
G01 X-83.27220 Y16.40893
G01 X-83.36448 Y16.75343
G01 X-83.44792 Y17.12112
G01 X-83.51335 Y17.47169
G01 X-83.56686 Y17.83461
G01 X-83.61164 Y18.24957
G01 X-83.63732 Y18.61360
G01 X-83.64667 Y18.85671
G01 X-83.64977 Y19.07969
G01 X-83.64840 Y24.06216
G01 X-83.63572 Y24.41672
G01 X-83.61164 Y24.75037
G01 X-83.57207 Y25.12388
G01 X-83.52368 Y25.46513
G01 X-83.47072 Y25.76459
G01 X-83.40822 Y26.06220
G01 X-83.33877 Y26.34788
G01 X-83.25231 Y26.66093
G01 X-83.16562 Y26.94183
G01 X-83.06684 Y27.22946
G01 X-82.97012 Y27.48549
G01 X-82.85805 Y27.75727
G01 X-82.73415 Y28.03545
G01 X-82.60179 Y28.30924
G01 X-82.46557 Y28.56974
G01 X-82.32645 Y28.81716
G01 X-82.15874 Y29.09529
G01 X-81.99384 Y29.35082
G01 X-81.82087 Y29.60093
G01 X-81.63997 Y29.84538
G01 X-81.45775 Y30.07609
G01 X-81.26865 Y30.30179
G01 X-81.08734 Y30.50682
G01 X-80.89316 Y30.71386
G01 X-78.71226 Y32.89666
G01 X-78.44904 Y33.14941
G01 X-78.23007 Y33.34555
G01 X-78.02082 Y33.52201
G01 X-77.76616 Y33.72429
G01 X-77.54645 Y33.88957
G01 X-77.32207 Y34.04842
G01 X-77.09319 Y34.20072
G01 X-76.84254 Y34.35683
G01 X-76.60493 Y34.49513
G01 X-76.36340 Y34.62647
G01 X-76.12733 Y34.74631
G01 X-75.88801 Y34.85952
G01 X-75.59911 Y34.98774
G01 X-75.35388 Y35.08804
G01 X-75.08677 Y35.18835
G01 X-74.82647 Y35.27745
G01 X-74.58324 Y35.35319
G01 X-74.33805 Y35.42238
G01 X-74.07130 Y35.48969
G01 X-73.78344 Y35.55413
G01 X-73.50483 Y35.60831
G01 X-73.23473 Y35.65266
G01 X-72.97356 Y35.68799
G01 X-72.70140 Y35.71700
G01 X-72.43826 Y35.73762
G01 X-72.12442 Y35.75388
G01 X-71.83051 Y35.75967
G01 X-67.25470 Y35.75975
G01 X-66.83924 Y35.74976
G01 X-66.41404 Y35.72149
G01 X-66.25272 Y35.70613
G01 X-66.25229 Y35.20326
G04 P0 ( dwell for no time -- G64 should not smooth over this point )
G00 Z1.00000 ( retract )

G00 X-63.51095 Y34.59640 ( rapid move to begin. )
G01 F20.00000
( Mill infeed pass 1/1 )
G01 Z-0.30000
G04 P0 ( dwell for no time -- G64 should not smooth over this point )
G01 F30.00000
G01 X-63.51095 Y34.59640
G01 X-63.45014 Y34.96180
G01 X-63.39652 Y35.23125
G01 X-63.32611 Y35.52822
G01 X-63.24526 Y35.82256
G01 X-63.16137 Y36.09480
G01 X-63.06784 Y36.36391
G01 X-62.94722 Y36.67722
G01 X-62.82710 Y36.95781
G01 X-62.67884 Y37.27036
G01 X-62.54354 Y37.53256
G01 X-62.40384 Y37.78085
G01 X-62.22395 Y38.07628
G01 X-62.07326 Y38.30597
G01 X-61.90272 Y38.54676
G01 X-61.69972 Y38.81417
G01 X-61.50849 Y39.04747
G01 X-60.20450 Y39.65194
G01 X-60.38794 Y39.48913
G01 X-60.58771 Y39.30137
G01 X-60.75235 Y39.13693
G01 X-60.91179 Y38.96746
G01 X-61.10028 Y38.75547
G01 X-61.25576 Y38.56899
G01 X-61.39901 Y38.38562
G01 X-61.56846 Y38.15596
G01 X-61.69617 Y37.97092
G01 X-61.82911 Y37.76480
G01 X-61.97702 Y37.52027
G01 X-62.09736 Y37.30655
G01 X-62.20607 Y37.09815
G01 X-62.33018 Y36.84191
G01 X-62.42131 Y36.63886
G01 X-62.51379 Y36.41438
G01 X-62.62423 Y36.12043
G01 X-62.71120 Y35.86150
G01 X-62.80528 Y35.54057
G01 X-62.87417 Y35.27336
G01 X-62.93716 Y34.98375
G01 X-62.99657 Y34.65276
G01 X-63.03673 Y34.37075
G01 X-63.06536 Y34.09648
G01 X-62.59609 Y33.57791
G01 X-62.58756 Y33.77529
G01 X-62.57173 Y33.99856
G01 X-62.53635 Y34.34265
G01 X-62.48578 Y34.67456
G01 X-62.44915 Y34.87412
G01 X-62.40757 Y35.07214
G01 X-62.32111 Y35.41547
G01 X-62.20993 Y35.78697
G01 X-62.14684 Y35.97054
G01 X-62.07549 Y36.16168
G01 X-61.94793 Y36.47374
G01 X-61.77471 Y36.84283
G01 X-61.62426 Y37.12947
G01 X-61.53386 Y37.28756
G01 X-61.41309 Y37.48695
G01 X-61.22497 Y37.77488
G01 X-60.99223 Y38.09456
G01 X-60.76876 Y38.37366
G01 X-60.49772 Y38.67904
G01 X-60.25500 Y38.92751
G01 X-59.97989 Y39.18407
G01 X-59.72561 Y39.40038
G01 X-59.40494 Y39.64788
G01 X-59.10618 Y39.85616
G01 X-58.78769 Y40.05616
G01 X-58.47629 Y40.23185
G01 X-58.12983 Y40.40627
G01 X-57.96265 Y40.48290
G01 X-57.78406 Y40.55897
G01 X-57.44152 Y40.69199
G01 X-57.11203 Y40.80182
G01 X-56.74169 Y40.90744
G01 X-56.37685 Y40.99105
G01 X-56.00830 Y41.05885
G01 X-55.64723 Y41.10629
G01 X-55.43420 Y41.12699
G01 X-55.24058 Y41.14063
G01 X-55.04663 Y41.14891
G01 X-54.83266 Y41.15247
G01 X-54.50815 Y41.14767
G01 X-54.19433 Y41.12867
G01 X-53.80985 Y41.08920
G01 X-53.46677 Y41.03842
G01 X-53.10670 Y40.96621
G01 X-52.69268 Y40.86253
G01 X-52.33393 Y40.75313
G01 X-52.12362 Y40.67904
G01 X-52.02959 Y40.64345
G01 X-52.03020 Y40.64051
G01 X-52.02959 Y40.64345
G01 X-51.91092 Y40.63622
G01 X-51.66817 Y40.61587
G01 X-51.47694 Y40.59461
G01 X-51.27630 Y40.56657
G01 X-51.09652 Y40.53637
G01 X-50.89779 Y40.49733
G01 X-50.70023 Y40.45257
G01 X-50.50348 Y40.40231
G01 X-50.24056 Y40.32712
G01 X-49.96167 Y40.23500
G01 X-49.69632 Y40.13502
G01 X-49.42596 Y40.02024
G01 X-49.14130 Y39.88659
G01 X-48.88095 Y39.75067
G01 X-48.62652 Y39.60396
G01 X-48.37003 Y39.44109
G01 X-48.06917 Y39.23160
G01 X-47.78698 Y39.01349
G01 X-47.52383 Y38.78811
G01 X-47.27217 Y38.54999
G01 X-47.01675 Y38.28639
G01 X-46.76879 Y38.00236
G01 X-46.54255 Y37.71359
G01 X-46.32561 Y37.40495
G01 X-46.13427 Y37.10399
G01 X-45.95851 Y36.79365
G01 X-45.79877 Y36.47476
G01 X-45.64657 Y36.12957
G01 X-45.51817 Y35.79683
G01 X-45.40984 Y35.46775
G01 X-45.31545 Y35.12381
G01 X-45.23552 Y34.76663
G01 X-45.19201 Y34.52749
G01 X-45.15813 Y34.29704
G01 X-45.13001 Y34.04540
G01 X-45.11281 Y33.82325
G01 X-45.10070 Y33.56983
G01 X-45.09704 Y33.32678
G01 X-45.10146 Y33.09389
G01 X-45.11505 Y32.84106
G01 X-45.13776 Y32.58889
G01 X-45.16859 Y32.33704
G01 X-45.20250 Y32.11683
G01 X-45.24954 Y31.86803
G01 X-45.30072 Y31.64078
G01 X-45.35942 Y31.41535
G01 X-45.43722 Y31.15267
G01 X-45.51136 Y30.92905
G01 X-46.12467 Y30.73377
G01 X-46.12124 Y30.73486
G01 X-46.10321 Y30.77837
G01 X-46.02541 Y30.97751
G01 X-45.91345 Y31.30504
G01 X-45.81718 Y31.63778
G01 X-45.74009 Y31.96478
G01 X-45.68002 Y32.29531
G01 X-45.63527 Y32.63880
G01 X-45.60870 Y32.95327
G01 X-45.59744 Y33.26867
G01 X-45.59737 Y33.41121
G01 X-46.09734 Y33.40689
G01 X-46.10311 Y33.07227
G01 X-46.12455 Y32.76879
G01 X-46.16742 Y32.41596
G01 X-46.22348 Y32.09633
G01 X-46.30189 Y31.76054
G01 X-46.39856 Y31.42910
G01 X-46.50143 Y31.13202
G01 X-46.62381 Y30.83143
G01 X-46.76549 Y30.53110
G01 X-47.45927 Y30.31012
G01 X-47.34334 Y30.50715
G01 X-47.24217 Y30.69610
G01 X-47.13427 Y30.91614
G01 X-47.03171 Y31.14977
G01 X-46.95050 Y31.35912
G01 X-46.87481 Y31.58132
G01 X-46.79940 Y31.83588
G01 X-46.74438 Y32.05358
G01 X-46.69828 Y32.27334
G01 X-46.66120 Y32.49478
G01 X-46.62708 Y32.76836
G01 X-46.60885 Y32.98193
G01 X-46.59869 Y33.20623
G01 X-46.59770 Y33.43077
G01 X-46.60735 Y33.68586
G01 X-46.62383 Y33.90981
G01 X-46.65083 Y34.14298
G01 X-46.68594 Y34.36475
G01 X-46.73229 Y34.59488
G01 X-46.79660 Y34.86125
G01 X-46.86137 Y35.08494
G01 X-46.93214 Y35.29620
G01 X-47.01520 Y35.51377
G01 X-47.11103 Y35.73777
G01 X-47.21027 Y35.94849
G01 X-47.31347 Y36.14593
G01 X-47.42454 Y36.33902
G01 X-47.54895 Y36.53592
G01 X-47.68672 Y36.73676
G01 X-47.81977 Y36.91547
G01 X-47.96645 Y37.09637
G01 X-48.12068 Y37.27089
G01 X-48.24644 Y37.40282
G01 X-48.41989 Y37.57392
G01 X-48.55413 Y37.69723
G01 X-48.69238 Y37.81603
G01 X-48.85050 Y37.94257
G01 X-49.00493 Y38.05733
G01 X-49.18900 Y38.18433
G01 X-49.34334 Y38.28400
G01 X-49.50976 Y38.38354
G01 X-49.68860 Y38.48194
G01 X-49.86177 Y38.56921
G01 X-50.05649 Y38.65910
G01 X-50.23498 Y38.73492
G01 X-50.40643 Y38.80094
G01 X-50.59939 Y38.86751
G01 X-50.77508 Y38.92126
G01 X-50.99205 Y38.97958
G01 X-51.17084 Y39.02182
G01 X-51.36096 Y39.05989
G01 X-51.56246 Y39.09271
G01 X-51.77518 Y39.11910
G01 X-52.01935 Y39.14016
G01 X-52.27422 Y39.15176
G01 X-52.34394 Y39.15288
G01 X-52.34521 Y39.14714
G01 X-52.34394 Y39.15288
G01 X-52.35138 Y39.15595
G01 X-52.70198 Y39.29334
G01 X-52.90464 Y39.36141
G01 X-53.10985 Y39.42159
G01 X-53.38595 Y39.49111
G01 X-53.58374 Y39.53449
G01 X-53.80297 Y39.57376
G01 X-54.02362 Y39.60411
G01 X-54.31650 Y39.63368
G01 X-54.53944 Y39.64775
G01 X-54.77292 Y39.65275
G01 X-55.03758 Y39.64849
G01 X-55.27182 Y39.63528
G01 X-55.54495 Y39.60853
G01 X-55.76489 Y39.57871
G01 X-55.99336 Y39.53807
G01 X-56.32905 Y39.46464
G01 X-56.65988 Y39.37152
G01 X-56.95015 Y39.27462
G01 X-57.24428 Y39.15905
G01 X-57.51419 Y39.03805
G01 X-57.82280 Y38.88019
G01 X-58.06133 Y38.74252
G01 X-58.35940 Y38.55093
G01 X-58.58835 Y38.38550
G01 X-58.86534 Y38.16548
G01 X-58.99467 Y38.05283
G01 X-59.13608 Y37.92220
G01 X-59.34616 Y37.71397
G01 X-59.57230 Y37.46490
G01 X-59.76008 Y37.23632
G01 X-59.96518 Y36.95929
G01 X-60.14258 Y36.68956
G01 X-60.30737 Y36.41123
G01 X-60.45177 Y36.13384
G01 X-60.59678 Y35.81900
G01 X-60.72675 Y35.48672
G01 X-60.82055 Y35.20618
G01 X-60.91789 Y34.85429
G01 X-60.98050 Y34.56851
G01 X-61.03828 Y34.22800
G01 X-61.07280 Y33.92475
G01 X-61.09564 Y33.56943
G01 X-61.09840 Y33.28459
G01 X-61.08502 Y32.92876
G01 X-61.05642 Y32.62490
G01 X-61.00422 Y32.26242
G01 X-60.94781 Y31.98320
G01 X-60.86457 Y31.64939
G04 P0 ( dwell for no time -- G64 should not smooth over this point )
G00 Z1.00000 ( retract )

G00 X-65.75417 Y26.76685 ( rapid move to begin. )
G01 F20.00000
( Mill infeed pass 1/1 )
G01 Z-0.30000
G04 P0 ( dwell for no time -- G64 should not smooth over this point )
G01 F30.00000
G01 X-65.75417 Y26.76685
G01 X-65.68892 Y26.84196
G01 X-65.57894 Y26.94861
G01 X-65.50655 Y27.00566
G01 X-65.40421 Y27.07356
G01 X-65.32395 Y27.11887
G01 X-65.23985 Y27.15659
G01 X-65.11519 Y27.20299
G01 X-65.00599 Y27.23060
G01 X-64.86591 Y27.25313
G01 X-64.75600 Y27.25925
G01 X-63.45022 Y27.25989
G01 X-63.36797 Y27.25570
G01 X-63.24590 Y27.24188
G01 X-63.11603 Y27.21282
G01 X-62.94991 Y27.15570
G01 X-62.88377 Y27.12474
G01 X-62.79299 Y27.07541
G01 X-62.68895 Y27.00589
G01 X-62.60102 Y26.93472
G01 X-62.54803 Y26.88641
G01 X-61.83942 Y26.17785
G01 X-61.81062 Y26.41277
G01 X-61.78758 Y26.54160
G01 X-61.69302 Y26.96957
G01 X-61.58614 Y27.33876
G01 X-61.90793 Y27.65684
G01 X-62.04913 Y27.77495
G01 X-62.14664 Y27.84793
G01 X-62.28324 Y27.93573
G01 X-62.44420 Y28.02303
G01 X-62.58281 Y28.08602
G01 X-62.71613 Y28.13515
G01 X-62.89233 Y28.18841
G01 X-63.05240 Y28.22339
G01 X-63.26571 Y28.25046
G01 X-63.41986 Y28.25953
G01 X-64.81841 Y28.25824
G01 X-64.92138 Y28.25232
G01 X-65.02392 Y28.24112
G01 X-65.26619 Y28.19745
G01 X-65.37521 Y28.16901
G01 X-65.49210 Y28.13103
G01 X-65.64467 Y28.07142
G01 X-65.75468 Y28.02146
G01 X-65.75555 Y27.42794
G01 X-65.75552 Y27.44127
G01 X-65.66111 Y27.50259
G01 X-65.58123 Y27.54859
G01 X-65.47061 Y27.60213
G01 X-65.31823 Y27.66220
G01 X-65.21074 Y27.69591
G01 X-65.10101 Y27.72146
G01 X-64.94976 Y27.74660
G01 X-64.82773 Y27.75750
G01 X-63.46078 Y27.75994
G01 X-63.33736 Y27.75491
G01 X-63.16431 Y27.73520
G01 X-63.01402 Y27.70342
G01 X-62.82009 Y27.64196
G01 X-62.67239 Y27.57810
G01 X-62.55631 Y27.51605
G01 X-62.46211 Y27.45801
G01 X-62.38039 Y27.39934
G01 X-62.27760 Y27.31602
G01 X-62.19449 Y27.23998
G01 X-61.73483 Y26.78036
G01 X-61.78758 Y26.54160
G01 X-61.80851 Y26.42674
G01 X-61.86607 Y25.96073
G01 X-61.87305 Y25.83962
G01 X-61.87387 Y25.58064
G01 X-61.86985 Y25.50119
G01 X-61.87387 Y25.58064
G01 X-61.87341 Y25.85286
G01 X-61.86607 Y25.96073
G01 X-61.80892 Y26.42682
G01 X-61.78758 Y26.54160
G01 X-61.68893 Y26.98549
G01 X-61.55004 Y27.46243
G01 X-61.50059 Y27.61602
G01 X-61.33602 Y28.09126
G01 X-61.11146 Y28.66405
G01 X-60.74725 Y29.61963
G01 X-60.46592 Y30.43946
G01 X-61.08022 Y31.13913
G01 X-62.06046 Y32.23953
G01 X-63.65258 Y33.99859
G01 X-64.39245 Y34.84547
G01 X-64.95451 Y35.53325
G01 X-65.12778 Y35.75174
G01 X-65.43116 Y35.73501
G01 X-65.75273 Y35.70656
G01 X-65.75186 Y34.70046
G01 X-65.43172 Y34.73214
G01 X-65.09616 Y34.75225
G01 X-64.82118 Y34.75883
G01 X-64.31724 Y34.75929
G01 X-64.47386 Y34.94281
G01 X-64.73134 Y35.25909
G01 X-64.98346 Y35.25619
G01 X-65.23685 Y35.24618
G01 X-65.48989 Y35.22906
G01 X-65.75229 Y35.20369
G01 X-65.75102 Y33.69272
G01 X-65.55829 Y33.71601
G01 X-65.35656 Y33.73498
G01 X-64.97221 Y33.75596
G01 X-64.76964 Y33.75909
G01 X-63.43498 Y33.75975
G01 X-63.65258 Y33.99859
G01 X-63.88062 Y34.25957
G01 X-64.78011 Y34.25906
G01 X-65.02390 Y34.25459
G01 X-65.38910 Y34.23397
G01 X-65.75146 Y34.19683
G01 X-65.75285 Y32.68213
G01 X-65.50833 Y32.71538
G01 X-65.26591 Y32.73905
G01 X-65.02278 Y32.75363
G01 X-64.76911 Y32.75912
G01 X-63.45334 Y32.75983
G01 X-63.25055 Y32.75645
G01 X-63.05807 Y32.74738
G01 X-62.88616 Y32.73445
G01 X-62.65342 Y32.71065
G01 X-62.46261 Y32.68576
G01 X-62.96680 Y33.24243
G01 X-63.18969 Y33.25459
G01 X-63.39269 Y33.25950
G01 X-64.89162 Y33.25779
G01 X-65.11547 Y33.24984
G01 X-65.32883 Y33.23560
G01 X-65.53152 Y33.21596
G01 X-65.75125 Y33.18792
G01 X-65.75499 Y31.66796
G01 X-65.54927 Y31.70156
G01 X-65.33731 Y31.72828
G01 X-65.13459 Y31.74606
G01 X-64.92121 Y31.75665
G01 X-63.42250 Y31.75973
G01 X-63.23040 Y31.75505
G01 X-63.03858 Y31.74368
G01 X-62.77595 Y31.71817
G01 X-62.56467 Y31.68993
G01 X-62.34466 Y31.65157
G01 X-62.12639 Y31.60433
G01 X-61.90046 Y31.54550
G01 X-61.65741 Y31.47116
G01 X-61.43724 Y31.39521
G01 X-61.23851 Y31.31749
G01 X-61.90455 Y32.06448
G01 X-62.08392 Y32.10768
G01 X-62.27290 Y32.14695
G01 X-62.56353 Y32.19511
G01 X-62.86657 Y32.23042
G01 X-63.12913 Y32.25071
G01 X-63.41257 Y32.25965
G01 X-64.77912 Y32.25909
G01 X-64.97310 Y32.25518
G01 X-65.16685 Y32.24502
G01 X-65.36017 Y32.22859
G01 X-65.55285 Y32.20590
G01 X-65.75461 Y32.17535
G01 X-65.75499 Y29.62044
G01 X-65.52966 Y29.67523
G01 X-65.29034 Y29.71808
G01 X-65.07996 Y29.74411
G01 X-64.86840 Y29.75737
G01 X-63.37950 Y29.75897
G01 X-63.13282 Y29.74457
G01 X-62.85078 Y29.71043
G01 X-62.62273 Y29.66646
G01 X-62.38842 Y29.60456
G01 X-62.12865 Y29.51858
G01 X-61.88565 Y29.41836
G01 X-61.76714 Y29.36149
G01 X-61.63244 Y29.29042
G01 X-61.43163 Y29.17320
G01 X-61.23084 Y29.03692
G01 X-61.02947 Y28.87917
G01 X-60.74725 Y29.61963
G01 X-60.49528 Y30.35305
G01 X-60.74214 Y30.50962
G01 X-61.00077 Y30.65381
G01 X-61.24773 Y30.77599
G01 X-61.50107 Y30.88439
G01 X-61.76968 Y30.98188
G01 X-62.08095 Y31.07675
G01 X-62.34697 Y31.14167
G01 X-62.63617 Y31.19506
G01 X-62.80699 Y31.21843
G01 X-63.00897 Y31.23949
G01 X-63.31125 Y31.25765
G01 X-64.81895 Y31.25876
G01 X-65.04165 Y31.25097
G01 X-65.28397 Y31.23115
G01 X-65.50500 Y31.20266
G01 X-65.75499 Y31.15975
G01 X-65.75499 Y30.64967
G01 X-65.48984 Y30.69885
G01 X-65.27752 Y30.72879
G01 X-65.05382 Y30.74927
G01 X-64.82936 Y30.75856
G01 X-63.34153 Y30.75831
G01 X-63.19058 Y30.75181
G01 X-63.03990 Y30.74022
G01 X-62.85822 Y30.72100
G01 X-62.70770 Y30.70019
G01 X-62.44874 Y30.65214
G01 X-62.18326 Y30.58627
G01 X-61.88250 Y30.49229
G01 X-61.62528 Y30.39534
G01 X-61.36533 Y30.27840
G01 X-61.11265 Y30.14586
G01 X-60.88504 Y30.01071
G01 X-60.66282 Y29.86024
G01 X-60.74725 Y29.61963
G01 X-60.84232 Y29.37017
G01 X-61.04799 Y29.51963
G01 X-61.27105 Y29.66062
G01 X-61.52982 Y29.80177
G01 X-61.75030 Y29.90538
G01 X-61.98621 Y29.99882
G01 X-62.27602 Y30.09275
G01 X-62.53074 Y30.15823
G01 X-62.77922 Y30.20530
G01 X-62.92957 Y30.22597
G01 X-63.09093 Y30.24281
G01 X-63.35164 Y30.25841
G01 X-64.84907 Y30.25808
G01 X-65.06215 Y30.24741
G01 X-65.29451 Y30.22270
G01 X-65.54536 Y30.18168
G01 X-65.75499 Y30.13695
G01 X-65.75486 Y28.56588
G01 X-65.54937 Y28.63878
G01 X-65.34127 Y28.69296
G01 X-65.09012 Y28.73672
G01 X-64.86820 Y28.75666
G01 X-63.38926 Y28.75892
G01 X-63.25560 Y28.75156
G01 X-63.10257 Y28.73601
G01 X-62.98093 Y28.71843
G01 X-62.86028 Y28.69491
G01 X-62.71133 Y28.65722
G01 X-62.53571 Y28.60200
G01 X-62.40181 Y28.55217
G01 X-62.27097 Y28.49476
G01 X-62.10760 Y28.41053
G01 X-61.98387 Y28.33908
G01 X-61.86442 Y28.26067
G01 X-61.74163 Y28.16926
G01 X-61.57676 Y28.03147
G01 X-61.41204 Y27.87175
G01 X-61.50059 Y27.61602
G01 X-61.33602 Y28.09126
G01 X-61.22172 Y28.38442
G01 X-61.43419 Y28.56357
G01 X-61.60755 Y28.69087
G01 X-61.80734 Y28.81566
G01 X-62.03358 Y28.93545
G01 X-62.25903 Y29.03337
G01 X-62.50120 Y29.11615
G01 X-62.71857 Y29.17546
G01 X-62.93978 Y29.21828
G01 X-63.18395 Y29.24719
G01 X-63.39982 Y29.25930
G01 X-64.75707 Y29.25920
G01 X-64.88979 Y29.25620
G01 X-65.12377 Y29.23652
G01 X-65.35590 Y29.19979
G01 X-65.55603 Y29.15605
G01 X-65.75382 Y29.09839
G01 X-65.75516 Y24.47770
G01 X-65.68082 Y24.42853
G01 X-65.59332 Y24.37831
G01 X-65.39128 Y24.28474
G01 X-65.23924 Y24.23216
G01 X-65.05090 Y24.18794
G01 X-64.94955 Y24.17328
G01 X-64.79659 Y24.16104
G01 X-64.20564 Y24.16007
G01 X-64.18994 Y24.19787
G01 X-64.20564 Y24.16007
G01 X-64.04996 Y24.00440
G01 X-64.01189 Y24.02014
G01 X-64.04996 Y24.00440
G01 X-64.04996 Y23.32805
G01 X-63.67516 Y22.95317
G01 X-63.54996 Y22.81616
G01 X-63.54996 Y24.21148
G01 X-63.51191 Y24.22726
G01 X-63.54996 Y24.21148
G01 X-63.99850 Y24.66002
G01 X-63.98278 Y24.69794
G01 X-63.99850 Y24.66002
G01 X-64.75560 Y24.66020
G01 X-64.91953 Y24.67328
G01 X-65.07262 Y24.70498
G01 X-65.15255 Y24.72893
G01 X-65.23022 Y24.75949
G01 X-65.35024 Y24.81539
G01 X-65.44579 Y24.87173
G01 X-65.55212 Y24.95014
G01 X-65.61478 Y25.00292
G01 X-65.67289 Y25.06066
G01 X-65.75471 Y25.15459
G01 X-65.75529 Y23.77130
G01 X-65.47734 Y23.78316
G01 X-65.59791 Y23.82911
G01 X-65.75585 Y23.90038
G01 X-65.59791 Y23.82911
G01 X-65.47734 Y23.78316
G01 X-64.65120 Y23.81646
G01 X-64.65049 Y23.82256
G01 X-64.65120 Y23.81646
G01 X-64.60099 Y23.81293
G01 X-64.55250 Y23.79942
G01 X-64.50769 Y23.77646
G01 X-64.49936 Y23.79081
G01 X-64.50769 Y23.77646
G01 X-64.46840 Y23.74501
G01 X-64.04996 Y23.32805
G01 X-63.49528 Y21.87164
G01 X-63.52576 Y21.93353
G01 X-63.64943 Y22.14098
G01 X-63.80320 Y22.34763
G01 X-63.84582 Y22.39889
G01 X-64.04033 Y22.61133
G01 X-64.74236 Y23.31334
G01 X-65.93200 Y23.26391
G01 X-66.69583 Y22.82195
G01 X-66.61325 Y22.23800
G01 X-66.59575 Y22.16026
G04 P0 ( dwell for no time -- G64 should not smooth over this point )
G00 Z1.00000 ( retract )

G00 X-65.77155 Y20.02079 ( rapid move to begin. )
G01 F20.00000
( Mill infeed pass 1/1 )
G01 Z-0.30000
G04 P0 ( dwell for no time -- G64 should not smooth over this point )
G01 F30.00000
G01 X-65.77155 Y20.02079
G01 X-65.84125 Y20.14123
G01 X-65.94627 Y20.36564
G01 X-66.34411 Y21.32604
G01 X-66.47185 Y21.68121
G01 X-66.34411 Y21.32604
G01 X-66.29977 Y21.21896
G01 X-66.29806 Y21.30656
G01 X-66.29088 Y21.39805
G01 X-66.25874 Y21.59930
G01 X-66.21706 Y21.75700
