( pcb2gcode 3.0.1 )
( Gcode for custom )

G94 ( Inches per minute feed rate. )
G20 ( Units == INCHES. )

G90 ( Absolute coordinates. )
G00 S12000 ( RPM spindle speed. )
G64 P0.00040 ( set maximum deviation from commanded toolpath )
G01 F360.00000 ( Feedrate. )

#207 = #5211
#208 = #5212

(MSG, Attach the probe tool)
M0 ( Temporary machine stop. )
G0 Z0.080 ( Move Z to safe height )
G0 X4.68508 Y-3.35492 ( Move XY to start point )
G0 Z0.080 ( Move Z to probe height )
G38.2 Z-0.1 F2.362205 ( Z-probe )
#500 = 0 ( Probe point [0, 0] is our reference )
G92 Z0 ( Set the current Z as zero-value )

( We now start the real probing: move the Z axis to the probing height, move to )
( the probing XY position, probe it and save the result, parameter #2002, )
( in a numbered parameter; we will make 17 probes on the X-axis and )
( 7 probes on the Y-axis, for a grand total of 119 probes )

G0 Z0.080
X4.68508 Y-2.99285
G38.2 Z-0.1 F2.362205
#501=#2002
G0 Z0.080
X4.68508 Y-2.63078
G38.2 Z-0.1 F2.362205
#502=#2002
G0 Z0.080
X4.68508 Y-2.26870
G38.2 Z-0.1 F2.362205
#503=#2002
G0 Z0.080
X4.68508 Y-1.90663
G38.2 Z-0.1 F2.362205
#504=#2002
G0 Z0.080
X4.68508 Y-1.54456
G38.2 Z-0.1 F2.362205
#505=#2002
G0 Z0.080
X4.68508 Y-1.18249
G38.2 Z-0.1 F2.362205
#506=#2002
G0 Z0.080
X5.07682 Y-1.18249
G38.2 Z-0.1 F2.362205
#513=#2002
G0 Z0.080
X5.07682 Y-1.54456
G38.2 Z-0.1 F2.362205
#512=#2002
G0 Z0.080
X5.07682 Y-1.90663
G38.2 Z-0.1 F2.362205
#511=#2002
G0 Z0.080
X5.07682 Y-2.26870
G38.2 Z-0.1 F2.362205
#510=#2002
G0 Z0.080
X5.07682 Y-2.63078
G38.2 Z-0.1 F2.362205
#509=#2002
G0 Z0.080
X5.07682 Y-2.99285
G38.2 Z-0.1 F2.362205
#508=#2002
G0 Z0.080
X5.07682 Y-3.35492
G38.2 Z-0.1 F2.362205
#507=#2002
G0 Z0.080
X5.46856 Y-3.35492
G38.2 Z-0.1 F2.362205
#514=#2002
G0 Z0.080
X5.46856 Y-2.99285
G38.2 Z-0.1 F2.362205
#515=#2002
G0 Z0.080
X5.46856 Y-2.63078
G38.2 Z-0.1 F2.362205
#516=#2002
G0 Z0.080
X5.46856 Y-2.26870
G38.2 Z-0.1 F2.362205
#517=#2002
G0 Z0.080
X5.46856 Y-1.90663
G38.2 Z-0.1 F2.362205
#518=#2002
G0 Z0.080
X5.46856 Y-1.54456
G38.2 Z-0.1 F2.362205
#519=#2002
G0 Z0.080
X5.46856 Y-1.18249
G38.2 Z-0.1 F2.362205
#520=#2002
G0 Z0.080
X5.86030 Y-1.18249
G38.2 Z-0.1 F2.362205
#527=#2002
G0 Z0.080
X5.86030 Y-1.54456
G38.2 Z-0.1 F2.362205
#526=#2002
G0 Z0.080
X5.86030 Y-1.90663
G38.2 Z-0.1 F2.362205
#525=#2002
G0 Z0.080
X5.86030 Y-2.26870
G38.2 Z-0.1 F2.362205
#524=#2002
G0 Z0.080
X5.86030 Y-2.63078
G38.2 Z-0.1 F2.362205
#523=#2002
G0 Z0.080
X5.86030 Y-2.99285
G38.2 Z-0.1 F2.362205
#522=#2002
G0 Z0.080
X5.86030 Y-3.35492
G38.2 Z-0.1 F2.362205
#521=#2002
G0 Z0.080
X6.25204 Y-3.35492
G38.2 Z-0.1 F2.362205
#528=#2002
G0 Z0.080
X6.25204 Y-2.99285
G38.2 Z-0.1 F2.362205
#529=#2002
G0 Z0.080
X6.25204 Y-2.63078
G38.2 Z-0.1 F2.362205
#530=#2002
G0 Z0.080
X6.25204 Y-2.26870
G38.2 Z-0.1 F2.362205
#531=#2002
G0 Z0.080
X6.25204 Y-1.90663
G38.2 Z-0.1 F2.362205
#532=#2002
G0 Z0.080
X6.25204 Y-1.54456
G38.2 Z-0.1 F2.362205
#533=#2002
G0 Z0.080
X6.25204 Y-1.18249
G38.2 Z-0.1 F2.362205
#534=#2002
G0 Z0.080
X6.64378 Y-1.18249
G38.2 Z-0.1 F2.362205
#541=#2002
G0 Z0.080
X6.64378 Y-1.54456
G38.2 Z-0.1 F2.362205
#540=#2002
G0 Z0.080
X6.64378 Y-1.90663
G38.2 Z-0.1 F2.362205
#539=#2002
G0 Z0.080
X6.64378 Y-2.26870
G38.2 Z-0.1 F2.362205
#538=#2002
G0 Z0.080
X6.64378 Y-2.63078
G38.2 Z-0.1 F2.362205
#537=#2002
G0 Z0.080
X6.64378 Y-2.99285
G38.2 Z-0.1 F2.362205
#536=#2002
G0 Z0.080
X6.64378 Y-3.35492
G38.2 Z-0.1 F2.362205
#535=#2002
G0 Z0.080
X7.03552 Y-3.35492
G38.2 Z-0.1 F2.362205
#542=#2002
G0 Z0.080
X7.03552 Y-2.99285
G38.2 Z-0.1 F2.362205
#543=#2002
G0 Z0.080
X7.03552 Y-2.63078
G38.2 Z-0.1 F2.362205
#544=#2002
G0 Z0.080
X7.03552 Y-2.26870
G38.2 Z-0.1 F2.362205
#545=#2002
G0 Z0.080
X7.03552 Y-1.90663
G38.2 Z-0.1 F2.362205
#546=#2002
G0 Z0.080
X7.03552 Y-1.54456
G38.2 Z-0.1 F2.362205
#547=#2002
G0 Z0.080
X7.03552 Y-1.18249
G38.2 Z-0.1 F2.362205
#548=#2002
G0 Z0.080
X7.42726 Y-1.18249
G38.2 Z-0.1 F2.362205
#555=#2002
G0 Z0.080
X7.42726 Y-1.54456
G38.2 Z-0.1 F2.362205
#554=#2002
G0 Z0.080
X7.42726 Y-1.90663
G38.2 Z-0.1 F2.362205
#553=#2002
G0 Z0.080
X7.42726 Y-2.26870
G38.2 Z-0.1 F2.362205
#552=#2002
G0 Z0.080
X7.42726 Y-2.63078
G38.2 Z-0.1 F2.362205
#551=#2002
G0 Z0.080
X7.42726 Y-2.99285
G38.2 Z-0.1 F2.362205
#550=#2002
G0 Z0.080
X7.42726 Y-3.35492
G38.2 Z-0.1 F2.362205
#549=#2002
G0 Z0.080
X7.81901 Y-3.35492
G38.2 Z-0.1 F2.362205
#556=#2002
G0 Z0.080
X7.81901 Y-2.99285
G38.2 Z-0.1 F2.362205
#557=#2002
G0 Z0.080
X7.81901 Y-2.63078
G38.2 Z-0.1 F2.362205
#558=#2002
G0 Z0.080
X7.81901 Y-2.26870
G38.2 Z-0.1 F2.362205
#559=#2002
G0 Z0.080
X7.81901 Y-1.90663
G38.2 Z-0.1 F2.362205
#560=#2002
G0 Z0.080
X7.81901 Y-1.54456
G38.2 Z-0.1 F2.362205
#561=#2002
G0 Z0.080
X7.81901 Y-1.18249
G38.2 Z-0.1 F2.362205
#562=#2002
G0 Z0.080
X8.21075 Y-1.18249
G38.2 Z-0.1 F2.362205
#569=#2002
G0 Z0.080
X8.21075 Y-1.54456
G38.2 Z-0.1 F2.362205
#568=#2002
G0 Z0.080
X8.21075 Y-1.90663
G38.2 Z-0.1 F2.362205
#567=#2002
G0 Z0.080
X8.21075 Y-2.26870
G38.2 Z-0.1 F2.362205
#566=#2002
G0 Z0.080
X8.21075 Y-2.63078
G38.2 Z-0.1 F2.362205
#565=#2002
G0 Z0.080
X8.21075 Y-2.99285
G38.2 Z-0.1 F2.362205
#564=#2002
G0 Z0.080
X8.21075 Y-3.35492
G38.2 Z-0.1 F2.362205
#563=#2002
G0 Z0.080
X8.60249 Y-3.35492
G38.2 Z-0.1 F2.362205
#570=#2002
G0 Z0.080
X8.60249 Y-2.99285
G38.2 Z-0.1 F2.362205
#571=#2002
G0 Z0.080
X8.60249 Y-2.63078
G38.2 Z-0.1 F2.362205
#572=#2002
G0 Z0.080
X8.60249 Y-2.26870
G38.2 Z-0.1 F2.362205
#573=#2002
G0 Z0.080
X8.60249 Y-1.90663
G38.2 Z-0.1 F2.362205
#574=#2002
G0 Z0.080
X8.60249 Y-1.54456
G38.2 Z-0.1 F2.362205
#575=#2002
G0 Z0.080
X8.60249 Y-1.18249
G38.2 Z-0.1 F2.362205
#576=#2002
G0 Z0.080
X8.99423 Y-1.18249
G38.2 Z-0.1 F2.362205
#583=#2002
G0 Z0.080
X8.99423 Y-1.54456
G38.2 Z-0.1 F2.362205
#582=#2002
G0 Z0.080
X8.99423 Y-1.90663
G38.2 Z-0.1 F2.362205
#581=#2002
G0 Z0.080
X8.99423 Y-2.26870
G38.2 Z-0.1 F2.362205
#580=#2002
G0 Z0.080
X8.99423 Y-2.63078
G38.2 Z-0.1 F2.362205
#579=#2002
G0 Z0.080
X8.99423 Y-2.99285
G38.2 Z-0.1 F2.362205
#578=#2002
G0 Z0.080
X8.99423 Y-3.35492
G38.2 Z-0.1 F2.362205
#577=#2002
G0 Z0.080
X9.38597 Y-3.35492
G38.2 Z-0.1 F2.362205
#584=#2002
G0 Z0.080
X9.38597 Y-2.99285
G38.2 Z-0.1 F2.362205
#585=#2002
G0 Z0.080
X9.38597 Y-2.63078
G38.2 Z-0.1 F2.362205
#586=#2002
G0 Z0.080
X9.38597 Y-2.26870
G38.2 Z-0.1 F2.362205
#587=#2002
G0 Z0.080
X9.38597 Y-1.90663
G38.2 Z-0.1 F2.362205
#588=#2002
G0 Z0.080
X9.38597 Y-1.54456
G38.2 Z-0.1 F2.362205
#589=#2002
G0 Z0.080
X9.38597 Y-1.18249
G38.2 Z-0.1 F2.362205
#590=#2002
G0 Z0.080
X9.77771 Y-1.18249
G38.2 Z-0.1 F2.362205
#597=#2002
G0 Z0.080
X9.77771 Y-1.54456
G38.2 Z-0.1 F2.362205
#596=#2002
G0 Z0.080
X9.77771 Y-1.90663
G38.2 Z-0.1 F2.362205
#595=#2002
G0 Z0.080
X9.77771 Y-2.26870
G38.2 Z-0.1 F2.362205
#594=#2002
G0 Z0.080
X9.77771 Y-2.63078
G38.2 Z-0.1 F2.362205
#593=#2002
G0 Z0.080
X9.77771 Y-2.99285
G38.2 Z-0.1 F2.362205
#592=#2002
G0 Z0.080
X9.77771 Y-3.35492
G38.2 Z-0.1 F2.362205
#591=#2002
G0 Z0.080
X10.16945 Y-3.35492
G38.2 Z-0.1 F2.362205
#598=#2002
G0 Z0.080
X10.16945 Y-2.99285
G38.2 Z-0.1 F2.362205
#599=#2002
G0 Z0.080
X10.16945 Y-2.63078
G38.2 Z-0.1 F2.362205
#600=#2002
G0 Z0.080
X10.16945 Y-2.26870
G38.2 Z-0.1 F2.362205
#601=#2002
G0 Z0.080
X10.16945 Y-1.90663
G38.2 Z-0.1 F2.362205
#602=#2002
G0 Z0.080
X10.16945 Y-1.54456
G38.2 Z-0.1 F2.362205
#603=#2002
G0 Z0.080
X10.16945 Y-1.18249
G38.2 Z-0.1 F2.362205
#604=#2002
G0 Z0.080
X10.56119 Y-1.18249
G38.2 Z-0.1 F2.362205
#611=#2002
G0 Z0.080
X10.56119 Y-1.54456
G38.2 Z-0.1 F2.362205
#610=#2002
G0 Z0.080
X10.56119 Y-1.90663
G38.2 Z-0.1 F2.362205
#609=#2002
G0 Z0.080
X10.56119 Y-2.26870
G38.2 Z-0.1 F2.362205
#608=#2002
G0 Z0.080
X10.56119 Y-2.63078
G38.2 Z-0.1 F2.362205
#607=#2002
G0 Z0.080
X10.56119 Y-2.99285
G38.2 Z-0.1 F2.362205
#606=#2002
G0 Z0.080
X10.56119 Y-3.35492
G38.2 Z-0.1 F2.362205
#605=#2002
G0 Z0.080
X10.95294 Y-3.35492
G38.2 Z-0.1 F2.362205
#612=#2002
G0 Z0.080
X10.95294 Y-2.99285
G38.2 Z-0.1 F2.362205
#613=#2002
G0 Z0.080
X10.95294 Y-2.63078
G38.2 Z-0.1 F2.362205
#614=#2002
G0 Z0.080
X10.95294 Y-2.26870
G38.2 Z-0.1 F2.362205
#615=#2002
G0 Z0.080
X10.95294 Y-1.90663
G38.2 Z-0.1 F2.362205
#616=#2002
G0 Z0.080
X10.95294 Y-1.54456
G38.2 Z-0.1 F2.362205
#617=#2002
G0 Z0.080
X10.95294 Y-1.18249
G38.2 Z-0.1 F2.362205
#618=#2002

G0 Z0.080 ( Move Z to safe height )
( Probing has ended, each Z-coordinate will be corrected with a bilinear interpolation )
(MSG, Detach the probe tool)
M0 ( Temporary machine stop. )


G00 Z1.00000 (Retract to tool change height)
T1
M5      (Spindle stop.)
G04 P1.00000 (Wait for spindle to stop)
(MSG, Change tool bit to mill diameter 0.00000in)
M6      (Tool change.)
M0      (Temporary machine stop.)
M3 ( Spindle on clockwise. )
G04 P1.00000 (Wait for spindle to get up to speed)
( Piece #1, position [0;0] )

G04 P0 ( dwell for no time -- G64 should not smooth over this point )
G00 Z0.08000 ( retract )

G00 X4.68508 Y-2.47619 ( rapid move to begin. )
G01 F180.00000
( Mill infeed pass 1/1 )
#200=[#502+[#503-#502]*0.42695]
G01 Z[-0.04000+#200]
G04 P0 ( dwell for no time -- G64 should not smooth over this point )
G01 F360.00000
#205=[#501+[#502-#501]*1.00000]
#206=[#508+[#509-#508]*1.00000]
#200=[#205+[#206-#205]*0.00001]
X4.68508 Y-2.63078 Z[#200+-0.04000]
#205=[#501+[#502-#501]*0.04379]
#206=[#508+[#509-#508]*0.04379]
#200=[#205+[#206-#205]*0.00004]
X4.68509 Y-2.97699 Z[#200+-0.04000]
#205=[#501+[#502-#501]*0.03827]
#206=[#508+[#509-#508]*0.03827]
#200=[#205+[#206-#205]*0.00051]
X4.68528 Y-2.97899 Z[#200+-0.04000]
#205=[#501+[#502-#501]*0.03284]
#206=[#508+[#509-#508]*0.03284]
#200=[#205+[#206-#205]*0.00150]
X4.68566 Y-2.98096 Z[#200+-0.04000]
#205=[#501+[#502-#501]*0.02343]
#206=[#508+[#509-#508]*0.02343]
#200=[#205+[#206-#205]*0.00454]
X4.68685 Y-2.98437 Z[#200+-0.04000]
#205=[#501+[#502-#501]*0.01478]
#206=[#508+[#509-#508]*0.01478]
#200=[#205+[#206-#205]*0.00912]
X4.68865 Y-2.98750 Z[#200+-0.04000]
#205=[#501+[#502-#501]*0.01041]
#206=[#508+[#509-#508]*0.01041]
#200=[#205+[#206-#205]*0.01228]
X4.68988 Y-2.98908 Z[#200+-0.04000]
#205=[#501+[#502-#501]*0.00641]
#206=[#508+[#509-#508]*0.00641]
#200=[#205+[#206-#205]*0.01582]
X4.69127 Y-2.99053 Z[#200+-0.04000]
#205=[#501+[#502-#501]*0.00282]
#206=[#508+[#509-#508]*0.00282]
#200=[#205+[#206-#205]*0.01973]
X4.69280 Y-2.99183 Z[#200+-0.04000]
#205=[#501+[#502-#501]*0.00000]
#206=[#508+[#509-#508]*0.00000]
#200=[#205+[#206-#205]*0.02353]
X4.69429 Y-2.99285 Z[#200+-0.04000]
#205=[#500+[#501-#500]*0.99968]
#206=[#507+[#508-#507]*0.99968]
#200=[#205+[#206-#205]*0.02395]
X4.69446 Y-2.99296 Z[#200+-0.04000]
#205=[#500+[#501-#500]*0.99527]
#206=[#507+[#508-#507]*0.99527]
#200=[#205+[#206-#205]*0.03221]
X4.69769 Y-2.99456 Z[#200+-0.04000]
#205=[#500+[#501-#500]*0.99355]
#206=[#507+[#508-#507]*0.99355]
#200=[#205+[#206-#205]*0.03708]
X4.69960 Y-2.99519 Z[#200+-0.04000]
#205=[#500+[#501-#500]*0.99237]
#206=[#507+[#508-#507]*0.99237]
#200=[#205+[#206-#205]*0.04209]
X4.70156 Y-2.99561 Z[#200+-0.04000]
#205=[#500+[#501-#500]*0.99174]
#206=[#507+[#508-#507]*0.99174]
#200=[#205+[#206-#205]*0.04718]
X4.70356 Y-2.99584 Z[#200+-0.04000]
#205=[#500+[#501-#500]*0.99169]
#206=[#507+[#508-#507]*0.99169]
#200=[#205+[#206-#205]*0.05230]
X4.70556 Y-2.99586 Z[#200+-0.04000]
#205=[#500+[#501-#500]*0.99301]
#206=[#507+[#508-#507]*0.99301]
#200=[#205+[#206-#205]*0.06143]
X4.70914 Y-2.99538 Z[#200+-0.04000]
#205=[#500+[#501-#500]*0.99611]
#206=[#507+[#508-#507]*0.99611]
#200=[#205+[#206-#205]*0.07019]
X4.71257 Y-2.99426 Z[#200+-0.04000]
#205=[#501+[#502-#501]*0.00000]
#206=[#508+[#509-#508]*0.00000]
#200=[#205+[#206-#205]*0.07678]
X4.71515 Y-2.99285 Z[#200+-0.04000]
#205=[#501+[#502-#501]*0.00088]
#206=[#508+[#509-#508]*0.00088]
#200=[#205+[#206-#205]*0.07828]
X4.71574 Y-2.99253 Z[#200+-0.04000]
#205=[#501+[#502-#501]*0.00718]
#206=[#508+[#509-#508]*0.00718]
#200=[#205+[#206-#205]*0.08542]
X4.71854 Y-2.99025 Z[#200+-0.04000]
#205=[#501+[#502-#501]*0.01478]
#206=[#508+[#509-#508]*0.01478]
#200=[#205+[#206-#205]*0.09138]
X4.72087 Y-2.98750 Z[#200+-0.04000]
#205=[#501+[#502-#501]*0.02242]
#206=[#508+[#509-#508]*0.02242]
#200=[#205+[#206-#205]*0.09552]
X4.72250 Y-2.98473 Z[#200+-0.04000]
#205=[#501+[#502-#501]*0.03176]
#206=[#508+[#509-#508]*0.03176]
#200=[#205+[#206-#205]*0.09874]
X4.72376 Y-2.98135 Z[#200+-0.04000]
#205=[#501+[#502-#501]*0.04158]
#206=[#508+[#509-#508]*0.04158]
#200=[#205+[#206-#205]*0.10033]
X4.72438 Y-2.97779 Z[#200+-0.04000]
#205=[#501+[#502-#501]*0.71499]
#206=[#508+[#509-#508]*0.71499]
#200=[#205+[#206-#205]*0.10050]
X4.72445 Y-2.73397 Z[#200+-0.04000]
#205=[#501+[#502-#501]*0.71499]
#206=[#508+[#509-#508]*0.71499]
#200=[#205+[#206-#205]*0.47570]
X4.87143 Y-2.73397 Z[#200+-0.04000]
#205=[#501+[#502-#501]*0.71540]
#206=[#508+[#509-#508]*0.71540]
#200=[#205+[#206-#205]*0.48184]
X4.87383 Y-2.73382 Z[#200+-0.04000]
#205=[#501+[#502-#501]*0.71720]
#206=[#508+[#509-#508]*0.71720]
#200=[#205+[#206-#205]*0.48986]
X4.87697 Y-2.73317 Z[#200+-0.04000]
#205=[#501+[#502-#501]*0.72087]
#206=[#508+[#509-#508]*0.72087]
#200=[#205+[#206-#205]*0.49843]
X4.88033 Y-2.73184 Z[#200+-0.04000]
#205=[#501+[#502-#501]*0.72617]
#206=[#508+[#509-#508]*0.72617]
#200=[#205+[#206-#205]*0.50622]
X4.88338 Y-2.72992 Z[#200+-0.04000]
#205=[#501+[#502-#501]*0.73211]
#206=[#508+[#509-#508]*0.73211]
#200=[#205+[#206-#205]*0.51230]
X4.88577 Y-2.72777 Z[#200+-0.04000]
#205=[#501+[#502-#501]*0.73997]
#206=[#508+[#509-#508]*0.73997]
#200=[#205+[#206-#205]*0.51798]
X4.88799 Y-2.72493 Z[#200+-0.04000]
#205=[#501+[#502-#501]*0.74881]
#206=[#508+[#509-#508]*0.74881]
#200=[#205+[#206-#205]*0.52222]
X4.88965 Y-2.72173 Z[#200+-0.04000]
#205=[#501+[#502-#501]*0.75835]
#206=[#508+[#509-#508]*0.75835]
#200=[#205+[#206-#205]*0.52491]
X4.89070 Y-2.71827 Z[#200+-0.04000]
#205=[#501+[#502-#501]*0.76715]
#206=[#508+[#509-#508]*0.76715]
#200=[#205+[#206-#205]*0.52591]
X4.89110 Y-2.71509 Z[#200+-0.04000]
#205=[#501+[#502-#501]*0.77710]
#206=[#508+[#509-#508]*0.77710]
#200=[#205+[#206-#205]*0.52544]
X4.89091 Y-2.71148 Z[#200+-0.04000]
#205=[#501+[#502-#501]*0.78679]
#206=[#508+[#509-#508]*0.78679]
#200=[#205+[#206-#205]*0.52330]
X4.89007 Y-2.70797 Z[#200+-0.04000]
#205=[#501+[#502-#501]*0.79590]
#206=[#508+[#509-#508]*0.79590]
#200=[#205+[#206-#205]*0.51956]
X4.88861 Y-2.70467 Z[#200+-0.04000]
#205=[#501+[#502-#501]*0.80412]
#206=[#508+[#509-#508]*0.80412]
#200=[#205+[#206-#205]*0.51434]
X4.88656 Y-2.70170 Z[#200+-0.04000]
#205=[#501+[#502-#501]*0.81117]
#206=[#508+[#509-#508]*0.81117]
#200=[#205+[#206-#205]*0.50783]
X4.88401 Y-2.69915 Z[#200+-0.04000]
#205=[#501+[#502-#501]*0.81681]
#206=[#508+[#509-#508]*0.81681]
#200=[#205+[#206-#205]*0.50023]
X4.88104 Y-2.69710 Z[#200+-0.04000]
#205=[#501+[#502-#501]*0.81927]
#206=[#508+[#509-#508]*0.81927]
#200=[#205+[#206-#205]*0.49564]
X4.87924 Y-2.69622 Z[#200+-0.04000]
#205=[#501+[#502-#501]*0.82120]
#206=[#508+[#509-#508]*0.82120]
#200=[#205+[#206-#205]*0.49084]
X4.87736 Y-2.69551 Z[#200+-0.04000]
#205=[#501+[#502-#501]*0.82332]
#206=[#508+[#509-#508]*0.82332]
#200=[#205+[#206-#205]*0.48184]
X4.87383 Y-2.69475 Z[#200+-0.04000]
#205=[#501+[#502-#501]*0.82373]
#206=[#508+[#509-#508]*0.82373]
#200=[#205+[#206-#205]*0.47570]
X4.87143 Y-2.69460 Z[#200+-0.04000]
#205=[#501+[#502-#501]*0.82373]
#206=[#508+[#509-#508]*0.82373]
#200=[#205+[#206-#205]*0.10050]
X4.72445 Y-2.69460 Z[#200+-0.04000]
#205=[#501+[#502-#501]*1.00000]
#206=[#508+[#509-#508]*1.00000]
#200=[#205+[#206-#205]*0.10050]
X4.72445 Y-2.63078 Z[#200+-0.04000]
#205=[#502+[#503-#502]*0.37258]
#206=[#509+[#510-#509]*0.37258]
#200=[#205+[#206-#205]*0.10050]
X4.72445 Y-2.49587 Z[#200+-0.04000]
#205=[#502+[#503-#502]*0.37258]
#206=[#509+[#510-#509]*0.37258]
#200=[#205+[#206-#205]*0.65804]
X4.94286 Y-2.49587 Z[#200+-0.04000]
#205=[#502+[#503-#502]*0.37331]
#206=[#509+[#510-#509]*0.37331]
#200=[#205+[#206-#205]*0.66620]
X4.94606 Y-2.49561 Z[#200+-0.04000]
#205=[#502+[#503-#502]*0.37511]
#206=[#509+[#510-#509]*0.37511]
#200=[#205+[#206-#205]*0.67318]
X4.94879 Y-2.49496 Z[#200+-0.04000]
#205=[#502+[#503-#502]*0.37846]
#206=[#509+[#510-#509]*0.37846]
#200=[#205+[#206-#205]*0.68076]
X4.95176 Y-2.49375 Z[#200+-0.04000]
#205=[#502+[#503-#502]*0.38310]
#206=[#509+[#510-#509]*0.38310]
#200=[#205+[#206-#205]*0.68774]
X4.95449 Y-2.49207 Z[#200+-0.04000]
#205=[#502+[#503-#502]*0.38890]
#206=[#509+[#510-#509]*0.38890]
#200=[#205+[#206-#205]*0.69393]
X4.95692 Y-2.48997 Z[#200+-0.04000]
#205=[#502+[#503-#502]*0.39572]
#206=[#509+[#510-#509]*0.39572]
#200=[#205+[#206-#205]*0.69917]
X4.95897 Y-2.48750 Z[#200+-0.04000]
#205=[#502+[#503-#502]*0.40237]
#206=[#509+[#510-#509]*0.40237]
#200=[#205+[#206-#205]*0.70286]
X4.96041 Y-2.48509 Z[#200+-0.04000]
#205=[#502+[#503-#502]*0.41057]
#206=[#509+[#510-#509]*0.41057]
#200=[#205+[#206-#205]*0.70596]
X4.96163 Y-2.48212 Z[#200+-0.04000]
#205=[#502+[#503-#502]*0.41921]
#206=[#509+[#510-#509]*0.41921]
#200=[#205+[#206-#205]*0.70778]
X4.96234 Y-2.47899 Z[#200+-0.04000]
#205=[#502+[#503-#502]*0.42806]
#206=[#509+[#510-#509]*0.42806]
#200=[#205+[#206-#205]*0.70828]
X4.96254 Y-2.47579 Z[#200+-0.04000]
#205=[#502+[#503-#502]*0.43688]
#206=[#509+[#510-#509]*0.43688]
#200=[#205+[#206-#205]*0.70745]
X4.96221 Y-2.47260 Z[#200+-0.04000]
#205=[#502+[#503-#502]*0.44543]
#206=[#509+[#510-#509]*0.44543]
#200=[#205+[#206-#205]*0.70530]
X4.96137 Y-2.46950 Z[#200+-0.04000]
#205=[#502+[#503-#502]*0.45349]
#206=[#509+[#510-#509]*0.45349]
#200=[#205+[#206-#205]*0.70190]
X4.96004 Y-2.46658 Z[#200+-0.04000]
#205=[#502+[#503-#502]*0.45997]
#206=[#509+[#510-#509]*0.45997]
#200=[#205+[#206-#205]*0.69796]
X4.95849 Y-2.46423 Z[#200+-0.04000]
#205=[#502+[#503-#502]*0.46655]
#206=[#509+[#510-#509]*0.46655]
#200=[#205+[#206-#205]*0.69247]
X4.95634 Y-2.46185 Z[#200+-0.04000]
#205=[#502+[#503-#502]*0.47208]
#206=[#509+[#510-#509]*0.47208]
#200=[#205+[#206-#205]*0.68607]
X4.95383 Y-2.45985 Z[#200+-0.04000]
#205=[#502+[#503-#502]*0.47641]
#206=[#509+[#510-#509]*0.47641]
#200=[#205+[#206-#205]*0.67891]
X4.95103 Y-2.45828 Z[#200+-0.04000]
#205=[#502+[#503-#502]*0.47879]
#206=[#509+[#510-#509]*0.47879]
#200=[#205+[#206-#205]*0.67318]
X4.94879 Y-2.45742 Z[#200+-0.04000]
#205=[#502+[#503-#502]*0.48019]
#206=[#509+[#510-#509]*0.48019]
#200=[#205+[#206-#205]*0.66822]
X4.94684 Y-2.45691 Z[#200+-0.04000]
#205=[#502+[#503-#502]*0.48104]
#206=[#509+[#510-#509]*0.48104]
#200=[#205+[#206-#205]*0.66316]
X4.94486 Y-2.45661 Z[#200+-0.04000]
#205=[#502+[#503-#502]*0.48132]
#206=[#509+[#510-#509]*0.48132]
#200=[#205+[#206-#205]*0.65804]
X4.94286 Y-2.45650 Z[#200+-0.04000]
#205=[#502+[#503-#502]*0.48127]
#206=[#509+[#510-#509]*0.48127]
#200=[#205+[#206-#205]*0.04820]
X4.70396 Y-2.45652 Z[#200+-0.04000]
#205=[#502+[#503-#502]*0.48041]
#206=[#509+[#510-#509]*0.48041]
#200=[#205+[#206-#205]*0.04108]
X4.70117 Y-2.45683 Z[#200+-0.04000]
#205=[#502+[#503-#502]*0.47879]
#206=[#509+[#510-#509]*0.47879]
#200=[#205+[#206-#205]*0.03511]
X4.69883 Y-2.45742 Z[#200+-0.04000]
#205=[#502+[#503-#502]*0.47593]
#206=[#509+[#510-#509]*0.47593]
#200=[#205+[#206-#205]*0.02845]
X4.69622 Y-2.45845 Z[#200+-0.04000]
#205=[#502+[#503-#502]*0.47208]
#206=[#509+[#510-#509]*0.47208]
#200=[#205+[#206-#205]*0.02223]
X4.69378 Y-2.45985 Z[#200+-0.04000]
#205=[#502+[#503-#502]*0.46730]
#206=[#509+[#510-#509]*0.46730]
#200=[#205+[#206-#205]*0.01658]
X4.69157 Y-2.46158 Z[#200+-0.04000]
#205=[#502+[#503-#502]*0.46171]
#206=[#509+[#510-#509]*0.46171]
#200=[#205+[#206-#205]*0.01161]
X4.68962 Y-2.46360 Z[#200+-0.04000]
#205=[#502+[#503-#502]*0.45541]
#206=[#509+[#510-#509]*0.45541]
#200=[#205+[#206-#205]*0.00743]
X4.68799 Y-2.46589 Z[#200+-0.04000]
#205=[#502+[#503-#502]*0.44954]
#206=[#509+[#510-#509]*0.44954]
#200=[#205+[#206-#205]*0.00454]
X4.68685 Y-2.46801 Z[#200+-0.04000]
#205=[#502+[#503-#502]*0.44333]
#206=[#509+[#510-#509]*0.44333]
#200=[#205+[#206-#205]*0.00234]
X4.68599 Y-2.47026 Z[#200+-0.04000]
#205=[#502+[#503-#502]*0.43796]
#206=[#509+[#510-#509]*0.43796]
#200=[#205+[#206-#205]*0.00104]
X4.68548 Y-2.47220 Z[#200+-0.04000]
#205=[#502+[#503-#502]*0.43249]
#206=[#509+[#510-#509]*0.43249]
#200=[#205+[#206-#205]*0.00026]
X4.68518 Y-2.47418 Z[#200+-0.04000]
#200=[#502+[#503-#502]*0.42695]
X4.68508 Y-2.47619 Z[#200+-0.04000]
G04 P0 ( dwell for no time -- G64 should not smooth over this point )
G00 Z0.08000 ( retract )

G00 X5.11365 Y-2.64286 ( rapid move to begin. )
G01 F180.00000
( Mill infeed pass 1/1 )
#205=[#508+[#509-#508]*0.96664]
#206=[#515+[#516-#515]*0.96664]
#200=[#205+[#206-#205]*0.09402]
G01 Z[-0.04000+#200]
G04 P0 ( dwell for no time -- G64 should not smooth over this point )
G01 F360.00000
#205=[#508+[#509-#508]*0.04269]
#206=[#515+[#516-#515]*0.04269]
#200=[#205+[#206-#205]*0.09411]
X5.11368 Y-2.97739 Z[#200+-0.04000]
#205=[#508+[#509-#508]*0.03718]
#206=[#515+[#516-#515]*0.03718]
#200=[#205+[#206-#205]*0.09469]
X5.11391 Y-2.97939 Z[#200+-0.04000]
#205=[#508+[#509-#508]*0.03176]
#206=[#515+[#516-#515]*0.03176]
#200=[#205+[#206-#205]*0.09578]
X5.11434 Y-2.98135 Z[#200+-0.04000]
#205=[#508+[#509-#508]*0.02242]
#206=[#515+[#516-#515]*0.02242]
#200=[#205+[#206-#205]*0.09900]
X5.11560 Y-2.98473 Z[#200+-0.04000]
#205=[#508+[#509-#508]*0.01756]
#206=[#515+[#516-#515]*0.01756]
#200=[#205+[#206-#205]*0.10145]
X5.11656 Y-2.98649 Z[#200+-0.04000]
#205=[#508+[#509-#508]*0.01299]
#206=[#515+[#516-#515]*0.01299]
#200=[#205+[#206-#205]*0.10435]
X5.11770 Y-2.98815 Z[#200+-0.04000]
#205=[#508+[#509-#508]*0.00566]
#206=[#515+[#516-#515]*0.00566]
#200=[#205+[#206-#205]*0.11060]
X5.12014 Y-2.99080 Z[#200+-0.04000]
#205=[#508+[#509-#508]*0.00000]
#206=[#515+[#516-#515]*0.00000]
#200=[#205+[#206-#205]*0.11758]
X5.12288 Y-2.99285 Z[#200+-0.04000]
#205=[#507+[#508-#507]*0.99968]
#206=[#514+[#515-#514]*0.99968]
#200=[#205+[#206-#205]*0.11797]
X5.12303 Y-2.99296 Z[#200+-0.04000]
#205=[#507+[#508-#507]*0.99703]
#206=[#514+[#515-#514]*0.99703]
#200=[#205+[#206-#205]*0.12247]
X5.12479 Y-2.99392 Z[#200+-0.04000]
#205=[#507+[#508-#507]*0.99488]
#206=[#514+[#515-#514]*0.99488]
#200=[#205+[#206-#205]*0.12719]
X5.12664 Y-2.99470 Z[#200+-0.04000]
#205=[#507+[#508-#507]*0.99326]
#206=[#514+[#515-#514]*0.99326]
#200=[#205+[#206-#205]*0.13209]
X5.12856 Y-2.99529 Z[#200+-0.04000]
#205=[#507+[#508-#507]*0.99220]
#206=[#514+[#515-#514]*0.99220]
#200=[#205+[#206-#205]*0.13712]
X5.13053 Y-2.99567 Z[#200+-0.04000]
#205=[#507+[#508-#507]*0.99169]
#206=[#514+[#515-#514]*0.99169]
#200=[#205+[#206-#205]*0.14222]
X5.13253 Y-2.99586 Z[#200+-0.04000]
#205=[#507+[#508-#507]*0.99174]
#206=[#514+[#515-#514]*0.99174]
#200=[#205+[#206-#205]*0.14734]
X5.13454 Y-2.99584 Z[#200+-0.04000]
#205=[#507+[#508-#507]*0.99326]
#206=[#514+[#515-#514]*0.99326]
#200=[#205+[#206-#205]*0.15645]
X5.13810 Y-2.99529 Z[#200+-0.04000]
#205=[#507+[#508-#507]*0.99611]
#206=[#514+[#515-#514]*0.99611]
#200=[#205+[#206-#205]*0.16421]
X5.14114 Y-2.99426 Z[#200+-0.04000]
#205=[#508+[#509-#508]*0.00000]
#206=[#515+[#516-#515]*0.00000]
#200=[#205+[#206-#205]*0.17080]
X5.14373 Y-2.99285 Z[#200+-0.04000]
#205=[#508+[#509-#508]*0.00088]
#206=[#515+[#516-#515]*0.00088]
#200=[#205+[#206-#205]*0.17229]
X5.14431 Y-2.99253 Z[#200+-0.04000]
#205=[#508+[#509-#508]*0.00718]
#206=[#515+[#516-#515]*0.00718]
#200=[#205+[#206-#205]*0.17944]
X5.14711 Y-2.99025 Z[#200+-0.04000]
#205=[#508+[#509-#508]*0.01478]
#206=[#515+[#516-#515]*0.01478]
#200=[#205+[#206-#205]*0.18540]
X5.14945 Y-2.98750 Z[#200+-0.04000]
#205=[#508+[#509-#508]*0.02242]
#206=[#515+[#516-#515]*0.02242]
#200=[#205+[#206-#205]*0.18954]
X5.15107 Y-2.98473 Z[#200+-0.04000]
#205=[#508+[#509-#508]*0.03176]
#206=[#515+[#516-#515]*0.03176]
#200=[#205+[#206-#205]*0.19276]
X5.15233 Y-2.98135 Z[#200+-0.04000]
#205=[#508+[#509-#508]*0.04158]
#206=[#515+[#516-#515]*0.04158]
#200=[#205+[#206-#205]*0.19435]
X5.15295 Y-2.97779 Z[#200+-0.04000]
#205=[#508+[#509-#508]*0.69077]
#206=[#515+[#516-#515]*0.69077]
#200=[#205+[#206-#205]*0.19452]
X5.15302 Y-2.74274 Z[#200+-0.04000]
#205=[#508+[#509-#508]*0.80291]
#206=[#515+[#516-#515]*0.80291]
#200=[#205+[#206-#205]*0.24635]
X5.17332 Y-2.70214 Z[#200+-0.04000]
#205=[#508+[#509-#508]*0.85620]
#206=[#515+[#516-#515]*0.85620]
#200=[#205+[#206-#205]*0.29559]
X5.19261 Y-2.68284 Z[#200+-0.04000]
#205=[#508+[#509-#508]*0.91227]
#206=[#515+[#516-#515]*0.91227]
#200=[#205+[#206-#205]*0.39924]
X5.23322 Y-2.66254 Z[#200+-0.04000]
#205=[#508+[#509-#508]*0.91245]
#206=[#515+[#516-#515]*0.91245]
#200=[#205+[#206-#205]*0.51304]
X5.27779 Y-2.66248 Z[#200+-0.04000]
#205=[#508+[#509-#508]*0.91389]
#206=[#515+[#516-#515]*0.91389]
#200=[#205+[#206-#205]*0.52112]
X5.28096 Y-2.66195 Z[#200+-0.04000]
#205=[#508+[#509-#508]*0.91673]
#206=[#515+[#516-#515]*0.91673]
#200=[#205+[#206-#205]*0.52888]
X5.28400 Y-2.66093 Z[#200+-0.04000]
#205=[#508+[#509-#508]*0.92090]
#206=[#515+[#516-#515]*0.92090]
#200=[#205+[#206-#205]*0.53611]
X5.28683 Y-2.65942 Z[#200+-0.04000]
#205=[#508+[#509-#508]*0.92628]
#206=[#515+[#516-#515]*0.92628]
#200=[#205+[#206-#205]*0.54262]
X5.28938 Y-2.65747 Z[#200+-0.04000]
#205=[#508+[#509-#508]*0.93104]
#206=[#515+[#516-#515]*0.93104]
#200=[#205+[#206-#205]*0.54692]
X5.29107 Y-2.65575 Z[#200+-0.04000]
#205=[#508+[#509-#508]*0.93632]
#206=[#515+[#516-#515]*0.93632]
#200=[#205+[#206-#205]*0.55065]
X5.29253 Y-2.65383 Z[#200+-0.04000]
#205=[#508+[#509-#508]*0.94205]
#206=[#515+[#516-#515]*0.94205]
#200=[#205+[#206-#205]*0.55376]
X5.29375 Y-2.65176 Z[#200+-0.04000]
#205=[#508+[#509-#508]*0.94921]
#206=[#515+[#516-#515]*0.94921]
#200=[#205+[#206-#205]*0.55654]
X5.29483 Y-2.64917 Z[#200+-0.04000]
#205=[#508+[#509-#508]*0.95671]
#206=[#515+[#516-#515]*0.95671]
#200=[#205+[#206-#205]*0.55835]
X5.29554 Y-2.64645 Z[#200+-0.04000]
#205=[#508+[#509-#508]*0.96331]
#206=[#515+[#516-#515]*0.96331]
#200=[#205+[#206-#205]*0.55910]
X5.29584 Y-2.64406 Z[#200+-0.04000]
#205=[#508+[#509-#508]*0.96996]
#206=[#515+[#516-#515]*0.96996]
#200=[#205+[#206-#205]*0.55910]
X5.29584 Y-2.64165 Z[#200+-0.04000]
#205=[#508+[#509-#508]*0.97656]
#206=[#515+[#516-#515]*0.97656]
#200=[#205+[#206-#205]*0.55835]
X5.29554 Y-2.63926 Z[#200+-0.04000]
#205=[#508+[#509-#508]*0.98302]
#206=[#515+[#516-#515]*0.98302]
#200=[#205+[#206-#205]*0.55686]
X5.29496 Y-2.63693 Z[#200+-0.04000]
#205=[#508+[#509-#508]*0.99023]
#206=[#515+[#516-#515]*0.99023]
#200=[#205+[#206-#205]*0.55421]
X5.29392 Y-2.63431 Z[#200+-0.04000]
#205=[#508+[#509-#508]*0.99603]
#206=[#515+[#516-#515]*0.99603]
#200=[#205+[#206-#205]*0.55122]
X5.29275 Y-2.63221 Z[#200+-0.04000]
#205=[#508+[#509-#508]*1.00000]
#206=[#515+[#516-#515]*1.00000]
#200=[#205+[#206-#205]*0.54852]
X5.29170 Y-2.63078 Z[#200+-0.04000]
#205=[#509+[#510-#509]*0.00139]
#206=[#516+[#517-#516]*0.00139]
#200=[#205+[#206-#205]*0.54758]
X5.29133 Y-2.63027 Z[#200+-0.04000]
#205=[#509+[#510-#509]*0.00624]
#206=[#516+[#517-#516]*0.00624]
#200=[#205+[#206-#205]*0.54337]
X5.28968 Y-2.62852 Z[#200+-0.04000]
#205=[#509+[#510-#509]*0.01049]
#206=[#516+[#517-#516]*0.01049]
#200=[#205+[#206-#205]*0.53864]
X5.28782 Y-2.62698 Z[#200+-0.04000]
#205=[#509+[#510-#509]*0.01409]
#206=[#516+[#517-#516]*0.01409]
#200=[#205+[#206-#205]*0.53347]
X5.28580 Y-2.62568 Z[#200+-0.04000]
#205=[#509+[#510-#509]*0.01697]
#206=[#516+[#517-#516]*0.01697]
#200=[#205+[#206-#205]*0.52793]
X5.28363 Y-2.62463 Z[#200+-0.04000]
#205=[#509+[#510-#509]*0.01880]
#206=[#516+[#517-#516]*0.01880]
#200=[#205+[#206-#205]*0.52310]
X5.28174 Y-2.62397 Z[#200+-0.04000]
#205=[#509+[#510-#509]*0.02009]
#206=[#516+[#517-#516]*0.02009]
#200=[#205+[#206-#205]*0.51811]
X5.27978 Y-2.62350 Z[#200+-0.04000]
#205=[#509+[#510-#509]*0.02101]
#206=[#516+[#517-#516]*0.02101]
#200=[#205+[#206-#205]*0.50894]
X5.27619 Y-2.62317 Z[#200+-0.04000]
#205=[#509+[#510-#509]*0.02100]
#206=[#516+[#517-#516]*0.02100]
#200=[#205+[#206-#205]*0.38637]
X5.22817 Y-2.62317 Z[#200+-0.04000]
#205=[#509+[#510-#509]*0.02030]
#206=[#516+[#517-#516]*0.02030]
#200=[#205+[#206-#205]*0.37932]
X5.22541 Y-2.62343 Z[#200+-0.04000]
#205=[#509+[#510-#509]*0.01854]
#206=[#516+[#517-#516]*0.01854]
#200=[#205+[#206-#205]*0.37242]
X5.22271 Y-2.62406 Z[#200+-0.04000]
#205=[#509+[#510-#509]*0.01526]
#206=[#516+[#517-#516]*0.01526]
#200=[#205+[#206-#205]*0.36491]
X5.21977 Y-2.62525 Z[#200+-0.04000]
#205=[#508+[#509-#508]*1.00000]
#206=[#515+[#516-#515]*1.00000]
#200=[#205+[#206-#205]*0.33678]
X5.20875 Y-2.63078 Z[#200+-0.04000]
#205=[#508+[#509-#508]*0.94740]
#206=[#515+[#516-#515]*0.94740]
#200=[#205+[#206-#205]*0.23982]
X5.17076 Y-2.64982 Z[#200+-0.04000]
#205=[#508+[#509-#508]*0.94367]
#206=[#515+[#516-#515]*0.94367]
#200=[#205+[#206-#205]*0.23483]
X5.16881 Y-2.65117 Z[#200+-0.04000]
#205=[#508+[#509-#508]*0.94009]
#206=[#515+[#516-#515]*0.94009]
#200=[#205+[#206-#205]*0.23102]
X5.16732 Y-2.65247 Z[#200+-0.04000]
#205=[#508+[#509-#508]*0.90062]
#206=[#515+[#516-#515]*0.90062]
#200=[#205+[#206-#205]*0.19452]
X5.15302 Y-2.66676 Z[#200+-0.04000]
#205=[#508+[#509-#508]*0.96775]
#206=[#515+[#516-#515]*0.96775]
#200=[#205+[#206-#205]*0.19451]
X5.15301 Y-2.64245 Z[#200+-0.04000]
#205=[#508+[#509-#508]*0.97656]
#206=[#515+[#516-#515]*0.97656]
#200=[#205+[#206-#205]*0.19368]
X5.15269 Y-2.63926 Z[#200+-0.04000]
#205=[#508+[#509-#508]*0.98615]
#206=[#515+[#516-#515]*0.98615]
#200=[#205+[#206-#205]*0.19117]
X5.15170 Y-2.63579 Z[#200+-0.04000]
#205=[#508+[#509-#508]*0.99414]
#206=[#515+[#516-#515]*0.99414]
#200=[#205+[#206-#205]*0.18762]
X5.15031 Y-2.63290 Z[#200+-0.04000]
#205=[#508+[#509-#508]*1.00000]
#206=[#515+[#516-#515]*1.00000]
#200=[#205+[#206-#205]*0.18381]
X5.14882 Y-2.63078 Z[#200+-0.04000]
#205=[#509+[#510-#509]*0.00139]
#206=[#516+[#517-#516]*0.00139]
#200=[#205+[#206-#205]*0.18291]
X5.14847 Y-2.63027 Z[#200+-0.04000]
#205=[#509+[#510-#509]*0.00844]
#206=[#516+[#517-#516]*0.00844]
#200=[#205+[#206-#205]*0.17639]
X5.14592 Y-2.62772 Z[#200+-0.04000]
#205=[#509+[#510-#509]*0.01176]
#206=[#516+[#517-#516]*0.01176]
#200=[#205+[#206-#205]*0.17229]
X5.14431 Y-2.62652 Z[#200+-0.04000]
#205=[#509+[#510-#509]*0.01513]
#206=[#516+[#517-#516]*0.01513]
#200=[#205+[#206-#205]*0.16699]
X5.14223 Y-2.62530 Z[#200+-0.04000]
#205=[#509+[#510-#509]*0.01777]
#206=[#516+[#517-#516]*0.01777]
#200=[#205+[#206-#205]*0.16135]
X5.14002 Y-2.62434 Z[#200+-0.04000]
#205=[#509+[#510-#509]*0.01964]
#206=[#516+[#517-#516]*0.01964]
#200=[#205+[#206-#205]*0.15545]
X5.13771 Y-2.62366 Z[#200+-0.04000]
#205=[#509+[#510-#509]*0.02072]
#206=[#516+[#517-#516]*0.02072]
#200=[#205+[#206-#205]*0.14939]
X5.13534 Y-2.62327 Z[#200+-0.04000]
#205=[#509+[#510-#509]*0.02099]
#206=[#516+[#517-#516]*0.02099]
#200=[#205+[#206-#205]*0.14324]
X5.13293 Y-2.62318 Z[#200+-0.04000]
#205=[#509+[#510-#509]*0.02045]
#206=[#516+[#517-#516]*0.02045]
#200=[#205+[#206-#205]*0.13712]
X5.13053 Y-2.62337 Z[#200+-0.04000]
#205=[#509+[#510-#509]*0.01938]
#206=[#516+[#517-#516]*0.01938]
#200=[#205+[#206-#205]*0.13209]
X5.12856 Y-2.62376 Z[#200+-0.04000]
#205=[#509+[#510-#509]*0.01738]
#206=[#516+[#517-#516]*0.01738]
#200=[#205+[#206-#205]*0.12623]
X5.12627 Y-2.62448 Z[#200+-0.04000]
#205=[#509+[#510-#509]*0.01513]
#206=[#516+[#517-#516]*0.01513]
#200=[#205+[#206-#205]*0.12155]
X5.12443 Y-2.62530 Z[#200+-0.04000]
#205=[#509+[#510-#509]*0.01176]
#206=[#516+[#517-#516]*0.01176]
#200=[#205+[#206-#205]*0.11624]
X5.12235 Y-2.62652 Z[#200+-0.04000]
#205=[#509+[#510-#509]*0.00772]
#206=[#516+[#517-#516]*0.00772]
#200=[#205+[#206-#205]*0.11136]
X5.12044 Y-2.62798 Z[#200+-0.04000]
#205=[#509+[#510-#509]*0.00307]
#206=[#516+[#517-#516]*0.00307]
#200=[#205+[#206-#205]*0.10697]
X5.11872 Y-2.62967 Z[#200+-0.04000]
#205=[#508+[#509-#508]*1.00000]
#206=[#515+[#516-#515]*1.00000]
#200=[#205+[#206-#205]*0.10471]
X5.11783 Y-2.63078 Z[#200+-0.04000]
#205=[#508+[#509-#508]*0.99787]
#206=[#515+[#516-#515]*0.99787]
#200=[#205+[#206-#205]*0.10314]
X5.11722 Y-2.63155 Z[#200+-0.04000]
#205=[#508+[#509-#508]*0.99318]
#206=[#515+[#516-#515]*0.99318]
#200=[#205+[#206-#205]*0.10041]
X5.11615 Y-2.63325 Z[#200+-0.04000]
#205=[#508+[#509-#508]*0.98719]
#206=[#515+[#516-#515]*0.98719]
#200=[#205+[#206-#205]*0.09775]
X5.11511 Y-2.63542 Z[#200+-0.04000]
#205=[#508+[#509-#508]*0.98195]
#206=[#515+[#516-#515]*0.98195]
#200=[#205+[#206-#205]*0.09606]
X5.11444 Y-2.63731 Z[#200+-0.04000]
#205=[#508+[#509-#508]*0.97656]
#206=[#515+[#516-#515]*0.97656]
#200=[#205+[#206-#205]*0.09486]
X5.11398 Y-2.63926 Z[#200+-0.04000]
#205=[#508+[#509-#508]*0.96664]
#206=[#515+[#516-#515]*0.96664]
#200=[#205+[#206-#205]*0.09402]
X5.11365 Y-2.64286 Z[#200+-0.04000]
G04 P0 ( dwell for no time -- G64 should not smooth over this point )
G00 Z0.08000 ( retract )

G00 X5.39936 Y-2.73809 ( rapid move to begin. )
G01 F180.00000
( Mill infeed pass 1/1 )
#205=[#508+[#509-#508]*0.70360]
#206=[#515+[#516-#515]*0.70360]
#200=[#205+[#206-#205]*0.82336]
G01 Z[-0.04000+#200]
G04 P0 ( dwell for no time -- G64 should not smooth over this point )
G01 F360.00000
#205=[#508+[#509-#508]*0.30358]
#206=[#515+[#516-#515]*0.30358]
#200=[#205+[#206-#205]*0.82362]
X5.39946 Y-2.88293 Z[#200+-0.04000]
#205=[#508+[#509-#508]*0.29391]
#206=[#515+[#516-#515]*0.29391]
#200=[#205+[#206-#205]*0.82535]
X5.40014 Y-2.88643 Z[#200+-0.04000]
#205=[#508+[#509-#508]*0.28572]
#206=[#515+[#516-#515]*0.28572]
#200=[#205+[#206-#205]*0.82822]
X5.40127 Y-2.88940 Z[#200+-0.04000]
#205=[#508+[#509-#508]*0.15321]
#206=[#515+[#516-#515]*0.15321]
#200=[#205+[#206-#205]*0.88945]
X5.42525 Y-2.93737 Z[#200+-0.04000]
#205=[#508+[#509-#508]*0.14754]
#206=[#515+[#516-#515]*0.14754]
#200=[#205+[#206-#205]*0.89248]
X5.42644 Y-2.93943 Z[#200+-0.04000]
#205=[#508+[#509-#508]*0.13909]
#206=[#515+[#516-#515]*0.13909]
#200=[#205+[#206-#205]*0.89886]
X5.42894 Y-2.94249 Z[#200+-0.04000]
#205=[#508+[#509-#508]*0.07333]
#206=[#515+[#516-#515]*0.07333]
#200=[#205+[#206-#205]*0.95964]
X5.45275 Y-2.96630 Z[#200+-0.04000]
#205=[#508+[#509-#508]*0.06831]
#206=[#515+[#516-#515]*0.06831]
#200=[#205+[#206-#205]*0.96498]
X5.45484 Y-2.96811 Z[#200+-0.04000]
#205=[#508+[#509-#508]*0.06314]
#206=[#515+[#516-#515]*0.06314]
#200=[#205+[#206-#205]*0.97270]
X5.45786 Y-2.96999 Z[#200+-0.04000]
#200=[#515+[#516-#515]*0.04837]
X5.46856 Y-2.97533 Z[#200+-0.04000]
#205=[#515+[#516-#515]*0.00000]
#206=[#522+[#523-#522]*0.00000]
#200=[#205+[#206-#205]*0.08942]
X5.50359 Y-2.99285 Z[#200+-0.04000]
#205=[#514+[#515-#514]*0.99738]
#206=[#521+[#522-#521]*0.99738]
#200=[#205+[#206-#205]*0.09425]
X5.50548 Y-2.99380 Z[#200+-0.04000]
#205=[#514+[#515-#514]*0.99480]
#206=[#521+[#522-#521]*0.99480]
#200=[#205+[#206-#205]*0.09984]
X5.50767 Y-2.99473 Z[#200+-0.04000]
#205=[#514+[#515-#514]*0.99274]
#206=[#521+[#522-#521]*0.99274]
#200=[#205+[#206-#205]*0.10667]
X5.51034 Y-2.99548 Z[#200+-0.04000]
#205=[#514+[#515-#514]*0.99164]
#206=[#521+[#522-#521]*0.99164]
#200=[#205+[#206-#205]*0.11673]
X5.51429 Y-2.99587 Z[#200+-0.04000]
#205=[#514+[#515-#514]*0.99164]
#206=[#521+[#522-#521]*0.99164]
#200=[#205+[#206-#205]*0.29907]
X5.58571 Y-2.99587 Z[#200+-0.04000]
#205=[#514+[#515-#514]*0.99204]
#206=[#521+[#522-#521]*0.99204]
#200=[#205+[#206-#205]*0.30513]
X5.58809 Y-2.99573 Z[#200+-0.04000]
#205=[#514+[#515-#514]*0.99379]
#206=[#521+[#522-#521]*0.99379]
#200=[#205+[#206-#205]*0.31306]
X5.59120 Y-2.99510 Z[#200+-0.04000]
#205=[#514+[#515-#514]*0.99690]
#206=[#521+[#522-#521]*0.99690]
#200=[#205+[#206-#205]*0.32063]
X5.59416 Y-2.99397 Z[#200+-0.04000]
#205=[#515+[#516-#515]*0.00000]
#206=[#522+[#523-#522]*0.00000]
#200=[#205+[#206-#205]*0.32635]
X5.59640 Y-2.99285 Z[#200+-0.04000]
#205=[#515+[#516-#515]*0.06314]
#206=[#522+[#523-#522]*0.06314]
#200=[#205+[#206-#205]*0.44309]
X5.64214 Y-2.96999 Z[#200+-0.04000]
#205=[#515+[#516-#515]*0.06642]
#206=[#522+[#523-#522]*0.06642]
#200=[#205+[#206-#205]*0.44834]
X5.64419 Y-2.96880 Z[#200+-0.04000]
#205=[#515+[#516-#515]*0.07333]
#206=[#522+[#523-#522]*0.07333]
#200=[#205+[#206-#205]*0.45615]
X5.64725 Y-2.96630 Z[#200+-0.04000]
#205=[#515+[#516-#515]*0.13909]
#206=[#522+[#523-#522]*0.13909]
#200=[#205+[#206-#205]*0.51693]
X5.67106 Y-2.94249 Z[#200+-0.04000]
#205=[#515+[#516-#515]*0.14486]
#206=[#522+[#523-#522]*0.14486]
#200=[#205+[#206-#205]*0.52156]
X5.67288 Y-2.94040 Z[#200+-0.04000]
#205=[#515+[#516-#515]*0.15321]
#206=[#522+[#523-#522]*0.15321]
#200=[#205+[#206-#205]*0.52634]
X5.67475 Y-2.93737 Z[#200+-0.04000]
#205=[#515+[#516-#515]*0.28572]
#206=[#522+[#523-#522]*0.28572]
#200=[#205+[#206-#205]*0.58757]
X5.69873 Y-2.88940 Z[#200+-0.04000]
#205=[#515+[#516-#515]*0.29391]
#206=[#522+[#523-#522]*0.29391]
#200=[#205+[#206-#205]*0.59044]
X5.69986 Y-2.88643 Z[#200+-0.04000]
#205=[#515+[#516-#515]*0.30140]
#206=[#522+[#523-#522]*0.30140]
#200=[#205+[#206-#205]*0.59193]
X5.70044 Y-2.88372 Z[#200+-0.04000]
#205=[#515+[#516-#515]*0.30905]
#206=[#522+[#523-#522]*0.30905]
#200=[#205+[#206-#205]*0.59243]
X5.70064 Y-2.88095 Z[#200+-0.04000]
#205=[#515+[#516-#515]*0.70907]
#206=[#522+[#523-#522]*0.70907]
#200=[#205+[#206-#205]*0.59218]
X5.70054 Y-2.73611 Z[#200+-0.04000]
#205=[#515+[#516-#515]*0.71556]
#206=[#522+[#523-#522]*0.71556]
#200=[#205+[#206-#205]*0.59120]
X5.70015 Y-2.73377 Z[#200+-0.04000]
#205=[#515+[#516-#515]*0.72187]
#206=[#522+[#523-#522]*0.72187]
#200=[#205+[#206-#205]*0.58951]
X5.69949 Y-2.73148 Z[#200+-0.04000]
#205=[#515+[#516-#515]*0.72693]
#206=[#522+[#523-#522]*0.72693]
#200=[#205+[#206-#205]*0.58757]
X5.69873 Y-2.72965 Z[#200+-0.04000]
#205=[#515+[#516-#515]*0.85943]
#206=[#522+[#523-#522]*0.85943]
#200=[#205+[#206-#205]*0.52634]
X5.67475 Y-2.68167 Z[#200+-0.04000]
#205=[#515+[#516-#515]*0.86866]
#206=[#522+[#523-#522]*0.86866]
#200=[#205+[#206-#205]*0.52095]
X5.67263 Y-2.67833 Z[#200+-0.04000]
#205=[#515+[#516-#515]*0.87356]
#206=[#522+[#523-#522]*0.87356]
#200=[#205+[#206-#205]*0.51693]
X5.67106 Y-2.67656 Z[#200+-0.04000]
#205=[#515+[#516-#515]*0.93932]
#206=[#522+[#523-#522]*0.93932]
#200=[#205+[#206-#205]*0.45615]
X5.64725 Y-2.65275 Z[#200+-0.04000]
#205=[#515+[#516-#515]*0.94623]
#206=[#522+[#523-#522]*0.94623]
#200=[#205+[#206-#205]*0.44834]
X5.64419 Y-2.65025 Z[#200+-0.04000]
#205=[#515+[#516-#515]*0.94951]
#206=[#522+[#523-#522]*0.94951]
#200=[#205+[#206-#205]*0.44309]
X5.64214 Y-2.64906 Z[#200+-0.04000]
#205=[#515+[#516-#515]*1.00000]
#206=[#522+[#523-#522]*1.00000]
#200=[#205+[#206-#205]*0.34975]
X5.60557 Y-2.63078 Z[#200+-0.04000]
#205=[#516+[#517-#516]*0.01526]
#206=[#523+[#524-#523]*0.01526]
#200=[#205+[#206-#205]*0.32154]
X5.59452 Y-2.62525 Z[#200+-0.04000]
#205=[#516+[#517-#516]*0.01784]
#206=[#523+[#524-#523]*0.01784]
#200=[#205+[#206-#205]*0.31595]
X5.59233 Y-2.62432 Z[#200+-0.04000]
#205=[#516+[#517-#516]*0.02011]
#206=[#523+[#524-#523]*0.02011]
#200=[#205+[#206-#205]*0.30813]
X5.58927 Y-2.62350 Z[#200+-0.04000]
#205=[#516+[#517-#516]*0.02100]
#206=[#523+[#524-#523]*0.02100]
#200=[#205+[#206-#205]*0.30008]
X5.58611 Y-2.62317 Z[#200+-0.04000]
#205=[#516+[#517-#516]*0.02101]
#206=[#523+[#524-#523]*0.02101]
#200=[#205+[#206-#205]*0.11673]
X5.51429 Y-2.62317 Z[#200+-0.04000]
#205=[#516+[#517-#516]*0.01990]
#206=[#523+[#524-#523]*0.01990]
#200=[#205+[#206-#205]*0.10667]
X5.51034 Y-2.62357 Z[#200+-0.04000]
#205=[#516+[#517-#516]*0.01820]
#206=[#523+[#524-#523]*0.01820]
#200=[#205+[#206-#205]*0.10080]
X5.50805 Y-2.62419 Z[#200+-0.04000]
#205=[#516+[#517-#516]*0.01621]
#206=[#523+[#524-#523]*0.01621]
#200=[#205+[#206-#205]*0.09608]
X5.50620 Y-2.62491 Z[#200+-0.04000]
#205=[#515+[#516-#515]*1.00000]
#206=[#522+[#523-#522]*1.00000]
#200=[#205+[#206-#205]*0.06624]
X5.49451 Y-2.63078 Z[#200+-0.04000]
#200=[#515+[#516-#515]*0.96403]
X5.46856 Y-2.64380 Z[#200+-0.04000]
#205=[#508+[#509-#508]*0.94682]
#206=[#515+[#516-#515]*0.94682]
#200=[#205+[#206-#205]*0.96830]
X5.45614 Y-2.65003 Z[#200+-0.04000]
#205=[#508+[#509-#508]*0.94367]
#206=[#515+[#516-#515]*0.94367]
#200=[#205+[#206-#205]*0.96417]
X5.45452 Y-2.65117 Z[#200+-0.04000]
#205=[#508+[#509-#508]*0.93932]
#206=[#515+[#516-#515]*0.93932]
#200=[#205+[#206-#205]*0.95964]
X5.45275 Y-2.65275 Z[#200+-0.04000]
#205=[#508+[#509-#508]*0.87356]
#206=[#515+[#516-#515]*0.87356]
#200=[#205+[#206-#205]*0.89886]
X5.42894 Y-2.67656 Z[#200+-0.04000]
#205=[#508+[#509-#508]*0.86779]
#206=[#515+[#516-#515]*0.86779]
#200=[#205+[#206-#205]*0.89423]
X5.42712 Y-2.67865 Z[#200+-0.04000]
#205=[#508+[#509-#508]*0.85943]
#206=[#515+[#516-#515]*0.85943]
#200=[#205+[#206-#205]*0.88945]
X5.42525 Y-2.68167 Z[#200+-0.04000]
#205=[#508+[#509-#508]*0.72693]
#206=[#515+[#516-#515]*0.72693]
#200=[#205+[#206-#205]*0.82822]
X5.40127 Y-2.72965 Z[#200+-0.04000]
#205=[#508+[#509-#508]*0.71874]
#206=[#515+[#516-#515]*0.71874]
#200=[#205+[#206-#205]*0.82535]
X5.40014 Y-2.73261 Z[#200+-0.04000]
#205=[#508+[#509-#508]*0.71125]
#206=[#515+[#516-#515]*0.71125]
#200=[#205+[#206-#205]*0.82386]
X5.39956 Y-2.73533 Z[#200+-0.04000]
#205=[#508+[#509-#508]*0.70360]
#206=[#515+[#516-#515]*0.70360]
#200=[#205+[#206-#205]*0.82336]
X5.39936 Y-2.73809 Z[#200+-0.04000]
G04 P0 ( dwell for no time -- G64 should not smooth over this point )
G00 Z0.08000 ( retract )

G00 X5.43873 Y-2.87630 ( rapid move to begin. )
G01 F180.00000
( Mill infeed pass 1/1 )
#205=[#508+[#509-#508]*0.32188]
#206=[#515+[#516-#515]*0.32188]
#200=[#205+[#206-#205]*0.92386]
G01 Z[-0.04000+#200]
G04 P0 ( dwell for no time -- G64 should not smooth over this point )
G01 F360.00000
#205=[#508+[#509-#508]*0.69077]
#206=[#515+[#516-#515]*0.69077]
#200=[#205+[#206-#205]*0.92386]
X5.43873 Y-2.74274 Z[#200+-0.04000]
#205=[#508+[#509-#508]*0.80291]
#206=[#515+[#516-#515]*0.80291]
#200=[#205+[#206-#205]*0.97569]
X5.45904 Y-2.70214 Z[#200+-0.04000]
#200=[#515+[#516-#515]*0.82922]
X5.46856 Y-2.69261 Z[#200+-0.04000]
#205=[#515+[#516-#515]*0.85620]
#206=[#522+[#523-#522]*0.85620]
#200=[#205+[#206-#205]*0.02494]
X5.47833 Y-2.68284 Z[#200+-0.04000]
#205=[#515+[#516-#515]*0.91227]
#206=[#522+[#523-#522]*0.91227]
#200=[#205+[#206-#205]*0.12859]
X5.51893 Y-2.66254 Z[#200+-0.04000]
#205=[#515+[#516-#515]*0.91227]
#206=[#522+[#523-#522]*0.91227]
#200=[#205+[#206-#205]*0.28720]
X5.58107 Y-2.66254 Z[#200+-0.04000]
#205=[#515+[#516-#515]*0.85620]
#206=[#522+[#523-#522]*0.85620]
#200=[#205+[#206-#205]*0.39086]
X5.62167 Y-2.68284 Z[#200+-0.04000]
#205=[#515+[#516-#515]*0.80291]
#206=[#522+[#523-#522]*0.80291]
#200=[#205+[#206-#205]*0.44010]
X5.64096 Y-2.70214 Z[#200+-0.04000]
#205=[#515+[#516-#515]*0.69077]
#206=[#522+[#523-#522]*0.69077]
#200=[#205+[#206-#205]*0.49193]
X5.66127 Y-2.74274 Z[#200+-0.04000]
#205=[#515+[#516-#515]*0.32188]
#206=[#522+[#523-#522]*0.32188]
#200=[#205+[#206-#205]*0.49193]
X5.66127 Y-2.87630 Z[#200+-0.04000]
#205=[#515+[#516-#515]*0.20973]
#206=[#522+[#523-#522]*0.20973]
#200=[#205+[#206-#205]*0.44010]
X5.64096 Y-2.91691 Z[#200+-0.04000]
#205=[#515+[#516-#515]*0.15645]
#206=[#522+[#523-#522]*0.15645]
#200=[#205+[#206-#205]*0.39086]
X5.62167 Y-2.93620 Z[#200+-0.04000]
#205=[#515+[#516-#515]*0.10038]
#206=[#522+[#523-#522]*0.10038]
#200=[#205+[#206-#205]*0.28720]
X5.58107 Y-2.95650 Z[#200+-0.04000]
#205=[#515+[#516-#515]*0.10038]
#206=[#522+[#523-#522]*0.10038]
#200=[#205+[#206-#205]*0.12859]
X5.51893 Y-2.95650 Z[#200+-0.04000]
#205=[#515+[#516-#515]*0.15645]
#206=[#522+[#523-#522]*0.15645]
#200=[#205+[#206-#205]*0.02494]
X5.47833 Y-2.93620 Z[#200+-0.04000]
#200=[#515+[#516-#515]*0.18343]
X5.46856 Y-2.92643 Z[#200+-0.04000]
#205=[#508+[#509-#508]*0.20973]
#206=[#515+[#516-#515]*0.20973]
#200=[#205+[#206-#205]*0.97569]
X5.45904 Y-2.91691 Z[#200+-0.04000]
#205=[#508+[#509-#508]*0.32188]
#206=[#515+[#516-#515]*0.32188]
#200=[#205+[#206-#205]*0.92386]
X5.43873 Y-2.87630 Z[#200+-0.04000]
G04 P0 ( dwell for no time -- G64 should not smooth over this point )
G00 Z0.08000 ( retract )

G00 X5.87555 Y-2.97619 ( rapid move to begin. )
G01 F180.00000
( Mill infeed pass 1/1 )
#205=[#522+[#523-#522]*0.04601]
#206=[#529+[#530-#529]*0.04601]
#200=[#205+[#206-#205]*0.03894]
G01 Z[-0.04000+#200]
G04 P0 ( dwell for no time -- G64 should not smooth over this point )
G01 F360.00000
#205=[#522+[#523-#522]*0.96775]
#206=[#529+[#530-#529]*0.96775]
#200=[#205+[#206-#205]*0.03895]
X5.87556 Y-2.64245 Z[#200+-0.04000]
#205=[#522+[#523-#522]*0.97437]
#206=[#529+[#530-#529]*0.97437]
#200=[#205+[#206-#205]*0.03945]
X5.87575 Y-2.64005 Z[#200+-0.04000]
#205=[#522+[#523-#522]*0.98089]
#206=[#529+[#530-#529]*0.98089]
#200=[#205+[#206-#205]*0.04070]
X5.87624 Y-2.63770 Z[#200+-0.04000]
#205=[#522+[#523-#522]*0.98719]
#206=[#529+[#530-#529]*0.98719]
#200=[#205+[#206-#205]*0.04267]
X5.87701 Y-2.63542 Z[#200+-0.04000]
#205=[#522+[#523-#522]*0.99318]
#206=[#529+[#530-#529]*0.99318]
#200=[#205+[#206-#205]*0.04533]
X5.87806 Y-2.63325 Z[#200+-0.04000]
#205=[#522+[#523-#522]*0.99877]
#206=[#529+[#530-#529]*0.99877]
#200=[#205+[#206-#205]*0.04865]
X5.87936 Y-2.63122 Z[#200+-0.04000]
#205=[#522+[#523-#522]*1.00000]
#206=[#529+[#530-#529]*1.00000]
#200=[#205+[#206-#205]*0.04960]
X5.87973 Y-2.63078 Z[#200+-0.04000]
#205=[#523+[#524-#523]*0.00389]
#206=[#530+[#531-#530]*0.00389]
#200=[#205+[#206-#205]*0.05259]
X5.88090 Y-2.62937 Z[#200+-0.04000]
#205=[#523+[#524-#523]*0.00844]
#206=[#530+[#531-#530]*0.00844]
#200=[#205+[#206-#205]*0.05706]
X5.88265 Y-2.62772 Z[#200+-0.04000]
#205=[#523+[#524-#523]*0.01238]
#206=[#530+[#531-#530]*0.01238]
#200=[#205+[#206-#205]*0.06202]
X5.88460 Y-2.62630 Z[#200+-0.04000]
#205=[#523+[#524-#523]*0.01609]
#206=[#530+[#531-#530]*0.01609]
#200=[#205+[#206-#205]*0.06831]
X5.88706 Y-2.62495 Z[#200+-0.04000]
#205=[#523+[#524-#523]*0.01880]
#206=[#530+[#531-#530]*0.01880]
#200=[#205+[#206-#205]*0.07503]
X5.88969 Y-2.62397 Z[#200+-0.04000]
#205=[#523+[#524-#523]*0.02045]
#206=[#530+[#531-#530]*0.02045]
#200=[#205+[#206-#205]*0.08204]
X5.89244 Y-2.62337 Z[#200+-0.04000]
#205=[#523+[#524-#523]*0.02099]
#206=[#530+[#531-#530]*0.02099]
#200=[#205+[#206-#205]*0.09021]
X5.89564 Y-2.62318 Z[#200+-0.04000]
#205=[#523+[#524-#523]*0.02028]
#206=[#530+[#531-#530]*0.02028]
#200=[#205+[#206-#205]*0.09735]
X5.89844 Y-2.62343 Z[#200+-0.04000]
#205=[#523+[#524-#523]*0.01848]
#206=[#530+[#531-#530]*0.01848]
#200=[#205+[#206-#205]*0.10433]
X5.90117 Y-2.62409 Z[#200+-0.04000]
#205=[#523+[#524-#523]*0.01562]
#206=[#530+[#531-#530]*0.01562]
#200=[#205+[#206-#205]*0.11099]
X5.90378 Y-2.62512 Z[#200+-0.04000]
#205=[#523+[#524-#523]*0.01176]
#206=[#530+[#531-#530]*0.01176]
#200=[#205+[#206-#205]*0.11721]
X5.90622 Y-2.62652 Z[#200+-0.04000]
#205=[#523+[#524-#523]*0.00699]
#206=[#530+[#531-#530]*0.00699]
#200=[#205+[#206-#205]*0.12286]
X5.90843 Y-2.62825 Z[#200+-0.04000]
#205=[#523+[#524-#523]*0.00139]
#206=[#530+[#531-#530]*0.00139]
#200=[#205+[#206-#205]*0.12783]
X5.91037 Y-2.63027 Z[#200+-0.04000]
#205=[#522+[#523-#522]*1.00000]
#206=[#529+[#530-#529]*1.00000]
#200=[#205+[#206-#205]*0.12875]
X5.91074 Y-2.63078 Z[#200+-0.04000]
#205=[#522+[#523-#522]*0.99509]
#206=[#529+[#530-#529]*0.99509]
#200=[#205+[#206-#205]*0.13201]
X5.91201 Y-2.63255 Z[#200+-0.04000]
#205=[#522+[#523-#522]*0.98821]
#206=[#529+[#530-#529]*0.98821]
#200=[#205+[#206-#205]*0.13531]
X5.91331 Y-2.63505 Z[#200+-0.04000]
#205=[#522+[#523-#522]*0.98195]
#206=[#529+[#530-#529]*0.98195]
#200=[#205+[#206-#205]*0.13740]
X5.91413 Y-2.63731 Z[#200+-0.04000]
#205=[#522+[#523-#522]*0.97437]
#206=[#529+[#530-#529]*0.97437]
#200=[#205+[#206-#205]*0.13893]
X5.91472 Y-2.64005 Z[#200+-0.04000]
#205=[#522+[#523-#522]*0.96775]
#206=[#529+[#530-#529]*0.96775]
#200=[#205+[#206-#205]*0.13943]
X5.91492 Y-2.64245 Z[#200+-0.04000]
#205=[#522+[#523-#522]*0.95597]
#206=[#529+[#530-#529]*0.95597]
#200=[#205+[#206-#205]*0.13944]
X5.91492 Y-2.64672 Z[#200+-0.04000]
#205=[#522+[#523-#522]*1.00000]
#206=[#529+[#530-#529]*1.00000]
#200=[#205+[#206-#205]*0.22085]
X5.94681 Y-2.63078 Z[#200+-0.04000]
#205=[#523+[#524-#523]*0.01574]
#206=[#530+[#531-#530]*0.01574]
#200=[#205+[#206-#205]*0.24996]
X5.95822 Y-2.62508 Z[#200+-0.04000]
#205=[#523+[#524-#523]*0.01820]
#206=[#530+[#531-#530]*0.01820]
#200=[#205+[#206-#205]*0.25560]
X5.96043 Y-2.62419 Z[#200+-0.04000]
#205=[#523+[#524-#523]*0.02011]
#206=[#530+[#531-#530]*0.02011]
#200=[#205+[#206-#205]*0.26246]
X5.96311 Y-2.62350 Z[#200+-0.04000]
#205=[#523+[#524-#523]*0.02101]
#206=[#530+[#531-#530]*0.02101]
#200=[#205+[#206-#205]*0.27152]
X5.96667 Y-2.62317 Z[#200+-0.04000]
#205=[#523+[#524-#523]*0.02101]
#206=[#530+[#531-#530]*0.02101]
#200=[#205+[#206-#205]*0.45386]
X6.03810 Y-2.62317 Z[#200+-0.04000]
#205=[#523+[#524-#523]*0.02046]
#206=[#530+[#531-#530]*0.02046]
#200=[#205+[#206-#205]*0.46093]
X6.04086 Y-2.62337 Z[#200+-0.04000]
#205=[#523+[#524-#523]*0.01854]
#206=[#530+[#531-#530]*0.01854]
#200=[#205+[#206-#205]*0.46882]
X6.04396 Y-2.62406 Z[#200+-0.04000]
#205=[#523+[#524-#523]*0.01574]
#206=[#530+[#531-#530]*0.01574]
#200=[#205+[#206-#205]*0.47542]
X6.04654 Y-2.62508 Z[#200+-0.04000]
#205=[#522+[#523-#522]*1.00000]
#206=[#529+[#530-#529]*1.00000]
#200=[#205+[#206-#205]*0.50453]
X6.05794 Y-2.63078 Z[#200+-0.04000]
#205=[#522+[#523-#522]*0.94901]
#206=[#529+[#530-#529]*0.94901]
#200=[#205+[#206-#205]*0.59879]
X6.09487 Y-2.64924 Z[#200+-0.04000]
#205=[#522+[#523-#522]*0.94499]
#206=[#529+[#530-#529]*0.94499]
#200=[#205+[#206-#205]*0.60480]
X6.09722 Y-2.65070 Z[#200+-0.04000]
#205=[#522+[#523-#522]*0.94084]
#206=[#529+[#530-#529]*0.94084]
#200=[#205+[#206-#205]*0.60949]
X6.09906 Y-2.65220 Z[#200+-0.04000]
#205=[#522+[#523-#522]*0.93527]
#206=[#529+[#530-#529]*0.93527]
#200=[#205+[#206-#205]*0.61434]
X6.10096 Y-2.65421 Z[#200+-0.04000]
#205=[#522+[#523-#522]*0.92995]
#206=[#529+[#530-#529]*0.92995]
#200=[#205+[#206-#205]*0.61788]
X6.10235 Y-2.65614 Z[#200+-0.04000]
#205=[#522+[#523-#522]*0.79269]
#206=[#529+[#530-#529]*0.79269]
#200=[#205+[#206-#205]*0.68158]
X6.12730 Y-2.70584 Z[#200+-0.04000]
#205=[#522+[#523-#522]*0.78239]
#206=[#529+[#530-#529]*0.78239]
#200=[#205+[#206-#205]*0.68498]
X6.12863 Y-2.70957 Z[#200+-0.04000]
#205=[#522+[#523-#522]*0.77265]
#206=[#529+[#530-#529]*0.77265]
#200=[#205+[#206-#205]*0.68635]
X6.12917 Y-2.71310 Z[#200+-0.04000]
#205=[#522+[#523-#522]*0.04490]
#206=[#529+[#530-#529]*0.04490]
#200=[#205+[#206-#205]*0.68643]
X6.12920 Y-2.97659 Z[#200+-0.04000]
#205=[#522+[#523-#522]*0.03827]
#206=[#529+[#530-#529]*0.03827]
#200=[#205+[#206-#205]*0.68593]
X6.12901 Y-2.97899 Z[#200+-0.04000]
#205=[#522+[#523-#522]*0.03176]
#206=[#529+[#530-#529]*0.03176]
#200=[#205+[#206-#205]*0.68469]
X6.12852 Y-2.98135 Z[#200+-0.04000]
#205=[#522+[#523-#522]*0.02649]
#206=[#529+[#530-#529]*0.02649]
#200=[#205+[#206-#205]*0.68309]
X6.12789 Y-2.98326 Z[#200+-0.04000]
#205=[#522+[#523-#522]*0.02044]
#206=[#529+[#530-#529]*0.02044]
#200=[#205+[#206-#205]*0.68054]
X6.12690 Y-2.98545 Z[#200+-0.04000]
#205=[#522+[#523-#522]*0.01478]
#206=[#529+[#530-#529]*0.01478]
#200=[#205+[#206-#205]*0.67732]
X6.12563 Y-2.98750 Z[#200+-0.04000]
#205=[#522+[#523-#522]*0.00958]
#206=[#529+[#530-#529]*0.00958]
#200=[#205+[#206-#205]*0.67349]
X6.12413 Y-2.98938 Z[#200+-0.04000]
#205=[#522+[#523-#522]*0.00566]
#206=[#529+[#530-#529]*0.00566]
#200=[#205+[#206-#205]*0.66987]
X6.12271 Y-2.99080 Z[#200+-0.04000]
#205=[#522+[#523-#522]*0.00151]
#206=[#529+[#530-#529]*0.00151]
#200=[#205+[#206-#205]*0.66506]
X6.12083 Y-2.99230 Z[#200+-0.04000]
#205=[#522+[#523-#522]*0.00000]
#206=[#529+[#530-#529]*0.00000]
#200=[#205+[#206-#205]*0.66279]
X6.11994 Y-2.99285 Z[#200+-0.04000]
#205=[#521+[#522-#521]*0.99803]
#206=[#528+[#529-#528]*0.99803]
#200=[#205+[#206-#205]*0.65983]
X6.11878 Y-2.99356 Z[#200+-0.04000]
#205=[#521+[#522-#521]*0.99527]
#206=[#528+[#529-#528]*0.99527]
#200=[#205+[#206-#205]*0.65423]
X6.11659 Y-2.99456 Z[#200+-0.04000]
#205=[#521+[#522-#521]*0.99301]
#206=[#528+[#529-#528]*0.99301]
#200=[#205+[#206-#205]*0.64738]
X6.11390 Y-2.99538 Z[#200+-0.04000]
#205=[#521+[#522-#521]*0.99193]
#206=[#528+[#529-#528]*0.99193]
#200=[#205+[#206-#205]*0.64131]
X6.11153 Y-2.99577 Z[#200+-0.04000]
#205=[#521+[#522-#521]*0.99166]
#206=[#528+[#529-#528]*0.99166]
#200=[#205+[#206-#205]*0.63517]
X6.10912 Y-2.99587 Z[#200+-0.04000]
#205=[#521+[#522-#521]*0.99220]
#206=[#528+[#529-#528]*0.99220]
#200=[#205+[#206-#205]*0.62904]
X6.10672 Y-2.99567 Z[#200+-0.04000]
#205=[#521+[#522-#521]*0.99385]
#206=[#528+[#529-#528]*0.99385]
#200=[#205+[#206-#205]*0.62204]
X6.10398 Y-2.99508 Z[#200+-0.04000]
#205=[#521+[#522-#521]*0.99611]
#206=[#528+[#529-#528]*0.99611]
#200=[#205+[#206-#205]*0.61626]
X6.10171 Y-2.99426 Z[#200+-0.04000]
#205=[#521+[#522-#521]*0.99911]
#206=[#528+[#529-#528]*0.99911]
#200=[#205+[#206-#205]*0.61077]
X6.09956 Y-2.99317 Z[#200+-0.04000]
#205=[#522+[#523-#522]*0.00000]
#206=[#529+[#530-#529]*0.00000]
#200=[#205+[#206-#205]*0.60955]
X6.09909 Y-2.99285 Z[#200+-0.04000]
#205=[#522+[#523-#522]*0.00282]
#206=[#529+[#530-#529]*0.00282]
#200=[#205+[#206-#205]*0.60567]
X6.09757 Y-2.99183 Z[#200+-0.04000]
#205=[#522+[#523-#522]*0.00718]
#206=[#529+[#530-#529]*0.00718]
#200=[#205+[#206-#205]*0.60103]
X6.09575 Y-2.99025 Z[#200+-0.04000]
#205=[#522+[#523-#522]*0.01299]
#206=[#529+[#530-#529]*0.01299]
#200=[#205+[#206-#205]*0.59628]
X6.09389 Y-2.98815 Z[#200+-0.04000]
#205=[#522+[#523-#522]*0.01947]
#206=[#529+[#530-#529]*0.01947]
#200=[#205+[#206-#205]*0.59234]
X6.09234 Y-2.98580 Z[#200+-0.04000]
#205=[#522+[#523-#522]*0.02546]
#206=[#529+[#530-#529]*0.02546]
#200=[#205+[#206-#205]*0.58967]
X6.09130 Y-2.98363 Z[#200+-0.04000]
#205=[#522+[#523-#522]*0.03176]
#206=[#529+[#530-#529]*0.03176]
#200=[#205+[#206-#205]*0.58770]
X6.09053 Y-2.98135 Z[#200+-0.04000]
#205=[#522+[#523-#522]*0.03937]
#206=[#529+[#530-#529]*0.03937]
#200=[#205+[#206-#205]*0.58632]
X6.08999 Y-2.97859 Z[#200+-0.04000]
#205=[#522+[#523-#522]*0.04601]
#206=[#529+[#530-#529]*0.04601]
#200=[#205+[#206-#205]*0.58594]
X6.08984 Y-2.97619 Z[#200+-0.04000]
#205=[#522+[#523-#522]*0.75653]
#206=[#529+[#530-#529]*0.75653]
#200=[#205+[#206-#205]*0.58594]
X6.08984 Y-2.71893 Z[#200+-0.04000]
#205=[#522+[#523-#522]*0.86036]
#206=[#529+[#530-#529]*0.86036]
#200=[#205+[#206-#205]*0.53796]
X6.07104 Y-2.68134 Z[#200+-0.04000]
#205=[#522+[#523-#522]*0.91227]
#206=[#529+[#530-#529]*0.91227]
#200=[#205+[#206-#205]*0.44200]
X6.03345 Y-2.66254 Z[#200+-0.04000]
#205=[#522+[#523-#522]*0.91227]
#206=[#529+[#530-#529]*0.91227]
#200=[#205+[#206-#205]*0.28338]
X5.97131 Y-2.66254 Z[#200+-0.04000]
#205=[#522+[#523-#522]*0.85620]
#206=[#529+[#530-#529]*0.85620]
#200=[#205+[#206-#205]*0.17973]
X5.93071 Y-2.68284 Z[#200+-0.04000]
#205=[#522+[#523-#522]*0.81260]
#206=[#529+[#530-#529]*0.81260]
#200=[#205+[#206-#205]*0.13944]
X5.91492 Y-2.69863 Z[#200+-0.04000]
#205=[#522+[#523-#522]*0.04601]
#206=[#529+[#530-#529]*0.04601]
#200=[#205+[#206-#205]*0.13944]
X5.91492 Y-2.97619 Z[#200+-0.04000]
#205=[#522+[#523-#522]*0.03937]
#206=[#529+[#530-#529]*0.03937]
#200=[#205+[#206-#205]*0.13906]
X5.91477 Y-2.97859 Z[#200+-0.04000]
#205=[#522+[#523-#522]*0.03070]
#206=[#529+[#530-#529]*0.03070]
#200=[#205+[#206-#205]*0.13740]
X5.91413 Y-2.98174 Z[#200+-0.04000]
#205=[#522+[#523-#522]*0.02343]
#206=[#529+[#530-#529]*0.02343]
#200=[#205+[#206-#205]*0.13490]
X5.91314 Y-2.98437 Z[#200+-0.04000]
#205=[#522+[#523-#522]*0.01569]
#206=[#529+[#530-#529]*0.01569]
#200=[#205+[#206-#205]*0.13090]
X5.91158 Y-2.98717 Z[#200+-0.04000]
#205=[#522+[#523-#522]*0.00958]
#206=[#529+[#530-#529]*0.00958]
#200=[#205+[#206-#205]*0.12648]
X5.90985 Y-2.98938 Z[#200+-0.04000]
#205=[#522+[#523-#522]*0.00421]
#206=[#529+[#530-#529]*0.00421]
#200=[#205+[#206-#205]*0.12131]
X5.90782 Y-2.99133 Z[#200+-0.04000]
#205=[#522+[#523-#522]*0.00000]
#206=[#529+[#530-#529]*0.00000]
#200=[#205+[#206-#205]*0.11578]
X5.90565 Y-2.99285 Z[#200+-0.04000]
#205=[#521+[#522-#521]*0.99911]
#206=[#528+[#529-#528]*0.99911]
#200=[#205+[#206-#205]*0.11461]
X5.90520 Y-2.99317 Z[#200+-0.04000]
#205=[#521+[#522-#521]*0.99527]
#206=[#528+[#529-#528]*0.99527]
#200=[#205+[#206-#205]*0.10723]
X5.90230 Y-2.99456 Z[#200+-0.04000]
#205=[#521+[#522-#521]*0.99301]
#206=[#528+[#529-#528]*0.99301]
#200=[#205+[#206-#205]*0.10037]
X5.89962 Y-2.99538 Z[#200+-0.04000]
#205=[#521+[#522-#521]*0.99174]
#206=[#528+[#529-#528]*0.99174]
#200=[#205+[#206-#205]*0.09226]
X5.89644 Y-2.99584 Z[#200+-0.04000]
#205=[#521+[#522-#521]*0.99182]
#206=[#528+[#529-#528]*0.99182]
#200=[#205+[#206-#205]*0.08509]
X5.89363 Y-2.99581 Z[#200+-0.04000]
#205=[#521+[#522-#521]*0.99326]
#206=[#528+[#529-#528]*0.99326]
#200=[#205+[#206-#205]*0.07701]
X5.89047 Y-2.99529 Z[#200+-0.04000]
#205=[#521+[#522-#521]*0.99568]
#206=[#528+[#529-#528]*0.99568]
#200=[#205+[#206-#205]*0.07019]
X5.88780 Y-2.99441 Z[#200+-0.04000]
#205=[#521+[#522-#521]*0.99968]
#206=[#528+[#529-#528]*0.99968]
#200=[#205+[#206-#205]*0.06289]
X5.88493 Y-2.99296 Z[#200+-0.04000]
#205=[#522+[#523-#522]*0.00000]
#206=[#529+[#530-#529]*0.00000]
#200=[#205+[#206-#205]*0.06248]
X5.88478 Y-2.99285 Z[#200+-0.04000]
#205=[#522+[#523-#522]*0.00421]
#206=[#529+[#530-#529]*0.00421]
#200=[#205+[#206-#205]*0.05706]
X5.88265 Y-2.99133 Z[#200+-0.04000]
#205=[#522+[#523-#522]*0.00958]
#206=[#529+[#530-#529]*0.00958]
#200=[#205+[#206-#205]*0.05189]
X5.88063 Y-2.98938 Z[#200+-0.04000]
#205=[#522+[#523-#522]*0.01662]
#206=[#529+[#530-#529]*0.01662]
#200=[#205+[#206-#205]*0.04691]
X5.87868 Y-2.98683 Z[#200+-0.04000]
#205=[#522+[#523-#522]*0.02343]
#206=[#529+[#530-#529]*0.02343]
#200=[#205+[#206-#205]*0.04348]
X5.87733 Y-2.98437 Z[#200+-0.04000]
#205=[#522+[#523-#522]*0.03070]
#206=[#529+[#530-#529]*0.03070]
#200=[#205+[#206-#205]*0.04097]
X5.87635 Y-2.98174 Z[#200+-0.04000]
#205=[#522+[#523-#522]*0.03827]
#206=[#529+[#530-#529]*0.03827]
#200=[#205+[#206-#205]*0.03945]
X5.87575 Y-2.97899 Z[#200+-0.04000]
#205=[#522+[#523-#522]*0.04601]
#206=[#529+[#530-#529]*0.04601]
#200=[#205+[#206-#205]*0.03894]
X5.87555 Y-2.97619 Z[#200+-0.04000]
G04 P0 ( dwell for no time -- G64 should not smooth over this point )
G00 Z0.08000 ( retract )

G00 X6.25652 Y-2.64366 ( rapid move to begin. )
G01 F180.00000
( Mill infeed pass 1/1 )
#205=[#529+[#530-#529]*0.96442]
#206=[#536+[#537-#536]*0.96442]
#200=[#205+[#206-#205]*0.01144]
G01 Z[-0.04000+#200]
G04 P0 ( dwell for no time -- G64 should not smooth over this point )
G01 F360.00000
#205=[#529+[#530-#529]*0.95890]
#206=[#536+[#537-#536]*0.95890]
#200=[#205+[#206-#205]*0.01191]
X6.25671 Y-2.64566 Z[#200+-0.04000]
#205=[#529+[#530-#529]*0.95346]
#206=[#536+[#537-#536]*0.95346]
#200=[#205+[#206-#205]*0.01289]
X6.25709 Y-2.64763 Z[#200+-0.04000]
#205=[#529+[#530-#529]*0.94712]
#206=[#536+[#537-#536]*0.94712]
#200=[#205+[#206-#205]*0.01475]
X6.25782 Y-2.64992 Z[#200+-0.04000]
#205=[#529+[#530-#529]*0.94010]
#206=[#536+[#537-#536]*0.94010]
#200=[#205+[#206-#205]*0.01779]
X6.25901 Y-2.65247 Z[#200+-0.04000]
#205=[#529+[#530-#529]*0.93361]
#206=[#536+[#537-#536]*0.93361]
#200=[#205+[#206-#205]*0.02173]
X6.26055 Y-2.65481 Z[#200+-0.04000]
#205=[#529+[#530-#529]*0.92780]
#206=[#536+[#537-#536]*0.92780]
#200=[#205+[#206-#205]*0.02648]
X6.26241 Y-2.65692 Z[#200+-0.04000]
#205=[#529+[#530-#529]*0.92278]
#206=[#536+[#537-#536]*0.92278]
#200=[#205+[#206-#205]*0.03194]
X6.26455 Y-2.65874 Z[#200+-0.04000]
#205=[#529+[#530-#529]*0.91866]
#206=[#536+[#537-#536]*0.91866]
#200=[#205+[#206-#205]*0.03801]
X6.26693 Y-2.66023 Z[#200+-0.04000]
#205=[#529+[#530-#529]*0.91551]
#206=[#536+[#537-#536]*0.91551]
#200=[#205+[#206-#205]*0.04457]
X6.26950 Y-2.66137 Z[#200+-0.04000]
#205=[#529+[#530-#529]*0.91340]
#206=[#536+[#537-#536]*0.91340]
#200=[#205+[#206-#205]*0.05147]
X6.27220 Y-2.66213 Z[#200+-0.04000]
#205=[#529+[#530-#529]*0.91255]
#206=[#536+[#537-#536]*0.91255]
#200=[#205+[#206-#205]*0.05653]
X6.27419 Y-2.66244 Z[#200+-0.04000]
#205=[#529+[#530-#529]*0.91227]
#206=[#536+[#537-#536]*0.91227]
#200=[#205+[#206-#205]*0.06165]
X6.27619 Y-2.66254 Z[#200+-0.04000]
#205=[#529+[#530-#529]*0.91227]
#206=[#536+[#537-#536]*0.91227]
#200=[#205+[#206-#205]*0.19373]
X6.32793 Y-2.66254 Z[#200+-0.04000]
#205=[#529+[#530-#529]*0.23891]
#206=[#536+[#537-#536]*0.23891]
#200=[#205+[#206-#205]*0.19390]
X6.32800 Y-2.90635 Z[#200+-0.04000]
#205=[#529+[#530-#529]*0.22921]
#206=[#536+[#537-#536]*0.22921]
#200=[#205+[#206-#205]*0.19545]
X6.32861 Y-2.90986 Z[#200+-0.04000]
#205=[#529+[#530-#529]*0.21996]
#206=[#536+[#537-#536]*0.21996]
#200=[#205+[#206-#205]*0.19860]
X6.32984 Y-2.91321 Z[#200+-0.04000]
#205=[#529+[#530-#529]*0.08270]
#206=[#536+[#537-#536]*0.08270]
#200=[#205+[#206-#205]*0.26230]
X6.35479 Y-2.96291 Z[#200+-0.04000]
#205=[#529+[#530-#529]*0.07738]
#206=[#536+[#537-#536]*0.07738]
#200=[#205+[#206-#205]*0.26584]
X6.35618 Y-2.96483 Z[#200+-0.04000]
#205=[#529+[#530-#529]*0.07256]
#206=[#536+[#537-#536]*0.07256]
#200=[#205+[#206-#205]*0.26995]
X6.35779 Y-2.96658 Z[#200+-0.04000]
#205=[#529+[#530-#529]*0.06767]
#206=[#536+[#537-#536]*0.06767]
#200=[#205+[#206-#205]*0.27538]
X6.35992 Y-2.96835 Z[#200+-0.04000]
#205=[#529+[#530-#529]*0.06416]
#206=[#536+[#537-#536]*0.06416]
#200=[#205+[#206-#205]*0.28050]
X6.36192 Y-2.96962 Z[#200+-0.04000]
#205=[#529+[#530-#529]*0.00000]
#206=[#536+[#537-#536]*0.00000]
#200=[#205+[#206-#205]*0.39901]
X6.40835 Y-2.99285 Z[#200+-0.04000]
#205=[#528+[#529-#528]*0.99738]
#206=[#535+[#536-#535]*0.99738]
#200=[#205+[#206-#205]*0.40385]
X6.41024 Y-2.99380 Z[#200+-0.04000]
#205=[#528+[#529-#528]*0.99518]
#206=[#535+[#536-#535]*0.99518]
#200=[#205+[#206-#205]*0.40848]
X6.41206 Y-2.99459 Z[#200+-0.04000]
#205=[#528+[#529-#528]*0.99323]
#206=[#535+[#536-#535]*0.99323]
#200=[#205+[#206-#205]*0.41428]
X6.41433 Y-2.99530 Z[#200+-0.04000]
#205=[#528+[#529-#528]*0.99204]
#206=[#535+[#536-#535]*0.99204]
#200=[#205+[#206-#205]*0.42025]
X6.41667 Y-2.99573 Z[#200+-0.04000]
#205=[#528+[#529-#528]*0.99165]
#206=[#535+[#536-#535]*0.99165]
#200=[#205+[#206-#205]*0.42531]
X6.41865 Y-2.99587 Z[#200+-0.04000]
#205=[#528+[#529-#528]*0.99169]
#206=[#535+[#536-#535]*0.99169]
#200=[#205+[#206-#205]*0.54992]
X6.46747 Y-2.99586 Z[#200+-0.04000]
#205=[#528+[#529-#528]*0.99237]
#206=[#535+[#536-#535]*0.99237]
#200=[#205+[#206-#205]*0.55604]
X6.46986 Y-2.99561 Z[#200+-0.04000]
#205=[#528+[#529-#528]*0.99385]
#206=[#535+[#536-#535]*0.99385]
#200=[#205+[#206-#205]*0.56203]
X6.47221 Y-2.99508 Z[#200+-0.04000]
#205=[#528+[#529-#528]*0.99611]
#206=[#535+[#536-#535]*0.99611]
#200=[#205+[#206-#205]*0.56781]
X6.47448 Y-2.99426 Z[#200+-0.04000]
#205=[#528+[#529-#528]*0.99968]
#206=[#535+[#536-#535]*0.99968]
#200=[#205+[#206-#205]*0.57417]
X6.47697 Y-2.99296 Z[#200+-0.04000]
#205=[#529+[#530-#529]*0.00000]
#206=[#536+[#537-#536]*0.00000]
#200=[#205+[#206-#205]*0.57459]
X6.47713 Y-2.99285 Z[#200+-0.04000]
#205=[#529+[#530-#529]*0.00350]
#206=[#536+[#537-#536]*0.00350]
#200=[#205+[#206-#205]*0.57921]
X6.47894 Y-2.99158 Z[#200+-0.04000]
#205=[#529+[#530-#529]*0.00796]
#206=[#536+[#537-#536]*0.00796]
#200=[#205+[#206-#205]*0.58377]
X6.48073 Y-2.98997 Z[#200+-0.04000]
#205=[#529+[#530-#529]*0.01299]
#206=[#536+[#537-#536]*0.01299]
#200=[#205+[#206-#205]*0.58779]
X6.48230 Y-2.98815 Z[#200+-0.04000]
#205=[#529+[#530-#529]*0.01756]
#206=[#536+[#537-#536]*0.01756]
#200=[#205+[#206-#205]*0.59069]
X6.48344 Y-2.98649 Z[#200+-0.04000]
#205=[#529+[#530-#529]*0.02343]
#206=[#536+[#537-#536]*0.02343]
#200=[#205+[#206-#205]*0.59359]
X6.48457 Y-2.98437 Z[#200+-0.04000]
#205=[#529+[#530-#529]*0.02963]
#206=[#536+[#537-#536]*0.02963]
#200=[#205+[#206-#205]*0.59579]
X6.48544 Y-2.98212 Z[#200+-0.04000]
#205=[#529+[#530-#529]*0.03609]
#206=[#536+[#537-#536]*0.03609]
#200=[#205+[#206-#205]*0.59728]
X6.48602 Y-2.97978 Z[#200+-0.04000]
#205=[#529+[#530-#529]*0.04269]
#206=[#536+[#537-#536]*0.04269]
#200=[#205+[#206-#205]*0.59803]
X6.48631 Y-2.97739 Z[#200+-0.04000]
#205=[#529+[#530-#529]*0.04934]
#206=[#536+[#537-#536]*0.04934]
#200=[#205+[#206-#205]*0.59803]
X6.48631 Y-2.97499 Z[#200+-0.04000]
#205=[#529+[#530-#529]*0.05594]
#206=[#536+[#537-#536]*0.05594]
#200=[#205+[#206-#205]*0.59728]
X6.48602 Y-2.97260 Z[#200+-0.04000]
#205=[#529+[#530-#529]*0.06133]
#206=[#536+[#537-#536]*0.06133]
#200=[#205+[#206-#205]*0.59609]
X6.48555 Y-2.97064 Z[#200+-0.04000]
#205=[#529+[#530-#529]*0.06758]
#206=[#536+[#537-#536]*0.06758]
#200=[#205+[#206-#205]*0.59400]
X6.48473 Y-2.96838 Z[#200+-0.04000]
#205=[#529+[#530-#529]*0.07352]
#206=[#536+[#537-#536]*0.07352]
#200=[#205+[#206-#205]*0.59122]
X6.48365 Y-2.96623 Z[#200+-0.04000]
#205=[#529+[#530-#529]*0.07903]
#206=[#536+[#537-#536]*0.07903]
#200=[#205+[#206-#205]*0.58779]
X6.48230 Y-2.96423 Z[#200+-0.04000]
#205=[#529+[#530-#529]*0.08406]
#206=[#536+[#537-#536]*0.08406]
#200=[#205+[#206-#205]*0.58377]
X6.48073 Y-2.96241 Z[#200+-0.04000]
#205=[#529+[#530-#529]*0.08782]
#206=[#536+[#537-#536]*0.08782]
#200=[#205+[#206-#205]*0.58000]
X6.47925 Y-2.96105 Z[#200+-0.04000]
#205=[#529+[#530-#529]*0.09234]
#206=[#536+[#537-#536]*0.09234]
#200=[#205+[#206-#205]*0.57417]
X6.47697 Y-2.95942 Z[#200+-0.04000]
#205=[#529+[#530-#529]*0.09635]
#206=[#536+[#537-#536]*0.09635]
#200=[#205+[#206-#205]*0.56687]
X6.47411 Y-2.95797 Z[#200+-0.04000]
#205=[#529+[#530-#529]*0.09876]
#206=[#536+[#537-#536]*0.09876]
#200=[#205+[#206-#205]*0.56005]
X6.47144 Y-2.95709 Z[#200+-0.04000]
#205=[#529+[#530-#529]*0.10020]
#206=[#536+[#537-#536]*0.10020]
#200=[#205+[#206-#205]*0.55197]
X6.46827 Y-2.95657 Z[#200+-0.04000]
#205=[#529+[#530-#529]*0.10038]
#206=[#536+[#537-#536]*0.10038]
#200=[#205+[#206-#205]*0.43818]
X6.42369 Y-2.95650 Z[#200+-0.04000]
#205=[#529+[#530-#529]*0.15230]
#206=[#536+[#537-#536]*0.15230]
#200=[#205+[#206-#205]*0.34222]
X6.38610 Y-2.93771 Z[#200+-0.04000]
#205=[#529+[#530-#529]*0.25612]
#206=[#536+[#537-#536]*0.25612]
#200=[#205+[#206-#205]*0.29423]
X6.36730 Y-2.90011 Z[#200+-0.04000]
#205=[#529+[#530-#529]*0.91227]
#206=[#536+[#537-#536]*0.91227]
#200=[#205+[#206-#205]*0.29423]
X6.36730 Y-2.66254 Z[#200+-0.04000]
#205=[#529+[#530-#529]*0.91227]
#206=[#536+[#537-#536]*0.91227]
#200=[#205+[#206-#205]*0.54788]
X6.46667 Y-2.66254 Z[#200+-0.04000]
#205=[#529+[#530-#529]*0.91255]
#206=[#536+[#537-#536]*0.91255]
#200=[#205+[#206-#205]*0.55299]
X6.46867 Y-2.66244 Z[#200+-0.04000]
#205=[#529+[#530-#529]*0.91340]
#206=[#536+[#537-#536]*0.91340]
#200=[#205+[#206-#205]*0.55805]
X6.47065 Y-2.66213 Z[#200+-0.04000]
#205=[#529+[#530-#529]*0.91480]
#206=[#536+[#537-#536]*0.91480]
#200=[#205+[#206-#205]*0.56301]
X6.47260 Y-2.66163 Z[#200+-0.04000]
#205=[#529+[#530-#529]*0.91673]
#206=[#536+[#537-#536]*0.91673]
#200=[#205+[#206-#205]*0.56781]
X6.47448 Y-2.66093 Z[#200+-0.04000]
#205=[#529+[#530-#529]*0.91919]
#206=[#536+[#537-#536]*0.91919]
#200=[#205+[#206-#205]*0.57241]
X6.47628 Y-2.66004 Z[#200+-0.04000]
#205=[#529+[#530-#529]*0.92214]
#206=[#536+[#537-#536]*0.92214]
#200=[#205+[#206-#205]*0.57675]
X6.47797 Y-2.65897 Z[#200+-0.04000]
#205=[#529+[#530-#529]*0.92555]
#206=[#536+[#537-#536]*0.92555]
#200=[#205+[#206-#205]*0.58078]
X6.47956 Y-2.65773 Z[#200+-0.04000]
#205=[#529+[#530-#529]*0.92939]
#206=[#536+[#537-#536]*0.92939]
#200=[#205+[#206-#205]*0.58448]
X6.48100 Y-2.65634 Z[#200+-0.04000]
#205=[#529+[#530-#529]*0.93361]
#206=[#536+[#537-#536]*0.93361]
#200=[#205+[#206-#205]*0.58779]
X6.48230 Y-2.65481 Z[#200+-0.04000]
#205=[#529+[#530-#529]*0.93818]
#206=[#536+[#537-#536]*0.93818]
#200=[#205+[#206-#205]*0.59069]
X6.48344 Y-2.65316 Z[#200+-0.04000]
#205=[#529+[#530-#529]*0.94305]
#206=[#536+[#537-#536]*0.94305]
#200=[#205+[#206-#205]*0.59315]
X6.48440 Y-2.65140 Z[#200+-0.04000]
#205=[#529+[#530-#529]*0.94816]
#206=[#536+[#537-#536]*0.94816]
#200=[#205+[#206-#205]*0.59513]
X6.48518 Y-2.64955 Z[#200+-0.04000]
#205=[#529+[#530-#529]*0.95346]
#206=[#536+[#537-#536]*0.95346]
#200=[#205+[#206-#205]*0.59663]
X6.48576 Y-2.64763 Z[#200+-0.04000]
#205=[#529+[#530-#529]*0.95890]
#206=[#536+[#537-#536]*0.95890]
#200=[#205+[#206-#205]*0.59761]
X6.48615 Y-2.64566 Z[#200+-0.04000]
#205=[#529+[#530-#529]*0.96885]
#206=[#536+[#537-#536]*0.96885]
#200=[#205+[#206-#205]*0.59808]
X6.48633 Y-2.64205 Z[#200+-0.04000]
#205=[#529+[#530-#529]*0.97437]
#206=[#536+[#537-#536]*0.97437]
#200=[#205+[#206-#205]*0.59761]
X6.48615 Y-2.64005 Z[#200+-0.04000]
#205=[#529+[#530-#529]*0.97981]
#206=[#536+[#537-#536]*0.97981]
#200=[#205+[#206-#205]*0.59663]
X6.48576 Y-2.63809 Z[#200+-0.04000]
#205=[#529+[#530-#529]*0.98719]
#206=[#536+[#537-#536]*0.98719]
#200=[#205+[#206-#205]*0.59440]
X6.48489 Y-2.63542 Z[#200+-0.04000]
#205=[#529+[#530-#529]*0.99509]
#206=[#536+[#537-#536]*0.99509]
#200=[#205+[#206-#205]*0.59069]
X6.48344 Y-2.63255 Z[#200+-0.04000]
#205=[#529+[#530-#529]*1.00000]
#206=[#536+[#537-#536]*1.00000]
#200=[#205+[#206-#205]*0.58744]
X6.48216 Y-2.63078 Z[#200+-0.04000]
#205=[#530+[#531-#530]*0.00139]
#206=[#537+[#538-#537]*0.00139]
#200=[#205+[#206-#205]*0.58651]
X6.48180 Y-2.63027 Z[#200+-0.04000]
#205=[#530+[#531-#530]*0.00699]
#206=[#537+[#538-#537]*0.00699]
#200=[#205+[#206-#205]*0.58155]
X6.47986 Y-2.62825 Z[#200+-0.04000]
#205=[#530+[#531-#530]*0.01176]
#206=[#537+[#538-#537]*0.01176]
#200=[#205+[#206-#205]*0.57590]
X6.47764 Y-2.62652 Z[#200+-0.04000]
#205=[#530+[#531-#530]*0.01609]
#206=[#537+[#538-#537]*0.01609]
#200=[#205+[#206-#205]*0.56875]
X6.47484 Y-2.62495 Z[#200+-0.04000]
#205=[#530+[#531-#530]*0.01880]
#206=[#537+[#538-#537]*0.01880]
#200=[#205+[#206-#205]*0.56203]
X6.47221 Y-2.62397 Z[#200+-0.04000]
#205=[#530+[#531-#530]*0.02060]
#206=[#537+[#538-#537]*0.02060]
#200=[#205+[#206-#205]*0.55401]
X6.46907 Y-2.62332 Z[#200+-0.04000]
#205=[#530+[#531-#530]*0.02101]
#206=[#537+[#538-#537]*0.02101]
#200=[#205+[#206-#205]*0.54788]
X6.46667 Y-2.62317 Z[#200+-0.04000]
#205=[#530+[#531-#530]*0.02101]
#206=[#537+[#538-#537]*0.02101]
#200=[#205+[#206-#205]*0.29423]
X6.36730 Y-2.62317 Z[#200+-0.04000]
#205=[#530+[#531-#530]*0.42695]
#206=[#537+[#538-#537]*0.42695]
#200=[#205+[#206-#205]*0.29423]
X6.36730 Y-2.47619 Z[#200+-0.04000]
#205=[#530+[#531-#530]*0.43469]
#206=[#537+[#538-#537]*0.43469]
#200=[#205+[#206-#205]*0.29372]
X6.36710 Y-2.47339 Z[#200+-0.04000]
#205=[#530+[#531-#530]*0.44013]
#206=[#537+[#538-#537]*0.44013]
#200=[#205+[#206-#205]*0.29274]
X6.36672 Y-2.47142 Z[#200+-0.04000]
#205=[#530+[#531-#530]*0.44543]
#206=[#537+[#538-#537]*0.44543]
#200=[#205+[#206-#205]*0.29124]
X6.36613 Y-2.46950 Z[#200+-0.04000]
#205=[#530+[#531-#530]*0.45054]
#206=[#537+[#538-#537]*0.45054]
#200=[#205+[#206-#205]*0.28926]
X6.36535 Y-2.46765 Z[#200+-0.04000]
#205=[#530+[#531-#530]*0.45541]
#206=[#537+[#538-#537]*0.45541]
#200=[#205+[#206-#205]*0.28680]
X6.36439 Y-2.46589 Z[#200+-0.04000]
#205=[#530+[#531-#530]*0.45997]
#206=[#537+[#538-#537]*0.45997]
#200=[#205+[#206-#205]*0.28390]
X6.36326 Y-2.46423 Z[#200+-0.04000]
#205=[#530+[#531-#530]*0.46500]
#206=[#537+[#538-#537]*0.46500]
#200=[#205+[#206-#205]*0.27988]
X6.36168 Y-2.46241 Z[#200+-0.04000]
#205=[#530+[#531-#530]*0.46876]
#206=[#537+[#538-#537]*0.46876]
#200=[#205+[#206-#205]*0.27611]
X6.36020 Y-2.46105 Z[#200+-0.04000]
#205=[#530+[#531-#530]*0.47208]
#206=[#537+[#538-#537]*0.47208]
#200=[#205+[#206-#205]*0.27201]
X6.35860 Y-2.45985 Z[#200+-0.04000]
#205=[#530+[#531-#530]*0.47493]
#206=[#537+[#538-#537]*0.47493]
#200=[#205+[#206-#205]*0.26762]
X6.35688 Y-2.45882 Z[#200+-0.04000]
#205=[#530+[#531-#530]*0.47729]
#206=[#537+[#538-#537]*0.47729]
#200=[#205+[#206-#205]*0.26298]
X6.35506 Y-2.45797 Z[#200+-0.04000]
#205=[#530+[#531-#530]*0.47912]
#206=[#537+[#538-#537]*0.47912]
#200=[#205+[#206-#205]*0.25814]
X6.35316 Y-2.45730 Z[#200+-0.04000]
#205=[#530+[#531-#530]*0.48041]
#206=[#537+[#538-#537]*0.48041]
#200=[#205+[#206-#205]*0.25316]
X6.35121 Y-2.45683 Z[#200+-0.04000]
#205=[#530+[#531-#530]*0.48122]
#206=[#537+[#538-#537]*0.48122]
#200=[#205+[#206-#205]*0.24706]
X6.34882 Y-2.45654 Z[#200+-0.04000]
#205=[#530+[#531-#530]*0.48127]
#206=[#537+[#538-#537]*0.48127]
#200=[#205+[#206-#205]*0.24193]
X6.34682 Y-2.45652 Z[#200+-0.04000]
#205=[#530+[#531-#530]*0.48077]
#206=[#537+[#538-#537]*0.48077]
#200=[#205+[#206-#205]*0.23683]
X6.34482 Y-2.45670 Z[#200+-0.04000]
#205=[#530+[#531-#530]*0.47970]
#206=[#537+[#538-#537]*0.47970]
#200=[#205+[#206-#205]*0.23181]
X6.34285 Y-2.45709 Z[#200+-0.04000]
#205=[#530+[#531-#530]*0.47729]
#206=[#537+[#538-#537]*0.47729]
#200=[#205+[#206-#205]*0.22499]
X6.34018 Y-2.45797 Z[#200+-0.04000]
#205=[#530+[#531-#530]*0.47328]
#206=[#537+[#538-#537]*0.47328]
#200=[#205+[#206-#205]*0.21768]
X6.33732 Y-2.45942 Z[#200+-0.04000]
#205=[#530+[#531-#530]*0.46804]
#206=[#537+[#538-#537]*0.46804]
#200=[#205+[#206-#205]*0.21108]
X6.33473 Y-2.46131 Z[#200+-0.04000]
#205=[#530+[#531-#530]*0.46171]
#206=[#537+[#538-#537]*0.46171]
#200=[#205+[#206-#205]*0.20534]
X6.33248 Y-2.46360 Z[#200+-0.04000]
#205=[#530+[#531-#530]*0.45541]
#206=[#537+[#538-#537]*0.45541]
#200=[#205+[#206-#205]*0.20117]
X6.33085 Y-2.46589 Z[#200+-0.04000]
#205=[#530+[#531-#530]*0.44750]
#206=[#537+[#538-#537]*0.44750]
#200=[#205+[#206-#205]*0.19746]
X6.32939 Y-2.46875 Z[#200+-0.04000]
#205=[#530+[#531-#530]*0.44013]
#206=[#537+[#538-#537]*0.44013]
#200=[#205+[#206-#205]*0.19523]
X6.32852 Y-2.47142 Z[#200+-0.04000]
#205=[#530+[#531-#530]*0.43138]
#206=[#537+[#538-#537]*0.43138]
#200=[#205+[#206-#205]*0.19390]
X6.32800 Y-2.47458 Z[#200+-0.04000]
#205=[#530+[#531-#530]*0.02101]
#206=[#537+[#538-#537]*0.02101]
#200=[#205+[#206-#205]*0.19373]
X6.32793 Y-2.62317 Z[#200+-0.04000]
#205=[#530+[#531-#530]*0.02099]
#206=[#537+[#538-#537]*0.02099]
#200=[#205+[#206-#205]*0.06062]
X6.27579 Y-2.62318 Z[#200+-0.04000]
#205=[#530+[#531-#530]*0.02009]
#206=[#537+[#538-#537]*0.02009]
#200=[#205+[#206-#205]*0.05247]
X6.27260 Y-2.62350 Z[#200+-0.04000]
#205=[#530+[#531-#530]*0.01813]
#206=[#537+[#538-#537]*0.01813]
#200=[#205+[#206-#205]*0.04553]
X6.26988 Y-2.62421 Z[#200+-0.04000]
#205=[#530+[#531-#530]*0.01409]
#206=[#537+[#538-#537]*0.01409]
#200=[#205+[#206-#205]*0.03712]
X6.26658 Y-2.62568 Z[#200+-0.04000]
#205=[#530+[#531-#530]*0.00844]
#206=[#537+[#538-#537]*0.00844]
#200=[#205+[#206-#205]*0.02952]
X6.26361 Y-2.62772 Z[#200+-0.04000]
#205=[#530+[#531-#530]*0.00139]
#206=[#537+[#538-#537]*0.00139]
#200=[#205+[#206-#205]*0.02301]
X6.26105 Y-2.63027 Z[#200+-0.04000]
#205=[#529+[#530-#529]*1.00000]
#206=[#536+[#537-#536]*1.00000]
#200=[#205+[#206-#205]*0.02212]
X6.26071 Y-2.63078 Z[#200+-0.04000]
#205=[#529+[#530-#529]*0.99318]
#206=[#536+[#537-#536]*0.99318]
#200=[#205+[#206-#205]*0.01779]
X6.25901 Y-2.63325 Z[#200+-0.04000]
#205=[#529+[#530-#529]*0.98407]
#206=[#536+[#537-#536]*0.98407]
#200=[#205+[#206-#205]*0.01405]
X6.25754 Y-2.63654 Z[#200+-0.04000]
#205=[#529+[#530-#529]*0.97437]
#206=[#536+[#537-#536]*0.97437]
#200=[#205+[#206-#205]*0.01191]
X6.25671 Y-2.64005 Z[#200+-0.04000]
#205=[#529+[#530-#529]*0.96442]
#206=[#536+[#537-#536]*0.96442]
#200=[#205+[#206-#205]*0.01144]
X6.25652 Y-2.64366 Z[#200+-0.04000]
G04 P0 ( dwell for no time -- G64 should not smooth over this point )
G00 Z0.08000 ( retract )

G00 X6.49508 Y-3.30000 ( rapid move to begin. )
G01 F180.00000
( Mill infeed pass 1/1 )
#205=[#528+[#529-#528]*0.15169]
#206=[#535+[#536-#535]*0.15169]
#200=[#205+[#206-#205]*0.62040]
G01 Z[-0.04000+#200]
G04 P0 ( dwell for no time -- G64 should not smooth over this point )
G01 F360.00000
#205=[#528+[#529-#528]*0.14945]
#206=[#535+[#536-#535]*0.14945]
#200=[#205+[#206-#205]*0.62058]
X6.49514 Y-3.30081 Z[#200+-0.04000]
#205=[#528+[#529-#528]*0.14623]
#206=[#535+[#536-#535]*0.14623]
#200=[#205+[#206-#205]*0.62146]
X6.49549 Y-3.30198 Z[#200+-0.04000]
#205=[#528+[#529-#528]*0.14248]
#206=[#535+[#536-#535]*0.14248]
#200=[#205+[#206-#205]*0.62373]
X6.49638 Y-3.30333 Z[#200+-0.04000]
#205=[#528+[#529-#528]*0.13973]
#206=[#535+[#536-#535]*0.13973]
#200=[#205+[#206-#205]*0.62699]
X6.49766 Y-3.30433 Z[#200+-0.04000]
#205=[#528+[#529-#528]*0.13851]
#206=[#535+[#536-#535]*0.13851]
#200=[#205+[#206-#205]*0.62988]
X6.49879 Y-3.30477 Z[#200+-0.04000]
#205=[#528+[#529-#528]*0.13814]
#206=[#535+[#536-#535]*0.13814]
#200=[#205+[#206-#205]*0.63193]
X6.49959 Y-3.30490 Z[#200+-0.04000]
#205=[#528+[#529-#528]*0.13809]
#206=[#535+[#536-#535]*0.13809]
#200=[#205+[#206-#205]*0.74804]
X6.54508 Y-3.30492 Z[#200+-0.04000]
#205=[#528+[#529-#528]*0.01247]
#206=[#535+[#536-#535]*0.01247]
#200=[#205+[#206-#205]*0.74808]
X6.54509 Y-3.35041 Z[#200+-0.04000]
#205=[#528+[#529-#528]*0.01025]
#206=[#535+[#536-#535]*0.01025]
#200=[#205+[#206-#205]*0.74842]
X6.54523 Y-3.35121 Z[#200+-0.04000]
#205=[#528+[#529-#528]*0.00712]
#206=[#535+[#536-#535]*0.00712]
#200=[#205+[#206-#205]*0.74955]
X6.54567 Y-3.35234 Z[#200+-0.04000]
#205=[#528+[#529-#528]*0.00359]
#206=[#535+[#536-#535]*0.00359]
#200=[#205+[#206-#205]*0.75209]
X6.54667 Y-3.35362 Z[#200+-0.04000]
#205=[#528+[#529-#528]*0.00115]
#206=[#535+[#536-#535]*0.00115]
#200=[#205+[#206-#205]*0.75556]
X6.54802 Y-3.35451 Z[#200+-0.04000]
#205=[#528+[#529-#528]*0.00019]
#206=[#535+[#536-#535]*0.00019]
#200=[#205+[#206-#205]*0.75853]
X6.54919 Y-3.35485 Z[#200+-0.04000]
#200=[#528+[#535-#528]*0.76060]
X6.55000 Y-3.35492 Z[#200+-0.04000]
#205=[#528+[#529-#528]*0.00019]
#206=[#535+[#536-#535]*0.00019]
#200=[#205+[#206-#205]*0.76267]
X6.55081 Y-3.35485 Z[#200+-0.04000]
#205=[#528+[#529-#528]*0.00115]
#206=[#535+[#536-#535]*0.00115]
#200=[#205+[#206-#205]*0.76565]
X6.55198 Y-3.35451 Z[#200+-0.04000]
#205=[#528+[#529-#528]*0.00359]
#206=[#535+[#536-#535]*0.00359]
#200=[#205+[#206-#205]*0.76911]
X6.55333 Y-3.35362 Z[#200+-0.04000]
#205=[#528+[#529-#528]*0.00712]
#206=[#535+[#536-#535]*0.00712]
#200=[#205+[#206-#205]*0.77165]
X6.55433 Y-3.35234 Z[#200+-0.04000]
#205=[#528+[#529-#528]*0.01025]
#206=[#535+[#536-#535]*0.01025]
#200=[#205+[#206-#205]*0.77278]
X6.55477 Y-3.35121 Z[#200+-0.04000]
#205=[#528+[#529-#528]*0.01247]
#206=[#535+[#536-#535]*0.01247]
#200=[#205+[#206-#205]*0.77312]
X6.55490 Y-3.35041 Z[#200+-0.04000]
#205=[#528+[#529-#528]*0.13809]
#206=[#535+[#536-#535]*0.13809]
#200=[#205+[#206-#205]*0.77317]
X6.55492 Y-3.30492 Z[#200+-0.04000]
#205=[#528+[#529-#528]*0.13814]
#206=[#535+[#536-#535]*0.13814]
#200=[#205+[#206-#205]*0.88928]
X6.60041 Y-3.30490 Z[#200+-0.04000]
#205=[#528+[#529-#528]*0.13851]
#206=[#535+[#536-#535]*0.13851]
#200=[#205+[#206-#205]*0.89132]
X6.60121 Y-3.30477 Z[#200+-0.04000]
#205=[#528+[#529-#528]*0.13973]
#206=[#535+[#536-#535]*0.13973]
#200=[#205+[#206-#205]*0.89422]
X6.60234 Y-3.30433 Z[#200+-0.04000]
#205=[#528+[#529-#528]*0.14096]
#206=[#535+[#536-#535]*0.14096]
#200=[#205+[#206-#205]*0.89595]
X6.60302 Y-3.30388 Z[#200+-0.04000]
#205=[#528+[#529-#528]*0.14334]
#206=[#535+[#536-#535]*0.14334]
#200=[#205+[#206-#205]*0.89815]
X6.60388 Y-3.30302 Z[#200+-0.04000]
#205=[#528+[#529-#528]*0.14522]
#206=[#535+[#536-#535]*0.14522]
#200=[#205+[#206-#205]*0.89929]
X6.60433 Y-3.30234 Z[#200+-0.04000]
#205=[#528+[#529-#528]*0.14835]
#206=[#535+[#536-#535]*0.14835]
#200=[#205+[#206-#205]*0.90042]
X6.60477 Y-3.30121 Z[#200+-0.04000]
#205=[#528+[#529-#528]*0.15281]
#206=[#535+[#536-#535]*0.15281]
#200=[#205+[#206-#205]*0.90076]
X6.60490 Y-3.29959 Z[#200+-0.04000]
#205=[#528+[#529-#528]*0.15502]
#206=[#535+[#536-#535]*0.15502]
#200=[#205+[#206-#205]*0.90042]
X6.60477 Y-3.29879 Z[#200+-0.04000]
#205=[#528+[#529-#528]*0.15816]
#206=[#535+[#536-#535]*0.15816]
#200=[#205+[#206-#205]*0.89929]
X6.60433 Y-3.29766 Z[#200+-0.04000]
#205=[#528+[#529-#528]*0.16169]
#206=[#535+[#536-#535]*0.16169]
#200=[#205+[#206-#205]*0.89675]
X6.60333 Y-3.29638 Z[#200+-0.04000]
#205=[#528+[#529-#528]*0.16413]
#206=[#535+[#536-#535]*0.16413]
#200=[#205+[#206-#205]*0.89328]
X6.60198 Y-3.29549 Z[#200+-0.04000]
#205=[#528+[#529-#528]*0.16523]
#206=[#535+[#536-#535]*0.16523]
#200=[#205+[#206-#205]*0.88928]
X6.60041 Y-3.29509 Z[#200+-0.04000]
#205=[#528+[#529-#528]*0.16528]
#206=[#535+[#536-#535]*0.16528]
#200=[#205+[#206-#205]*0.77317]
X6.55492 Y-3.29508 Z[#200+-0.04000]
#205=[#528+[#529-#528]*0.29090]
#206=[#535+[#536-#535]*0.29090]
#200=[#205+[#206-#205]*0.77312]
X6.55490 Y-3.24959 Z[#200+-0.04000]
#205=[#528+[#529-#528]*0.29312]
#206=[#535+[#536-#535]*0.29312]
#200=[#205+[#206-#205]*0.77278]
X6.55477 Y-3.24879 Z[#200+-0.04000]
#205=[#528+[#529-#528]*0.29625]
#206=[#535+[#536-#535]*0.29625]
#200=[#205+[#206-#205]*0.77165]
X6.55433 Y-3.24766 Z[#200+-0.04000]
#205=[#528+[#529-#528]*0.29978]
#206=[#535+[#536-#535]*0.29978]
#200=[#205+[#206-#205]*0.76911]
X6.55333 Y-3.24638 Z[#200+-0.04000]
#205=[#528+[#529-#528]*0.30223]
#206=[#535+[#536-#535]*0.30223]
#200=[#205+[#206-#205]*0.76565]
X6.55198 Y-3.24549 Z[#200+-0.04000]
#205=[#528+[#529-#528]*0.30319]
#206=[#535+[#536-#535]*0.30319]
#200=[#205+[#206-#205]*0.76267]
X6.55081 Y-3.24514 Z[#200+-0.04000]
#205=[#528+[#529-#528]*0.30337]
#206=[#535+[#536-#535]*0.30337]
#200=[#205+[#206-#205]*0.76060]
X6.55000 Y-3.24508 Z[#200+-0.04000]
#205=[#528+[#529-#528]*0.30319]
#206=[#535+[#536-#535]*0.30319]
#200=[#205+[#206-#205]*0.75853]
X6.54919 Y-3.24514 Z[#200+-0.04000]
#205=[#528+[#529-#528]*0.30223]
#206=[#535+[#536-#535]*0.30223]
#200=[#205+[#206-#205]*0.75556]
X6.54802 Y-3.24549 Z[#200+-0.04000]
#205=[#528+[#529-#528]*0.29978]
#206=[#535+[#536-#535]*0.29978]
#200=[#205+[#206-#205]*0.75209]
X6.54667 Y-3.24638 Z[#200+-0.04000]
#205=[#528+[#529-#528]*0.29625]
#206=[#535+[#536-#535]*0.29625]
#200=[#205+[#206-#205]*0.74955]
X6.54567 Y-3.24766 Z[#200+-0.04000]
#205=[#528+[#529-#528]*0.29312]
#206=[#535+[#536-#535]*0.29312]
#200=[#205+[#206-#205]*0.74842]
X6.54523 Y-3.24879 Z[#200+-0.04000]
#205=[#528+[#529-#528]*0.29090]
#206=[#535+[#536-#535]*0.29090]
#200=[#205+[#206-#205]*0.74808]
X6.54509 Y-3.24959 Z[#200+-0.04000]
#205=[#528+[#529-#528]*0.16528]
#206=[#535+[#536-#535]*0.16528]
#200=[#205+[#206-#205]*0.74804]
X6.54508 Y-3.29508 Z[#200+-0.04000]
#205=[#528+[#529-#528]*0.16523]
#206=[#535+[#536-#535]*0.16523]
#200=[#205+[#206-#205]*0.63193]
X6.49959 Y-3.29509 Z[#200+-0.04000]
#205=[#528+[#529-#528]*0.16486]
#206=[#535+[#536-#535]*0.16486]
#200=[#205+[#206-#205]*0.62988]
X6.49879 Y-3.29523 Z[#200+-0.04000]
#205=[#528+[#529-#528]*0.16364]
#206=[#535+[#536-#535]*0.16364]
#200=[#205+[#206-#205]*0.62699]
X6.49766 Y-3.29567 Z[#200+-0.04000]
#205=[#528+[#529-#528]*0.16089]
#206=[#535+[#536-#535]*0.16089]
#200=[#205+[#206-#205]*0.62373]
X6.49638 Y-3.29667 Z[#200+-0.04000]
#205=[#528+[#529-#528]*0.15715]
#206=[#535+[#536-#535]*0.15715]
#200=[#205+[#206-#205]*0.62146]
X6.49549 Y-3.29802 Z[#200+-0.04000]
#205=[#528+[#529-#528]*0.15393]
#206=[#535+[#536-#535]*0.15393]
#200=[#205+[#206-#205]*0.62058]
X6.49514 Y-3.29919 Z[#200+-0.04000]
#205=[#528+[#529-#528]*0.15169]
#206=[#535+[#536-#535]*0.15169]
#200=[#205+[#206-#205]*0.62040]
X6.49508 Y-3.30000 Z[#200+-0.04000]
( Piece #2, position [1;0] )

G04 P0 ( dwell for no time -- G64 should not smooth over this point )
G00 Z0.08000 ( retract )

G00 X6.85909 Y-2.47619 ( rapid move to begin. )
G01 F180.00000
( Mill infeed pass 1/1 )
#205=[#537+[#538-#537]*0.42695]
#206=[#544+[#545-#544]*0.42695]
#200=[#205+[#206-#205]*0.54962]
G01 Z[-0.04000+#200]
G04 P0 ( dwell for no time -- G64 should not smooth over this point )
G01 F360.00000
#205=[#536+[#537-#536]*1.00000]
#206=[#543+[#544-#543]*1.00000]
#200=[#205+[#206-#205]*0.54963]
X6.85910 Y-2.63078 Z[#200+-0.04000]
#205=[#536+[#537-#536]*0.04379]
#206=[#543+[#544-#543]*0.04379]
#200=[#205+[#206-#205]*0.54966]
X6.85911 Y-2.97699 Z[#200+-0.04000]
#205=[#536+[#537-#536]*0.03827]
#206=[#543+[#544-#543]*0.03827]
#200=[#205+[#206-#205]*0.55013]
X6.85929 Y-2.97899 Z[#200+-0.04000]
#205=[#536+[#537-#536]*0.03284]
#206=[#543+[#544-#543]*0.03284]
#200=[#205+[#206-#205]*0.55112]
X6.85968 Y-2.98096 Z[#200+-0.04000]
#205=[#536+[#537-#536]*0.02343]
#206=[#543+[#544-#543]*0.02343]
#200=[#205+[#206-#205]*0.55416]
X6.86087 Y-2.98437 Z[#200+-0.04000]
#205=[#536+[#537-#536]*0.01478]
#206=[#543+[#544-#543]*0.01478]
#200=[#205+[#206-#205]*0.55874]
X6.86266 Y-2.98750 Z[#200+-0.04000]
#205=[#536+[#537-#536]*0.01041]
#206=[#543+[#544-#543]*0.01041]
#200=[#205+[#206-#205]*0.56190]
X6.86390 Y-2.98908 Z[#200+-0.04000]
#205=[#536+[#537-#536]*0.00641]
#206=[#543+[#544-#543]*0.00641]
#200=[#205+[#206-#205]*0.56544]
X6.86529 Y-2.99053 Z[#200+-0.04000]
#205=[#536+[#537-#536]*0.00282]
#206=[#543+[#544-#543]*0.00282]
#200=[#205+[#206-#205]*0.56935]
X6.86682 Y-2.99183 Z[#200+-0.04000]
#205=[#536+[#537-#536]*0.00000]
#206=[#543+[#544-#543]*0.00000]
#200=[#205+[#206-#205]*0.57315]
X6.86831 Y-2.99285 Z[#200+-0.04000]
#205=[#535+[#536-#535]*0.99968]
#206=[#542+[#543-#542]*0.99968]
#200=[#205+[#206-#205]*0.57357]
X6.86847 Y-2.99296 Z[#200+-0.04000]
#205=[#535+[#536-#535]*0.99527]
#206=[#542+[#543-#542]*0.99527]
#200=[#205+[#206-#205]*0.58183]
X6.87171 Y-2.99456 Z[#200+-0.04000]
#205=[#535+[#536-#535]*0.99355]
#206=[#542+[#543-#542]*0.99355]
#200=[#205+[#206-#205]*0.58670]
X6.87362 Y-2.99519 Z[#200+-0.04000]
#205=[#535+[#536-#535]*0.99237]
#206=[#542+[#543-#542]*0.99237]
#200=[#205+[#206-#205]*0.59171]
X6.87558 Y-2.99561 Z[#200+-0.04000]
#205=[#535+[#536-#535]*0.99174]
#206=[#542+[#543-#542]*0.99174]
#200=[#205+[#206-#205]*0.59680]
X6.87757 Y-2.99584 Z[#200+-0.04000]
#205=[#535+[#536-#535]*0.99169]
#206=[#542+[#543-#542]*0.99169]
#200=[#205+[#206-#205]*0.60192]
X6.87958 Y-2.99586 Z[#200+-0.04000]
#205=[#535+[#536-#535]*0.99301]
#206=[#542+[#543-#542]*0.99301]
#200=[#205+[#206-#205]*0.61105]
X6.88316 Y-2.99538 Z[#200+-0.04000]
#205=[#535+[#536-#535]*0.99611]
#206=[#542+[#543-#542]*0.99611]
#200=[#205+[#206-#205]*0.61981]
X6.88659 Y-2.99426 Z[#200+-0.04000]
#205=[#536+[#537-#536]*0.00000]
#206=[#543+[#544-#543]*0.00000]
#200=[#205+[#206-#205]*0.62640]
X6.88917 Y-2.99285 Z[#200+-0.04000]
#205=[#536+[#537-#536]*0.00088]
#206=[#543+[#544-#543]*0.00088]
#200=[#205+[#206-#205]*0.62790]
X6.88975 Y-2.99253 Z[#200+-0.04000]
#205=[#536+[#537-#536]*0.00718]
#206=[#543+[#544-#543]*0.00718]
#200=[#205+[#206-#205]*0.63504]
X6.89255 Y-2.99025 Z[#200+-0.04000]
#205=[#536+[#537-#536]*0.01478]
#206=[#543+[#544-#543]*0.01478]
#200=[#205+[#206-#205]*0.64100]
X6.89489 Y-2.98750 Z[#200+-0.04000]
#205=[#536+[#537-#536]*0.02242]
#206=[#543+[#544-#543]*0.02242]
#200=[#205+[#206-#205]*0.64515]
X6.89651 Y-2.98473 Z[#200+-0.04000]
#205=[#536+[#537-#536]*0.03176]
#206=[#543+[#544-#543]*0.03176]
#200=[#205+[#206-#205]*0.64837]
X6.89777 Y-2.98135 Z[#200+-0.04000]
#205=[#536+[#537-#536]*0.04158]
#206=[#543+[#544-#543]*0.04158]
#200=[#205+[#206-#205]*0.64996]
X6.89840 Y-2.97779 Z[#200+-0.04000]
#205=[#536+[#537-#536]*0.71499]
#206=[#543+[#544-#543]*0.71499]
#200=[#205+[#206-#205]*0.65012]
X6.89846 Y-2.73397 Z[#200+-0.04000]
#200=[#543+[#544-#543]*0.71499]
X7.03552 Y-2.73397 Z[#200+-0.04000]
#205=[#543+[#544-#543]*0.71499]
#206=[#550+[#551-#550]*0.71499]
#200=[#205+[#206-#205]*0.02533]
X7.04544 Y-2.73397 Z[#200+-0.04000]
#205=[#543+[#544-#543]*0.71540]
#206=[#550+[#551-#550]*0.71540]
#200=[#205+[#206-#205]*0.03146]
X7.04785 Y-2.73382 Z[#200+-0.04000]
#205=[#543+[#544-#543]*0.71720]
#206=[#550+[#551-#550]*0.71720]
#200=[#205+[#206-#205]*0.03948]
X7.05099 Y-2.73317 Z[#200+-0.04000]
#205=[#543+[#544-#543]*0.72087]
#206=[#550+[#551-#550]*0.72087]
#200=[#205+[#206-#205]*0.04805]
X7.05434 Y-2.73184 Z[#200+-0.04000]
#205=[#543+[#544-#543]*0.72617]
#206=[#550+[#551-#550]*0.72617]
#200=[#205+[#206-#205]*0.05585]
X7.05740 Y-2.72992 Z[#200+-0.04000]
#205=[#543+[#544-#543]*0.73211]
#206=[#550+[#551-#550]*0.73211]
#200=[#205+[#206-#205]*0.06193]
X7.05978 Y-2.72777 Z[#200+-0.04000]
#205=[#543+[#544-#543]*0.73997]
#206=[#550+[#551-#550]*0.73997]
#200=[#205+[#206-#205]*0.06760]
X7.06200 Y-2.72493 Z[#200+-0.04000]
#205=[#543+[#544-#543]*0.74881]
#206=[#550+[#551-#550]*0.74881]
#200=[#205+[#206-#205]*0.07185]
X7.06367 Y-2.72173 Z[#200+-0.04000]
#205=[#543+[#544-#543]*0.75835]
#206=[#550+[#551-#550]*0.75835]
#200=[#205+[#206-#205]*0.07453]
X7.06472 Y-2.71827 Z[#200+-0.04000]
#205=[#543+[#544-#543]*0.76715]
#206=[#550+[#551-#550]*0.76715]
#200=[#205+[#206-#205]*0.07553]
X7.06511 Y-2.71509 Z[#200+-0.04000]
#205=[#543+[#544-#543]*0.77710]
#206=[#550+[#551-#550]*0.77710]
#200=[#205+[#206-#205]*0.07506]
X7.06493 Y-2.71148 Z[#200+-0.04000]
#205=[#543+[#544-#543]*0.78679]
#206=[#550+[#551-#550]*0.78679]
#200=[#205+[#206-#205]*0.07292]
X7.06409 Y-2.70797 Z[#200+-0.04000]
#205=[#543+[#544-#543]*0.79590]
#206=[#550+[#551-#550]*0.79590]
#200=[#205+[#206-#205]*0.06918]
X7.06262 Y-2.70467 Z[#200+-0.04000]
#205=[#543+[#544-#543]*0.80412]
#206=[#550+[#551-#550]*0.80412]
#200=[#205+[#206-#205]*0.06396]
X7.06058 Y-2.70170 Z[#200+-0.04000]
#205=[#543+[#544-#543]*0.81117]
#206=[#550+[#551-#550]*0.81117]
#200=[#205+[#206-#205]*0.05745]
X7.05803 Y-2.69915 Z[#200+-0.04000]
#205=[#543+[#544-#543]*0.81681]
#206=[#550+[#551-#550]*0.81681]
#200=[#205+[#206-#205]*0.04985]
X7.05505 Y-2.69710 Z[#200+-0.04000]
#205=[#543+[#544-#543]*0.81927]
#206=[#550+[#551-#550]*0.81927]
#200=[#205+[#206-#205]*0.04526]
X7.05325 Y-2.69622 Z[#200+-0.04000]
#205=[#543+[#544-#543]*0.82120]
#206=[#550+[#551-#550]*0.82120]
#200=[#205+[#206-#205]*0.04046]
X7.05137 Y-2.69551 Z[#200+-0.04000]
#205=[#543+[#544-#543]*0.82332]
#206=[#550+[#551-#550]*0.82332]
#200=[#205+[#206-#205]*0.03146]
X7.04785 Y-2.69475 Z[#200+-0.04000]
#205=[#543+[#544-#543]*0.82373]
#206=[#550+[#551-#550]*0.82373]
#200=[#205+[#206-#205]*0.02533]
X7.04544 Y-2.69460 Z[#200+-0.04000]
#200=[#543+[#544-#543]*0.82373]
X7.03552 Y-2.69460 Z[#200+-0.04000]
#205=[#536+[#537-#536]*0.82373]
#206=[#543+[#544-#543]*0.82373]
#200=[#205+[#206-#205]*0.65012]
X6.89846 Y-2.69460 Z[#200+-0.04000]
#205=[#536+[#537-#536]*1.00000]
#206=[#543+[#544-#543]*1.00000]
#200=[#205+[#206-#205]*0.65012]
X6.89846 Y-2.63078 Z[#200+-0.04000]
#205=[#537+[#538-#537]*0.37258]
#206=[#544+[#545-#544]*0.37258]
#200=[#205+[#206-#205]*0.65012]
X6.89846 Y-2.49587 Z[#200+-0.04000]
#200=[#544+[#545-#544]*0.37258]
X7.03552 Y-2.49587 Z[#200+-0.04000]
#205=[#544+[#545-#544]*0.37258]
#206=[#551+[#552-#551]*0.37258]
#200=[#205+[#206-#205]*0.20766]
X7.11687 Y-2.49587 Z[#200+-0.04000]
#205=[#544+[#545-#544]*0.37331]
#206=[#551+[#552-#551]*0.37331]
#200=[#205+[#206-#205]*0.21583]
X7.12007 Y-2.49561 Z[#200+-0.04000]
#205=[#544+[#545-#544]*0.37511]
#206=[#551+[#552-#551]*0.37511]
#200=[#205+[#206-#205]*0.22280]
X7.12280 Y-2.49496 Z[#200+-0.04000]
#205=[#544+[#545-#544]*0.37846]
#206=[#551+[#552-#551]*0.37846]
#200=[#205+[#206-#205]*0.23038]
X7.12577 Y-2.49375 Z[#200+-0.04000]
#205=[#544+[#545-#544]*0.38310]
#206=[#551+[#552-#551]*0.38310]
#200=[#205+[#206-#205]*0.23736]
X7.12851 Y-2.49207 Z[#200+-0.04000]
#205=[#544+[#545-#544]*0.38890]
#206=[#551+[#552-#551]*0.38890]
#200=[#205+[#206-#205]*0.24355]
X7.13093 Y-2.48997 Z[#200+-0.04000]
#205=[#544+[#545-#544]*0.39572]
#206=[#551+[#552-#551]*0.39572]
#200=[#205+[#206-#205]*0.24879]
X7.13298 Y-2.48750 Z[#200+-0.04000]
#205=[#544+[#545-#544]*0.40237]
#206=[#551+[#552-#551]*0.40237]
#200=[#205+[#206-#205]*0.25248]
X7.13443 Y-2.48509 Z[#200+-0.04000]
#205=[#544+[#545-#544]*0.41057]
#206=[#551+[#552-#551]*0.41057]
#200=[#205+[#206-#205]*0.25558]
X7.13564 Y-2.48212 Z[#200+-0.04000]
#205=[#544+[#545-#544]*0.41921]
#206=[#551+[#552-#551]*0.41921]
#200=[#205+[#206-#205]*0.25740]
X7.13636 Y-2.47899 Z[#200+-0.04000]
#205=[#544+[#545-#544]*0.42806]
#206=[#551+[#552-#551]*0.42806]
#200=[#205+[#206-#205]*0.25790]
X7.13655 Y-2.47579 Z[#200+-0.04000]
#205=[#544+[#545-#544]*0.43688]
#206=[#551+[#552-#551]*0.43688]
#200=[#205+[#206-#205]*0.25707]
X7.13623 Y-2.47260 Z[#200+-0.04000]
#205=[#544+[#545-#544]*0.44543]
#206=[#551+[#552-#551]*0.44543]
#200=[#205+[#206-#205]*0.25492]
X7.13539 Y-2.46950 Z[#200+-0.04000]
#205=[#544+[#545-#544]*0.45349]
#206=[#551+[#552-#551]*0.45349]
#200=[#205+[#206-#205]*0.25152]
X7.13405 Y-2.46658 Z[#200+-0.04000]
#205=[#544+[#545-#544]*0.45997]
#206=[#551+[#552-#551]*0.45997]
#200=[#205+[#206-#205]*0.24758]
X7.13251 Y-2.46423 Z[#200+-0.04000]
#205=[#544+[#545-#544]*0.46655]
#206=[#551+[#552-#551]*0.46655]
#200=[#205+[#206-#205]*0.24209]
X7.13036 Y-2.46185 Z[#200+-0.04000]
#205=[#544+[#545-#544]*0.47208]
#206=[#551+[#552-#551]*0.47208]
#200=[#205+[#206-#205]*0.23569]
X7.12785 Y-2.45985 Z[#200+-0.04000]
#205=[#544+[#545-#544]*0.47641]
#206=[#551+[#552-#551]*0.47641]
#200=[#205+[#206-#205]*0.22854]
X7.12505 Y-2.45828 Z[#200+-0.04000]
#205=[#544+[#545-#544]*0.47879]
#206=[#551+[#552-#551]*0.47879]
#200=[#205+[#206-#205]*0.22280]
X7.12280 Y-2.45742 Z[#200+-0.04000]
#205=[#544+[#545-#544]*0.48019]
#206=[#551+[#552-#551]*0.48019]
#200=[#205+[#206-#205]*0.21784]
X7.12086 Y-2.45691 Z[#200+-0.04000]
#205=[#544+[#545-#544]*0.48104]
#206=[#551+[#552-#551]*0.48104]
#200=[#205+[#206-#205]*0.21278]
X7.11888 Y-2.45661 Z[#200+-0.04000]
#205=[#544+[#545-#544]*0.48132]
#206=[#551+[#552-#551]*0.48132]
#200=[#205+[#206-#205]*0.20766]
X7.11687 Y-2.45650 Z[#200+-0.04000]
#200=[#544+[#545-#544]*0.48130]
X7.03552 Y-2.45651 Z[#200+-0.04000]
#205=[#537+[#538-#537]*0.48127]
#206=[#544+[#545-#544]*0.48127]
#200=[#205+[#206-#205]*0.59782]
X6.87797 Y-2.45652 Z[#200+-0.04000]
#205=[#537+[#538-#537]*0.48041]
#206=[#544+[#545-#544]*0.48041]
#200=[#205+[#206-#205]*0.59070]
X6.87518 Y-2.45683 Z[#200+-0.04000]
#205=[#537+[#538-#537]*0.47879]
#206=[#544+[#545-#544]*0.47879]
#200=[#205+[#206-#205]*0.58473]
X6.87285 Y-2.45742 Z[#200+-0.04000]
#205=[#537+[#538-#537]*0.47593]
#206=[#544+[#545-#544]*0.47593]
#200=[#205+[#206-#205]*0.57807]
X6.87023 Y-2.45845 Z[#200+-0.04000]
#205=[#537+[#538-#537]*0.47208]
#206=[#544+[#545-#544]*0.47208]
#200=[#205+[#206-#205]*0.57185]
X6.86780 Y-2.45985 Z[#200+-0.04000]
#205=[#537+[#538-#537]*0.46730]
#206=[#544+[#545-#544]*0.46730]
#200=[#205+[#206-#205]*0.56620]
X6.86558 Y-2.46158 Z[#200+-0.04000]
#205=[#537+[#538-#537]*0.46171]
#206=[#544+[#545-#544]*0.46171]
#200=[#205+[#206-#205]*0.56123]
X6.86364 Y-2.46360 Z[#200+-0.04000]
#205=[#537+[#538-#537]*0.45541]
#206=[#544+[#545-#544]*0.45541]
#200=[#205+[#206-#205]*0.55705]
X6.86200 Y-2.46589 Z[#200+-0.04000]
#205=[#537+[#538-#537]*0.44954]
#206=[#544+[#545-#544]*0.44954]
#200=[#205+[#206-#205]*0.55416]
X6.86087 Y-2.46801 Z[#200+-0.04000]
#205=[#537+[#538-#537]*0.44333]
#206=[#544+[#545-#544]*0.44333]
#200=[#205+[#206-#205]*0.55196]
X6.86001 Y-2.47026 Z[#200+-0.04000]
#205=[#537+[#538-#537]*0.43796]
#206=[#544+[#545-#544]*0.43796]
#200=[#205+[#206-#205]*0.55067]
X6.85950 Y-2.47220 Z[#200+-0.04000]
#205=[#537+[#538-#537]*0.43249]
#206=[#544+[#545-#544]*0.43249]
#200=[#205+[#206-#205]*0.54988]
X6.85919 Y-2.47418 Z[#200+-0.04000]
#205=[#537+[#538-#537]*0.42695]
#206=[#544+[#545-#544]*0.42695]
#200=[#205+[#206-#205]*0.54962]
X6.85909 Y-2.47619 Z[#200+-0.04000]
G04 P0 ( dwell for no time -- G64 should not smooth over this point )
G00 Z0.08000 ( retract )

G00 X7.28766 Y-2.64286 ( rapid move to begin. )
G01 F180.00000
( Mill infeed pass 1/1 )
#205=[#543+[#544-#543]*0.96664]
#206=[#550+[#551-#550]*0.96664]
#200=[#205+[#206-#205]*0.64364]
G01 Z[-0.04000+#200]
G04 P0 ( dwell for no time -- G64 should not smooth over this point )
G01 F360.00000
#205=[#543+[#544-#543]*0.04269]
#206=[#550+[#551-#550]*0.04269]
#200=[#205+[#206-#205]*0.64373]
X7.28770 Y-2.97739 Z[#200+-0.04000]
#205=[#543+[#544-#543]*0.03718]
#206=[#550+[#551-#550]*0.03718]
#200=[#205+[#206-#205]*0.64431]
X7.28792 Y-2.97939 Z[#200+-0.04000]
#205=[#543+[#544-#543]*0.03176]
#206=[#550+[#551-#550]*0.03176]
#200=[#205+[#206-#205]*0.64540]
X7.28835 Y-2.98135 Z[#200+-0.04000]
#205=[#543+[#544-#543]*0.02242]
#206=[#550+[#551-#550]*0.02242]
#200=[#205+[#206-#205]*0.64862]
X7.28961 Y-2.98473 Z[#200+-0.04000]
#205=[#543+[#544-#543]*0.01756]
#206=[#550+[#551-#550]*0.01756]
#200=[#205+[#206-#205]*0.65107]
X7.29057 Y-2.98649 Z[#200+-0.04000]
#205=[#543+[#544-#543]*0.01299]
#206=[#550+[#551-#550]*0.01299]
#200=[#205+[#206-#205]*0.65397]
X7.29171 Y-2.98815 Z[#200+-0.04000]
#205=[#543+[#544-#543]*0.00566]
#206=[#550+[#551-#550]*0.00566]
#200=[#205+[#206-#205]*0.66022]
X7.29416 Y-2.99080 Z[#200+-0.04000]
#205=[#543+[#544-#543]*0.00000]
#206=[#550+[#551-#550]*0.00000]
#200=[#205+[#206-#205]*0.66720]
X7.29689 Y-2.99285 Z[#200+-0.04000]
#205=[#542+[#543-#542]*0.99968]
#206=[#549+[#550-#549]*0.99968]
#200=[#205+[#206-#205]*0.66759]
X7.29705 Y-2.99296 Z[#200+-0.04000]
#205=[#542+[#543-#542]*0.99703]
#206=[#549+[#550-#549]*0.99703]
#200=[#205+[#206-#205]*0.67209]
X7.29881 Y-2.99392 Z[#200+-0.04000]
#205=[#542+[#543-#542]*0.99488]
#206=[#549+[#550-#549]*0.99488]
#200=[#205+[#206-#205]*0.67681]
X7.30066 Y-2.99470 Z[#200+-0.04000]
#205=[#542+[#543-#542]*0.99326]
#206=[#549+[#550-#549]*0.99326]
#200=[#205+[#206-#205]*0.68171]
X7.30258 Y-2.99529 Z[#200+-0.04000]
#205=[#542+[#543-#542]*0.99220]
#206=[#549+[#550-#549]*0.99220]
#200=[#205+[#206-#205]*0.68674]
X7.30455 Y-2.99567 Z[#200+-0.04000]
#205=[#542+[#543-#542]*0.99169]
#206=[#549+[#550-#549]*0.99169]
#200=[#205+[#206-#205]*0.69184]
X7.30655 Y-2.99586 Z[#200+-0.04000]
#205=[#542+[#543-#542]*0.99174]
#206=[#549+[#550-#549]*0.99174]
#200=[#205+[#206-#205]*0.69696]
X7.30855 Y-2.99584 Z[#200+-0.04000]
#205=[#542+[#543-#542]*0.99326]
#206=[#549+[#550-#549]*0.99326]
#200=[#205+[#206-#205]*0.70607]
X7.31212 Y-2.99529 Z[#200+-0.04000]
#205=[#542+[#543-#542]*0.99611]
#206=[#549+[#550-#549]*0.99611]
#200=[#205+[#206-#205]*0.71383]
X7.31516 Y-2.99426 Z[#200+-0.04000]
#205=[#543+[#544-#543]*0.00000]
#206=[#550+[#551-#550]*0.00000]
#200=[#205+[#206-#205]*0.72042]
X7.31774 Y-2.99285 Z[#200+-0.04000]
#205=[#543+[#544-#543]*0.00088]
#206=[#550+[#551-#550]*0.00088]
#200=[#205+[#206-#205]*0.72192]
X7.31833 Y-2.99253 Z[#200+-0.04000]
#205=[#543+[#544-#543]*0.00718]
#206=[#550+[#551-#550]*0.00718]
#200=[#205+[#206-#205]*0.72906]
X7.32112 Y-2.99025 Z[#200+-0.04000]
#205=[#543+[#544-#543]*0.01478]
#206=[#550+[#551-#550]*0.01478]
#200=[#205+[#206-#205]*0.73502]
X7.32346 Y-2.98750 Z[#200+-0.04000]
#205=[#543+[#544-#543]*0.02242]
#206=[#550+[#551-#550]*0.02242]
#200=[#205+[#206-#205]*0.73916]
X7.32508 Y-2.98473 Z[#200+-0.04000]
#205=[#543+[#544-#543]*0.03176]
#206=[#550+[#551-#550]*0.03176]
#200=[#205+[#206-#205]*0.74238]
X7.32634 Y-2.98135 Z[#200+-0.04000]
#205=[#543+[#544-#543]*0.04158]
#206=[#550+[#551-#550]*0.04158]
#200=[#205+[#206-#205]*0.74397]
X7.32697 Y-2.97779 Z[#200+-0.04000]
#205=[#543+[#544-#543]*0.69077]
#206=[#550+[#551-#550]*0.69077]
#200=[#205+[#206-#205]*0.74414]
X7.32703 Y-2.74274 Z[#200+-0.04000]
#205=[#543+[#544-#543]*0.80291]
#206=[#550+[#551-#550]*0.80291]
#200=[#205+[#206-#205]*0.79597]
X7.34734 Y-2.70214 Z[#200+-0.04000]
#205=[#543+[#544-#543]*0.85620]
#206=[#550+[#551-#550]*0.85620]
#200=[#205+[#206-#205]*0.84521]
X7.36663 Y-2.68284 Z[#200+-0.04000]
#205=[#543+[#544-#543]*0.91227]
#206=[#550+[#551-#550]*0.91227]
#200=[#205+[#206-#205]*0.94887]
X7.40723 Y-2.66254 Z[#200+-0.04000]
#200=[#550+[#551-#550]*0.91235]
X7.42726 Y-2.66251 Z[#200+-0.04000]
#205=[#550+[#551-#550]*0.91245]
#206=[#557+[#558-#557]*0.91245]
#200=[#205+[#206-#205]*0.06266]
X7.45181 Y-2.66248 Z[#200+-0.04000]
#205=[#550+[#551-#550]*0.91389]
#206=[#557+[#558-#557]*0.91389]
#200=[#205+[#206-#205]*0.07074]
X7.45498 Y-2.66195 Z[#200+-0.04000]
#205=[#550+[#551-#550]*0.91673]
#206=[#557+[#558-#557]*0.91673]
#200=[#205+[#206-#205]*0.07850]
X7.45802 Y-2.66093 Z[#200+-0.04000]
#205=[#550+[#551-#550]*0.92090]
#206=[#557+[#558-#557]*0.92090]
#200=[#205+[#206-#205]*0.08573]
X7.46085 Y-2.65942 Z[#200+-0.04000]
#205=[#550+[#551-#550]*0.92628]
#206=[#557+[#558-#557]*0.92628]
#200=[#205+[#206-#205]*0.09224]
X7.46340 Y-2.65747 Z[#200+-0.04000]
#205=[#550+[#551-#550]*0.93104]
#206=[#557+[#558-#557]*0.93104]
#200=[#205+[#206-#205]*0.09654]
X7.46508 Y-2.65575 Z[#200+-0.04000]
#205=[#550+[#551-#550]*0.93632]
#206=[#557+[#558-#557]*0.93632]
#200=[#205+[#206-#205]*0.10027]
X7.46654 Y-2.65383 Z[#200+-0.04000]
#205=[#550+[#551-#550]*0.94205]
#206=[#557+[#558-#557]*0.94205]
#200=[#205+[#206-#205]*0.10338]
X7.46776 Y-2.65176 Z[#200+-0.04000]
#205=[#550+[#551-#550]*0.94921]
#206=[#557+[#558-#557]*0.94921]
#200=[#205+[#206-#205]*0.10616]
X7.46885 Y-2.64917 Z[#200+-0.04000]
#205=[#550+[#551-#550]*0.95671]
#206=[#557+[#558-#557]*0.95671]
#200=[#205+[#206-#205]*0.10797]
X7.46956 Y-2.64645 Z[#200+-0.04000]
#205=[#550+[#551-#550]*0.96331]
#206=[#557+[#558-#557]*0.96331]
#200=[#205+[#206-#205]*0.10872]
X7.46985 Y-2.64406 Z[#200+-0.04000]
#205=[#550+[#551-#550]*0.96996]
#206=[#557+[#558-#557]*0.96996]
#200=[#205+[#206-#205]*0.10872]
X7.46985 Y-2.64165 Z[#200+-0.04000]
#205=[#550+[#551-#550]*0.97656]
#206=[#557+[#558-#557]*0.97656]
#200=[#205+[#206-#205]*0.10797]
X7.46956 Y-2.63926 Z[#200+-0.04000]
#205=[#550+[#551-#550]*0.98302]
#206=[#557+[#558-#557]*0.98302]
#200=[#205+[#206-#205]*0.10648]
X7.46898 Y-2.63693 Z[#200+-0.04000]
#205=[#550+[#551-#550]*0.99023]
#206=[#557+[#558-#557]*0.99023]
#200=[#205+[#206-#205]*0.10384]
X7.46794 Y-2.63431 Z[#200+-0.04000]
#205=[#550+[#551-#550]*0.99603]
#206=[#557+[#558-#557]*0.99603]
#200=[#205+[#206-#205]*0.10084]
X7.46677 Y-2.63221 Z[#200+-0.04000]
#205=[#550+[#551-#550]*1.00000]
#206=[#557+[#558-#557]*1.00000]
#200=[#205+[#206-#205]*0.09815]
X7.46571 Y-2.63078 Z[#200+-0.04000]
#205=[#551+[#552-#551]*0.00139]
#206=[#558+[#559-#558]*0.00139]
#200=[#205+[#206-#205]*0.09720]
X7.46534 Y-2.63027 Z[#200+-0.04000]
#205=[#551+[#552-#551]*0.00624]
#206=[#558+[#559-#558]*0.00624]
