( pcb2gcode 3.0.2 )
( Software-independent Gcode )

G94 ( Inches per minute feed rate. )
G20 ( Units == INCHES. )

G90 ( Absolute coordinates. )
G00 S24000 ( RPM spindle speed. )
G64 P0.00040 ( set maximum deviation from commanded toolpath )
G01 F0.04000 ( Feedrate. )


G00 Z1.60000 (Retract to tool change height)
T1
M5      (Spindle stop.)
G04 P1.00000 (Wait for spindle to stop)
(MSG, Change tool bit to cutter diameter 0.02000in)
M6      (Tool change.)
M0      (Temporary machine stop.)
M3 ( Spindle on clockwise. )
G04 P1.00000 (Wait for spindle to get up to speed)
G04 P0 ( dwell for no time -- G64 should not smooth over this point )
G00 Z0.05000 ( retract )

G00 X5.46000 Y-3.99000 ( rapid move to begin. )
G01 Z-0.04000 F0.02000 ( plunge. )
G04 P0 ( dwell for no time -- G64 should not smooth over this point )
G01 F0.04000
G01 X5.46000 Y-3.86000
G01 X5.64000 Y-3.86000
G01 X5.64000 Y-3.99000
G01 X5.46000 Y-3.99000
G01 Z-0.08000 F0.02000 ( plunge. )
G04 P0 ( dwell for no time -- G64 should not smooth over this point )
G01 F0.04000
G01 X5.46000 Y-3.86000
G01 X5.64000 Y-3.86000
G01 X5.64000 Y-3.99000
G01 X5.46000 Y-3.99000
G04 P0 ( dwell for no time -- G64 should not smooth over this point )
G00 Z0.05000 ( retract )

G00 X5.66000 Y-4.24000 ( rapid move to begin. )
G01 Z-0.04000 F0.02000 ( plunge. )
G04 P0 ( dwell for no time -- G64 should not smooth over this point )
G01 F0.04000
G01 X5.66000 Y-4.01000
G01 X5.99000 Y-4.01000
G01 X5.99000 Y-4.24000
G01 X5.66000 Y-4.24000
G01 Z-0.08000 F0.02000 ( plunge. )
G04 P0 ( dwell for no time -- G64 should not smooth over this point )
G01 F0.04000
G01 X5.66000 Y-4.01000
G01 X5.99000 Y-4.01000
G01 X5.99000 Y-4.24000
G01 X5.66000 Y-4.24000
G04 P0 ( dwell for no time -- G64 should not smooth over this point )
G00 Z0.05000 ( retract )

G00 X6.01000 Y-2.99000 ( rapid move to begin. )
G01 Z-0.04000 F0.02000 ( plunge. )
G04 P0 ( dwell for no time -- G64 should not smooth over this point )
G01 F0.04000
G01 X6.01000 Y-2.71000
G01 X6.29000 Y-2.71000
G01 X6.29000 Y-2.99000
G01 X6.01000 Y-2.99000
G01 Z-0.08000 F0.02000 ( plunge. )
G04 P0 ( dwell for no time -- G64 should not smooth over this point )
G01 F0.04000
G01 X6.01000 Y-2.71000
G01 X6.29000 Y-2.71000
G01 X6.29000 Y-2.99000
G01 X6.01000 Y-2.99000
G04 P0 ( dwell for no time -- G64 should not smooth over this point )
G00 Z0.05000 ( retract )

G00 X5.46000 Y-3.14000 ( rapid move to begin. )
G01 Z-0.04000 F0.02000 ( plunge. )
G04 P0 ( dwell for no time -- G64 should not smooth over this point )
G01 F0.04000
G01 X5.46000 Y-2.61000
G01 X5.89000 Y-2.61000
G01 X5.89000 Y-2.69000
G01 X5.55000 Y-2.69000
G01 X5.54761 Y-2.69029
G01 X5.54571 Y-2.69096
G01 X5.54368 Y-2.69225
G01 X5.54225 Y-2.69367
G01 X5.54134 Y-2.69500
G01 X5.54065 Y-2.69645
G01 X5.54013 Y-2.69840
G01 X5.54000 Y-2.70000
G01 X5.54000 Y-3.14000
G01 X5.46000 Y-3.14000
G01 Z-0.08000 F0.02000 ( plunge. )
G04 P0 ( dwell for no time -- G64 should not smooth over this point )
G01 F0.04000
G01 X5.46000 Y-2.61000
G01 X5.89000 Y-2.61000
G01 X5.89000 Y-2.69000
G01 X5.55000 Y-2.69000
G01 X5.54761 Y-2.69029
G01 X5.54571 Y-2.69096
G01 X5.54368 Y-2.69225
G01 X5.54225 Y-2.69367
G01 X5.54134 Y-2.69500
G01 X5.54065 Y-2.69645
G01 X5.54013 Y-2.69840
G01 X5.54000 Y-2.70000
G01 X5.54000 Y-3.14000
G01 X5.46000 Y-3.14000
G04 P0 ( dwell for no time -- G64 should not smooth over this point )
G00 Z0.05000 ( retract )

G00 X5.58052 Y-3.35107 ( rapid move to begin. )
G01 Z-0.04000 F0.02000 ( plunge. )
G04 P0 ( dwell for no time -- G64 should not smooth over this point )
G01 F0.04000
G01 X5.58054 Y-3.34867
G01 X5.58085 Y-3.34629
G01 X5.58145 Y-3.34394
G01 X5.58220 Y-3.34201
G01 X5.58333 Y-3.33986
G01 X5.58470 Y-3.33790
G01 X5.58630 Y-3.33611
G01 X5.58813 Y-3.33451
G01 X5.58983 Y-3.33335
G01 X5.59201 Y-3.33220
G01 X5.59394 Y-3.33145
G01 X5.59629 Y-3.33085
G01 X5.59864 Y-3.33054
G01 X5.77048 Y-3.33047
G01 X5.77248 Y-3.33027
G01 X5.77439 Y-3.32967
G01 X5.77616 Y-3.32870
G01 X5.77740 Y-3.32768
G01 X5.77870 Y-3.32615
G01 X5.77967 Y-3.32439
G01 X5.78027 Y-3.32247
G01 X5.78047 Y-3.32047
G01 X5.78047 Y-3.15037
G01 X5.78073 Y-3.14691
G01 X5.78153 Y-3.14368
G01 X5.78292 Y-3.14055
G01 X5.78505 Y-3.13745
G01 X5.78748 Y-3.13503
G01 X5.79055 Y-3.13292
G01 X5.79368 Y-3.13153
G01 X5.79708 Y-3.13070
G01 X5.80057 Y-3.13049
G01 X5.80400 Y-3.13090
G01 X5.80732 Y-3.13191
G01 X5.81037 Y-3.13347
G01 X5.81310 Y-3.13553
G01 X5.81545 Y-3.13807
G01 X5.81733 Y-3.14102
G01 X5.81865 Y-3.14425
G01 X5.81936 Y-3.14754
G01 X5.81953 Y-3.15031
G01 X5.81954 Y-3.35040
G01 X5.81992 Y-3.35278
G01 X5.82108 Y-3.35534
G01 X5.82260 Y-3.35721
G01 X5.82488 Y-3.35885
G01 X5.82713 Y-3.35971
G01 X5.82953 Y-3.36000
G01 X6.24000 Y-3.36000
G01 X6.24000 Y-3.74000
G01 X5.81000 Y-3.74000
G01 X5.81000 Y-3.37953
G01 X5.80961 Y-3.37675
G01 X5.80866 Y-3.37453
G01 X5.80721 Y-3.37260
G01 X5.80500 Y-3.37087
G01 X5.80278 Y-3.36992
G01 X5.80040 Y-3.36953
G01 X5.59814 Y-3.36943
G01 X5.59636 Y-3.36917
G01 X5.59394 Y-3.36855
G01 X5.59201 Y-3.36780
G01 X5.58986 Y-3.36667
G01 X5.58790 Y-3.36530
G01 X5.58611 Y-3.36370
G01 X5.58454 Y-3.36189
G01 X5.58319 Y-3.35991
G01 X5.58211 Y-3.35777
G01 X5.58128 Y-3.35549
G01 X5.58080 Y-3.35348
G01 X5.58052 Y-3.35107
G01 Z-0.08000 F0.02000 ( plunge. )
G04 P0 ( dwell for no time -- G64 should not smooth over this point )
G01 F0.04000
G01 X5.58054 Y-3.34867
G01 X5.58085 Y-3.34629
G01 X5.58145 Y-3.34394
G01 X5.58220 Y-3.34201
G01 X5.58333 Y-3.33986
G01 X5.58470 Y-3.33790
G01 X5.58630 Y-3.33611
G01 X5.58813 Y-3.33451
G01 X5.58983 Y-3.33335
G01 X5.59201 Y-3.33220
G01 X5.59394 Y-3.33145
G01 X5.59629 Y-3.33085
G01 X5.59864 Y-3.33054
G01 X5.77048 Y-3.33047
G01 X5.77248 Y-3.33027
G01 X5.77439 Y-3.32967
G01 X5.77616 Y-3.32870
G01 X5.77740 Y-3.32768
G01 X5.77870 Y-3.32615
G01 X5.77967 Y-3.32439
G01 X5.78027 Y-3.32247
G01 X5.78047 Y-3.32047
G01 X5.78047 Y-3.15037
G01 X5.78073 Y-3.14691
G01 X5.78153 Y-3.14368
G01 X5.78292 Y-3.14055
G01 X5.78505 Y-3.13745
G01 X5.78748 Y-3.13503
G01 X5.79055 Y-3.13292
G01 X5.79368 Y-3.13153
G01 X5.79708 Y-3.13070
G01 X5.80057 Y-3.13049
G01 X5.80400 Y-3.13090
G01 X5.80732 Y-3.13191
G01 X5.81037 Y-3.13347
G01 X5.81310 Y-3.13553
G01 X5.81545 Y-3.13807
G01 X5.81733 Y-3.14102
G01 X5.81865 Y-3.14425
G01 X5.81936 Y-3.14754
G01 X5.81953 Y-3.15031
G01 X5.81954 Y-3.35040
G01 X5.81992 Y-3.35278
G01 X5.82108 Y-3.35534
G01 X5.82260 Y-3.35721
G01 X5.82488 Y-3.35885
G01 X5.82713 Y-3.35971
G01 X5.82953 Y-3.36000
G01 X6.24000 Y-3.36000
G01 X6.24000 Y-3.74000
G01 X5.81000 Y-3.74000
G01 X5.81000 Y-3.37953
G01 X5.80961 Y-3.37675
G01 X5.80866 Y-3.37453
G01 X5.80721 Y-3.37260
G01 X5.80500 Y-3.37087
G01 X5.80278 Y-3.36992
G01 X5.80040 Y-3.36953
G01 X5.59814 Y-3.36943
G01 X5.59636 Y-3.36917
G01 X5.59394 Y-3.36855
G01 X5.59201 Y-3.36780
G01 X5.58986 Y-3.36667
G01 X5.58790 Y-3.36530
G01 X5.58611 Y-3.36370
G01 X5.58454 Y-3.36189
G01 X5.58319 Y-3.35991
G01 X5.58211 Y-3.35777
G01 X5.58128 Y-3.35549
G01 X5.58080 Y-3.35348
G01 X5.58052 Y-3.35107
G04 P0 ( dwell for no time -- G64 should not smooth over this point )
G00 Z0.05000 ( retract )

G00 X4.99000 Y-4.50000 ( rapid move to begin. )
G01 Z-0.04000 F0.02000 ( plunge. )
G04 P0 ( dwell for no time -- G64 should not smooth over this point )
G01 F0.04000
G01 X4.99000 Y-2.50000
G01 X4.99013 Y-2.49839
G01 X4.99051 Y-2.49683
G01 X4.99115 Y-2.49535
G01 X4.99200 Y-2.49399
G01 X4.99337 Y-2.49251
G01 X4.99535 Y-2.49114
G01 X4.99761 Y-2.49029
G01 X5.00000 Y-2.49000
G01 X6.50000 Y-2.49000
G01 X6.50160 Y-2.49013
G01 X6.50317 Y-2.49051
G01 X6.50465 Y-2.49114
G01 X6.50601 Y-2.49200
G01 X6.50748 Y-2.49337
G01 X6.50885 Y-2.49535
G01 X6.50971 Y-2.49761
G01 X6.51000 Y-2.50000
G01 X6.51000 Y-3.18501
G01 X6.50987 Y-3.18660
G01 X6.50936 Y-3.18853
G01 X6.50868 Y-3.18998
G01 X6.50778 Y-3.19129
G01 X6.50638 Y-3.19271
G01 X6.50507 Y-3.19363
G01 X6.49637 Y-3.19875
G01 X6.48825 Y-3.20390
G01 X6.48034 Y-3.20929
G01 X6.47230 Y-3.21516
G01 X6.46474 Y-3.22108
G01 X6.45737 Y-3.22724
G01 X6.45025 Y-3.23360
G01 X6.44302 Y-3.24050
G01 X6.43636 Y-3.24730
G01 X6.42985 Y-3.25440
G01 X6.42359 Y-3.26167
G01 X6.41736 Y-3.26943
G01 X6.41136 Y-3.27743
G01 X6.40569 Y-3.28557
G01 X6.40064 Y-3.29332
G01 X6.39569 Y-3.30149
G01 X6.39118 Y-3.30949
G01 X6.38659 Y-3.31831
G01 X6.38229 Y-3.32729
G01 X6.37842 Y-3.33612
G01 X6.37473 Y-3.34532
G01 X6.37146 Y-3.35437
G01 X6.36850 Y-3.36348
G01 X6.36574 Y-3.37304
G01 X6.36329 Y-3.38271
G01 X6.36125 Y-3.39208
G01 X6.35946 Y-3.40190
G01 X6.35805 Y-3.41137
G01 X6.35694 Y-3.42093
G01 X6.35613 Y-3.43081
G01 X6.35566 Y-3.44038
G01 X6.35551 Y-3.44936
G01 X6.35566 Y-3.45171
G01 X6.35612 Y-3.45363
G01 X6.35673 Y-3.45514
G01 X6.35778 Y-3.45687
G01 X6.35883 Y-3.45811
G01 X6.36033 Y-3.45940
G01 X6.36202 Y-3.46042
G01 X6.36352 Y-3.46104
G01 X6.36549 Y-3.46150
G01 X6.36716 Y-3.46163
G01 X6.36882 Y-3.46150
G01 X6.37079 Y-3.46104
G01 X6.37230 Y-3.46042
G01 X6.37403 Y-3.45938
G01 X6.37527 Y-3.45833
G01 X6.37662 Y-3.45676
G01 X6.37791 Y-3.45445
G01 X6.37842 Y-3.45293
G01 X6.37880 Y-3.45026
G01 X6.37894 Y-3.44180
G01 X6.37932 Y-3.43340
G01 X6.37987 Y-3.42602
G01 X6.38074 Y-3.41773
G01 X6.38187 Y-3.40936
G01 X6.38327 Y-3.40102
G01 X6.38500 Y-3.39240
G01 X6.38675 Y-3.38488
G01 X6.38869 Y-3.37745
G01 X6.39097 Y-3.36972
G01 X6.39343 Y-3.36217
G01 X6.39855 Y-3.34842
G01 X6.40180 Y-3.34072
G01 X6.40514 Y-3.33343
G01 X6.41180 Y-3.32037
G01 X6.41593 Y-3.31304
G01 X6.42032 Y-3.30581
G01 X6.42507 Y-3.29850
G01 X6.43014 Y-3.29124
G01 X6.43498 Y-3.28475
G01 X6.44023 Y-3.27813
G01 X6.44542 Y-3.27198
G01 X6.45099 Y-3.26577
G01 X6.45660 Y-3.25989
G01 X6.46255 Y-3.25403
G01 X6.46874 Y-3.24829
G01 X6.47457 Y-3.24319
G01 X6.48103 Y-3.23789
G01 X6.48741 Y-3.23296
G01 X6.49514 Y-3.22744
G01 X6.49774 Y-3.22643
G01 X6.50052 Y-3.22619
G01 X6.50326 Y-3.22672
G01 X6.50574 Y-3.22799
G01 X6.50752 Y-3.22959
G01 X6.50887 Y-3.23156
G01 X6.50971 Y-3.23380
G01 X6.51000 Y-3.23618
G01 X6.51000 Y-4.50000
G01 X6.50987 Y-4.50160
G01 X6.50948 Y-4.50317
G01 X6.50885 Y-4.50465
G01 X6.50799 Y-4.50601
G01 X6.50663 Y-4.50748
G01 X6.50465 Y-4.50885
G01 X6.50239 Y-4.50971
G01 X6.50000 Y-4.51000
G01 X5.00000 Y-4.51000
G01 X4.99840 Y-4.50987
G01 X4.99645 Y-4.50935
G01 X4.99465 Y-4.50845
G01 X4.99307 Y-4.50721
G01 X4.99177 Y-4.50568
G01 X4.99080 Y-4.50392
G01 X4.99020 Y-4.50200
G01 X4.99000 Y-4.50000
G01 Z-0.08000 F0.02000 ( plunge. )
G04 P0 ( dwell for no time -- G64 should not smooth over this point )
G01 F0.04000
G01 X4.99000 Y-2.50000
G01 X4.99013 Y-2.49839
G01 X4.99051 Y-2.49683
G01 X4.99115 Y-2.49535
G01 X4.99200 Y-2.49399
G01 X4.99337 Y-2.49251
G01 X4.99535 Y-2.49114
G01 X4.99761 Y-2.49029
G01 X5.00000 Y-2.49000
G01 X6.50000 Y-2.49000
G01 X6.50160 Y-2.49013
G01 X6.50317 Y-2.49051
G01 X6.50465 Y-2.49114
G01 X6.50601 Y-2.49200
G01 X6.50748 Y-2.49337
G01 X6.50885 Y-2.49535
G01 X6.50971 Y-2.49761
G01 X6.51000 Y-2.50000
G01 X6.51000 Y-3.18501
G01 X6.50987 Y-3.18660
G01 X6.50936 Y-3.18853
G01 X6.50868 Y-3.18998
G01 X6.50778 Y-3.19129
G01 X6.50638 Y-3.19271
G01 X6.50507 Y-3.19363
G01 X6.49637 Y-3.19875
G01 X6.48825 Y-3.20390
G01 X6.48034 Y-3.20929
G01 X6.47230 Y-3.21516
G01 X6.46474 Y-3.22108
G01 X6.45737 Y-3.22724
G01 X6.45025 Y-3.23360
G01 X6.44302 Y-3.24050
G01 X6.43636 Y-3.24730
G01 X6.42985 Y-3.25440
G01 X6.42359 Y-3.26167
G01 X6.41736 Y-3.26943
G01 X6.41136 Y-3.27743
G01 X6.40569 Y-3.28557
G01 X6.40064 Y-3.29332
G01 X6.39569 Y-3.30149
G01 X6.39118 Y-3.30949
G01 X6.38659 Y-3.31831
G01 X6.38229 Y-3.32729
G01 X6.37842 Y-3.33612
G01 X6.37473 Y-3.34532
G01 X6.37146 Y-3.35437
G01 X6.36850 Y-3.36348
G01 X6.36574 Y-3.37304
G01 X6.36329 Y-3.38271
G01 X6.36125 Y-3.39208
G01 X6.35946 Y-3.40190
G01 X6.35805 Y-3.41137
G01 X6.35694 Y-3.42093
G01 X6.35613 Y-3.43081
G01 X6.35566 Y-3.44038
G01 X6.35551 Y-3.44936
G01 X6.35566 Y-3.45171
G01 X6.35612 Y-3.45363
G01 X6.35673 Y-3.45514
G01 X6.35778 Y-3.45687
G01 X6.35883 Y-3.45811
G01 X6.36033 Y-3.45940
G01 X6.36202 Y-3.46042
G01 X6.36352 Y-3.46104
G01 X6.36549 Y-3.46150
G01 X6.36716 Y-3.46163
G01 X6.36882 Y-3.46150
G01 X6.37079 Y-3.46104
G01 X6.37230 Y-3.46042
G01 X6.37403 Y-3.45938
G01 X6.37527 Y-3.45833
G01 X6.37662 Y-3.45676
G01 X6.37791 Y-3.45445
G01 X6.37842 Y-3.45293
G01 X6.37880 Y-3.45026
G01 X6.37894 Y-3.44180
G01 X6.37932 Y-3.43340
G01 X6.37987 Y-3.42602
G01 X6.38074 Y-3.41773
G01 X6.38187 Y-3.40936
G01 X6.38327 Y-3.40102
G01 X6.38500 Y-3.39240
G01 X6.38675 Y-3.38488
G01 X6.38869 Y-3.37745
G01 X6.39097 Y-3.36972
G01 X6.39343 Y-3.36217
G01 X6.39855 Y-3.34842
G01 X6.40180 Y-3.34072
G01 X6.40514 Y-3.33343
G01 X6.41180 Y-3.32037
G01 X6.41593 Y-3.31304
G01 X6.42032 Y-3.30581
G01 X6.42507 Y-3.29850
G01 X6.43014 Y-3.29124
G01 X6.43498 Y-3.28475
G01 X6.44023 Y-3.27813
G01 X6.44542 Y-3.27198
G01 X6.45099 Y-3.26577
G01 X6.45660 Y-3.25989
G01 X6.46255 Y-3.25403
G01 X6.46874 Y-3.24829
G01 X6.47457 Y-3.24319
G01 X6.48103 Y-3.23789
G01 X6.48741 Y-3.23296
G01 X6.49514 Y-3.22744
G01 X6.49774 Y-3.22643
G01 X6.50052 Y-3.22619
G01 X6.50326 Y-3.22672
G01 X6.50574 Y-3.22799
G01 X6.50752 Y-3.22959
G01 X6.50887 Y-3.23156
G01 X6.50971 Y-3.23380
G01 X6.51000 Y-3.23618
G01 X6.51000 Y-4.50000
G01 X6.50987 Y-4.50160
G01 X6.50948 Y-4.50317
G01 X6.50885 Y-4.50465
G01 X6.50799 Y-4.50601
G01 X6.50663 Y-4.50748
G01 X6.50465 Y-4.50885
G01 X6.50239 Y-4.50971
G01 X6.50000 Y-4.51000
G01 X5.00000 Y-4.51000
G01 X4.99840 Y-4.50987
G01 X4.99645 Y-4.50935
G01 X4.99465 Y-4.50845
G01 X4.99307 Y-4.50721
G01 X4.99177 Y-4.50568
G01 X4.99080 Y-4.50392
G01 X4.99020 Y-4.50200
G01 X4.99000 Y-4.50000

G04 P0 ( dwell for no time -- G64 should not smooth over this point )
G00 Z1.600000 ( retract )

M5 ( Spindle off. )
G04 P1.000000
M9 ( Coolant off. )
M2 ( Program end. )

