( pcb2gcode 3.0.3 )
( Software-independent Gcode )

G94 ( Millimeters per minute feed rate. )
G21 ( Units == Millimeters. )

G90 ( Absolute coordinates. )
G00 S1000 ( RPM spindle speed. )
G64 P0.01016 ( set maximum deviation from commanded toolpath )
G01 F30.00000 ( Feedrate. )


G00 Z10.00000 (Retract to tool change height)
T1
M5      (Spindle stop.)
G04 P5.00000 (Wait for spindle to stop)
(MSG, Change tool bit to mill diameter 1.00000mm)
M6      (Tool change.)
M0      (Temporary machine stop.)
M3 ( Spindle on clockwise. )
G04 P3.00000 (Wait for spindle to get up to speed)
G04 P0 ( dwell for no time -- G64 should not smooth over this point )
G00 Z1.00000 ( retract )

G00 X-48.38299 Y0.00000 ( rapid move to begin. )
G01 F20.00000
( Mill infeed pass 1/1 )
G01 Z-0.30000
G04 P0 ( dwell for no time -- G64 should not smooth over this point )
G01 F30.00000
G01 X-48.38299 Y0.00000
G01 X-48.16955 Y0.05156
G01 X-47.94397 Y0.11948
G01 X-47.70374 Y0.20800
G01 X-47.50582 Y0.29228
G01 X-47.29462 Y0.39662
G01 X-47.08098 Y0.51783
G01 X-46.90006 Y0.63218
G01 X-46.72551 Y0.75606
G01 X-46.60504 Y0.85016
G01 X-46.48030 Y0.95466
G01 X-46.29501 Y1.12438
G01 X-44.56661 Y2.85524
G01 X-44.45020 Y2.98458
G01 X-44.33278 Y3.12659
G01 X-44.23298 Y3.25653
G01 X-44.14431 Y3.38206
G01 X-44.04975 Y3.52829
G01 X-43.95086 Y3.69585
G01 X-43.87286 Y3.84000
G01 X-43.80951 Y3.96867
G01 X-43.73885 Y4.12780
G01 X-43.67113 Y4.29847
G01 X-43.61713 Y4.45107
G01 X-43.57213 Y4.59600
G01 X-43.53024 Y4.75237
G01 X-43.48668 Y4.94187
G01 X-43.45526 Y5.11317
G01 X-43.43253 Y5.27548
G01 X-43.40791 Y5.54906
G01 X-43.40009 Y5.77990
G01 X-43.40004 Y16.17772
G01 X-43.43758 Y16.19313
G01 X-43.40004 Y16.17772
G01 X-43.07296 Y16.50495
G01 X-42.96801 Y16.61566
G01 X-42.84774 Y16.75369
G01 X-42.70825 Y16.92907
G01 X-42.60581 Y17.06837
G01 X-42.51498 Y17.20339
G01 X-42.42458 Y17.35079
G01 X-42.33591 Y17.51094
G01 X-42.26331 Y17.65658
G01 X-42.17523 Y17.85107
G01 X-42.11424 Y18.00101
G01 X-42.05613 Y18.16288
G01 X-42.00784 Y18.31739
G01 X-41.96585 Y18.47372
G01 X-41.91272 Y18.71266
G01 X-41.87556 Y18.93491
G01 X-41.85100 Y19.15892
G01 X-41.83659 Y19.41251
G01 X-41.83510 Y22.37047
G01 X-41.83883 Y22.52408
G01 X-41.84764 Y22.66721
G01 X-41.88376 Y22.99221
G01 X-41.90705 Y23.13315
G01 X-41.93535 Y23.27318
G01 X-41.97119 Y23.42200
G01 X-42.00977 Y23.55954
G01 X-42.11320 Y23.86825
G01 X-42.22092 Y24.13020
G01 X-42.28168 Y24.25814
G01 X-42.35176 Y24.39276
G01 X-42.51739 Y24.67374
G01 X-42.60248 Y24.80168
G01 X-42.68630 Y24.91806
G01 X-42.82590 Y25.09492
G01 X-42.93939 Y25.22698
G01 X-43.07289 Y25.36861
G01 X-43.21312 Y25.50353
G01 X-43.36636 Y25.63945
G01 X-43.52592 Y25.76792
G01 X-43.68343 Y25.88224
G01 X-43.87947 Y26.01057
G01 X-44.04520 Y26.10792
G01 X-44.21541 Y26.19723
G01 X-44.40944 Y26.28824
G01 X-44.58934 Y26.36251
G01 X-44.77266 Y26.42791
G01 X-44.97809 Y26.49060
G01 X-45.16557 Y26.53911
G01 X-45.36303 Y26.57993
G01 X-45.12313 Y27.04201
G01 X-44.86377 Y26.97785
G01 X-44.58203 Y26.89139
G01 X-44.34368 Y26.80310
G01 X-44.11066 Y26.70152
G01 X-43.86331 Y26.57823
G01 X-43.63237 Y26.44562
G01 X-43.38460 Y26.28346
G01 X-43.17210 Y26.12624
G01 X-42.96918 Y25.95679
G01 X-42.73860 Y25.74145
G01 X-42.55696 Y25.54940
G01 X-42.38008 Y25.33909
G01 X-42.22666 Y25.13642
G01 X-42.07952 Y24.91682
G01 X-41.92971 Y24.66289
G01 X-41.80429 Y24.41984
G01 X-41.71709 Y24.22581
G01 X-41.63916 Y24.02784
G01 X-41.55694 Y23.78725
G01 X-41.49636 Y23.58199
G01 X-41.44780 Y23.38405
G01 X-41.40650 Y23.17405
G01 X-41.37523 Y22.96234
G01 X-41.35189 Y22.73877
G01 X-41.33926 Y22.54456
G01 X-41.33507 Y22.36023
G01 X-41.33510 Y19.50331
G01 X-41.33883 Y19.33946
G01 X-41.34904 Y19.16572
G01 X-41.37035 Y18.94304
G01 X-41.40619 Y18.70166
G01 X-41.46174 Y18.43255
G01 X-41.51394 Y18.22630
G01 X-41.58221 Y18.00352
G01 X-41.66192 Y17.78460
G01 X-41.74452 Y17.58853
G01 X-41.85689 Y17.34932
G01 X-41.97198 Y17.13474
G01 X-42.09849 Y16.92666
G01 X-42.24205 Y16.71754
G01 X-42.39052 Y16.52387
G01 X-42.49994 Y16.39054
G01 X-42.61442 Y16.26149
G01 X-42.90007 Y15.97061
G01 X-42.93629 Y15.98521
G01 X-42.90007 Y15.97061
G01 X-42.90047 Y5.73933
G01 X-42.90555 Y5.57766
G01 X-42.91559 Y5.42635
G01 X-42.93400 Y5.23380
G01 X-42.95709 Y5.06247
G01 X-42.98292 Y4.91216
G01 X-43.01381 Y4.76278
G01 X-43.05701 Y4.58419
G01 X-43.09796 Y4.43608
G01 X-43.17393 Y4.20230
G01 X-43.27340 Y3.94492
G01 X-43.37309 Y3.72219
G01 X-43.48470 Y3.50517
G01 X-43.62839 Y3.25902
G01 X-43.76237 Y3.05509
G01 X-43.91348 Y2.85069
G01 X-44.08899 Y2.63794
G01 X-44.29133 Y2.42077
G01 X-45.92000 Y0.79190
G01 X-46.05939 Y0.65951
G01 X-46.29026 Y0.46170
G01 X-46.49902 Y0.30206
G01 X-46.72528 Y0.14948
G01 X-46.97758 Y0.00000
G01 X-46.06793 Y0.00000
G01 X-45.82025 Y0.20338
G01 X-45.59551 Y0.40975
G01 X-43.93776 Y2.06726
G01 X-43.74144 Y2.27604
G01 X-43.62168 Y2.41607
G01 X-43.48864 Y2.58262
G01 X-43.37464 Y2.73721
G01 X-43.27220 Y2.88757
G01 X-43.17007 Y3.05026
G01 X-43.05823 Y3.24312
G01 X-42.96819 Y3.41285
G01 X-42.88475 Y3.58584
G01 X-42.80802 Y3.76189
G01 X-42.72986 Y3.96062
G01 X-42.66885 Y4.13367
G01 X-42.61424 Y4.30881
G01 X-42.56362 Y4.49572
G01 X-42.51292 Y4.71305
G01 X-42.47675 Y4.90169
G01 X-42.44785 Y5.09156
G01 X-42.42918 Y5.25221
G01 X-42.41201 Y5.45473
G01 X-42.40342 Y5.61708
G01 X-42.40007 Y5.78980
G01 X-42.40007 Y15.76352
G01 X-42.43497 Y15.77729
G01 X-42.40007 Y15.76352
G01 X-42.20616 Y15.96723
G01 X-42.02255 Y16.18331
G01 X-41.87294 Y16.37571
G01 X-41.75503 Y16.54040
G01 X-41.63317 Y16.72692
G01 X-41.52468 Y16.90985
G01 X-41.43797 Y17.07022
G01 X-41.35285 Y17.24279
G01 X-41.25669 Y17.45582
G01 X-41.17665 Y17.65318
G01 X-41.11153 Y17.83456
G01 X-41.05059 Y18.02803
G01 X-41.00002 Y18.21396
G01 X-40.95610 Y18.40200
G01 X-40.90942 Y18.64004
G01 X-40.87312 Y18.89013
G01 X-40.85021 Y19.13166
G01 X-40.83629 Y19.41332
G01 X-40.83517 Y22.38070
G01 X-40.84163 Y22.60597
G01 X-40.85824 Y22.83071
G01 X-40.88026 Y23.03361
G01 X-40.90317 Y23.19487
G01 X-40.93522 Y23.37532
G01 X-40.97152 Y23.54453
G01 X-41.01368 Y23.71240
G01 X-41.06461 Y23.88845
G01 X-41.13472 Y24.10132
G01 X-41.18986 Y24.25395
G01 X-41.25384 Y24.41405
G01 X-41.32331 Y24.57186
G01 X-41.39819 Y24.72718
G01 X-41.47835 Y24.87981
G01 X-41.58437 Y25.06497
G01 X-41.66885 Y25.20290
G01 X-41.76916 Y25.35471
G01 X-41.87492 Y25.50277
G01 X-42.00502 Y25.67051
G01 X-42.16128 Y25.85674
G01 X-42.31183 Y26.02045
G01 X-42.46951 Y26.17727
G01 X-42.65676 Y26.34790
G01 X-42.82717 Y26.49078
G01 X-43.01193 Y26.63190
G01 X-43.19460 Y26.75872
G01 X-43.38353 Y26.87952
G01 X-43.59539 Y27.00177
G01 X-43.79465 Y27.10464
G01 X-44.02470 Y27.21145
G01 X-44.22102 Y27.29222
G01 X-44.43974 Y27.37104
G01 X-44.68198 Y27.44594
G01 X-44.88523 Y27.50025
G01 X-44.64761 Y27.95542
G01 X-44.34388 Y27.86576
G01 X-44.06527 Y27.76799
G01 X-43.80164 Y27.65956
G01 X-43.50733 Y27.52019
G01 X-43.24825 Y27.38044
G01 X-42.99702 Y27.22702
G01 X-42.74424 Y27.05537
G01 X-42.48541 Y26.85748
G01 X-42.23093 Y26.63777
G01 X-42.00995 Y26.42692
G01 X-41.80101 Y26.20414
G01 X-41.60434 Y25.97015
G01 X-41.42552 Y25.73518
G01 X-41.25958 Y25.49098
G01 X-41.09131 Y25.21191
G01 X-40.95191 Y24.95263
G01 X-40.84302 Y24.72339
G01 X-40.74483 Y24.48941
G01 X-40.66410 Y24.27031
G01 X-40.56985 Y23.97981
G01 X-40.50543 Y23.74435
G01 X-40.45151 Y23.50625
G01 X-40.40665 Y23.25594
G01 X-40.37449 Y23.01392
G01 X-40.34676 Y22.70826
G01 X-40.33543 Y22.41144
G01 X-40.33667 Y19.39183
G01 X-40.35069 Y19.10763
G01 X-40.37394 Y18.85414
G01 X-40.40889 Y18.60202
G01 X-40.45755 Y18.34182
G01 X-40.51963 Y18.07423
G01 X-40.59095 Y17.82013
G01 X-40.67439 Y17.56974
G01 X-40.77363 Y17.31427
G01 X-40.90218 Y17.02620
G01 X-41.01597 Y16.79826
G01 X-41.15577 Y16.54955
G01 X-41.29697 Y16.32537
G01 X-41.48534 Y16.05920
G01 X-41.71920 Y15.76509
G01 X-41.90007 Y15.56118
G01 X-41.93189 Y15.57310
G01 X-41.90007 Y15.56118
G01 X-41.90068 Y5.71833
G01 X-41.90599 Y5.54490
G01 X-41.91599 Y5.38190
G01 X-41.93304 Y5.18881
G01 X-41.95338 Y5.01691
G01 X-41.97911 Y4.84574
G01 X-42.00825 Y4.68546
G01 X-42.04439 Y4.51617
G01 X-42.08777 Y4.33812
G01 X-42.15968 Y4.08417
G01 X-42.24716 Y3.82443
G01 X-42.35475 Y3.54970
G01 X-42.46710 Y3.29875
G01 X-42.59669 Y3.04488
G01 X-42.73870 Y2.79740
G01 X-42.88031 Y2.57376
G01 X-43.03253 Y2.35717
G01 X-43.14393 Y2.21163
G01 X-43.27312 Y2.05331
G01 X-43.39412 Y1.91437
G01 X-43.51970 Y1.77955
G01 X-45.30026 Y0.00000
G01 X-44.59061 Y0.00000
G01 X-43.15897 Y1.43335
G01 X-42.94500 Y1.66764
G01 X-42.73743 Y1.91966
G01 X-42.61495 Y2.08105
G01 X-42.50367 Y2.23815
G01 X-42.39753 Y2.39870
G01 X-42.29656 Y2.56261
G01 X-42.18983 Y2.74721
G01 X-42.09410 Y2.92580
G01 X-41.99580 Y3.12585
G01 X-41.91297 Y3.31071
G01 X-41.82877 Y3.51754
G01 X-41.76141 Y3.69761
G01 X-41.69679 Y3.88935
G01 X-41.64145 Y4.07342
G01 X-41.58955 Y4.26900
G01 X-41.53880 Y4.48643
G01 X-41.49951 Y4.68521
G01 X-41.46842 Y4.87517
G01 X-41.43898 Y5.10631
G01 X-41.41701 Y5.34965
G01 X-41.40431 Y5.57466
G01 X-41.40012 Y5.77949
G01 X-41.40010 Y15.36918
G01 X-41.42852 Y15.37919
G01 X-41.40010 Y15.36918
G01 X-41.35171 Y15.42537
G01 X-41.13548 Y15.69357
G01 X-40.96647 Y15.92278
G01 X-40.84142 Y16.10832
G01 X-40.72860 Y16.28968
G01 X-40.61739 Y16.48386
G01 X-40.51808 Y16.67294
G01 X-40.42981 Y16.85620
G01 X-40.32616 Y17.08859
G01 X-40.24630 Y17.28640
G01 X-40.17683 Y17.47733
G01 X-40.11386 Y17.67053
G01 X-40.05483 Y17.87553
G01 X-40.00774 Y18.06270
G01 X-39.95550 Y18.30085
G01 X-39.90772 Y18.57017
G01 X-39.87228 Y18.84139
G01 X-39.84706 Y19.14502
G01 X-39.83596 Y19.42137
G01 X-39.83540 Y22.41144
G01 X-39.84772 Y22.73899
G01 X-39.87823 Y23.07514
G01 X-39.90564 Y23.28685
G01 X-39.93871 Y23.48743
G01 X-39.97642 Y23.67686
G01 X-40.02268 Y23.87483
G01 X-40.07561 Y24.07115
G01 X-40.13203 Y24.25586
G01 X-40.21031 Y24.48728
G01 X-40.28156 Y24.67755
G01 X-40.35516 Y24.85598
G01 X-40.43449 Y25.03195
G01 X-40.52405 Y25.21433
G01 X-40.61973 Y25.39357
G01 X-40.73675 Y25.59606
G01 X-40.83253 Y25.75126
G01 X-40.93868 Y25.91178
G01 X-41.06194 Y26.08524
G01 X-41.20391 Y26.27000
G01 X-41.38541 Y26.48854
G01 X-41.56243 Y26.68359
G01 X-41.73329 Y26.85659
G01 X-41.94145 Y27.05001
G01 X-42.12549 Y27.20891
G01 X-42.32387 Y27.36634
G01 X-42.52872 Y27.51529
G01 X-42.74823 Y27.66151
G01 X-42.96395 Y27.79357
G01 X-43.17609 Y27.91168
G01 X-43.40197 Y28.02547
G01 X-43.64180 Y28.13535
G01 X-43.87629 Y28.23103
G01 X-44.12424 Y28.31993
G01 X-44.39100 Y28.40271
G01 X-44.13540 Y28.84823
G01 X-43.88350 Y28.76606
G01 X-43.62567 Y28.66992
G01 X-43.37215 Y28.56296
G01 X-43.11371 Y28.44132
G01 X-42.88714 Y28.32405
G01 X-42.66537 Y28.19796
G01 X-42.44871 Y28.06329
G01 X-42.20350 Y27.89791
G01 X-41.99024 Y27.74066
G01 X-41.77576 Y27.56830
G01 X-41.55341 Y27.37330
G01 X-41.36791 Y27.19865
G01 X-41.19641 Y27.02425
G01 X-41.01818 Y26.82819
G01 X-40.83502 Y26.60914
G01 X-40.67876 Y26.40790
G01 X-40.51902 Y26.18387
G01 X-40.37427 Y25.96190
G01 X-40.22303 Y25.70795
G01 X-40.09641 Y25.47595
G01 X-39.97935 Y25.23901
G01 X-39.86807 Y24.98811
G01 X-39.77102 Y24.74229
G01 X-39.68041 Y24.48281
G01 X-39.60416 Y24.24054
G01 X-39.53500 Y23.98563
G01 X-39.47828 Y23.73805
G01 X-39.42961 Y23.47841
G01 X-39.39154 Y23.21705
G01 X-39.36040 Y22.92292
G01 X-39.34236 Y22.65718
G01 X-39.33530 Y22.40120
G01 X-39.33513 Y19.50362
G01 X-39.33924 Y19.29181
G01 X-39.35750 Y18.97840
G01 X-39.38714 Y18.68434
G01 X-39.43182 Y18.38190
G01 X-39.49070 Y18.08190
G01 X-39.53901 Y17.87355
G01 X-39.59088 Y17.67695
G01 X-39.65499 Y17.46270
G01 X-39.72303 Y17.26037
G01 X-39.79029 Y17.07932
G01 X-39.86687 Y16.89097
G01 X-39.97041 Y16.65849
G01 X-40.05793 Y16.47523
G01 X-40.15595 Y16.28585
G01 X-40.26525 Y16.09103
G01 X-40.38117 Y15.90004
G01 X-40.49789 Y15.72158
G01 X-40.67465 Y15.47350
G01 X-40.88173 Y15.20855
G01 X-40.90010 Y15.18610
G01 X-40.92661 Y15.19509
G01 X-40.90010 Y15.18610
G01 X-40.90038 Y5.73943
G01 X-40.91140 Y5.41683
G01 X-40.93865 Y5.08317
G01 X-40.97863 Y4.76979
G01 X-41.03380 Y4.45874
G01 X-41.10876 Y4.13065
G01 X-41.19006 Y3.83553
G01 X-41.28859 Y3.53494
G01 X-41.40505 Y3.22984
G01 X-41.52651 Y2.94927
G01 X-41.66103 Y2.67475
G01 X-41.79811 Y2.42446
G01 X-41.97734 Y2.12771
G01 X-42.12450 Y1.90736
G01 X-42.28671 Y1.68509
G01 X-42.46463 Y1.46154
G01 X-42.63807 Y1.25966
G01 X-42.86260 Y1.02123
G01 X-43.88358 Y0.00000
G01 X-43.17655 Y0.00000
G01 X-42.50223 Y0.67457
G01 X-42.31450 Y0.87206
G01 X-42.18046 Y1.02296
G01 X-42.05722 Y1.16987
G01 X-41.91780 Y1.34460
G01 X-41.79001 Y1.51511
G01 X-41.66748 Y1.68946
G01 X-41.55031 Y1.86743
G01 X-41.44381 Y2.04018
G01 X-41.31653 Y2.26009
G01 X-41.21086 Y2.45674
G01 X-41.12029 Y2.63835
G01 X-41.03502 Y2.82252
G01 X-40.95128 Y3.01846
G01 X-40.86558 Y3.23619
G01 X-40.79649 Y3.42750
G01 X-40.72994 Y3.63047
G01 X-40.66964 Y3.83537
G01 X-40.61803 Y4.03215
G01 X-40.56471 Y4.25978
G01 X-40.52072 Y4.47863
G01 X-40.48524 Y4.68874
G01 X-40.44904 Y4.96032
G01 X-40.42146 Y5.25361
G01 X-40.40627 Y5.50634
G01 X-40.40022 Y5.75945
G01 X-40.40012 Y15.01069
G01 X-40.42494 Y15.01884
G01 X-40.40012 Y15.01069
G01 X-40.30594 Y15.13200
G01 X-40.12138 Y15.38646
G01 X-39.96466 Y15.62321
G01 X-39.84320 Y15.82229
G01 X-39.72359 Y16.03426
G01 X-39.61595 Y16.24114
G01 X-39.51526 Y16.45150
G01 X-39.42362 Y16.65595
G01 X-39.33441 Y16.87220
G01 X-39.25590 Y17.08175
G01 X-39.18100 Y17.30337
G01 X-39.11356 Y17.52737
G01 X-39.05364 Y17.75351
G01 X-38.99649 Y18.00144
G01 X-38.95090 Y18.23032
G01 X-38.90294 Y18.53093
G01 X-38.86906 Y18.82323
G01 X-38.84524 Y19.14764
G01 X-38.83538 Y19.46278
G01 X-38.83635 Y22.48126
G01 X-38.84353 Y22.69325
G01 X-38.85715 Y22.90488
G01 X-38.88019 Y23.14705
G01 X-38.90584 Y23.35875
G01 X-38.94651 Y23.61961
G01 X-38.99276 Y23.85888
G01 X-39.04732 Y24.09640
G01 X-39.11570 Y24.35141
G01 X-39.18732 Y24.58433
G01 X-39.28295 Y24.86363
G01 X-39.37391 Y25.10107
G01 X-39.46929 Y25.32578
G01 X-39.58138 Y25.56528
G01 X-39.69283 Y25.78245
G01 X-39.81176 Y25.99563
G01 X-39.96362 Y26.24823
G01 X-40.09680 Y26.45212
G01 X-40.23698 Y26.65125
G01 X-40.38399 Y26.84539
G01 X-40.55047 Y27.05052
G01 X-40.71689 Y27.24198
G01 X-40.89014 Y27.42728
G01 X-41.07731 Y27.61318
G01 X-41.27149 Y27.79238
G01 X-41.44757 Y27.94559
G01 X-41.63662 Y28.09908
G01 X-41.82270 Y28.23995
G01 X-42.03857 Y28.39159
G01 X-42.26011 Y28.53611
G01 X-42.47774 Y28.66758
G01 X-42.69102 Y28.78630
G01 X-42.91747 Y28.90197
G01 X-43.16600 Y29.01848
G01 X-43.40880 Y29.12168
G01 X-43.63623 Y29.20876
G01 X-43.88066 Y29.29240
G04 P0 ( dwell for no time -- G64 should not smooth over this point )
G00 Z1.00000 ( retract )

G00 X-49.07496 Y29.27253 ( rapid move to begin. )
G01 F20.00000
( Mill infeed pass 1/1 )
G01 Z-0.30000
G04 P0 ( dwell for no time -- G64 should not smooth over this point )
G01 F30.00000
G01 X-49.07496 Y29.27253
G01 X-48.88339 Y29.24830
G01 X-48.68296 Y29.21389
G01 X-48.45416 Y29.16395
G01 X-48.27699 Y29.11805
G01 X-48.10183 Y29.06497
G01 X-47.90994 Y28.99768
G01 X-47.72063 Y28.92262
G01 X-47.54402 Y28.84432
G01 X-47.37095 Y28.75849
G01 X-47.21052 Y28.67040
G01 X-47.01898 Y28.55587
G01 X-46.85022 Y28.44455
G01 X-46.70275 Y28.33797
G01 X-46.55972 Y28.22550
G01 X-46.38208 Y28.07426
G01 X-46.24113 Y27.94335
G01 X-45.56780 Y27.27066
G01 X-45.80781 Y26.80840
G01 X-46.04205 Y26.33066
G01 X-46.96432 Y27.25143
G01 X-47.07115 Y27.34866
G01 X-47.18060 Y27.44140
G01 X-47.35667 Y27.57790
G01 X-47.49000 Y27.67000
G01 X-47.61873 Y27.75064
G01 X-47.77737 Y27.84188
G01 X-47.93071 Y27.92087
G01 X-48.07842 Y27.98821
G01 X-48.24821 Y28.05651
G01 X-48.40120 Y28.11076
G01 X-48.55657 Y28.15788
G01 X-48.81339 Y28.21996
G01 X-49.03305 Y28.25958
G01 X-49.26490 Y28.28595
G01 X-49.51534 Y28.29921
G01 X-54.05440 Y28.29989
G01 X-54.07325 Y28.25727
G01 X-54.05440 Y28.29989
G01 X-54.19771 Y28.46649
G01 X-54.34683 Y28.62077
G01 X-54.19296 Y29.09651
G01 X-54.03731 Y29.12306
G01 X-53.77972 Y29.17657
G01 X-53.62369 Y29.21721
G01 X-53.46967 Y29.26499
G01 X-53.21282 Y29.35798
G01 X-53.04526 Y29.42745
G01 X-52.91755 Y29.48742
G01 X-52.79235 Y29.55249
G01 X-52.79375 Y29.56575
G01 X-52.79090 Y29.55331
G01 X-52.38671 Y29.55331
G01 X-52.22745 Y29.55740
G01 X-52.05631 Y29.56893
G01 X-51.89492 Y29.58658
G01 X-51.73452 Y29.61168
G01 X-51.58537 Y29.64195
G01 X-51.39804 Y29.68716
G01 X-51.14686 Y29.76484
G01 X-50.92083 Y29.85310
G01 X-50.77229 Y29.91889
G01 X-50.65418 Y29.97662
G01 X-50.52952 Y30.04368
G01 X-50.41626 Y30.11043
G01 X-50.29721 Y30.18701
G01 X-50.14707 Y30.29128
G01 X-50.02621 Y30.38335
G01 X-49.91715 Y30.47393
G01 X-49.80447 Y30.57581
G01 X-49.67366 Y30.70355
G01 X-49.57638 Y30.80669
G01 X-49.47686 Y30.92148
G01 X-49.38245 Y31.04048
G01 X-49.27463 Y31.18813
G01 X-49.19561 Y31.30586
G01 X-49.11628 Y31.43542
G01 X-49.04268 Y31.56831
G01 X-48.96084 Y31.73179
G01 X-48.89823 Y31.87019
G01 X-48.84169 Y32.01119
G01 X-48.78507 Y32.17377
G01 X-48.72449 Y32.37819
G01 X-48.68149 Y32.55533
G01 X-48.64941 Y32.72450
G01 X-48.61956 Y32.94581
G01 X-48.60359 Y33.12739
G01 X-48.59711 Y33.30956
G01 X-48.60011 Y33.49183
G01 X-48.61248 Y33.69452
G01 X-48.63427 Y33.88571
G01 X-48.66653 Y34.07540
G01 X-48.71298 Y34.28337
G01 X-48.76119 Y34.45886
G01 X-48.81850 Y34.63163
G01 X-48.88469 Y34.80118
G01 X-48.97529 Y35.00509
G01 X-49.05779 Y35.16734
G01 X-49.15390 Y35.33369
G01 X-49.27630 Y35.52015
G01 X-49.37689 Y35.65954
G01 X-49.49073 Y35.80158
G01 X-49.61176 Y35.93749
G01 X-49.76856 Y36.09627
G01 X-49.90236 Y36.21966
G01 X-50.03447 Y36.32967
G01 X-50.18004 Y36.43892
G01 X-50.35647 Y36.55842
G01 X-50.52108 Y36.65802
G01 X-50.68189 Y36.74389
G01 X-50.86571 Y36.83015
G01 X-51.03398 Y36.90031
G01 X-51.19601 Y36.95842
G01 X-51.37048 Y37.01120
G01 X-51.57721 Y37.06340
G01 X-51.75606 Y37.09878
G01 X-51.94651 Y37.12596
G01 X-52.14963 Y37.14443
G01 X-52.32458 Y37.15243
G01 X-52.78755 Y37.15316
G01 X-52.78981 Y37.14278
G01 X-52.78755 Y37.15316
G01 X-52.85671 Y37.18926
G01 X-52.97653 Y37.24727
G01 X-53.10789 Y37.30457
G01 X-53.38333 Y37.41301
G01 X-53.51935 Y37.45817
G01 X-53.64721 Y37.49510
G01 X-53.91462 Y37.56053
G01 X-54.14536 Y37.60297
G01 X-54.45945 Y37.63861
G01 X-54.68503 Y37.65166
G01 X-55.01033 Y37.64798
G01 X-55.30177 Y37.62334
G01 X-55.54198 Y37.58824
G01 X-55.83936 Y37.52555
G01 X-56.13098 Y37.44161
G01 X-56.35803 Y37.36020
G01 X-56.61777 Y37.24979
G01 X-56.90466 Y37.10262
G01 X-57.03456 Y37.02609
G01 X-57.21373 Y36.91143
G01 X-57.32945 Y36.82977
G01 X-57.48251 Y36.71280
G01 X-57.59204 Y36.62299
G01 X-57.69783 Y36.52883
G01 X-57.82983 Y36.40379
G01 X-57.94164 Y36.28819
G01 X-58.05632 Y36.16038
G01 X-58.15292 Y36.04463
G01 X-58.27527 Y35.88390
G01 X-58.36280 Y35.75995
G01 X-58.44489 Y35.63231
G01 X-58.55381 Y35.44941
G01 X-58.62071 Y35.32457
G01 X-58.70491 Y35.15172
G01 X-58.77347 Y34.99521
G01 X-58.83895 Y34.82566
G01 X-58.88543 Y34.69282
G01 X-58.92378 Y34.56793
G01 X-58.96945 Y34.40184
G01 X-59.00384 Y34.25403
G01 X-59.04288 Y34.04461
G01 X-59.06534 Y33.89366
G01 X-59.08116 Y33.74187
G01 X-59.09615 Y33.51855
G01 X-59.09917 Y33.37616
G01 X-59.09539 Y33.18289
G01 X-59.08805 Y33.04065
G01 X-59.07491 Y32.89882
G01 X-59.05022 Y32.70712
G01 X-59.02495 Y32.55660
G01 X-58.97466 Y32.32810
G01 X-58.93913 Y32.19018
G01 X-58.89483 Y32.04413
G01 X-58.82831 Y31.85147
G01 X-58.77634 Y31.71807
G01 X-58.71464 Y31.57764
G01 X-58.62663 Y31.39359
G01 X-58.53930 Y31.23156
G01 X-58.42879 Y31.04820
G01 X-58.34510 Y30.92056
G01 X-58.25594 Y30.79671
G01 X-58.11878 Y30.61988
G01 X-58.00588 Y30.48886
G01 X-57.85947 Y30.33271
G01 X-57.74243 Y30.21838
G01 X-57.61909 Y30.10855
G01 X-56.81403 Y29.88917
G01 X-55.87594 Y29.62034
G01 X-55.45041 Y29.49268
G01 X-54.59123 Y29.22577
G01 X-53.83152 Y28.97942
G01 X-53.24770 Y29.05986
G01 X-53.13380 Y29.07998
G01 X-52.68829 Y29.17345
G01 X-52.08730 Y29.18249
G01 X-51.45763 Y29.22836
G01 X-50.63330 Y29.35803
G01 X-49.76226 Y29.58026
G01 X-48.24367 Y30.06115
G01 X-48.04626 Y30.32732
G01 X-47.87367 Y30.59082
G01 X-47.72274 Y30.85567
G01 X-47.56970 Y31.16580
G01 X-47.45157 Y31.44683
G01 X-47.35076 Y31.73451
G01 X-47.25802 Y32.05711
G01 X-47.22043 Y32.21530
G01 X-47.18799 Y32.37464
G01 X-47.13996 Y32.68596
G01 X-47.11959 Y32.86808
G01 X-47.10615 Y33.04032
G01 X-47.09698 Y33.35518
G01 X-47.10781 Y33.68053
G01 X-47.13575 Y33.99427
G01 X-47.18340 Y34.30565
G01 X-47.25457 Y34.63409
G01 X-47.33651 Y34.92909
G01 X-47.43999 Y35.22805
G01 X-47.57400 Y35.54827
G01 X-47.71263 Y35.83262
G01 X-47.86368 Y36.09894
G01 X-47.94524 Y36.22850
G01 X-48.05370 Y36.38941
G01 X-48.23564 Y36.63564
G01 X-48.43912 Y36.87788
G01 X-48.54298 Y36.99038
G01 X-48.67191 Y37.12141
G01 X-48.89492 Y37.33117
G01 X-49.13843 Y37.53317
G01 X-49.38575 Y37.71359
G01 X-49.53813 Y37.81552
G01 X-49.67615 Y37.90147
G01 X-49.95121 Y38.05502
G01 X-50.25405 Y38.19975
G01 X-50.54549 Y38.31928
G01 X-50.83416 Y38.41727
G01 X-51.01986 Y38.47015
G01 X-51.24701 Y38.52657
G01 X-51.43617 Y38.56535
G01 X-51.63670 Y38.59825
G01 X-51.84859 Y38.62400
G01 X-52.11227 Y38.64503
G01 X-52.38653 Y38.65314
G01 X-52.44607 Y38.65314
G01 X-52.44772 Y38.64508
G01 X-52.44607 Y38.65314
G01 X-52.71943 Y38.76581
G01 X-52.89067 Y38.82979
G01 X-53.04483 Y38.88135
G01 X-53.34780 Y38.96690
G01 X-53.56492 Y39.01938
G01 X-53.75361 Y39.05804
G01 X-54.02400 Y39.10043
G01 X-54.31704 Y39.13182
G01 X-54.55155 Y39.14780
G01 X-54.80698 Y39.15265
G01 X-54.99986 Y39.14945
G01 X-55.18175 Y39.14051
G01 X-55.55501 Y39.10363
G01 X-55.72570 Y39.07864
G01 X-55.88546 Y39.04976
G01 X-56.09433 Y39.00653
G01 X-56.29135 Y38.95794
G01 X-56.51561 Y38.89281
G01 X-56.67931 Y38.84005
G01 X-56.85056 Y38.77808
G01 X-57.04820 Y38.69911
G01 X-57.20585 Y38.63040
G01 X-57.35201 Y38.56083
G01 X-57.55038 Y38.45905
G01 X-57.70065 Y38.37539
G01 X-57.91688 Y38.24341
G01 X-58.06128 Y38.14902
G01 X-58.22686 Y38.03170
G01 X-58.40440 Y37.89604
G01 X-58.54603 Y37.78070
G01 X-58.68335 Y37.66028
G01 X-58.86077 Y37.49368
G01 X-58.99579 Y37.35687
G01 X-59.15962 Y37.17717
G01 X-59.27791 Y37.03871
G01 X-59.39109 Y36.89604
G01 X-59.53600 Y36.70031
G01 X-59.65574 Y36.52403
G01 X-59.77364 Y36.33424
G01 X-59.86577 Y36.17653
G01 X-59.95208 Y36.01555
G01 X-60.05048 Y35.81512
G01 X-60.12960 Y35.63993
G01 X-60.19828 Y35.47128
G01 X-60.28271 Y35.24324
G01 X-60.34519 Y35.05078
G01 X-60.40882 Y34.82637
G01 X-60.45276 Y34.64911
G01 X-60.49023 Y34.47031
G01 X-60.52927 Y34.25007
G01 X-60.55632 Y34.05868
G01 X-60.57511 Y33.87649
G01 X-60.59292 Y33.62279
G01 X-60.59881 Y33.42957
G01 X-60.59752 Y33.24644
G01 X-60.58924 Y33.01261
G01 X-60.57171 Y32.78944
G01 X-60.53391 Y32.48660
G01 X-60.49457 Y32.25594
G01 X-60.42602 Y31.94812
G01 X-60.36241 Y31.71236
G01 X-60.26429 Y31.41261
G01 X-60.18205 Y31.19295
G01 X-60.08959 Y30.97738
G01 X-59.95736 Y30.70131
G01 X-59.28827 Y30.53672
G01 X-59.39323 Y30.71068
G01 X-59.47697 Y30.86125
G01 X-59.55487 Y31.01492
G01 X-59.65756 Y31.23575
G01 X-59.72421 Y31.39463
G01 X-59.77791 Y31.53684
G01 X-59.85020 Y31.74843
G01 X-59.90021 Y31.91398
G01 X-59.94385 Y32.08137
G01 X-59.99338 Y32.29963
G01 X-60.02518 Y32.46963
G01 X-60.04911 Y32.63067
G01 X-60.07354 Y32.83265
G01 X-60.08853 Y33.01517
G01 X-60.09770 Y33.25914
G01 X-60.09876 Y33.43211
G01 X-60.09211 Y33.62531
G01 X-60.07656 Y33.83839
G01 X-60.05975 Y34.00029
G01 X-60.03709 Y34.16150
G01 X-59.99996 Y34.37207
G01 X-59.96435 Y34.54212
G01 X-59.92218 Y34.71067
G01 X-59.85718 Y34.93686
G01 X-59.79876 Y35.11227
G01 X-59.72315 Y35.31357
G01 X-59.66033 Y35.46544
G01 X-59.59201 Y35.61491
G01 X-59.50638 Y35.78896
G01 X-59.41903 Y35.95086
G01 X-59.29361 Y36.16117
G01 X-59.20542 Y36.29886
G01 X-59.10029 Y36.44981
G01 X-58.96511 Y36.62964
G01 X-58.85500 Y36.76518
G01 X-58.71286 Y36.92652
G01 X-58.60059 Y37.04656
G01 X-58.48403 Y37.16244
G01 X-58.33445 Y37.30170
G01 X-58.19544 Y37.42218
G01 X-58.06783 Y37.52441
G01 X-57.87207 Y37.67153
G01 X-57.72884 Y37.76985
G01 X-57.56506 Y37.87376
G01 X-57.42384 Y37.95781
G01 X-57.27050 Y38.04140
G01 X-57.07842 Y38.13800
G01 X-56.91015 Y38.21463
G01 X-56.71109 Y38.29591
G01 X-56.54736 Y38.35667
G01 X-56.39123 Y38.40800
G01 X-56.18554 Y38.46858
G01 X-55.99720 Y38.51587
G01 X-55.78747 Y38.55946
G01 X-55.64668 Y38.58494
G01 X-55.47472 Y38.60983
G01 X-55.25120 Y38.63350
G01 X-55.07703 Y38.64590
G01 X-54.91277 Y38.65136
G01 X-54.67980 Y38.65179
G01 X-54.51833 Y38.64549
G01 X-54.35717 Y38.63343
G01 X-54.11490 Y38.60792
G01 X-53.93398 Y38.58199
G01 X-53.78412 Y38.55479
G01 X-53.61549 Y38.51783
G01 X-53.38905 Y38.46119
G01 X-53.20434 Y38.40742
G01 X-53.03162 Y38.34922
G01 X-52.86139 Y38.28410
G01 X-52.58102 Y38.16599
G01 X-52.55301 Y38.15314
G01 X-52.55473 Y38.14521
G01 X-52.55301 Y38.15314
G01 X-52.37648 Y38.15311
G01 X-52.10376 Y38.14361
G01 X-51.83127 Y38.11928
G01 X-51.58115 Y38.08336
G01 X-51.33343 Y38.03345
G01 X-51.07828 Y37.96787
G01 X-50.84658 Y37.89594
G01 X-50.62852 Y37.81537
G01 X-50.34082 Y37.68971
G01 X-50.10617 Y37.57132
G01 X-49.87026 Y37.43411
G01 X-49.62525 Y37.27130
G01 X-49.40503 Y37.10676
G01 X-49.20287 Y36.93589
G01 X-48.97488 Y36.71727
G01 X-48.80049 Y36.53188
G01 X-48.64953 Y36.35286
G01 X-48.51405 Y36.17450
G01 X-48.35881 Y35.94732
G01 X-48.23663 Y35.74755
G01 X-48.12962 Y35.55078
G01 X-48.02838 Y35.33963
G01 X-47.92868 Y35.10514
G01 X-47.84794 Y34.88533
G01 X-47.78149 Y34.67141
G01 X-47.72576 Y34.45446
G01 X-47.67351 Y34.20643
G01 X-47.63618 Y33.96673
G01 X-47.61179 Y33.72538
G01 X-47.59884 Y33.47237
G01 X-47.59815 Y33.23989
G01 X-47.60948 Y33.00768
G01 X-47.63762 Y32.73560
G01 X-47.67057 Y32.51566
G01 X-47.71659 Y32.28777
G01 X-47.77433 Y32.06257
G01 X-47.84857 Y31.82036
G01 X-47.93145 Y31.59237
G01 X-48.02650 Y31.36918
G01 X-48.14219 Y31.13250
G01 X-48.26439 Y30.91132
G01 X-48.39322 Y30.70576
G01 X-48.55713 Y30.47426
G01 X-48.70046 Y30.29120
G01 X-48.89434 Y30.07136
G01 X-49.11679 Y29.84983
G01 X-49.22738 Y29.74876
G01 X-49.29944 Y29.72570
G01 X-46.76549 Y30.53110
G01 X-46.62381 Y30.83143
G01 X-46.50501 Y31.12252
G01 X-46.40163 Y31.41942
G01 X-46.30189 Y31.76054
G01 X-46.22963 Y32.06653
G01 X-46.17194 Y32.38589
G01 X-46.12856 Y32.72841
G01 X-46.10456 Y33.04187
G01 X-46.09709 Y33.37646
G01 X-46.10801 Y33.71141
G01 X-46.13181 Y34.01471
G01 X-46.17250 Y34.32645
G01 X-46.22739 Y34.62571
G01 X-46.31129 Y34.98172
G01 X-46.40301 Y35.29333
G01 X-46.50781 Y35.59002
G01 X-46.64017 Y35.90922
G01 X-46.76948 Y36.18494
G01 X-46.91761 Y36.46256
G01 X-47.08009 Y36.73203
G01 X-47.27346 Y37.01839
G01 X-47.46874 Y37.27795
G01 X-47.67778 Y37.52657
G01 X-47.89282 Y37.75631
G01 X-48.14804 Y38.00411
G01 X-48.39307 Y38.21732
G01 X-48.64931 Y38.41697
G01 X-48.94123 Y38.62001
G01 X-49.20795 Y38.78643
G01 X-49.49205 Y38.94333
G01 X-49.81227 Y39.09746
G01 X-50.09233 Y39.21636
G01 X-50.34925 Y39.31110
G01 X-50.61021 Y39.39403
G01 X-50.89464 Y39.47063
G01 X-51.16180 Y39.53078
G01 X-51.44143 Y39.58021
G01 X-51.70292 Y39.61422
G01 X-52.03835 Y39.64241
G01 X-52.24135 Y39.65110
G01 X-52.24234 Y39.64633
G01 X-52.24135 Y39.65110
G01 X-52.45570 Y39.73566
G01 X-52.77432 Y39.84452
G01 X-53.04909 Y39.92275
G01 X-53.41422 Y40.01003
G01 X-53.65257 Y40.05572
G01 X-53.91267 Y40.09431
G01 X-54.23499 Y40.12847
G01 X-54.47678 Y40.14536
G01 X-54.65846 Y40.15161
G01 X-54.83017 Y40.15247
G01 X-55.05254 Y40.14826
G01 X-55.24381 Y40.13858
G01 X-55.41457 Y40.12476
G01 X-55.64741 Y40.09987
G01 X-55.82963 Y40.07465
G01 X-56.02105 Y40.04198
G01 X-56.25114 Y39.99588
G01 X-56.44035 Y39.95219
G01 X-56.63786 Y39.89962
G01 X-56.83288 Y39.84147
G01 X-57.00540 Y39.78537
G01 X-57.17614 Y39.72408
G01 X-57.54091 Y39.57597
G01 X-57.73321 Y39.48753
G01 X-57.96785 Y39.36942
G01 X-58.14499 Y39.27323
G01 X-58.31878 Y39.17114
G01 X-58.52528 Y39.04125
G01 X-58.70308 Y38.92103
G01 X-58.86831 Y38.80068
G01 X-59.06996 Y38.64447
G01 X-59.21177 Y38.52725
G01 X-59.36501 Y38.39200
G01 X-59.54253 Y38.22550
G01 X-59.70598 Y38.06111
G01 X-59.88367 Y37.86767
G01 X-60.00928 Y37.72311
G01 X-60.14265 Y37.55878
G01 X-60.27105 Y37.38954
G01 X-60.38459 Y37.23198
G01 X-60.49851 Y37.06228
G01 X-60.64364 Y36.82807
G01 X-60.73607 Y36.66901
G01 X-60.84237 Y36.47089
G01 X-60.94585 Y36.26068
G01 X-61.02982 Y36.07742
G01 X-61.10760 Y35.89147
G01 X-61.19746 Y35.65538
G01 X-61.26008 Y35.47440
G01 X-61.32251 Y35.27219
G01 X-61.39002 Y35.02685
G01 X-61.43526 Y34.83800
G01 X-61.47625 Y34.63775
G01 X-61.51844 Y34.39709
G01 X-61.54699 Y34.19561
G01 X-61.56960 Y33.98314
G01 X-61.58855 Y33.72952
G01 X-61.59690 Y33.53638
G01 X-61.59889 Y33.32274
G01 X-61.59249 Y33.05830
G01 X-61.58034 Y32.84499
G01 X-61.56063 Y32.63222
G01 X-61.53125 Y32.39757
G01 X-60.86452 Y31.64919
G01 X-60.91057 Y31.82475
G01 X-60.96325 Y32.05272
G01 X-60.99520 Y32.21236
G01 X-61.02396 Y32.38292
G01 X-61.05642 Y32.62490
G01 X-61.07471 Y32.79691
G01 X-61.08756 Y32.96940
G01 X-61.09528 Y33.15238
G01 X-61.09909 Y33.35579
G01 X-61.09632 Y33.54911
G01 X-61.08743 Y33.73201
G01 X-61.06917 Y33.96529
G01 X-61.04913 Y34.14733
G01 X-61.02304 Y34.32861
G01 X-60.98050 Y34.56851
G01 X-60.94562 Y34.73646
G01 X-60.90303 Y34.91299
G01 X-60.84374 Y35.12795
G01 X-60.79305 Y35.29378
G01 X-60.73371 Y35.46754
G01 X-60.65832 Y35.66785
G01 X-60.58474 Y35.84715
G01 X-60.50925 Y36.01453
G01 X-60.41149 Y36.21519
G01 X-60.33173 Y36.36703
G01 X-60.24217 Y36.52502
G01 X-60.12127 Y36.72385
G01 X-60.01667 Y36.88448
G01 X-59.91248 Y37.03323
G01 X-59.77880 Y37.21212
G01 X-59.67095 Y37.34793
G01 X-59.55218 Y37.48796
G01 X-59.40212 Y37.65456
G01 X-59.27499 Y37.78705
G01 X-59.15833 Y37.90119
G01 X-58.97964 Y38.06629
G01 X-58.84215 Y38.18494
G01 X-58.70877 Y38.29274
G01 X-58.52381 Y38.43396
G01 X-58.37601 Y38.53950
G01 X-58.22483 Y38.64011
G01 X-58.03516 Y38.75842
G01 X-57.87639 Y38.85065
G01 X-57.72368 Y38.93284
G01 X-57.54174 Y39.02471
G01 X-57.36608 Y39.10660
G01 X-57.20654 Y39.17460
G01 X-56.97885 Y39.26406
G01 X-56.80570 Y39.32509
G01 X-56.65013 Y39.37447
G01 X-56.44619 Y39.43401
G01 X-56.25061 Y39.48364
G01 X-55.85450 Y39.56395
G01 X-55.66507 Y39.59337
G01 X-55.48478 Y39.61514
G01 X-55.28201 Y39.63446
G01 X-55.09875 Y39.64600
G01 X-54.92539 Y39.65125
G01 X-54.68155 Y39.65197
G01 X-54.50901 Y39.64635
G01 X-54.32661 Y39.63452
G01 X-54.07393 Y39.60978
G01 X-53.90312 Y39.58867
G01 X-53.70312 Y39.55702
G01 X-53.51432 Y39.52014
G01 X-53.23799 Y39.45481
G01 X-53.05100 Y39.40520
G01 X-52.86583 Y39.34907
G01 X-52.67320 Y39.28298
G01 X-52.34394 Y39.15288
G01 X-52.34521 Y39.14714
G01 X-52.34394 Y39.15288
G01 X-52.09065 Y39.14460
G01 X-51.86662 Y39.12786
G01 X-51.69400 Y39.11001
G01 X-51.53218 Y39.08826
G01 X-51.36096 Y39.05989
G01 X-51.19080 Y39.02613
G01 X-51.03162 Y38.98948
G01 X-50.73589 Y38.90983
G01 X-50.46406 Y38.82166
G01 X-50.19718 Y38.71948
G01 X-49.93561 Y38.60411
G01 X-49.76114 Y38.51943
G01 X-49.60767 Y38.43848
G01 X-49.45682 Y38.35276
G01 X-49.29152 Y38.25133
G01 X-49.09617 Y38.12126
G01 X-48.95573 Y38.02167
G01 X-48.81850 Y37.91773
G01 X-48.66907 Y37.79655
G01 X-48.53148 Y37.67699
G01 X-48.39792 Y37.55293
G01 X-48.23935 Y37.39561
G01 X-48.11382 Y37.26343
G01 X-47.99274 Y37.12718
G01 X-47.86991 Y36.97907
G01 X-47.75840 Y36.83490
G01 X-47.64593 Y36.67879
G01 X-47.52673 Y36.50206
G01 X-47.41413 Y36.32164
G01 X-47.31347 Y36.14593
G01 X-47.21931 Y35.96660
G01 X-47.12764 Y35.77473
G01 X-47.02670 Y35.54189
G01 X-46.95292 Y35.35329
G01 X-46.88611 Y35.16211
G01 X-46.82640 Y34.96859
G01 X-46.77631 Y34.78281
G01 X-46.71926 Y34.53506
G01 X-46.68063 Y34.33460
G01 X-46.64809 Y34.12277
G01 X-46.62579 Y33.93013
G01 X-46.61030 Y33.73681
G01 X-46.59930 Y33.50219
G01 X-46.59704 Y33.31850
G01 X-46.60217 Y33.10423
G01 X-46.61482 Y32.90049
G01 X-46.63501 Y32.69737
G01 X-46.66419 Y32.47459
G01 X-46.69828 Y32.27334
G01 X-46.73981 Y32.07347
G01 X-46.79137 Y31.86544
G01 X-46.85662 Y31.63981
G01 X-46.91311 Y31.46499
G01 X-46.98268 Y31.27309
G01 X-47.06336 Y31.07451
G01 X-47.14730 Y30.88843
G01 X-47.25617 Y30.66887
G01 X-47.35840 Y30.48048
G01 X-47.45927 Y30.31012
G01 X-43.25508 Y31.64540
G01 X-43.21203 Y31.89658
G01 X-43.17743 Y32.13834
G01 X-43.14541 Y32.41149
G01 X-43.12188 Y32.67502
G01 X-43.10659 Y32.92897
G01 X-43.09831 Y33.19341
G01 X-43.09768 Y33.44781
G01 X-43.10423 Y33.70212
G01 X-43.11990 Y33.99709
G01 X-43.13862 Y34.23039
G01 X-43.16585 Y34.48332
G01 X-43.20019 Y34.73539
G01 X-43.23987 Y34.97636
G01 X-43.28813 Y35.22614
G01 X-43.35236 Y35.51451
G01 X-43.41442 Y35.76140
G01 X-43.48056 Y35.99665
G01 X-43.55620 Y36.23970
G01 X-43.63867 Y36.48052
G01 X-43.72795 Y36.71890
G01 X-43.82392 Y36.95466
G01 X-43.94251 Y37.22538
G01 X-44.05561 Y37.46472
G01 X-44.16623 Y37.68263
G01 X-44.28772 Y37.90632
G01 X-44.41022 Y38.11775
G01 X-44.54390 Y38.33439
G01 X-44.68365 Y38.54714
G01 X-44.84035 Y38.77333
G01 X-44.99737 Y38.98649
G01 X-45.16059 Y39.19489
G01 X-45.32325 Y39.39070
G01 X-45.48454 Y39.57429
G01 X-45.65780 Y39.76078
G01 X-45.84355 Y39.94978
G01 X-46.01129 Y40.11320
G01 X-46.17565 Y40.26540
G01 X-46.35924 Y40.42669
G01 X-46.53920 Y40.57655
G01 X-46.73917 Y40.73406
G01 X-46.92701 Y40.87391
G01 X-47.11842 Y41.00883
G01 X-47.34695 Y41.16192
G01 X-47.55352 Y41.29217
G01 X-47.77240 Y41.42184
G01 X-47.96798 Y41.53078
G01 X-48.19343 Y41.64863
G01 X-48.41291 Y41.75575
G01 X-48.80333 Y41.93027
G01 X-49.17237 Y42.07617
G01 X-49.55718 Y42.20878
G01 X-49.94760 Y42.32387
G01 X-50.35258 Y42.42521
G01 X-50.55154 Y42.46804
G01 X-50.78148 Y42.51170
G01 X-50.99233 Y42.54635
G01 X-51.21410 Y42.57726
G01 X-51.45674 Y42.60466
G01 X-51.60764 Y42.61663
G01 X-51.88346 Y42.70913
G01 X-52.21409 Y42.80499
G01 X-52.59784 Y42.90121
G01 X-52.92677 Y42.97228
G01 X-53.76344 Y42.59359
G01 X-53.51683 Y42.56372
G01 X-53.25557 Y42.52402
G01 X-53.01559 Y42.48018
G01 X-52.75720 Y42.42496
G01 X-52.42126 Y42.34259
G01 X-52.18544 Y42.27782
G01 X-51.91277 Y42.19372
G01 X-51.71300 Y42.12356
G01 X-51.38872 Y42.09466
G01 X-51.04676 Y42.04886
G01 X-50.70691 Y41.98922
G01 X-50.36977 Y41.91584
G01 X-49.98641 Y41.81587
G01 X-49.64669 Y41.71224
G01 X-49.30211 Y41.59093
G01 X-48.97237 Y41.45890
G01 X-48.72149 Y41.34772
G01 X-48.51049 Y41.24792
G01 X-48.31131 Y41.14709
G01 X-48.08825 Y41.02618
G01 X-47.87760 Y40.90391
G01 X-47.67910 Y40.78110
G01 X-47.49246 Y40.65859
G01 X-47.25825 Y40.49631
G01 X-47.07811 Y40.36367
G01 X-46.89358 Y40.22001
G01 X-46.69760 Y40.05814
G01 X-46.52162 Y39.90411
G01 X-46.34260 Y39.73830
G01 X-46.15370 Y39.55285
G01 X-45.99064 Y39.38521
G01 X-45.82546 Y39.20561
G01 X-45.65896 Y39.01354
G01 X-45.49828 Y38.81658
G01 X-45.34962 Y38.62306
G01 X-45.20075 Y38.41702
G01 X-45.04611 Y38.18981
G01 X-44.91441 Y37.98438
G01 X-44.78355 Y37.76645
G01 X-44.64962 Y37.52682
G01 X-44.52803 Y37.29208
G01 X-44.41805 Y37.06292
G01 X-44.29851 Y36.79299
G01 X-44.20187 Y36.55789
G01 X-44.11228 Y36.31999
G01 X-44.02986 Y36.07956
G01 X-43.95467 Y35.83673
G01 X-43.88935 Y35.60161
G01 X-43.83080 Y35.36472
G01 X-43.76588 Y35.06676
G01 X-43.72138 Y34.82729
G01 X-43.68234 Y34.57661
G01 X-43.65079 Y34.32487
G01 X-43.62597 Y34.06219
G01 X-43.60769 Y33.76803
G01 X-43.59900 Y33.52465
G01 X-43.59745 Y33.26079
G01 X-43.60329 Y33.01731
G01 X-43.61612 Y32.77408
G01 X-43.63687 Y32.52122
G01 X-43.66872 Y32.23844
G01 X-43.70393 Y31.98719
G01 X-43.74848 Y31.72714
G01 X-43.80034 Y31.47192
G01 X-42.91378 Y31.75401
G01 X-42.71023 Y31.87004
G01 X-42.67967 Y32.08909
G01 X-42.64688 Y32.37151
G01 X-42.62432 Y32.62394
G01 X-42.60954 Y32.85660
G01 X-42.59994 Y33.10987
G01 X-42.59710 Y33.36326
G01 X-42.60131 Y33.62681
G01 X-42.61216 Y33.88048
G01 X-42.62773 Y34.12325
G01 X-42.64950 Y34.36556
G01 X-42.69956 Y34.76793
G01 X-42.76298 Y35.14788
G01 X-42.85303 Y35.57483
G01 X-42.94970 Y35.95817
G01 X-43.06532 Y36.34679
G01 X-43.19392 Y36.72063
G01 X-43.33022 Y37.07003
G01 X-43.49196 Y37.44244
G01 X-43.64975 Y37.77148
G01 X-43.82496 Y38.10310
G01 X-44.01315 Y38.42756
G01 X-44.21396 Y38.74432
G01 X-44.44408 Y39.07874
G01 X-44.66239 Y39.37114
G01 X-44.89831 Y39.66271
G01 X-45.14555 Y39.94475
G01 X-45.39663 Y40.20957
G01 X-45.69369 Y40.50101
G01 X-45.97171 Y40.75273
G01 X-46.25947 Y40.99329
G01 X-46.54834 Y41.21625
G01 X-46.84558 Y41.42798
G01 X-47.18444 Y41.65150
G01 X-47.52320 Y41.85529
G01 X-47.75363 Y41.98323
G01 X-47.98751 Y42.10474
G01 X-48.21550 Y42.21541
G01 X-48.47435 Y42.33301
G01 X-48.70770 Y42.43187
G01 X-48.95309 Y42.52803
G01 X-49.21065 Y42.62064
G01 X-49.45141 Y42.69976
G01 X-49.71372 Y42.77794
G01 X-49.97851 Y42.84901
G01 X-50.21489 Y42.90662
G01 X-50.47254 Y42.96217
G01 X-50.74161 Y43.01226
G01 X-51.00198 Y43.05315
G01 X-51.29357 Y43.09024
G01 X-51.50348 Y43.10931
G01 X-51.81125 Y43.20992
G01 X-52.17259 Y43.31114
G01 X-54.32539 Y42.34127
G01 X-56.82285 Y41.20675
G01 X-59.00669 Y40.20528
G01 X-61.50849 Y39.04747
G01 X-61.63620 Y38.89367
G01 X-61.76841 Y38.72581
G01 X-61.92078 Y38.52215
G01 X-62.05027 Y38.33955
G01 X-62.26172 Y38.01590
G01 X-62.39353 Y37.79837
G01 X-62.50452 Y37.60401
G01 X-62.60071 Y37.42466
G01 X-62.69228 Y37.24295
G01 X-62.79754 Y37.02263
G01 X-62.88849 Y36.81809
G01 X-62.96995 Y36.62055
G01 X-63.05725 Y36.39254
G01 X-63.12245 Y36.21054
G01 X-63.18938 Y36.00762
G01 X-63.30013 Y35.62662
G01 X-63.37884 Y35.31070
G01 X-63.44465 Y34.99183
G01 X-63.51090 Y34.59688
G01 X-63.26231 Y34.31243
G01 X-63.06533 Y34.09655
G01 X-63.04394 Y34.31012
G01 X-63.01798 Y34.51195
G01 X-62.98827 Y34.70298
G01 X-62.94496 Y34.94362
G01 X-62.86459 Y35.31311
G01 X-62.76111 Y35.69691
G01 X-62.70201 Y35.89043
G01 X-62.63772 Y36.08227
G01 X-62.49137 Y36.47077
G01 X-62.34720 Y36.80521
G01 X-62.16901 Y37.17102
G01 X-61.98217 Y37.51143
G01 X-61.75794 Y37.87699
G01 X-61.55657 Y38.17259
G01 X-61.29995 Y38.51364
G01 X-61.06048 Y38.80129
G01 X-60.89813 Y38.98240
G01 X-60.76643 Y39.12238
G01 X-60.52193 Y39.36431
G01 X-60.36531 Y39.50980
G01 X-60.20450 Y39.65194
G01 X-63.31301 Y38.20630
G01 X-63.47676 Y37.90739
G01 X-63.64963 Y37.56035
G01 X-63.78463 Y37.26523
G01 X-63.91631 Y36.94651
G01 X-64.04077 Y36.61385
G01 X-64.15288 Y36.27704
G01 X-64.26307 Y35.89637
G01 X-64.34399 Y35.57549
G01 X-64.08880 Y35.26221
G01 X-63.93614 Y35.08347
G01 X-63.88913 Y35.31878
G01 X-63.83708 Y35.54598
G01 X-63.78148 Y35.76190
G01 X-63.70356 Y36.03638
G01 X-63.63950 Y36.24135
G01 X-63.56340 Y36.46391
G01 X-63.47069 Y36.71270
G01 X-63.38738 Y36.92167
G01 X-63.30272 Y37.11905
G01 X-63.20871 Y37.32345
G01 X-63.08352 Y37.57900
G01 X-62.97038 Y37.79434
G01 X-62.84605 Y38.01509
G01 X-62.71544 Y38.23256
G01 X-62.60229 Y38.41280
G01 X-62.48154 Y38.59469
G01 X-64.06220 Y37.85568
G01 X-64.16886 Y37.63076
G01 X-64.27196 Y37.39779
G01 X-64.36126 Y37.18110
G01 X-64.45623 Y36.93391
G01 X-64.53569 Y36.71341
G01 X-64.60658 Y36.50074
G01 X-64.73591 Y36.06269
G01 X-64.53891 Y35.81474
G01 X-64.01024 Y35.16823
G01 X-63.26231 Y34.31243
G01 X-61.68733 Y32.57255
G01 X-60.70597 Y31.47088
G01 X-60.05101 Y30.72432
G01 X-58.85020 Y30.42732
G01 X-57.77276 Y30.14967
G01 X-57.43232 Y30.05775
G01 X-57.77276 Y30.14967
G01 X-58.54250 Y30.34883
G01 X-58.67265 Y30.51909
G01 X-58.76127 Y30.64337
G01 X-58.84507 Y30.77091
G01 X-58.95053 Y30.94408
G01 X-59.02455 Y31.07550
G01 X-59.09356 Y31.20964
G01 X-59.17984 Y31.39244
G01 X-59.24377 Y31.54009
G01 X-59.31190 Y31.71861
G01 X-59.39244 Y31.95935
G01 X-59.44212 Y32.13560
G01 X-59.49363 Y32.35340
G01 X-59.52881 Y32.53313
G01 X-59.55314 Y32.69409
G01 X-59.57938 Y32.91634
G01 X-59.59335 Y33.11934
G01 X-59.59904 Y33.34309
G01 X-59.59625 Y33.52620
G01 X-59.57971 Y33.77997
G01 X-59.56064 Y33.96211
G01 X-59.53326 Y34.14319
G01 X-59.48583 Y34.39102
G01 X-59.44316 Y34.56663
G01 X-59.37895 Y34.79094
G01 X-59.32058 Y34.96452
G01 X-59.24067 Y35.17359
G01 X-59.17644 Y35.32317
G01 X-59.09333 Y35.49739
G01 X-59.01962 Y35.64011
G01 X-58.94024 Y35.77979
G01 X-58.82935 Y35.96035
G01 X-58.72269 Y36.11850
G01 X-58.59635 Y36.28913
G01 X-58.49490 Y36.41644
G01 X-58.34080 Y36.59251
G01 X-58.22932 Y36.71115
G01 X-58.10570 Y36.83213
G01 X-57.94172 Y36.98166
G01 X-57.81050 Y37.09083
G01 X-57.65061 Y37.21405
G01 X-57.52008 Y37.30770
G01 X-57.38592 Y37.39604
G01 X-57.21261 Y37.50241
G01 X-57.05246 Y37.59121
G01 X-56.87088 Y37.68301
G01 X-56.72290 Y37.75085
G01 X-56.51569 Y37.83546
G01 X-56.35320 Y37.89474
G01 X-56.13014 Y37.96452
G01 X-55.98493 Y38.00450
G01 X-55.83832 Y38.03899
G01 X-55.62062 Y38.08209
G01 X-55.43210 Y38.11123
G01 X-55.23131 Y38.13320
G01 X-55.06898 Y38.14562
G01 X-54.90629 Y38.15141
G01 X-54.64180 Y38.15060
G01 X-54.38800 Y38.13411
G01 X-54.07480 Y38.09797
G01 X-53.93428 Y38.07452
G01 X-53.78478 Y38.04387
G01 X-53.47017 Y37.96495
G01 X-53.20121 Y37.87889
G01 X-53.05984 Y37.82502
G01 X-52.81689 Y37.72383
G01 X-52.66642 Y37.65316
G01 X-52.66845 Y37.64351
G01 X-52.66642 Y37.65316
G01 X-52.39672 Y37.65316
G01 X-52.11572 Y37.64328
G01 X-51.94376 Y37.62855
G01 X-51.80206 Y37.61168
G01 X-51.65105 Y37.58801
G01 X-51.51097 Y37.56073
G01 X-51.21410 Y37.48669
G01 X-50.97117 Y37.40998
G01 X-50.72421 Y37.31397
G01 X-50.45575 Y37.18982
G01 X-50.29373 Y37.10381
G01 X-50.12713 Y37.00506
G01 X-49.93173 Y36.87544
G01 X-49.77580 Y36.76193
G01 X-49.62553 Y36.64102
G01 X-49.48870 Y36.51992
G01 X-49.32131 Y36.35654
G01 X-49.18895 Y36.21623
G01 X-49.06353 Y36.06973
G01 X-48.95136 Y35.92551
G01 X-48.81710 Y35.73402
G01 X-48.71855 Y35.58014
G01 X-48.62228 Y35.41304
G01 X-48.53414 Y35.24146
G01 X-48.43795 Y35.02825
G01 X-48.37303 Y34.86836
G01 X-48.30247 Y34.66722
G01 X-48.24270 Y34.46259
G01 X-48.18680 Y34.22485
G01 X-48.14956 Y34.02444
G01 X-48.12149 Y33.81225
G01 X-48.10592 Y33.61924
G01 X-48.09729 Y33.39498
G01 X-48.10067 Y33.17077
G01 X-48.11560 Y32.95726
G01 X-48.14357 Y32.72432
G01 X-48.17961 Y32.51335
G01 X-48.22439 Y32.31449
G01 X-48.29388 Y32.06915
G01 X-48.35517 Y31.88546
G01 X-48.42924 Y31.69554
G01 X-48.51730 Y31.50047
G01 X-48.63351 Y31.27350
G01 X-48.75223 Y31.07136
G01 X-48.88258 Y30.87654
G01 X-49.04796 Y30.65635
G01 X-49.19975 Y30.47774
G01 X-49.36175 Y30.30830
G01 X-49.55489 Y30.12658
G01 X-49.74283 Y29.97007
G01 X-49.94001 Y29.82531
G01 X-50.17849 Y29.66982
G01 X-50.40864 Y29.54068
G01 X-50.63749 Y29.43111
G01 X-50.78720 Y29.36692
G01 X-50.93398 Y29.31003
G01 X-51.41712 Y29.23289
G01 X-51.34409 Y28.73822
G01 X-50.95784 Y28.79989
G01 X-49.56482 Y28.79984
G01 X-49.36259 Y28.79369
G01 X-49.19975 Y28.78224
G01 X-49.05713 Y28.76733
G01 X-48.91512 Y28.74731
G01 X-48.77392 Y28.72222
G01 X-48.46457 Y28.65102
G01 X-48.31687 Y28.60860
G01 X-48.17092 Y28.56057
G01 X-48.03648 Y28.51071
G01 X-47.86579 Y28.44104
G01 X-47.72602 Y28.37724
G01 X-47.57974 Y28.30335
G01 X-47.44545 Y28.22867
G01 X-47.28782 Y28.13431
G01 X-47.15144 Y28.04490
G01 X-47.02698 Y27.95610
G01 X-46.84298 Y27.81089
G01 X-46.62350 Y27.61729
G01 X-45.80943 Y26.80518
G01 X-45.32615 Y27.73611
G01 X-45.85868 Y28.26868
G01 X-46.04418 Y28.44284
G01 X-46.21433 Y28.58872
G01 X-46.34903 Y28.69689
G01 X-46.48738 Y28.80035
G01 X-46.63768 Y28.90462
G01 X-46.80034 Y29.00863
G01 X-46.99302 Y29.12194
G01 X-47.16196 Y29.21335
G01 X-47.33427 Y29.29819
G01 X-47.52835 Y29.38417
G01 X-47.73557 Y29.46629
G01 X-47.91662 Y29.53037
G01 X-48.09132 Y29.58493
G01 X-47.30755 Y29.83370
G01 X-47.16694 Y29.77170
G01 X-46.88385 Y29.63215
G01 X-46.59117 Y29.46644
G01 X-46.33280 Y29.30215
G01 X-46.10026 Y29.13606
G01 X-45.88449 Y28.96466
G01 X-45.64565 Y28.75638
G01 X-45.51246 Y28.62946
G01 X-45.08345 Y28.20053
G01 X-44.82567 Y28.64988
G01 X-45.15896 Y28.98308
G01 X-45.29993 Y29.11770
G01 X-45.47631 Y29.27444
G01 X-45.70407 Y29.46199
G01 X-45.91492 Y29.62036
G01 X-46.14098 Y29.77485
G01 X-46.35642 Y29.90855
G01 X-46.61367 Y30.05468
G01 X-45.96953 Y30.25841
G01 X-45.78533 Y30.13906
G01 X-45.60989 Y30.01686
G01 X-45.43857 Y29.88897
G01 X-45.27154 Y29.75549
G01 X-45.09351 Y29.60444
G01 X-44.93611 Y29.46215
G01 X-44.56791 Y29.09923
G01 X-44.31015 Y29.54858
G01 X-44.56819 Y29.80253
G01 X-44.80164 Y30.01317
G01 X-45.09112 Y30.25211
G01 X-45.35965 Y30.45259
G01 X-44.77423 Y30.63898
G01 X-44.58820 Y30.48772
G01 X-44.38739 Y30.31498
G01 X-44.21495 Y30.15663
G01 X-44.04741 Y29.99298
G01 X-43.51312 Y30.86920
G01 X-43.64873 Y30.99544
G04 P0 ( dwell for no time -- G64 should not smooth over this point )
G00 Z1.00000 ( retract )

G00 X-42.59763 Y33.44436 ( rapid move to begin. )
G01 F20.00000
( Mill infeed pass 1/1 )
G01 Z-0.30000
G04 P0 ( dwell for no time -- G64 should not smooth over this point )
G01 F30.00000
G01 X-42.59763 Y33.44436
G01 X-44.59745 Y33.42226
G01 X-44.60357 Y33.65591
G01 X-44.61741 Y33.90994
G01 X-44.63512 Y34.12261
G01 X-44.66016 Y34.34479
G01 X-44.69181 Y34.56612
G01 X-44.73191 Y34.79637
G01 X-44.77263 Y34.99551
G01 X-44.83230 Y35.25279
G01 X-44.88655 Y35.45855
G01 X-44.95566 Y35.69172
G01 X-45.02231 Y35.89381
G01 X-45.09826 Y36.10341
G01 X-45.18040 Y36.31065
G01 X-45.28071 Y36.54389
G01 X-45.37860 Y36.75540
G01 X-45.47832 Y36.95476
G01 X-45.58393 Y37.15111
G01 X-45.69534 Y37.34420
G01 X-45.81243 Y37.53391
G01 X-45.93511 Y37.72004
G01 X-46.06244 Y37.90363
G01 X-46.20704 Y38.09916
G01 X-46.34512 Y38.27419
G01 X-46.50158 Y38.46038
G01 X-46.65025 Y38.62649
G01 X-46.79671 Y38.78087
G01 X-46.99086 Y38.97442
G01 X-47.15332 Y39.12707
G01 X-47.32025 Y39.27485
G01 X-47.49150 Y39.41760
G01 X-47.65883 Y39.54904
G01 X-47.84631 Y39.68750
G01 X-48.19091 Y39.92141
G01 X-48.51207 Y40.11689
G01 X-48.85169 Y40.30066
G01 X-49.03412 Y40.39027
G01 X-49.21908 Y40.47541
G01 X-49.57516 Y40.62473
G01 X-49.92886 Y40.75232
G01 X-50.28847 Y40.86202
G01 X-50.68280 Y40.96205
G01 X-50.99136 Y41.02542
G01 X-51.30236 Y41.07579
G01 X-51.64552 Y41.11597
G01 X-51.88895 Y41.13588
G01 X-51.92375 Y41.13814
G01 X-51.92443 Y41.13507
G01 X-51.92375 Y41.13814
G01 X-52.09730 Y41.20073
G01 X-52.37744 Y41.29174
G01 X-52.62164 Y41.36131
G01 X-52.90754 Y41.43304
G01 X-53.13616 Y41.48432
G01 X-53.35626 Y41.52666
G01 X-53.58757 Y41.56387
G01 X-53.83009 Y41.59496
G01 X-54.15473 Y41.62709
G01 X-54.41988 Y41.64434
G01 X-54.69570 Y41.65229
G01 X-54.97098 Y41.65074
G01 X-55.23387 Y41.64173
G01 X-55.48620 Y41.62435
G01 X-55.78965 Y41.59352
G01 X-56.05137 Y41.55813
G01 X-55.08186 Y41.99860
G01 X-54.74012 Y42.15260
G01 X-54.73334 Y42.15260
G01 X-54.36723 Y42.14233
G01 X-53.98171 Y42.11335
G01 X-53.54719 Y42.06316
G01 X-53.33604 Y42.03055
G01 X-53.13581 Y41.99425
G01 X-52.80764 Y41.92326
G01 X-52.43297 Y41.82821
G01 X-52.08209 Y41.72303
G01 X-51.87978 Y41.65430
G01 X-51.81862 Y41.62984
G01 X-51.74506 Y41.62649
G01 X-51.49113 Y41.60294
G01 X-51.15756 Y41.55999
G01 X-50.82606 Y41.50304
G01 X-50.49726 Y41.43223
G01 X-50.24018 Y41.36702
G01 X-49.99500 Y41.29761
G01 X-49.75215 Y41.22044
G01 X-49.52144 Y41.13911
G01 X-49.31222 Y41.05839
G01 X-49.09602 Y40.96776
G01 X-48.86366 Y40.86266
G01 X-48.65273 Y40.76032
G01 X-48.44491 Y40.65186
G01 X-48.24918 Y40.54246
G01 X-48.05657 Y40.42761
G01 X-47.85873 Y40.30182
G01 X-47.65606 Y40.16492
G01 X-47.46602 Y40.02931
G01 X-47.27199 Y39.88194
G01 X-47.09036 Y39.73523
G01 X-46.92071 Y39.58999
G01 X-46.74032 Y39.42621
G01 X-46.57222 Y39.26418
G01 X-46.38655 Y39.07597
G01 X-46.20715 Y38.88237
G01 X-46.04730 Y38.69850
G01 X-45.88055 Y38.49390
G01 X-45.72063 Y38.28392
G01 X-45.57349 Y38.07717
G01 X-45.40418 Y37.82355
G01 X-45.27565 Y37.61656
G01 X-45.14360 Y37.38804
G01 X-45.01916 Y37.15530
G01 X-44.90679 Y36.92774
G01 X-44.80171 Y36.69673
G01 X-44.68711 Y36.42507
G01 X-44.58934 Y36.16902
G01 X-44.50669 Y35.92906
G01 X-44.43456 Y35.69635
G01 X-44.36697 Y35.45175
G01 X-44.30718 Y35.20509
G01 X-44.24766 Y34.92576
G01 X-44.20286 Y34.67491
G01 X-44.16608 Y34.42277
G01 X-44.13636 Y34.15944
G01 X-44.11668 Y33.91560
G01 X-44.10258 Y33.64057
G01 X-44.09712 Y33.37560
G01 X-44.10042 Y33.11063
G01 X-44.11315 Y32.83572
G01 X-44.13433 Y32.57156
G01 X-44.16392 Y32.30801
G01 X-44.20088 Y32.04558
G01 X-44.24269 Y31.80456
G01 X-44.29404 Y31.55498
G01 X-44.35620 Y31.29608
G01 X-46.12467 Y30.73377
G01 X-46.11878 Y30.74076
G01 X-46.04697 Y30.92036
G01 X-45.95419 Y31.17911
G01 X-45.86920 Y31.45147
G01 X-45.80192 Y31.69694
G01 X-45.74428 Y31.94484
G01 X-45.69988 Y32.17476
G01 X-45.66105 Y32.42630
G01 X-45.62894 Y32.69955
G01 X-45.60870 Y32.95327
G01 X-45.59864 Y33.19742
G01 X-45.59811 Y33.46211
G01 X-45.60816 Y33.72688
G01 X-45.62526 Y33.97062
G01 X-45.65150 Y34.21355
G01 X-45.68685 Y34.45530
G01 X-45.73331 Y34.70554
G01 X-45.79592 Y34.98383
G01 X-45.85543 Y35.21009
G01 X-45.92617 Y35.44377
G01 X-46.00562 Y35.67460
G01 X-46.09757 Y35.91171
G01 X-46.21052 Y36.17354
G01 X-46.31510 Y36.39414
G01 X-46.43275 Y36.61961
G01 X-46.55391 Y36.83155
G01 X-46.68850 Y37.04732
G01 X-46.84847 Y37.28334
G01 X-46.99886 Y37.48842
G01 X-47.14423 Y37.67176
G01 X-47.30958 Y37.86495
G01 X-47.48238 Y38.05154
G01 X-47.66191 Y38.23213
G01 X-47.90783 Y38.46060
G01 X-48.18118 Y38.68870
G01 X-48.44997 Y38.88974
G01 X-48.76264 Y39.10007
G01 X-49.05073 Y39.27292
G01 X-49.33823 Y39.42608
G01 X-49.67963 Y39.58585
G01 X-49.98103 Y39.70947
G01 X-50.20130 Y39.78892
G01 X-50.42428 Y39.86040
G01 X-50.64971 Y39.92377
G01 X-50.91679 Y39.98973
G01 X-51.21626 Y40.04986
G01 X-51.51816 Y40.09586
G01 X-51.89276 Y40.13355
G01 X-52.12438 Y40.14739
G01 X-52.13558 Y40.14785
G01 X-52.13645 Y40.14371
G01 X-52.13558 Y40.14785
G01 X-52.23807 Y40.18796
G01 X-52.49802 Y40.28079
G01 X-52.70274 Y40.34533
G01 X-52.91940 Y40.40566
G01 X-53.20668 Y40.47617
G01 X-53.41656 Y40.52077
G01 X-53.63787 Y40.56004
G01 X-53.87056 Y40.59291
G01 X-54.24576 Y40.63121
G01 X-54.58155 Y40.64988
G01 X-54.76499 Y40.65273
G01 X-54.98882 Y40.65024
G01 X-55.31333 Y40.63495
G01 X-55.68744 Y40.59865
G01 X-56.01934 Y40.55026
G01 X-56.40824 Y40.47335
G01 X-56.75320 Y40.38658
G01 X-57.12236 Y40.27360
G01 X-57.44672 Y40.15565
G01 X-57.80273 Y40.00673
G01 X-57.96824 Y39.92926
G01 X-58.16790 Y39.82888
G01 X-58.32030 Y39.74788
G01 X-58.48802 Y39.65257
G01 X-58.81583 Y39.44866
G01 X-59.08335 Y39.26368
G01 X-59.38202 Y39.03513
G01 X-59.53095 Y38.91217
G01 X-59.67616 Y38.78483
G01 X-59.86216 Y38.61178
G01 X-60.01382 Y38.46195
G01 X-60.15363 Y38.31471
G01 X-60.31636 Y38.13315
G01 X-60.44743 Y37.97808
G01 X-60.56739 Y37.82703
G01 X-60.71359 Y37.63183
G01 X-60.83074 Y37.46569
G01 X-60.94809 Y37.28740
G01 X-61.07585 Y37.07953
G01 X-61.17278 Y36.91250
G01 X-61.26940 Y36.73363
G01 X-61.38702 Y36.49696
G01 X-61.46419 Y36.33130
G01 X-61.53666 Y36.16353
G01 X-61.60440 Y35.99381
G01 X-61.68580 Y35.77481
G01 X-61.75680 Y35.56305
G01 X-61.81222 Y35.37829
G01 X-61.87892 Y35.13308
G01 X-61.92363 Y34.94519
G01 X-61.96462 Y34.74608
G01 X-62.00899 Y34.49571
G01 X-62.03711 Y34.30445
G01 X-62.06056 Y34.10232
G01 X-62.08095 Y33.85901
G01 X-62.09297 Y33.65586
G01 X-62.09873 Y33.44227
G01 X-62.09810 Y33.25914
G01 X-62.09132 Y33.02010
G01 X-62.59606 Y33.57870
G01 X-62.58636 Y33.79561
G01 X-62.56673 Y34.05939
G01 X-62.54620 Y34.26186
G01 X-62.52126 Y34.45355
G01 X-62.48578 Y34.67456
G01 X-62.43526 Y34.94357
G01 X-62.38700 Y35.16084
G01 X-62.33452 Y35.36671
G01 X-62.26500 Y35.61154
G01 X-62.19708 Y35.82576
G01 X-62.12586 Y36.02815
G01 X-62.03084 Y36.27587
G01 X-61.94793 Y36.47374
G01 X-61.85461 Y36.67821
G01 X-61.74293 Y36.90612
G01 X-61.63404 Y37.11176
G01 X-61.51839 Y37.31367
G01 X-61.38093 Y37.53843
G01 X-61.26485 Y37.71636
G01 X-61.14344 Y37.89070
G01 X-60.97984 Y38.11082
G01 X-60.84700 Y38.27925
G01 X-60.70902 Y38.44356
G01 X-60.53925 Y38.63396
G01 X-60.39216 Y38.79014
G01 X-60.23300 Y38.94884
G01 X-60.04743 Y39.12298
G01 X-59.88863 Y39.26413
G01 X-59.70986 Y39.41310
G01 X-59.50207 Y39.57505
G01 X-59.32305 Y39.70729
G01 X-59.14832 Y39.82817
G01 X-58.97001 Y39.94366
G01 X-58.75256 Y40.07703
G01 X-58.55721 Y40.18818
G01 X-58.36750 Y40.28839
G01 X-58.15749 Y40.39309
G01 X-57.94395 Y40.49113
G01 X-57.73674 Y40.57818
G01 X-57.48952 Y40.67447
G01 X-57.29684 Y40.74246
G01 X-57.09247 Y40.80777
G01 X-56.85899 Y40.87614
G01 X-56.62386 Y40.93670
G01 X-56.40659 Y40.98501
G01 X-56.13801 Y41.03710
G01 X-55.92829 Y41.07101
G01 X-55.70758 Y41.09969
G01 X-55.45455 Y41.12524
G01 X-55.22016 Y41.14175
G01 X-54.98536 Y41.15041
G01 X-54.72107 Y41.15252
G01 X-54.50815 Y41.14767
G01 X-54.29547 Y41.13634
G01 X-54.10340 Y41.12052
G01 X-53.80985 Y41.08920
G01 X-53.57749 Y41.05671
G01 X-53.34635 Y41.01645
G01 X-53.11668 Y40.96847
G01 X-52.86919 Y40.90876
G01 X-52.65359 Y40.85163
G01 X-52.44965 Y40.79072
G01 X-52.24760 Y40.72364
G01 X-52.02959 Y40.64345
G04 P0 ( dwell for no time -- G64 should not smooth over this point )
G00 Z1.00000 ( retract )

G00 X-52.03020 Y40.64051 ( rapid move to begin. )
G01 F20.00000
( Mill infeed pass 1/1 )
G01 Z-0.30000
G04 P0 ( dwell for no time -- G64 should not smooth over this point )
G01 F30.00000
G01 X-52.03020 Y40.64051
G01 X-52.02959 Y40.64345
G01 X-51.91092 Y40.63622
G01 X-51.65809 Y40.61488
G01 X-51.45684 Y40.59207
G01 X-51.24628 Y40.56184
G01 X-51.05669 Y40.52903
G01 X-50.84826 Y40.48669
G01 X-50.65105 Y40.44048
G01 X-50.44481 Y40.38648
G01 X-50.25992 Y40.33304
G01 X-50.06701 Y40.27132
G01 X-49.87595 Y40.20403
G01 X-49.70572 Y40.13878
G01 X-49.50935 Y40.05707
G01 X-49.30569 Y39.96540
G01 X-48.97008 Y39.79878
G01 X-48.79251 Y39.70129
G01 X-48.60920 Y39.59344
G01 X-48.43772 Y39.48560
G01 X-48.26892 Y39.37269
G01 X-48.11037 Y39.26157
G01 X-47.95497 Y39.14607
G01 X-47.81072 Y39.03274
G01 X-47.65401 Y38.90241
G01 X-47.50115 Y38.76759
G01 X-47.35965 Y38.63546
G01 X-47.19277 Y38.47054
G01 X-47.05838 Y38.33117
G01 X-46.92112 Y38.18049
G01 X-46.79485 Y38.03371
G01 X-46.67268 Y37.88347
G01 X-46.54862 Y37.72177
G01 X-46.40026 Y37.51466
G01 X-46.23623 Y37.26858
G01 X-46.10819 Y37.06020
G01 X-45.97778 Y36.82957
G01 X-45.86524 Y36.61242
G01 X-45.75195 Y36.37290
G01 X-45.63491 Y36.10130
G01 X-45.53897 Y35.85434
G01 X-45.44934 Y35.59419
G01 X-45.37550 Y35.35037
G01 X-45.31302 Y35.11390
G01 X-45.24980 Y34.83610
G01 X-45.20385 Y34.59742
G01 X-45.16346 Y34.33719
G01 X-45.13390 Y34.08573
G01 X-45.11281 Y33.82325
G01 X-45.09798 Y33.45845
G01 X-45.10110 Y33.10400
G01 X-45.12132 Y32.76028
G01 X-45.15927 Y32.40733
G01 X-45.21119 Y32.06694
G01 X-45.27753 Y31.73938
G01 X-45.35942 Y31.41535
G01 X-45.46816 Y31.05622
G01 X-45.51136 Y30.92905
G01 X-46.12467 Y30.73377
G01 X-44.92592 Y31.11543
G01 X-44.84827 Y31.39039
G01 X-44.78134 Y31.66694
G01 X-44.72315 Y31.95584
G01 X-44.67921 Y32.22668
G01 X-44.63910 Y32.54974
G01 X-44.61507 Y32.82307
G01 X-44.60042 Y33.11741
G01 X-44.59745 Y33.42226
G01 X-49.09711 Y33.37372
G01 X-49.10259 Y33.15871
G01 X-49.12568 Y32.92434
G01 X-49.15578 Y32.73207
G01 X-49.20089 Y32.53227
G01 X-49.26769 Y32.30641
G01 X-49.33826 Y32.11411
G01 X-49.41730 Y31.93628
G01 X-49.53048 Y31.71815
G01 X-49.64318 Y31.53494
G01 X-49.77404 Y31.35158
G01 X-49.89609 Y31.19999
G01 X-50.02769 Y31.05663
G01 X-50.18989 Y30.90029
G01 X-50.34610 Y30.76778
G01 X-50.50257 Y30.65206
G01 X-50.70848 Y30.51795
G01 X-50.83325 Y30.44723
G01 X-50.95199 Y30.38699
G01 X-51.12017 Y30.31165
G01 X-51.23406 Y30.26537
G01 X-51.35944 Y30.22056
G01 X-51.48669 Y30.18137
G01 X-51.75550 Y30.11675
G01 X-51.99817 Y30.07749
G01 X-52.26357 Y30.05625
G01 X-52.91917 Y30.05328
G01 X-52.92222 Y30.06585
G01 X-52.91917 Y30.05328
G01 X-53.11427 Y29.94807
G01 X-53.26141 Y29.87853
G01 X-53.42171 Y29.81353
G01 X-53.62260 Y29.74106
G01 X-53.77815 Y29.69313
G01 X-53.92616 Y29.65592
G01 X-54.13543 Y29.61333
G01 X-54.28597 Y29.58828
G01 X-54.43758 Y29.57091
G01 X-54.79451 Y29.55387
G01 X-54.91823 Y29.55516
G01 X-55.05209 Y29.56232
G01 X-55.23476 Y29.57850
G01 X-55.39603 Y29.60073
G01 X-55.59580 Y29.63799
G01 X-55.73400 Y29.67010
G01 X-55.93878 Y29.72920
G01 X-56.07362 Y29.77332
G01 X-56.21561 Y29.82760
G01 X-56.40235 Y29.90804
G01 X-56.53029 Y29.97063
G01 X-56.69112 Y30.05821
G01 X-56.81355 Y30.13098
G01 X-56.92404 Y30.20370
G01 X-57.07342 Y30.30891
G01 X-57.20880 Y30.41543
G01 X-57.36234 Y30.54825
G01 X-57.46554 Y30.64561
G01 X-57.61960 Y30.80728
G01 X-57.70697 Y30.90659
G01 X-57.78988 Y31.00964
G01 X-57.92313 Y31.18942
G01 X-57.99628 Y31.29963
G01 X-58.09651 Y31.46461
G01 X-58.17880 Y31.61596
G01 X-58.25769 Y31.78081
G01 X-58.31489 Y31.91063
G01 X-58.36592 Y32.04301
G01 X-58.42500 Y32.21617
G01 X-58.46526 Y32.35279
G01 X-58.51307 Y32.55056
G01 X-58.54289 Y32.70024
G01 X-58.57288 Y32.91172
G01 X-58.58759 Y33.05340
G01 X-58.59521 Y33.18546
G01 X-58.59915 Y33.38886
G01 X-58.59328 Y33.56173
G01 X-58.57476 Y33.78474
G01 X-58.55411 Y33.93595
G01 X-58.51555 Y34.14644
G01 X-58.48048 Y34.29566
G01 X-58.42152 Y34.50217
G01 X-58.37517 Y34.63828
G01 X-58.29709 Y34.83861
G01 X-58.23344 Y34.97895
G01 X-58.13689 Y35.17021
G01 X-58.06542 Y35.29416
G01 X-57.94581 Y35.48405
G01 X-57.82020 Y35.65764
G01 X-57.73130 Y35.77069
G01 X-57.58957 Y35.93234
G01 X-57.47568 Y36.05083
G01 X-57.32661 Y36.19078
G01 X-57.21805 Y36.28398
G01 X-57.04886 Y36.41537
G01 X-56.91523 Y36.50960
G01 X-56.74243 Y36.61865
G01 X-56.60850 Y36.69477
G01 X-56.41663 Y36.79182
G01 X-56.25678 Y36.86208
G01 X-56.05615 Y36.93940
G01 X-55.85122 Y37.00419
G01 X-55.68333 Y37.04890
G01 X-55.49367 Y37.08855
G01 X-55.31216 Y37.11839
G01 X-55.10906 Y37.14026
G01 X-54.94503 Y37.15024
G01 X-54.76171 Y37.15278
G01 X-54.52969 Y37.14283
G01 X-54.22603 Y37.10948
G01 X-54.01465 Y37.07059
G01 X-53.74744 Y37.00417
G01 X-53.51452 Y36.92876
G01 X-53.23136 Y36.81372
G01 X-53.10203 Y36.75301
G01 X-52.97574 Y36.68621
G01 X-52.91828 Y36.65319
G01 X-52.92171 Y36.63922
G01 X-52.91828 Y36.65319
G01 X-52.37622 Y36.65311
G01 X-52.21242 Y36.64753
G01 X-52.03891 Y36.63310
G01 X-51.90680 Y36.61654
G01 X-51.76550 Y36.59218
G01 X-51.62550 Y36.56109
G01 X-51.48684 Y36.52462
G01 X-51.35944 Y36.48586
G01 X-51.22433 Y36.43782
G01 X-51.10107 Y36.38751
G01 X-50.95199 Y36.31949
G01 X-50.83325 Y36.25924
G01 X-50.70848 Y36.18852
G01 X-50.58725 Y36.11194
G01 X-50.41928 Y35.99477
G01 X-50.25908 Y35.86714
G01 X-50.12263 Y35.74313
G01 X-49.95758 Y35.57516
G01 X-49.83691 Y35.43579
G01 X-49.72500 Y35.28926
G01 X-49.59899 Y35.10252
G01 X-49.50043 Y34.93473
G01 X-49.41298 Y34.76087
G01 X-49.32375 Y34.55406
G01 X-49.25764 Y34.37103
G01 X-49.20610 Y34.19401
G01 X-49.15819 Y33.98436
G01 X-49.12611 Y33.79241
G01 X-49.10656 Y33.59882
G01 X-49.09711 Y33.37372
G01 X-49.59706 Y33.36943
G01 X-49.60668 Y33.58294
G01 X-49.62568 Y33.75462
G01 X-49.65433 Y33.91464
G01 X-49.70757 Y34.13275
G01 X-49.76818 Y34.31692
G01 X-49.85042 Y34.51494
G01 X-49.93109 Y34.67997
G01 X-50.01280 Y34.82134
G01 X-50.13236 Y34.99937
G01 X-50.24481 Y35.14461
G01 X-50.36762 Y35.28118
G01 X-50.52080 Y35.43127
G01 X-50.67694 Y35.56269
G01 X-50.84308 Y35.68144
G01 X-50.99794 Y35.77874
G01 X-51.15946 Y35.86447
G01 X-51.36401 Y35.95555
G01 X-51.54579 Y36.02058
G01 X-51.78148 Y36.08433
G01 X-51.99121 Y36.12358
G01 X-52.20378 Y36.14575
G01 X-52.36621 Y36.15301
G01 X-53.05522 Y36.15319
G01 X-53.05951 Y36.13688
G01 X-53.05522 Y36.15319
G01 X-53.28382 Y36.28443
G01 X-53.43020 Y36.35494
G01 X-53.64627 Y36.44400
G01 X-53.78018 Y36.49185
G01 X-53.91655 Y36.53201
G01 X-54.12463 Y36.58283
G01 X-54.28640 Y36.61296
G01 X-54.40886 Y36.62853
G01 X-54.64238 Y36.64933
G01 X-54.77520 Y36.65281
G01 X-54.96806 Y36.64890
G01 X-55.09918 Y36.63897
G01 X-55.29344 Y36.61603
G01 X-55.49570 Y36.57826
G01 X-55.62699 Y36.54776
G01 X-55.86209 Y36.47740
G01 X-56.06108 Y36.40188
G01 X-56.21835 Y36.33241
G01 X-56.41635 Y36.22995
G01 X-56.59864 Y36.11916
G01 X-56.74378 Y36.01918
G01 X-56.93021 Y35.87311
G01 X-57.09013 Y35.72815
G01 X-57.21081 Y35.60564
G01 X-57.35122 Y35.44573
G01 X-57.48706 Y35.26770
G01 X-57.57969 Y35.13011
G01 X-57.69544 Y34.93539
G01 X-57.79663 Y34.73338
G01 X-57.86438 Y34.57534
G01 X-57.94027 Y34.36572
G01 X-58.00174 Y34.14987
G01 X-58.03905 Y33.97763
G01 X-58.07469 Y33.75670
G01 X-58.09468 Y33.52361
G01 X-58.09907 Y33.35071
G01 X-58.09165 Y33.12704
G01 X-58.06661 Y32.89445
G01 X-58.04070 Y32.73374
G01 X-57.99104 Y32.51553
G01 X-57.93941 Y32.33986
G01 X-57.85726 Y32.11241
G01 X-57.76191 Y31.90131
G01 X-57.67890 Y31.74144
G01 X-57.55815 Y31.54258
G01 X-57.47123 Y31.41716
G01 X-57.33420 Y31.24022
G01 X-57.17088 Y31.05922
G01 X-57.05706 Y30.94657
G01 X-56.87474 Y30.78795
G01 X-56.73159 Y30.67863
G01 X-56.53786 Y30.54830
G01 X-56.32552 Y30.42785
G01 X-56.17022 Y30.35178
G01 X-55.95572 Y30.26253
G01 X-55.79458 Y30.20794
G01 X-55.56194 Y30.14259
G01 X-55.33441 Y30.09740
G01 X-55.16311 Y30.07368
G01 X-54.94950 Y30.05681
G01 X-54.77518 Y30.05419
G01 X-54.50162 Y30.06728
G01 X-54.30230 Y30.09146
G01 X-54.06426 Y30.13753
G01 X-53.91798 Y30.17322
G01 X-53.77409 Y30.21767
G01 X-53.57452 Y30.29026
G01 X-53.42644 Y30.35252
G01 X-53.28267 Y30.42415
G01 X-53.05356 Y30.55328
G01 X-53.05765 Y30.56908
G01 X-53.05356 Y30.55328
G01 X-52.36655 Y30.55346
G01 X-52.15501 Y30.56415
G01 X-51.97432 Y30.58536
G01 X-51.85491 Y30.60677
G01 X-51.72578 Y30.63560
G01 X-51.51966 Y30.69420
G01 X-51.33812 Y30.76227
G01 X-51.20706 Y30.81955
G01 X-51.09705 Y30.87334
G01 X-50.98979 Y30.93245
G01 X-50.88555 Y30.99676
G01 X-50.76736 Y31.07695
G01 X-50.66142 Y31.15587
G01 X-50.56746 Y31.23359
G01 X-50.47739 Y31.31581
G01 X-50.36871 Y31.42318
G01 X-50.27305 Y31.52846
G01 X-50.18971 Y31.63098
G01 X-50.09916 Y31.75401
G01 X-50.03122 Y31.85528
G01 X-49.96828 Y31.95973
G01 X-49.91511 Y32.05805
G01 X-49.83945 Y32.21375
G01 X-49.78827 Y32.33552
G01 X-49.74676 Y32.45018
G01 X-49.68049 Y32.67466
G01 X-49.63665 Y32.88347
G01 X-49.60551 Y33.13590
G01 X-49.59838 Y33.25764
G01 X-49.59706 Y33.36943
G01 X-50.09703 Y33.36508
G01 X-50.10462 Y33.53659
G01 X-50.11816 Y33.66640
G01 X-50.14016 Y33.79508
G01 X-50.17935 Y33.96310
G01 X-50.21778 Y34.08934
G01 X-50.26444 Y34.21276
G01 X-50.33467 Y34.37087
G01 X-50.40104 Y34.49653
G01 X-50.47051 Y34.60869
G01 X-50.56985 Y34.75027
G01 X-50.65296 Y34.85276
G01 X-50.74265 Y34.94956
G01 X-50.85926 Y35.06325
G01 X-50.96754 Y35.15525
G01 X-51.08207 Y35.23933
G01 X-51.23464 Y35.33798
G01 X-51.40345 Y35.42685
G01 X-51.52347 Y35.48055
G01 X-51.62647 Y35.52040
G01 X-51.73157 Y35.55451
G01 X-51.85854 Y35.58860
G01 X-52.04557 Y35.62619
G01 X-52.23619 Y35.64674
G01 X-52.38664 Y35.65317
G01 X-53.20259 Y35.65319
G01 X-53.20787 Y35.63483
G01 X-53.20259 Y35.65319
G01 X-53.31808 Y35.72782
G01 X-53.51109 Y35.83907
G01 X-53.67543 Y35.91611
G01 X-53.85405 Y35.98814
G01 X-53.99763 Y36.03569
G01 X-54.22308 Y36.09251
G01 X-54.38031 Y36.12142
G01 X-54.59072 Y36.14440
G01 X-54.70992 Y36.15179
G01 X-54.90035 Y36.15116
G01 X-55.03855 Y36.14255
G01 X-55.22874 Y36.12010
G01 X-55.42691 Y36.08174
G01 X-55.55338 Y36.04948
G01 X-55.75338 Y35.98565
G01 X-55.93867 Y35.91098
G01 X-56.11802 Y35.82294
G01 X-56.23852 Y35.75474
G01 X-56.41581 Y35.63950
G01 X-56.59178 Y35.50432
G01 X-56.74164 Y35.36953
G01 X-56.84578 Y35.26389
G01 X-56.98325 Y35.10559
G01 X-57.10898 Y34.93633
G01 X-57.22165 Y34.75690
G01 X-57.28924 Y34.63369
G01 X-57.37847 Y34.44347
G01 X-57.45282 Y34.24740
G01 X-57.51218 Y34.04588
G01 X-57.54515 Y33.89894
G01 X-57.58160 Y33.66800
G01 X-57.59793 Y33.44481
G01 X-57.59620 Y33.23123
G01 X-57.58571 Y33.07900
G01 X-57.55696 Y32.86732
G01 X-57.50900 Y32.64875
G01 X-57.46648 Y32.50220
G01 X-57.39376 Y32.29994
G01 X-57.30471 Y32.10420
G01 X-57.23235 Y31.96780
G01 X-57.11960 Y31.78581
G01 X-56.98673 Y31.60575
G01 X-56.88818 Y31.48924
G01 X-56.73936 Y31.33418
G01 X-56.57825 Y31.19171
G01 X-56.45661 Y31.09664
G01 X-56.28808 Y30.98180
G01 X-56.08475 Y30.86611
G01 X-55.94728 Y30.79989
G01 X-55.73847 Y30.71546
G01 X-55.51327 Y30.64609
G01 X-55.36288 Y30.61117
G01 X-55.14203 Y30.57439
G01 X-54.91902 Y30.55592
G01 X-54.73591 Y30.55567
G01 X-54.53283 Y30.56639
G01 X-54.38140 Y30.58516
G01 X-54.12212 Y30.63695
G01 X-53.94609 Y30.68729
G01 X-53.71701 Y30.77152
G01 X-53.55069 Y30.84802
G01 X-53.37223 Y30.94561
G01 X-53.26804 Y31.00921
G01 X-53.20342 Y31.05328
G01 X-53.20830 Y31.07058
G01 X-53.20342 Y31.05328
G01 X-52.37566 Y31.05338
G01 X-52.21935 Y31.06072
G01 X-52.08692 Y31.07423
G01 X-51.95562 Y31.09651
G01 X-51.79665 Y31.13326
G01 X-51.65100 Y31.17761
G01 X-51.51849 Y31.22887
G01 X-51.33365 Y31.31388
G01 X-51.20107 Y31.38871
G01 X-51.05733 Y31.48429
G01 X-50.93744 Y31.57548
G01 X-50.83205 Y31.66852
G01 X-50.70348 Y31.79686
G01 X-50.59911 Y31.91901
G01 X-50.49154 Y32.06544
G01 X-50.41610 Y32.18406
G01 X-50.32644 Y32.35350
G01 X-50.26457 Y32.49084
G01 X-50.21321 Y32.63242
G01 X-50.16035 Y32.81672
G01 X-50.13007 Y32.96427
G01 X-50.10889 Y33.12450
G01 X-50.09934 Y33.24461
G01 X-50.09703 Y33.36508
G01 X-50.59698 Y33.35835
G01 X-50.60236 Y33.21510
G01 X-50.62228 Y33.05249
G01 X-50.64686 Y32.93209
G01 X-50.68639 Y32.79430
G01 X-50.73183 Y32.66915
G01 X-50.79698 Y32.53011
G01 X-50.85611 Y32.42239
G01 X-50.91791 Y32.32818
G01 X-51.00378 Y32.21342
G01 X-51.08489 Y32.12109
G01 X-51.20244 Y32.00697
G01 X-51.30513 Y31.92224
G01 X-51.43929 Y31.82953
G01 X-51.54341 Y31.76844
G01 X-51.64285 Y31.71998
G01 X-51.81140 Y31.65119
G01 X-51.93657 Y31.61350
G01 X-52.08455 Y31.58079
G01 X-52.19360 Y31.56486
G01 X-52.32499 Y31.55498
G01 X-53.37101 Y31.55325
G01 X-53.37896 Y31.57764
G01 X-53.37101 Y31.55325
G01 X-53.52418 Y31.43931
G01 X-53.63964 Y31.36890
G01 X-53.77406 Y31.29542
G01 X-53.85836 Y31.25465
G01 X-54.07922 Y31.17030
G01 X-54.18839 Y31.13595
G01 X-54.41947 Y31.08617
G01 X-54.53258 Y31.06882
G01 X-54.62590 Y31.06110
G01 X-54.83847 Y31.05374
G01 X-54.93878 Y31.05800
G01 X-55.09059 Y31.07179
G01 X-55.26105 Y31.10075
G01 X-55.35999 Y31.12270
G01 X-55.52557 Y31.17141
G01 X-55.63052 Y31.20893
G01 X-55.80764 Y31.28599
G01 X-55.95993 Y31.36791
G01 X-56.06357 Y31.43240
G01 X-56.21236 Y31.53844
G01 X-56.35168 Y31.65668
G01 X-56.43928 Y31.74101
G01 X-56.56255 Y31.87626
G01 X-56.67426 Y32.02135
G01 X-56.73662 Y32.11426
G01 X-56.83400 Y32.28071
G01 X-56.91246 Y32.44573
G01 X-56.95734 Y32.55874
G01 X-57.01142 Y32.72295
G01 X-57.05638 Y32.91091
G01 X-57.08503 Y33.10199
G01 X-57.09557 Y33.22361
G01 X-57.09884 Y33.40666
G01 X-57.08696 Y33.58937
G01 X-57.07276 Y33.70036
G01 X-57.03821 Y33.88053
G01 X-56.98891 Y34.05767
G01 X-56.92922 Y34.22101
G01 X-56.85272 Y34.38850
G01 X-56.79476 Y34.49655
G01 X-56.70329 Y34.64380
G01 X-56.60045 Y34.78357
G01 X-56.48005 Y34.92294
G01 X-56.40093 Y35.00359
G01 X-56.27220 Y35.11979
G01 X-56.11833 Y35.23752
G01 X-55.95478 Y35.34194
G01 X-55.81025 Y35.41865
G01 X-55.69821 Y35.46998
G01 X-55.53580 Y35.53211
G01 X-55.36938 Y35.58151
G01 X-55.20990 Y35.61565
G01 X-55.09892 Y35.63351
G01 X-54.92593 Y35.64976
G01 X-54.76283 Y35.65279
G01 X-54.64180 Y35.64699
G01 X-54.41142 Y35.62025
G01 X-54.19524 Y35.57113
G01 X-54.05201 Y35.52815
G01 X-53.87388 Y35.45710
G01 X-53.72090 Y35.38426
G01 X-53.51376 Y35.26020
G01 X-53.37124 Y35.15322
G01 X-53.37917 Y35.12896
G01 X-53.37124 Y35.15322
G01 X-52.31795 Y35.15114
G01 X-52.16688 Y35.13816
G01 X-52.05562 Y35.12053
G01 X-51.89647 Y35.08164
G01 X-51.77947 Y35.04408
G01 X-51.68456 Y35.00552
G01 X-51.53696 Y34.93458
G01 X-51.43988 Y34.87735
G01 X-51.32230 Y34.79698
G01 X-51.23546 Y34.72843
G01 X-51.15387 Y34.65368
G01 X-51.04798 Y34.54479
G01 X-50.96495 Y34.44380
G01 X-50.88395 Y34.32752
G01 X-50.82149 Y34.22424
G01 X-50.77170 Y34.12543
G01 X-50.70843 Y33.97636
G01 X-50.66741 Y33.85221
G01 X-50.63195 Y33.70428
G01 X-50.61280 Y33.59325
G01 X-50.60206 Y33.48111
G01 X-50.59698 Y33.35835
G01 X-51.09695 Y33.35404
G01 X-51.10282 Y33.47535
G01 X-51.11255 Y33.55508
G01 X-51.14008 Y33.68444
G01 X-51.16025 Y33.75462
G01 X-51.18946 Y33.83280
G01 X-51.24473 Y33.95528
G01 X-51.29131 Y34.03676
G01 X-51.35532 Y34.13079
G01 X-51.42098 Y34.21182
G01 X-51.50025 Y34.29305
G01 X-51.55374 Y34.34276
G01 X-51.61915 Y34.39462
G01 X-51.71216 Y34.45800
G01 X-51.79050 Y34.50308
G01 X-51.90058 Y34.55431
G01 X-51.98514 Y34.58627
G01 X-52.10216 Y34.61875
G01 X-52.18077 Y34.63516
G01 X-52.25047 Y34.64430
G01 X-52.37533 Y34.65299
G01 X-53.55455 Y34.65322
G01 X-53.56418 Y34.62553
G01 X-53.55455 Y34.65322
G01 X-53.60497 Y34.69886
G01 X-53.72405 Y34.79543
G01 X-53.80916 Y34.85594
G01 X-53.97777 Y34.95467
G01 X-54.05336 Y34.99028
G01 X-54.24460 Y35.06559
G01 X-54.43319 Y35.11476
G01 X-54.53144 Y35.13282
G01 X-54.73474 Y35.15208
G01 X-54.93697 Y35.14773
G01 X-55.07022 Y35.13275
G01 X-55.20212 Y35.10727
G01 X-55.39008 Y35.05360
G01 X-55.52989 Y34.99836
G01 X-55.65582 Y34.93620
G01 X-55.78480 Y34.85909
G01 X-55.85468 Y34.81108
G01 X-55.96880 Y34.72172
G01 X-56.08089 Y34.61736
G01 X-56.18185 Y34.50600
G01 X-56.26146 Y34.40255
G01 X-56.30931 Y34.33260
G01 X-56.39338 Y34.18931
G01 X-56.45437 Y34.06127
G01 X-56.50451 Y33.93008
G01 X-56.54426 Y33.79465
G01 X-56.56085 Y33.72236
G01 X-56.58493 Y33.58159
G01 X-56.59704 Y33.43968
G01 X-56.59890 Y33.34817
G01 X-56.59145 Y33.18563
G01 X-56.57101 Y33.03443
G01 X-56.53992 Y32.89546
G01 X-56.51744 Y32.81726
G01 X-56.46697 Y32.67547
G01 X-56.40410 Y32.53877
G01 X-56.36227 Y32.46087
G01 X-56.28731 Y32.34019
G01 X-56.19603 Y32.21794
G01 X-56.14990 Y32.16369
G01 X-56.03890 Y32.04804
G01 X-55.92536 Y31.94926
G01 X-55.85488 Y31.89585
G01 X-55.73667 Y31.81652
G01 X-55.59402 Y31.73814
G01 X-55.45458 Y31.67710
G01 X-55.37142 Y31.64708
G01 X-55.22699 Y31.60479
G01 X-55.07937 Y31.57553
G01 X-54.99872 Y31.56471
G01 X-54.84401 Y31.55386
G01 X-54.59768 Y31.56468
G01 X-54.50718 Y31.57847
G01 X-54.30848 Y31.62153
G01 X-54.11660 Y31.68889
G01 X-54.02336 Y31.72950
G01 X-53.81925 Y31.84360
G01 X-53.65603 Y31.96481
G01 X-53.55560 Y32.05325
G01 X-53.56560 Y32.08162
G01 X-53.55560 Y32.05325
G01 X-52.37719 Y32.05343
G01 X-52.26718 Y32.05998
G01 X-52.18595 Y32.07057
G01 X-52.06550 Y32.09663
G01 X-51.98542 Y32.12008
G01 X-51.91714 Y32.14599
G01 X-51.79464 Y32.20126
G01 X-51.72202 Y32.24230
G01 X-51.63647 Y32.29953
G01 X-51.57239 Y32.34799
G01 X-51.51971 Y32.39450
G01 X-51.44734 Y32.46549
G01 X-51.38796 Y32.53359
G01 X-51.32167 Y32.62315
G01 X-51.27823 Y32.69071
G01 X-51.22200 Y32.79833
G01 X-51.18920 Y32.87166
G01 X-51.16236 Y32.94738
G01 X-51.12934 Y33.06422
G01 X-51.11417 Y33.14311
G01 X-51.10183 Y33.24372
G01 X-51.09695 Y33.35404
G01 X-51.59690 Y33.34725
G01 X-51.59926 Y33.29399
G01 X-51.61138 Y33.20095
G01 X-51.64866 Y33.06971
G01 X-51.70772 Y32.94675
G01 X-51.77348 Y32.85226
G01 X-51.80810 Y32.81169
G01 X-51.87556 Y32.74649
G01 X-51.97701 Y32.67260
G01 X-52.05044 Y32.63313
G01 X-52.12606 Y32.60077
G01 X-52.17561 Y32.58457
G01 X-52.28351 Y32.56128
G01 X-52.38532 Y32.55338
G01 X-53.77558 Y32.55322
G01 X-53.81208 Y32.50834
G01 X-53.92722 Y32.38937
G01 X-54.08392 Y32.26796
G01 X-54.25724 Y32.17177
G01 X-54.44317 Y32.10306
G01 X-54.63738 Y32.06341
G01 X-54.83446 Y32.05376
G01 X-54.99771 Y32.06887
G01 X-55.10936 Y32.09077
G01 X-55.21782 Y32.12295
G01 X-55.26865 Y32.14129
G01 X-55.38036 Y32.19041
G01 X-55.47827 Y32.24456
G01 X-55.57086 Y32.30735
G01 X-55.69895 Y32.41469
G01 X-55.81005 Y32.53610
G01 X-55.87688 Y32.62582
G01 X-55.93565 Y32.72178
G01 X-56.00741 Y32.87271
G01 X-56.04749 Y32.98934
G01 X-56.07380 Y33.09808
G01 X-56.09664 Y33.26938
G01 X-56.09918 Y33.38124
G01 X-56.09158 Y33.49285
G01 X-56.06252 Y33.66064
G01 X-56.03433 Y33.75970
G01 X-55.99328 Y33.86788
G01 X-55.94431 Y33.96920
G01 X-55.88782 Y34.06353
G01 X-55.79024 Y34.19447
G01 X-55.72745 Y34.26369
G01 X-55.63796 Y34.34669
G01 X-55.54317 Y34.41949
G01 X-55.45905 Y34.47316
G01 X-55.31632 Y34.54578
G01 X-55.22940 Y34.58012
G01 X-55.13090 Y34.61019
G01 X-54.97634 Y34.64108
G01 X-54.87386 Y34.65114
G01 X-54.77088 Y34.65284
G01 X-54.59217 Y34.63648
G01 X-54.39443 Y34.58853
G01 X-54.24251 Y34.52739
G01 X-54.18671 Y34.49891
G01 X-54.05542 Y34.41924
G01 X-53.92758 Y34.31687
G01 X-53.88237 Y34.27354
G01 X-53.77495 Y34.15325
G01 X-52.38603 Y34.15312
G01 X-52.26075 Y34.14161
G01 X-52.13888 Y34.11050
G01 X-52.01397 Y34.05568
G01 X-51.90907 Y33.98721
G01 X-51.86888 Y33.95396
G01 X-51.81044 Y33.89612
G01 X-51.75661 Y33.83244
G01 X-51.68997 Y33.72777
G01 X-51.63388 Y33.59434
G01 X-51.60571 Y33.47273
G01 X-51.59690 Y33.34725
G04 P0 ( dwell for no time -- G64 should not smooth over this point )
G00 Z1.00000 ( retract )

G00 X-60.25045 Y48.46747 ( rapid move to begin. )
G01 F20.00000
( Mill infeed pass 1/1 )
G01 Z-0.30000
G04 P0 ( dwell for no time -- G64 should not smooth over this point )
G01 F30.00000
G01 X-60.25045 Y48.46747
G01 X-60.25319 Y48.59752
G01 X-60.26630 Y48.71773
G01 X-60.29833 Y48.87712
G01 X-60.35063 Y49.04014
G01 X-60.41606 Y49.18507
G01 X-60.47524 Y49.29053
G01 X-60.54306 Y49.39007
G01 X-60.64865 Y49.51832
G01 X-60.77252 Y49.63721
G01 X-60.87491 Y49.71826
G01 X-60.98682 Y49.79134
G01 X-61.10481 Y49.85413
G01 X-61.22518 Y49.90473
G01 X-61.37976 Y49.95342
G01 X-61.53569 Y49.98458
G01 X-61.70679 Y49.99893
G01 X-61.83889 Y49.99733
G01 X-61.96020 Y49.98476
G01 X-62.11976 Y49.95370
G01 X-62.27478 Y49.90473
G01 X-62.38644 Y49.85824
G01 X-62.50168 Y49.79792
G01 X-62.64435 Y49.70417
G01 X-62.77658 Y49.59307
G01 X-62.86911 Y49.49876
G01 X-62.94623 Y49.40427
G01 X-63.04054 Y49.26444
G01 X-63.11908 Y49.11176
G01 X-63.16800 Y48.98906
G01 X-63.20264 Y48.87211
G01 X-63.23622 Y48.70270
G01 X-63.24953 Y48.53252
G01 X-63.24679 Y48.40244
G01 X-63.23366 Y48.28222
G01 X-63.19944 Y48.11398
G01 X-63.14656 Y47.95383
G01 X-63.09838 Y47.84291
G01 X-63.04102 Y47.73699
G01 X-62.94714 Y47.59627
G01 X-62.84463 Y47.47468
G01 X-62.72746 Y47.36277
G01 X-62.62507 Y47.28169
G01 X-62.52444 Y47.21553
G01 X-62.37354 Y47.13575
G01 X-62.21242 Y47.07349
G01 X-62.08517 Y47.03793
G01 X-61.96523 Y47.01593
G01 X-61.77488 Y47.00031
G01 X-61.64483 Y47.00369
G01 X-61.52469 Y47.01743
G01 X-61.35957 Y47.05172
G01 X-61.19906 Y47.10519
G01 X-61.08878 Y47.15360
G01 X-60.97382 Y47.21659
G01 X-60.83938 Y47.30803
G01 X-60.70991 Y47.41929
G01 X-60.62411 Y47.50882
G01 X-60.54618 Y47.60526
G01 X-60.45223 Y47.74778
G01 X-60.37473 Y47.90214
G01 X-60.33066 Y48.01476
G01 X-60.29663 Y48.13028
G01 X-60.26376 Y48.29726
G01 X-60.25045 Y48.46747
G01 X-59.75048 Y48.46328
G01 X-59.75424 Y48.62980
G01 X-59.77191 Y48.79373
G01 X-59.78380 Y48.86388
G01 X-59.81946 Y49.02253
G01 X-59.86887 Y49.17806
G01 X-59.89559 Y49.24824
G01 X-59.95921 Y49.39050
G01 X-60.03404 Y49.52655
G01 X-60.07372 Y49.59032
G01 X-60.15558 Y49.70739
G01 X-60.25281 Y49.82555
G01 X-60.30371 Y49.88080
G01 X-60.42083 Y49.99441
G01 X-60.53892 Y50.09081
G01 X-60.59922 Y50.13556
G01 X-60.72807 Y50.21918
G01 X-60.86264 Y50.29200
G01 X-60.93059 Y50.32398
G01 X-61.05332 Y50.37447
G01 X-61.13023 Y50.40084
G01 X-61.27943 Y50.44382
G01 X-61.43224 Y50.47442
G01 X-61.65853 Y50.49789
G01 X-61.82114 Y50.49830
G01 X-61.90231 Y50.49375
G01 X-62.05604 Y50.47640
G01 X-62.20838 Y50.44641
G01 X-62.27735 Y50.42886
G01 X-62.42553 Y50.38242
G01 X-62.56937 Y50.32398
G01 X-62.63734 Y50.29200
G01 X-62.77432 Y50.21773
G01 X-62.90384 Y50.13307
G01 X-62.96927 Y50.08481
G01 X-63.09429 Y49.98082
G01 X-63.20983 Y49.86642
G01 X-63.26419 Y49.80595
G01 X-63.36093 Y49.68522
G01 X-63.44808 Y49.55601
G01 X-63.48646 Y49.49144
G01 X-63.56187 Y49.34676
G01 X-63.62431 Y49.19660
G01 X-63.65108 Y49.11982
G01 X-63.69555 Y48.96340
G01 X-63.72456 Y48.81375
G01 X-63.73609 Y48.73328
G01 X-63.74877 Y48.56889
G01 X-63.74404 Y48.34877
G01 X-63.72357 Y48.17608
G01 X-63.69253 Y48.02683
G01 X-63.67389 Y47.95408
G01 X-63.62565 Y47.80587
G01 X-63.56126 Y47.65289
G01 X-63.52827 Y47.58543
G01 X-63.45753 Y47.45871
G01 X-63.37107 Y47.32975
G01 X-63.32637 Y47.26937
G01 X-63.22586 Y47.15027
G01 X-63.10897 Y47.03321
G01 X-63.05606 Y46.98566
G01 X-62.92700 Y46.88304
G01 X-62.80638 Y46.80237
G01 X-62.74204 Y46.76364
G01 X-62.60592 Y46.69252
G01 X-62.39888 Y46.60819
G01 X-62.20351 Y46.55210
G01 X-61.99337 Y46.51489
G01 X-61.84087 Y46.50247
G01 X-61.76579 Y46.50036
G01 X-61.64217 Y46.50306
G01 X-61.56729 Y46.50900
G01 X-61.42385 Y46.52678
G01 X-61.27125 Y46.55845
G01 X-61.19871 Y46.57788
G01 X-61.05111 Y46.62609
G01 X-60.86859 Y46.70471
G01 X-60.72381 Y46.78360
G01 X-60.65510 Y46.82708
G01 X-60.52243 Y46.92109
G01 X-60.38954 Y47.03412
G01 X-60.27984 Y47.14481
G01 X-60.22579 Y47.20557
G01 X-60.12972 Y47.32754
G01 X-60.04428 Y47.45652
G01 X-60.00326 Y47.52673
G01 X-59.92957 Y47.67169
G01 X-59.86849 Y47.82299
G01 X-59.84128 Y47.90440
G01 X-59.80262 Y48.04425
G01 X-59.77191 Y48.20625
G01 X-59.76203 Y48.28695
G01 X-59.75048 Y48.46328
G01 X-59.25050 Y48.46132
G01 X-59.25462 Y48.35794
G01 X-59.27250 Y48.16549
G01 X-59.30618 Y47.97496
G01 X-59.33265 Y47.86429
G01 X-59.38573 Y47.68751
G01 X-59.45228 Y47.51593
G01 X-59.49859 Y47.41415
G01 X-59.58878 Y47.24339
G01 X-59.69279 Y47.08050
G01 X-59.75932 Y46.98817
G01 X-59.87705 Y46.84410
G01 X-60.00537 Y46.70966
G01 X-60.08906 Y46.63255
G01 X-60.22962 Y46.51545
G01 X-60.38756 Y46.40438
G01 X-60.48263 Y46.34555
G01 X-60.66300 Y46.24870
G01 X-60.83216 Y46.17479
G01 X-60.93912 Y46.13598
G01 X-61.12543 Y46.07931
G01 X-61.32612 Y46.03620
G01 X-61.51926 Y46.01126
G01 X-61.63277 Y46.00306
G01 X-61.81733 Y46.00092
G01 X-62.00112 Y46.01324
G01 X-62.12218 Y46.02828
G01 X-62.31194 Y46.06399
G01 X-62.49812 Y46.11520
G01 X-62.59462 Y46.14720
G01 X-62.75509 Y46.21126
G01 X-62.85629 Y46.25876
G01 X-63.02753 Y46.35109
G01 X-63.19103 Y46.45726
G01 X-63.26584 Y46.51273
G01 X-63.41521 Y46.63537
G01 X-63.55415 Y46.77001
G01 X-63.62428 Y46.84608
G01 X-63.74145 Y46.98870
G01 X-63.84115 Y47.13138
G01 X-63.90178 Y47.22767
G01 X-63.98059 Y47.37138
G01 X-64.02065 Y47.45546
G01 X-64.09202 Y47.62546
G01 X-64.14986 Y47.80074
G01 X-64.17666 Y47.90069
G01 X-64.21079 Y48.06005
G01 X-64.22741 Y48.17062
G01 X-64.24508 Y48.34377
G01 X-64.24945 Y48.51796
G01 X-64.24607 Y48.63170
G01 X-64.23010 Y48.81433
G01 X-64.21620 Y48.90475
G01 X-64.18075 Y49.08420
G01 X-64.10549 Y49.33749
G01 X-64.03757 Y49.50734
G01 X-63.99022 Y49.60864
G01 X-63.90292 Y49.77067
G01 X-63.80869 Y49.91720
G01 X-63.74864 Y50.00147
G01 X-63.63960 Y50.13642
G01 X-63.57140 Y50.21179
G01 X-63.43409 Y50.34760
G01 X-63.28611 Y50.47163
G01 X-63.21321 Y50.52692
G01 X-63.03409 Y50.64496
G01 X-62.88128 Y50.72865
G01 X-62.77879 Y50.77816
G01 X-62.59843 Y50.85156
G01 X-62.42228 Y50.90742
G01 X-62.30976 Y50.93604
G01 X-62.12832 Y50.97115
G01 X-61.93533 Y50.99281
G01 X-61.82368 Y50.99830
G01 X-61.63056 Y50.99710
G01 X-61.43785 Y50.97998
G01 X-61.32530 Y50.96317
G01 X-61.14461 Y50.92550
G01 X-60.95822 Y50.87097
G01 X-60.85309 Y50.83292
G01 X-60.65553 Y50.74755
G01 X-60.48261 Y50.65489
G01 X-60.32602 Y50.55441
G01 X-60.23414 Y50.48725
G01 X-60.07720 Y50.35781
G01 X-59.92424 Y50.20765
G01 X-59.80364 Y50.06795
G01 X-59.73265 Y49.97605
G01 X-59.62332 Y49.81418
G01 X-59.51812 Y49.62616
G01 X-59.44161 Y49.45822
G01 X-59.40006 Y49.35228
G01 X-59.33818 Y49.15807
G01 X-59.29310 Y48.95987
G01 X-59.27499 Y48.84953
G01 X-59.25490 Y48.65619
G01 X-59.25050 Y48.46132
G01 X-58.75050 Y48.45931
G01 X-58.75630 Y48.31712
G01 X-58.77618 Y48.10463
G01 X-58.81444 Y47.88433
G01 X-58.84939 Y47.73592
G01 X-58.91400 Y47.52185
G01 X-58.99107 Y47.32282
G01 X-59.05457 Y47.18421
G01 X-59.15960 Y46.98682
G01 X-59.28563 Y46.78995
G01 X-59.38215 Y46.65906
G01 X-59.53234 Y46.47994
G01 X-59.68144 Y46.32721
G01 X-59.84949 Y46.17971
G01 X-59.96960 Y46.08581
G01 X-60.15424 Y45.95967
G01 X-60.35718 Y45.84372
G01 X-60.47529 Y45.78444
G01 X-60.68108 Y45.69691
G01 X-60.89302 Y45.62574
G01 X-61.04009 Y45.58553
G01 X-61.25911 Y45.54047
G01 X-61.48095 Y45.51253
G01 X-61.63313 Y45.50286
G01 X-61.84656 Y45.50161
G01 X-62.08982 Y45.51947
G01 X-62.22068 Y45.53788
G01 X-62.45007 Y45.58289
G01 X-62.67503 Y45.64642
G01 X-62.81859 Y45.69772
G01 X-63.01552 Y45.78002
G01 X-63.23221 Y45.89201
G01 X-63.43053 Y46.01576
G01 X-63.55481 Y46.10405
G01 X-63.70531 Y46.22508
G01 X-63.81067 Y46.32074
G01 X-63.96093 Y46.47230
G01 X-64.10566 Y46.64276
G01 X-64.19070 Y46.75685
G01 X-64.31435 Y46.94314
G01 X-64.41839 Y47.12952
G01 X-64.48400 Y47.26716
G01 X-64.56202 Y47.45485
G01 X-64.62893 Y47.65754
G01 X-64.66540 Y47.79510
G01 X-64.71036 Y48.01413
G01 X-64.73777 Y48.23605
G01 X-64.74717 Y48.37803
G01 X-64.74823 Y48.60163
G01 X-64.73287 Y48.81453
G01 X-64.71315 Y48.96571
G01 X-64.67064 Y49.18522
G01 X-64.60790 Y49.41042
G01 X-64.56533 Y49.53551
G01 X-64.48875 Y49.72380
G01 X-64.42718 Y49.85212
G01 X-64.32486 Y50.03942
G01 X-64.19705 Y50.23515
G01 X-64.11780 Y50.34092
G01 X-63.97462 Y50.51262
G01 X-63.82550 Y50.66533
G01 X-63.72062 Y50.76152
G01 X-63.57107 Y50.88372
G01 X-63.44722 Y50.97264
G01 X-63.26754 Y51.08781
G01 X-63.07051 Y51.19355
G01 X-62.95974 Y51.24460
G01 X-62.75212 Y51.32763
G01 X-62.54844 Y51.39144
G01 X-62.43020 Y51.42149
G01 X-62.22078 Y51.46279
G01 X-62.00887 Y51.48806
G01 X-61.86686 Y51.49746
G01 X-61.69409 Y51.49888
G01 X-61.56203 Y51.49385
G01 X-61.34961 Y51.47297
G01 X-61.22914 Y51.45385
G01 X-61.03015 Y51.41229
G01 X-60.83478 Y51.35621
G01 X-60.71918 Y51.31722
G01 X-60.53089 Y51.24061
G01 X-60.41131 Y51.18438
G01 X-60.21492 Y51.07744
G01 X-60.03564 Y50.96159
G01 X-59.92111 Y50.87714
G01 X-59.73361 Y50.72116
G01 X-59.55287 Y50.54260
G01 X-59.41357 Y50.38085
G01 X-59.32091 Y50.25979
G01 X-59.19625 Y50.07417
G01 X-59.07225 Y49.85238
G01 X-58.98342 Y49.65832
G01 X-58.92777 Y49.51636
G01 X-58.85691 Y49.29360
G01 X-58.80443 Y49.06581
G01 X-58.77936 Y48.91542
G01 X-58.75625 Y48.69302
G01 X-58.75050 Y48.45931
G01 X-58.25053 Y48.45731
G01 X-58.25693 Y48.71969
G01 X-58.28243 Y48.97123
G01 X-58.31169 Y49.15184
G01 X-58.37029 Y49.40953
G01 X-58.44893 Y49.66147
G01 X-58.50941 Y49.82141
G01 X-58.61728 Y50.06068
G01 X-58.74339 Y50.29098
G01 X-58.84598 Y50.45222
G01 X-58.98424 Y50.64473
G01 X-59.14781 Y50.84046
G01 X-59.22330 Y50.92139
G01 X-59.33846 Y51.03548
G01 X-59.47392 Y51.15847
G01 X-59.68815 Y51.32812
G01 X-59.89838 Y51.46959
G01 X-60.05987 Y51.56408
G01 X-60.29434 Y51.68275
G01 X-60.55693 Y51.79027
G01 X-60.80869 Y51.87018
G01 X-60.98413 Y51.91488
G01 X-61.23221 Y51.96144
G01 X-61.49355 Y51.98999
G01 X-61.67631 Y51.99873
G01 X-61.94052 Y51.99474
G01 X-62.19330 Y51.97109
G01 X-62.38217 Y51.94196
G01 X-62.54201 Y51.90884
G01 X-62.65304 Y51.88130
G01 X-62.91565 Y51.80013
G01 X-63.13173 Y51.71465
G01 X-63.30546 Y51.63503
G01 X-63.52751 Y51.51498
G01 X-63.74849 Y51.37262
G01 X-63.88798 Y51.27059
G01 X-64.05296 Y51.13518
G01 X-64.15814 Y51.03929
G01 X-64.32245 Y50.87302
G01 X-64.43584 Y50.74262
G01 X-64.57358 Y50.56810
G01 X-64.70957 Y50.36751
G01 X-64.79238 Y50.22949
G01 X-64.90101 Y50.02309
G01 X-64.96388 Y49.88418
G01 X-65.05311 Y49.65715
G01 X-65.12212 Y49.43381
G01 X-65.16045 Y49.28624
G01 X-65.20485 Y49.05670
G01 X-65.22504 Y48.91583
G01 X-65.24539 Y48.67338
G01 X-65.24920 Y48.49236
G01 X-65.24239 Y48.27024
G01 X-65.21877 Y48.03884
G01 X-65.19217 Y47.86808
G01 X-65.14729 Y47.65995
G01 X-65.10500 Y47.50465
G01 X-65.03198 Y47.28413
G01 X-64.93518 Y47.05093
G01 X-64.87480 Y46.92368
G01 X-64.76832 Y46.72861
G01 X-64.67782 Y46.58352
G01 X-64.54470 Y46.39305
G01 X-64.39179 Y46.20501
G01 X-64.27666 Y46.07857
G01 X-64.10990 Y45.91550
G01 X-63.99474 Y45.81555
G01 X-63.81184 Y45.67184
G01 X-63.59395 Y45.52554
G01 X-63.43747 Y45.43445
G01 X-63.21107 Y45.31959
G01 X-62.95728 Y45.21520
G01 X-62.78385 Y45.15691
G01 X-62.51887 Y45.08556
G01 X-62.25903 Y45.03750
G01 X-62.06719 Y45.01535
G01 X-61.82517 Y45.00085
G01 X-61.56274 Y45.00514
G01 X-61.44235 Y45.01391
G01 X-61.28139 Y45.03232
G01 X-61.10257 Y45.06067
G01 X-60.84659 Y45.11863
G01 X-60.58624 Y45.19953
G01 X-60.46368 Y45.24515
G01 X-60.32396 Y45.30453
G01 X-60.14255 Y45.39148
G01 X-59.94751 Y45.50001
G01 X-59.80206 Y45.59330
G01 X-59.61179 Y45.72909
G01 X-59.41698 Y45.89173
G01 X-59.29219 Y46.00865
G01 X-59.12988 Y46.17951
G01 X-58.97964 Y46.36193
G01 X-58.87834 Y46.49973
G01 X-58.73044 Y46.73023
G01 X-58.60146 Y46.97245
G01 X-58.51837 Y47.15797
G01 X-58.45929 Y47.30892
G01 X-58.41995 Y47.42304
G01 X-58.34614 Y47.68540
G01 X-58.29176 Y47.96333
G01 X-58.26785 Y48.15495
G01 X-58.25460 Y48.32660
G01 X-58.25053 Y48.45731
G01 X-57.75056 Y48.45314
G01 X-57.75383 Y48.66876
G01 X-57.76631 Y48.85459
G01 X-57.80286 Y49.14781
G01 X-57.86178 Y49.43660
G01 X-57.92020 Y49.65245
G01 X-58.01596 Y49.93409
G01 X-58.12907 Y50.19899
G01 X-58.22721 Y50.39284
G01 X-58.31248 Y50.54458
G01 X-58.37735 Y50.65044
G01 X-58.55815 Y50.91072
G01 X-58.74517 Y51.13972
G01 X-58.90059 Y51.30602
G01 X-59.10692 Y51.50226
G01 X-59.36097 Y51.70795
G01 X-59.47024 Y51.78638
G01 X-59.60689 Y51.87658
G01 X-59.78992 Y51.98641
G01 X-60.05434 Y52.12273
G01 X-60.30913 Y52.23086
G01 X-60.51989 Y52.30553
G01 X-60.79597 Y52.38450
G01 X-61.08824 Y52.44457
G01 X-61.30351 Y52.47409
G01 X-61.58735 Y52.49662
G01 X-61.89228 Y52.49713
G01 X-62.12553 Y52.48130
G01 X-62.28824 Y52.46322
G01 X-62.43142 Y52.44132
G01 X-62.71141 Y52.38265
G01 X-62.99530 Y52.30073
G01 X-63.19017 Y52.23111
G01 X-63.36063 Y52.16075
G01 X-63.47371 Y52.10945
G01 X-63.72893 Y51.97589
G01 X-63.91432 Y51.86263
G01 X-64.04961 Y51.77236
G01 X-64.15664 Y51.69482
G01 X-64.39296 Y51.50216
G01 X-64.53441 Y51.37064
G01 X-64.73203 Y51.16589
G01 X-64.91409 Y50.94618
G01 X-65.04229 Y50.77079
G01 X-65.19233 Y50.53711
G01 X-65.32451 Y50.29393
G01 X-65.41521 Y50.10069
G01 X-65.51671 Y49.84572
G01 X-65.55875 Y49.72042
G01 X-65.60198 Y49.57422
G01 X-65.64798 Y49.39713
G01 X-65.70325 Y49.10760
G01 X-65.72867 Y48.90590
G01 X-65.74782 Y48.62960
G01 X-65.74681 Y48.35190
G01 X-65.73368 Y48.14540
G01 X-65.70035 Y47.87224
G01 X-65.67896 Y47.75215
G01 X-65.64036 Y47.57275
G01 X-65.59045 Y47.38261
G01 X-65.50388 Y47.11875
G01 X-65.40241 Y46.87161
G01 X-65.30929 Y46.67529
G01 X-65.17955 Y46.44154
G01 X-65.07924 Y46.28462
G01 X-64.91836 Y46.05851
G01 X-64.74800 Y45.85244
G01 X-64.60673 Y45.70125
G01 X-64.40068 Y45.50443
G01 X-64.18009 Y45.32351
G01 X-64.01260 Y45.20194
G01 X-63.77851 Y45.05256
G01 X-63.52573 Y44.91639
G01 X-63.35075 Y44.83463
G01 X-63.10526 Y44.73679
G01 X-62.92182 Y44.67631
G01 X-62.66693 Y44.60657
G01 X-62.39767 Y44.55368
G01 X-62.19637 Y44.52518
G01 X-61.93165 Y44.50443
G01 X-61.75581 Y44.50042
G01 X-61.49889 Y44.50794
G01 X-61.22279 Y44.53578
G01 X-61.05903 Y44.56019
G01 X-60.80750 Y44.61297
G01 X-60.60780 Y44.66722
G01 X-60.35426 Y44.75147
G01 X-60.10719 Y44.85358
G01 X-59.92988 Y44.93844
G01 X-59.69749 Y45.06697
G01 X-59.53448 Y45.17052
G01 X-59.29488 Y45.34217
G01 X-59.07613 Y45.52564
G01 X-58.92592 Y45.66796
G01 X-58.73765 Y45.86839
G01 X-58.56381 Y46.08215
G01 X-58.44342 Y46.25045
G01 X-58.28594 Y46.50003
G01 X-58.15287 Y46.75160
G01 X-58.06867 Y46.93663
G01 X-57.96567 Y47.20445
G01 X-57.88533 Y47.47029
G01 X-57.83720 Y47.67153
G01 X-57.78767 Y47.95271
G01 X-57.75881 Y48.24639
G01 X-57.75056 Y48.45314
G01 X-57.25056 Y48.45116
G01 X-57.26209 Y48.18515
G01 X-57.27789 Y48.00288
G01 X-57.30016 Y47.83148
G01 X-57.36245 Y47.50087
G01 X-57.39409 Y47.37153
G01 X-57.44126 Y47.20466
G01 X-57.52516 Y46.95195
G01 X-57.59973 Y46.76234
G01 X-57.65201 Y46.64095
G01 X-57.70883 Y46.52162
G01 X-57.79752 Y46.35007
G01 X-57.92506 Y46.13029
G01 X-58.10661 Y45.85894
G01 X-58.30738 Y45.60258
G01 X-58.47400 Y45.41601
G01 X-58.60204 Y45.28469
G01 X-58.70605 Y45.18596
G01 X-58.96999 Y44.96156
G01 X-59.09165 Y44.86963
G01 X-59.23336 Y44.77078
G01 X-59.45627 Y44.62879
G01 X-59.74271 Y44.47263
G01 X-59.87217 Y44.41093
G01 X-60.05015 Y44.33395
G01 X-60.28990 Y44.24413
G01 X-60.47453 Y44.18513
G01 X-60.60262 Y44.14878
G01 X-60.73201 Y44.11734
G01 X-60.94184 Y44.07332
G01 X-61.09348 Y44.04850
G01 X-61.27567 Y44.02612
G01 X-61.53089 Y44.00558
G01 X-61.85789 Y44.00136
G01 X-62.17376 Y44.02074
G01 X-62.41595 Y44.04990
G01 X-62.74565 Y44.11160
G01 X-62.88382 Y44.14568
G01 X-63.06957 Y44.19859
G01 X-63.31041 Y44.27964
G01 X-63.62057 Y44.40728
G01 X-63.74887 Y44.46895
G01 X-63.90218 Y44.54898
G01 X-64.11501 Y44.67195
G01 X-64.28608 Y44.78332
G01 X-64.39522 Y44.85965
G01 X-64.63627 Y45.04840
G01 X-64.81925 Y45.20974
G01 X-65.04295 Y45.43316
G01 X-65.23058 Y45.64908
G01 X-65.38153 Y45.84306
G01 X-65.55405 Y46.09638
G01 X-65.66405 Y46.28119
G01 X-65.80221 Y46.54332
G01 X-65.92951 Y46.83331
G01 X-66.01084 Y47.05439
G01 X-66.09725 Y47.33780
G01 X-66.16766 Y47.64618
G01 X-66.20619 Y47.87679
G01 X-66.23929 Y48.19122
G01 X-66.24930 Y48.49759
G01 X-66.24417 Y48.72286
G01 X-66.21991 Y49.01733
G01 X-66.18460 Y49.25870
G01 X-66.12387 Y49.55751
G01 X-66.03868 Y49.86086
G01 X-65.95869 Y50.09134
G01 X-65.83738 Y50.38212
G01 X-65.77543 Y50.51026
G01 X-65.69484 Y50.66320
G01 X-65.58765 Y50.84966
G01 X-65.42463 Y51.09713
G01 X-65.27665 Y51.29337
G01 X-65.08694 Y51.51895
G01 X-64.85255 Y51.75888
G01 X-64.67899 Y51.91552
G01 X-64.43307 Y52.11252
G01 X-64.32558 Y52.18941
G01 X-64.17315 Y52.29085
G01 X-63.97173 Y52.41295
G01 X-63.72784 Y52.54183
G01 X-63.52268 Y52.63507
G01 X-63.25672 Y52.74018
G01 X-62.96556 Y52.83223
G01 X-62.74244 Y52.88864
G01 X-62.45245 Y52.94475
G01 X-62.14847 Y52.98156
G01 X-61.94562 Y52.99558
G01 X-61.65088 Y52.99847
G01 X-61.41735 Y52.98709
G01 X-61.11301 Y52.95458
G01 X-60.83137 Y52.90444
G01 X-60.60201 Y52.85080
G01 X-60.30930 Y52.76291
G01 X-60.11837 Y52.69306
G01 X-59.85533 Y52.58158
G01 X-59.71728 Y52.51414
G01 X-59.54738 Y52.42364
G01 X-59.32457 Y52.28938
G01 X-59.17999 Y52.19360
G01 X-59.05538 Y52.10371
G01 X-58.87946 Y51.96444
G01 X-58.77082 Y51.87251
G01 X-58.67334 Y51.78326
G01 X-58.52808 Y51.64059
G01 X-58.34789 Y51.44455
G01 X-58.22500 Y51.29670
G01 X-58.13951 Y51.18572
G01 X-58.01187 Y51.00404
G01 X-57.93887 Y50.89266
G01 X-57.87019 Y50.77859
G01 X-57.77088 Y50.60033
G01 X-57.70999 Y50.48189
G01 X-57.65368 Y50.36122
G01 X-57.58472 Y50.20211
G01 X-57.52884 Y50.05898
G01 X-57.45719 Y49.84618
G01 X-57.41584 Y49.71001
G01 X-57.37771 Y49.56236
G01 X-57.33639 Y49.37369
G01 X-57.29379 Y49.12319
G01 X-57.25930 Y48.78832
G01 X-57.25317 Y48.65530
G01 X-57.25056 Y48.45116
G01 X-56.75058 Y48.44915
G01 X-56.75876 Y48.79464
G01 X-56.76961 Y48.93658
G01 X-56.78940 Y49.11844
G01 X-56.80969 Y49.26960
G01 X-56.83573 Y49.41984
G01 X-56.87997 Y49.62865
G01 X-56.91589 Y49.77686
G01 X-56.96036 Y49.93333
G01 X-57.02612 Y50.13640
G01 X-57.12663 Y50.40267
G01 X-57.21208 Y50.59830
G01 X-57.27332 Y50.72677
G01 X-57.34395 Y50.86190
G01 X-57.45361 Y51.05679
G01 X-57.53336 Y51.18679
G01 X-57.61220 Y51.30528
G01 X-57.72909 Y51.47160
G01 X-57.83430 Y51.60871
G01 X-57.97738 Y51.78059
G01 X-58.07197 Y51.88694
G01 X-58.18462 Y52.00426
G01 X-58.33720 Y52.15354
G01 X-58.55084 Y52.34160
G01 X-58.71759 Y52.47485
G01 X-58.84824 Y52.57168
G01 X-58.97423 Y52.65763
G01 X-59.17994 Y52.78879
G01 X-59.31210 Y52.86487
G01 X-59.48256 Y52.95565
G01 X-59.61929 Y53.02319
G01 X-59.75848 Y53.08547
G01 X-59.94649 Y53.16278
G01 X-60.09897 Y53.21945
G01 X-60.24387 Y53.26690
G01 X-60.44865 Y53.32720
G01 X-60.59637 Y53.36499
G01 X-60.73549 Y53.39514
G01 X-60.92520 Y53.43121
G01 X-61.09612 Y53.45681
G01 X-61.32863 Y53.48120
G01 X-61.48070 Y53.49260
G01 X-61.63310 Y53.49824
G01 X-61.84654 Y53.49814
G01 X-62.13086 Y53.48514
G01 X-62.49446 Y53.44414
G01 X-62.64486 Y53.41887
G01 X-62.85398 Y53.37607
G01 X-63.00229 Y53.34053
G01 X-63.13937 Y53.30231
G01 X-63.33360 Y53.24229
G01 X-63.50607 Y53.18115
G01 X-63.72276 Y53.09337
G01 X-63.85303 Y53.03606
G01 X-63.99027 Y52.96957
G01 X-64.16111 Y52.87947
G01 X-64.40650 Y52.73530
G01 X-64.58473 Y52.61785
G01 X-64.71757 Y52.52400
G01 X-64.84650 Y52.42481
G01 X-65.01135 Y52.28923
G01 X-65.12570 Y52.18829
G01 X-65.22885 Y52.09027
G01 X-65.36499 Y51.95326
G01 X-65.46906 Y51.84181
G01 X-65.67782 Y51.59240
G01 X-65.83629 Y51.38090
G01 X-65.99898 Y51.13508
G01 X-66.12687 Y50.91547
G01 X-66.22174 Y50.73569
G01 X-66.28397 Y50.60767
G01 X-66.41447 Y50.29868
G01 X-66.50337 Y50.04981
G01 X-66.59418 Y49.73747
G01 X-66.65404 Y49.46962
G01 X-66.68839 Y49.27958
G01 X-66.70893 Y49.13874
G01 X-66.74071 Y48.79462
G01 X-66.74945 Y48.53048
G01 X-66.74061 Y48.19518
G01 X-66.72842 Y48.04316
G01 X-66.70698 Y47.85124
G01 X-66.66616 Y47.59013
G01 X-66.59913 Y47.28223
G01 X-66.52750 Y47.02785
G01 X-66.47089 Y46.85386
G01 X-66.42232 Y46.72005
G01 X-66.28369 Y46.39244
G01 X-66.17056 Y46.16488
G01 X-66.07719 Y45.99582
G01 X-66.00447 Y45.87347
G01 X-65.81831 Y45.59445
G01 X-65.65290 Y45.37545
G01 X-65.43490 Y45.12053
G01 X-65.33683 Y45.01736
G01 X-65.19949 Y44.88160
G01 X-65.00381 Y44.70395
G01 X-64.73386 Y44.48818
G01 X-64.60173 Y44.39331
G01 X-64.44920 Y44.29224
G01 X-64.23226 Y44.15991
G01 X-63.93561 Y44.00334
G01 X-63.80681 Y43.94276
G01 X-63.66652 Y43.88297
G01 X-63.49647 Y43.81548
G01 X-63.36256 Y43.76725
G01 X-63.06104 Y43.67588
G01 X-62.81435 Y43.61480
G01 X-62.51451 Y43.55930
G01 X-62.25235 Y43.52580
G01 X-61.92787 Y43.50329
G01 X-61.78558 Y43.50040
G01 X-61.60262 Y43.50306
G01 X-61.36912 Y43.51467
G01 X-61.04580 Y43.55033
G01 X-60.79520 Y43.59245
G01 X-60.47801 Y43.66456
G01 X-60.34103 Y43.70314
G01 X-60.16661 Y43.75838
G01 X-59.90852 Y43.85170
G01 X-59.61931 Y43.97687
G01 X-59.41050 Y44.08200
G01 X-59.12780 Y44.24284
G01 X-58.95739 Y44.35376
G01 X-58.70118 Y44.53715
G01 X-58.46595 Y44.73115
G01 X-58.31472 Y44.86704
G01 X-58.10707 Y45.07626
G01 X-57.96379 Y45.23450
G01 X-57.77812 Y45.46349
G01 X-57.64055 Y45.65251
G01 X-57.51756 Y45.83930
G01 X-57.43270 Y45.97804
G01 X-57.35353 Y46.12013
G01 X-57.25124 Y46.31898
G01 X-57.18650 Y46.45706
G01 X-57.12706 Y46.59749
G01 X-57.04606 Y46.80593
G01 X-56.99021 Y46.96948
G01 X-56.92430 Y47.19378
G01 X-56.88147 Y47.36122
G01 X-56.84782 Y47.52035
G01 X-56.80834 Y47.74047
G01 X-56.78155 Y47.94202
G01 X-56.76374 Y48.14451
G01 X-56.75427 Y48.29670
G01 X-56.75058 Y48.44915
G01 X-56.25059 Y48.44715
G01 X-56.25429 Y48.28548
G01 X-56.26306 Y48.13412
G01 X-56.28203 Y47.91149
G01 X-56.30431 Y47.72985
G01 X-56.32849 Y47.57928
G01 X-56.37195 Y47.35017
G01 X-56.41020 Y47.18268
G01 X-56.45203 Y47.02647
G01 X-56.50626 Y46.84171
G01 X-56.56387 Y46.66915
G01 X-56.65452 Y46.43270
G01 X-56.71294 Y46.29186
G01 X-56.79818 Y46.10727
G01 X-56.90004 Y45.90819
G01 X-56.97809 Y45.76547
G01 X-57.05589 Y45.63433
G01 X-57.18807 Y45.42942
G01 X-57.27964 Y45.29615
G01 X-57.38213 Y45.15823
G01 X-57.50880 Y44.99933
G01 X-57.61507 Y44.87349
G01 X-57.72584 Y44.75165
G01 X-57.87443 Y44.59806
G01 X-57.99798 Y44.47865
G01 X-58.11070 Y44.37728
G01 X-58.28881 Y44.22620
G01 X-58.41649 Y44.12544
G01 X-58.54774 Y44.02933
G01 X-58.73199 Y43.90260
G01 X-58.87771 Y43.80969
G01 X-59.01802 Y43.72740
G01 X-59.23166 Y43.61086
G01 X-59.36724 Y43.54302
G01 X-59.51431 Y43.47573
G01 X-59.71014 Y43.39257
G01 X-59.89919 Y43.32105
G01 X-60.27534 Y43.20154
G01 X-60.45144 Y43.15584
G01 X-60.63943 Y43.11416
G01 X-60.79813 Y43.08310
G01 X-60.95784 Y43.05775
G01 X-61.19919 Y43.02844
G01 X-61.34009 Y43.01541
G01 X-61.52172 Y43.00517
G01 X-61.73445 Y43.00057
G01 X-61.87595 Y43.00151
G01 X-62.03752 Y43.00804
G01 X-62.27018 Y43.02536
G01 X-62.44204 Y43.04378
G01 X-62.59297 Y43.06550
G01 X-62.82314 Y43.10644
G01 X-62.98232 Y43.13992
G01 X-63.14018 Y43.17914
G01 X-63.35527 Y43.24030
G01 X-63.51034 Y43.28942
G01 X-63.68255 Y43.35132
G01 X-63.88082 Y43.43039
G01 X-64.03010 Y43.49499
G01 X-64.17696 Y43.56494
G01 X-64.37523 Y43.66796
G01 X-64.51656 Y43.74657
G01 X-64.65496 Y43.83021
G01 X-64.83327 Y43.94627
G01 X-64.96614 Y44.03844
G01 X-65.09563 Y44.13534
G01 X-65.26990 Y44.27479
G01 X-65.40134 Y44.38701
G01 X-65.52839 Y44.50418
G01 X-65.68747 Y44.66085
G01 X-65.79220 Y44.77045
G01 X-65.89979 Y44.89117
G01 X-66.03627 Y45.05439
G01 X-66.13606 Y45.18165
G01 X-66.23700 Y45.32069
G01 X-66.36794 Y45.51345
G01 X-66.45407 Y45.65033
G01 X-66.53030 Y45.78137
G01 X-66.63687 Y45.97710
G01 X-66.71340 Y46.13092
G01 X-66.77604 Y46.26900
G01 X-66.87784 Y46.51184
G01 X-66.93741 Y46.67303
G01 X-67.00055 Y46.86559
G01 X-67.04437 Y47.01073
G01 X-67.08569 Y47.16706
G01 X-67.16611 Y47.54413
G01 X-67.19473 Y47.72485
G01 X-67.22105 Y47.94687
G01 X-67.23510 Y48.09782
G01 X-67.24404 Y48.24915
G01 X-67.24907 Y48.47196
G01 X-67.24825 Y48.63368
G01 X-67.24104 Y48.80534
G01 X-67.22547 Y49.00750
G01 X-67.20896 Y49.16932
G01 X-67.18661 Y49.33043
G01 X-67.11505 Y49.71001
G01 X-67.06903 Y49.89759
G01 X-67.01018 Y50.10277
G01 X-66.96453 Y50.24829
G01 X-66.91401 Y50.39215
G01 X-66.77668 Y50.73134
G01 X-66.71305 Y50.86990
G01 X-66.64005 Y51.01529
G01 X-66.53944 Y51.20295
G01 X-66.45298 Y51.35141
G01 X-66.36647 Y51.48806
G01 X-66.23050 Y51.68953
G01 X-66.12240 Y51.83586
G01 X-65.98945 Y52.00203
G01 X-65.79644 Y52.22481
G01 X-65.52491 Y52.49954
G01 X-65.41270 Y52.60279
G01 X-65.28923 Y52.70868
G01 X-65.12354 Y52.84323
G01 X-64.99385 Y52.94142
G01 X-64.86068 Y53.03482
G01 X-64.66576 Y53.16294
G01 X-64.53632 Y53.24185
G01 X-64.39540 Y53.32120
G01 X-64.20709 Y53.42024
G01 X-64.04084 Y53.49999
G01 X-65.06411 Y53.49999
G01 X-65.22037 Y53.39415
G01 X-65.36807 Y53.28615
G01 X-65.50386 Y53.17924
G01 X-65.69916 Y53.01666
G01 X-65.82771 Y52.90114
G01 X-65.94500 Y52.78841
G01 X-66.10921 Y52.62204
G01 X-66.23992 Y52.47980
G01 X-66.47335 Y52.19870
G01 X-66.64221 Y51.97328
G01 X-66.84328 Y51.67092
G01 X-67.00073 Y51.40178
G01 X-67.15056 Y51.11366
G01 X-67.27574 Y50.83559
G01 X-67.35564 Y50.63764
G01 X-67.41536 Y50.47546
G01 X-67.46337 Y50.33071
G01 X-67.52143 Y50.13589
G01 X-67.60037 Y49.83084
G01 X-67.67182 Y49.46160
G01 X-67.71107 Y49.17968
G01 X-67.74066 Y48.82632
G01 X-67.74942 Y48.53473
G01 X-67.74089 Y48.17173
G01 X-67.72112 Y47.92104
G01 X-67.67553 Y47.55838
G01 X-67.62742 Y47.29848
G01 X-67.58394 Y47.10077
G01 X-67.54218 Y46.93493
G01 X-67.49771 Y46.78022
G01 X-67.43634 Y46.58764
G01 X-67.34073 Y46.32269
G01 X-67.20683 Y46.00684
G01 X-67.08407 Y45.75332
G01 X-66.91335 Y45.44433
G01 X-66.83492 Y45.31540
G01 X-66.74137 Y45.17222
G01 X-66.62671 Y45.00565
G01 X-66.52552 Y44.86775
G01 X-66.30314 Y44.59361
G01 X-66.09433 Y44.36199
G01 X-65.84983 Y44.11985
G01 X-65.62194 Y43.91718
G01 X-65.32883 Y43.68444
G01 X-65.10693 Y43.52780
G01 X-64.93761 Y43.41739
G01 X-64.80033 Y43.33334
G01 X-64.63391 Y43.23933
G01 X-64.41826 Y43.12661
G01 X-64.26258 Y43.05153
G01 X-64.10442 Y42.98188
G01 X-63.87810 Y42.89085
G01 X-63.71585 Y42.83128
G01 X-63.54194 Y42.77439
G01 X-63.32720 Y42.71195
G01 X-63.16002 Y42.66816
G01 X-62.99142 Y42.63017
G01 X-62.75164 Y42.58528
G01 X-62.57092 Y42.55658
G01 X-62.36901 Y42.53245
G01 X-62.13622 Y42.51345
G01 X-61.97552 Y42.50441
G01 X-61.80452 Y42.50050
G01 X-61.55212 Y42.50400
G01 X-61.37120 Y42.51206
G01 X-61.18070 Y42.52765
G01 X-60.94984 Y42.55437
G01 X-60.78057 Y42.57893
G01 X-60.61225 Y42.60926
G01 X-60.38510 Y42.65793
G01 X-60.21901 Y42.69870
G01 X-60.04476 Y42.74802
G01 X-59.81377 Y42.82176
G01 X-59.64306 Y42.88218
G01 X-59.49325 Y42.94106
G01 X-59.27976 Y43.03271
G01 X-59.11571 Y43.10931
G01 X-58.96338 Y43.18709
G01 X-58.76801 Y43.29438
G01 X-58.61896 Y43.38185
G01 X-58.46453 Y43.48002
G01 X-58.26338 Y43.61805
G01 X-58.12376 Y43.71993
G01 X-57.97199 Y43.83941
G01 X-57.79381 Y43.99029
G01 X-57.67372 Y44.09747
G01 X-57.54284 Y44.22262
G01 X-57.37347 Y44.39658
G01 X-57.24992 Y44.53158
G01 X-57.13141 Y44.67098
G01 X-56.99229 Y44.84502
G01 X-56.89567 Y44.97375
G01 X-56.79760 Y45.11385
G01 X-56.66440 Y45.31736
G01 X-56.56923 Y45.47367
G01 X-56.48465 Y45.62437
G01 X-56.37220 Y45.84088
G01 X-56.29730 Y45.99661
G01 X-56.22780 Y46.15485
G01 X-56.13753 Y46.38103
G01 X-56.07543 Y46.55114
G01 X-56.01952 Y46.72338
G01 X-55.95783 Y46.93691
G01 X-55.91510 Y47.10252
G01 X-55.87807 Y47.26948
G01 X-55.83331 Y47.50831
G01 X-55.80652 Y47.67905
G01 X-55.78361 Y47.87085
G01 X-55.76324 Y48.11342
G01 X-55.75437 Y48.27415
G01 X-55.75061 Y48.44514
G01 X-56.25059 Y48.44715
G01 X-56.25379 Y48.69020
G01 X-56.26270 Y48.87191
G01 X-56.27893 Y49.05311
G01 X-56.31096 Y49.31537
G01 X-56.34502 Y49.51583
G01 X-56.40261 Y49.78418
G01 X-56.44782 Y49.96150
G01 X-56.50332 Y50.14648
G01 X-56.57037 Y50.34851
G01 X-56.64538 Y50.54707
G01 X-56.75368 Y50.79809
G01 X-56.84119 Y50.98031
G01 X-56.97634 Y51.22956
G01 X-57.07372 Y51.39507
G01 X-57.17809 Y51.55626
G01 X-57.32460 Y51.76548
G01 X-57.50230 Y51.99235
G01 X-57.63334 Y52.14694
G01 X-57.74921 Y52.27378
G01 X-58.01591 Y52.53772
G01 X-58.12917 Y52.63982
G01 X-58.25371 Y52.74445
G01 X-58.41233 Y52.87084
G01 X-58.54202 Y52.96743
G01 X-58.67512 Y53.05930
G01 X-58.85500 Y53.17602
G01 X-59.11317 Y53.32580
G01 X-59.30191 Y53.42479
G01 X-59.45914 Y53.49999
G01 X-66.64759 Y53.49999
G01 X-66.84632 Y53.29804
G01 X-67.01732 Y53.11000
G01 X-67.22506 Y52.85974
G01 X-67.37449 Y52.66682
G01 X-67.56131 Y52.40056
G01 X-67.68351 Y52.21326
G01 X-67.78389 Y52.04823
G01 X-67.87891 Y51.88006
G01 X-67.98376 Y51.68252
G01 X-68.12963 Y51.38042
G01 X-68.28937 Y50.99553
G01 X-68.40172 Y50.67943
G01 X-68.51952 Y50.27968
G01 X-68.56171 Y50.11207
G01 X-68.60311 Y49.92340
G01 X-68.67152 Y49.54323
G01 X-68.69778 Y49.35187
G01 X-68.71604 Y49.18001
G01 X-68.73563 Y48.93683
G01 X-68.74485 Y48.76427
G01 X-68.74927 Y48.57115
G01 X-68.74731 Y48.34753
G01 X-68.74126 Y48.15446
G01 X-68.72900 Y47.96170
G01 X-68.68434 Y47.54733
G01 X-68.63085 Y47.21616
G01 X-68.54947 Y46.83857
G01 X-68.45917 Y46.50494
G01 X-68.38216 Y46.26277
G01 X-68.32884 Y46.10908
G01 X-68.20987 Y45.80633
G01 X-68.12084 Y45.60120
G01 X-68.03890 Y45.42627
G01 X-67.95613 Y45.26305
G01 X-67.84917 Y45.06666
G01 X-67.67825 Y44.77802
G01 X-67.44584 Y44.43207
G01 X-67.23837 Y44.15566
G01 X-66.99710 Y43.86715
G01 X-66.76888 Y43.62125
G01 X-66.47739 Y43.33778
G01 X-66.34086 Y43.21594
G01 X-66.20068 Y43.09831
G01 X-66.01798 Y42.95247
G01 X-65.86360 Y42.83636
G01 X-65.71397 Y42.73103
G01 X-65.52738 Y42.60771
G01 X-65.38112 Y42.51566
G01 X-65.22342 Y42.42283
G01 X-64.87361 Y42.23631
G01 X-64.67213 Y42.13921
G01 X-64.43896 Y42.03809
G01 X-64.15514 Y41.92654
G01 X-63.90528 Y41.84038
G01 X-63.60315 Y41.75079
G01 X-63.37691 Y41.69181
G01 X-63.13856 Y41.63972
G01 X-62.83841 Y41.58574
G01 X-62.61702 Y41.55402
G01 X-62.38446 Y41.52969
G01 X-62.08027 Y41.50817
G01 X-61.82624 Y41.50065
G01 X-61.52131 Y41.50449
G01 X-61.29787 Y41.51473
G01 X-61.07499 Y41.53327
