( pcb2gcode 3.0.2 )
( Software-independent Gcode )

G94 ( Inches per minute feed rate. )
G20 ( Units == INCHES. )

G90 ( Absolute coordinates. )
G00 S12000 ( RPM spindle speed. )
G64 P0.00040 ( set maximum deviation from commanded toolpath )
G01 F360.00000 ( Feedrate. )


G00 Z1.00000 (Retract to tool change height)
T1
M5      (Spindle stop.)
G04 P1.00000 (Wait for spindle to stop)
(MSG, Change tool bit to mill diameter 0.00000in)
M6      (Tool change.)
M0      (Temporary machine stop.)
M3 ( Spindle on clockwise. )
G04 P1.00000 (Wait for spindle to get up to speed)
( Piece #1, position [0;0] )

G04 P0 ( dwell for no time -- G64 should not smooth over this point )
G00 Z0.08000 ( retract )

G00 X-1.74497 Y-0.55561 ( rapid move to begin. )
G01 F180.00000
( Mill infeed pass 1/1 )
G01 Z-0.04000
G04 P0 ( dwell for no time -- G64 should not smooth over this point )
G01 F360.00000
G01 X-1.74497 Y-0.55561
G01 X-1.74510 Y-0.55764
G01 X-1.74561 Y-0.56002
G01 X-1.74615 Y-0.56155
G01 X-1.74705 Y-0.56336
G01 X-1.74817 Y-0.56505
G01 X-1.74951 Y-0.56657
G01 X-1.93069 Y-0.74775
G01 X-1.93221 Y-0.74909
G01 X-1.93425 Y-0.75041
G01 X-1.93686 Y-0.75153
G01 X-1.93922 Y-0.75210
G01 X-1.94165 Y-0.75229
G01 X-2.41551 Y-0.75221
G01 X-2.41790 Y-0.75176
G01 X-2.42020 Y-0.75095
G01 X-2.42233 Y-0.74979
G01 X-2.42426 Y-0.74831
G01 X-2.45328 Y-0.71932
G01 X-2.45532 Y-0.71680
G01 X-2.45631 Y-0.71504
G01 X-2.45706 Y-0.71315
G01 X-2.45756 Y-0.71119
G01 X-2.45780 Y-0.70917
G01 X-2.45782 Y-0.67736
G01 X-2.47972 Y-0.67736
G01 X-2.47972 Y-0.65349
G01 X-2.60492 Y-0.65349
G01 X-2.60492 Y-0.67736
G01 X-2.67972 Y-0.67736
G01 X-2.67972 Y-0.59862
G01 X-2.60492 Y-0.59862
G01 X-2.60492 Y-0.62249
G01 X-2.47972 Y-0.62249
G01 X-2.47972 Y-0.59862
G01 X-2.40492 Y-0.59862
G01 X-2.40492 Y-0.67736
G01 X-2.42682 Y-0.67736
G01 X-2.42682 Y-0.70194
G01 X-2.40747 Y-0.72129
G01 X-1.94807 Y-0.72129
G01 X-1.77597 Y-0.54919
G01 X-1.77597 Y-0.15512
G01 X-1.80945 Y-0.12164
G01 X-2.16527 Y-0.12164
G01 X-2.16730 Y-0.12151
G01 X-2.16928 Y-0.12111
G01 X-2.17120 Y-0.12046
G01 X-2.17302 Y-0.11956
G01 X-2.17471 Y-0.11844
G01 X-2.17623 Y-0.11710
G01 X-2.31384 Y0.02051
G01 X-2.33842 Y0.02051
G01 X-2.33842 Y-0.03289
G01 X-2.47622 Y-0.03289
G01 X-2.47622 Y0.08299
G01 X-2.52342 Y0.13019
G01 X-2.52342 Y0.08521
G01 X-2.66122 Y0.08521
G01 X-2.66122 Y0.22301
G01 X-2.52342 Y0.22301
G01 X-2.52342 Y0.16948
G01 X-2.52102 Y0.16897
G01 X-2.51875 Y0.16810
G01 X-2.51664 Y0.16688
G01 X-2.51475 Y0.16535
G01 X-2.45430 Y0.10491
G01 X-2.33842 Y0.10491
G01 X-2.33842 Y0.05151
G01 X-2.30621 Y0.05146
G01 X-2.30380 Y0.05108
G01 X-2.30149 Y0.05033
G01 X-2.29932 Y0.04922
G01 X-2.29767 Y0.04805
G01 X-2.15885 Y-0.09064
G01 X-1.80303 Y-0.09064
G01 X-1.80101 Y-0.09077
G01 X-1.79863 Y-0.09128
G01 X-1.79673 Y-0.09198
G01 X-1.79459 Y-0.09314
G01 X-1.79266 Y-0.09462
G01 X-1.74951 Y-0.13774
G01 X-1.74817 Y-0.13927
G01 X-1.74685 Y-0.14131
G01 X-1.74573 Y-0.14391
G01 X-1.74516 Y-0.14628
G01 X-1.74497 Y-0.14870
G01 X-1.74497 Y-0.55561
G04 P0 ( dwell for no time -- G64 should not smooth over this point )
G00 Z0.08000 ( retract )

G00 X-1.94312 Y-0.66589 ( rapid move to begin. )
G01 F180.00000
( Mill infeed pass 1/1 )
G01 Z-0.04000
G04 P0 ( dwell for no time -- G64 should not smooth over this point )
G01 F360.00000
G01 X-1.94312 Y-0.66589
G01 X-1.94333 Y-0.66321
G01 X-1.94381 Y-0.66057
G01 X-1.94454 Y-0.65798
G01 X-1.94551 Y-0.65548
G01 X-1.94673 Y-0.65308
G01 X-1.94817 Y-0.65082
G01 X-1.94997 Y-0.64853
G01 X-1.95185 Y-0.64660
G01 X-1.95407 Y-0.64473
G01 X-1.95630 Y-0.64322
G01 X-1.95865 Y-0.64193
G01 X-1.96134 Y-0.64080
G01 X-1.96391 Y-0.64002
G01 X-1.96654 Y-0.63948
G01 X-1.96921 Y-0.63921
G01 X-2.01420 Y-0.63917
G01 X-2.01866 Y-0.63957
G01 X-2.02128 Y-0.64016
G01 X-2.02383 Y-0.64100
G01 X-2.02649 Y-0.64218
G01 X-2.02882 Y-0.64352
G01 X-2.03101 Y-0.64507
G01 X-2.03304 Y-0.64683
G01 X-2.03489 Y-0.64879
G01 X-2.03659 Y-0.65098
G01 X-2.26080 Y-0.65098
G01 X-2.30506 Y-0.63483
G01 X-2.30550 Y-0.63142
G01 X-2.30620 Y-0.62830
G01 X-2.30716 Y-0.62524
G01 X-2.30855 Y-0.62192
G01 X-2.31005 Y-0.61909
G01 X-2.31178 Y-0.61640
G01 X-2.31374 Y-0.61387
G01 X-2.31620 Y-0.61123
G01 X-2.31889 Y-0.60884
G01 X-2.32147 Y-0.60694
G01 X-2.32420 Y-0.60527
G01 X-2.32707 Y-0.60384
G01 X-2.33004 Y-0.60266
G01 X-2.33311 Y-0.60174
G01 X-2.33624 Y-0.60109
G01 X-2.33982 Y-0.60067
G01 X-2.34382 Y-0.60062
G01 X-2.34741 Y-0.60094
G01 X-2.35095 Y-0.60160
G01 X-2.35479 Y-0.60273
G01 X-2.35849 Y-0.60426
G01 X-2.36165 Y-0.60597
G01 X-2.36496 Y-0.60822
G01 X-2.36802 Y-0.61081
G01 X-2.37077 Y-0.61371
G01 X-2.37298 Y-0.61656
G01 X-2.37489 Y-0.61961
G01 X-2.37667 Y-0.62320
G01 X-2.37794 Y-0.62657
G01 X-2.37895 Y-0.63044
G01 X-2.37955 Y-0.63439
G01 X-2.37972 Y-0.63799
G01 X-2.37962 Y-0.64079
G01 X-2.37930 Y-0.64358
G01 X-2.37878 Y-0.64633
G01 X-2.37806 Y-0.64903
G01 X-2.37713 Y-0.65168
G01 X-2.37601 Y-0.65425
G01 X-2.37470 Y-0.65672
G01 X-2.37320 Y-0.65909
G01 X-2.37154 Y-0.66135
G01 X-2.36971 Y-0.66347
G01 X-2.36772 Y-0.66544
G01 X-2.36560 Y-0.66727
G01 X-2.36334 Y-0.66893
G01 X-2.36096 Y-0.67042
G01 X-2.35849 Y-0.67172
G01 X-2.35592 Y-0.67284
G01 X-2.35095 Y-0.67438
G01 X-2.34820 Y-0.67493
G01 X-2.34542 Y-0.67526
G01 X-2.34262 Y-0.67539
G01 X-2.33982 Y-0.67531
G01 X-2.33467 Y-0.67460
G01 X-2.32967 Y-0.67319
G01 X-2.32707 Y-0.67214
G01 X-2.32455 Y-0.67090
G01 X-2.32214 Y-0.66948
G01 X-2.31984 Y-0.66788
G01 X-2.31586 Y-0.66442
G01 X-2.26898 Y-0.68153
G01 X-2.26709 Y-0.68209
G01 X-2.26476 Y-0.68244
G01 X-2.03659 Y-0.68248
G01 X-2.03482 Y-0.68476
G01 X-2.03296 Y-0.68671
G01 X-2.03093 Y-0.68846
G01 X-2.02873 Y-0.69001
G01 X-2.02639 Y-0.69134
G01 X-2.02394 Y-0.69243
G01 X-2.02139 Y-0.69328
G01 X-2.01877 Y-0.69387
G01 X-2.01409 Y-0.69429
G01 X-1.96955 Y-0.69427
G01 X-1.96709 Y-0.69406
G01 X-1.96467 Y-0.69363
G01 X-1.96229 Y-0.69299
G01 X-1.95977 Y-0.69205
G01 X-1.95756 Y-0.69097
G01 X-1.95544 Y-0.68970
G01 X-1.95345 Y-0.68825
G01 X-1.95144 Y-0.68648
G01 X-1.94961 Y-0.68451
G01 X-1.94811 Y-0.68256
G01 X-1.94678 Y-0.68048
G01 X-1.94565 Y-0.67829
G01 X-1.94472 Y-0.67601
G01 X-1.94399 Y-0.67366
G01 X-1.94345 Y-0.67103
G01 X-1.94317 Y-0.66858
G01 X-1.94312 Y-0.66589
G04 P0 ( dwell for no time -- G64 should not smooth over this point )
G00 Z0.08000 ( retract )

G00 X-1.94314 Y-0.50796 ( rapid move to begin. )
G01 F180.00000
( Mill infeed pass 1/1 )
G01 Z-0.04000
G04 P0 ( dwell for no time -- G64 should not smooth over this point )
G01 F360.00000
G01 X-1.94314 Y-0.50796
G01 X-1.94346 Y-0.50485
G01 X-1.94414 Y-0.50179
G01 X-1.94516 Y-0.49882
G01 X-1.94651 Y-0.49599
G01 X-1.94817 Y-0.49334
G01 X-1.95012 Y-0.49088
G01 X-1.95234 Y-0.48867
G01 X-1.95480 Y-0.48672
G01 X-1.95746 Y-0.48507
G01 X-1.96050 Y-0.48364
G01 X-1.96347 Y-0.48265
G01 X-1.96654 Y-0.48200
G01 X-1.96966 Y-0.48171
G01 X-2.01420 Y-0.48169
G01 X-2.01866 Y-0.48209
G01 X-2.02150 Y-0.48274
G01 X-2.02404 Y-0.48360
G01 X-2.02649 Y-0.48470
G01 X-2.02882 Y-0.48603
G01 X-2.03101 Y-0.48759
G01 X-2.03304 Y-0.48935
G01 X-2.03489 Y-0.49130
G01 X-2.03659 Y-0.49350
G01 X-2.62860 Y-0.49350
G01 X-2.87657 Y-0.24553
G01 X-2.87666 Y-0.18637
G01 X-2.87699 Y-0.18437
G01 X-2.87745 Y-0.18282
G01 X-2.87882 Y-0.17988
G01 X-2.88076 Y-0.17729
G01 X-2.88320 Y-0.17516
G01 X-2.88492 Y-0.17409
G01 X-2.88715 Y-0.17312
G01 X-2.88950 Y-0.17250
G01 X-2.89192 Y-0.17225
G01 X-3.02373 Y-0.17224
G01 X-3.02563 Y-0.17007
G01 X-3.02801 Y-0.16793
G01 X-3.03064 Y-0.16610
G01 X-3.03312 Y-0.16478
G01 X-3.03610 Y-0.16362
G01 X-3.03882 Y-0.16291
G01 X-3.04199 Y-0.16247
G01 X-3.04480 Y-0.16242
G01 X-3.04878 Y-0.16287
G01 X-3.05264 Y-0.16394
G01 X-3.05628 Y-0.16560
G01 X-3.05963 Y-0.16781
G01 X-3.06258 Y-0.17051
G01 X-3.06508 Y-0.17364
G01 X-3.06706 Y-0.17712
G01 X-3.06848 Y-0.18087
G01 X-3.06911 Y-0.18360
G01 X-3.06941 Y-0.18599
G01 X-3.06947 Y-0.18879
G01 X-3.06923 Y-0.19159
G01 X-3.06869 Y-0.19434
G01 X-3.06784 Y-0.19702
G01 X-3.06671 Y-0.19958
G01 X-3.06531 Y-0.20201
G01 X-3.06364 Y-0.20427
G01 X-3.06174 Y-0.20633
G01 X-3.05994 Y-0.20793
G01 X-3.05766 Y-0.20956
G01 X-3.05522 Y-0.21094
G01 X-3.05264 Y-0.21204
G01 X-3.04995 Y-0.21286
G01 X-3.04759 Y-0.21331
G01 X-3.04440 Y-0.21358
G01 X-3.04080 Y-0.21339
G01 X-3.03765 Y-0.21281
G01 X-3.03422 Y-0.21168
G01 X-3.03133 Y-0.21029
G01 X-3.02832 Y-0.20830
G01 X-3.02591 Y-0.20619
G01 X-3.02373 Y-0.20374
G01 X-2.90807 Y-0.20374
G01 X-2.90807 Y-0.25193
G01 X-2.91269 Y-0.25432
G01 X-2.91695 Y-0.25730
G01 X-2.92078 Y-0.26081
G01 X-2.92387 Y-0.26448
G01 X-2.92670 Y-0.26884
G01 X-2.92877 Y-0.27316
G01 X-2.93031 Y-0.27771
G01 X-2.93133 Y-0.28281
G01 X-2.93165 Y-0.28679
G01 X-2.93154 Y-0.29119
G01 X-2.93101 Y-0.29515
G01 X-2.93009 Y-0.29904
G01 X-2.92877 Y-0.30282
G01 X-2.92689 Y-0.30679
G01 X-2.92480 Y-0.31021
G01 X-2.92238 Y-0.31339
G01 X-2.91907 Y-0.31686
G01 X-2.91568 Y-0.31966
G01 X-2.91165 Y-0.32227
G01 X-2.90733 Y-0.32437
G01 X-2.90318 Y-0.32581
G01 X-2.89850 Y-0.32685
G01 X-2.89372 Y-0.32732
G01 X-2.88893 Y-0.32720
G01 X-2.88457 Y-0.32657
G01 X-2.87993 Y-0.32534
G01 X-2.87548 Y-0.32356
G01 X-2.87128 Y-0.32124
G01 X-2.86770 Y-0.31869
G01 X-2.86415 Y-0.31546
G01 X-2.86101 Y-0.31183
G01 X-2.85852 Y-0.30813
G01 X-2.64626 Y-0.52039
G01 X-2.64471 Y-0.52175
G01 X-2.64336 Y-0.52268
G01 X-2.64153 Y-0.52364
G01 X-2.63960 Y-0.52435
G01 X-2.63759 Y-0.52481
G01 X-2.63513 Y-0.52500
G01 X-2.03659 Y-0.52500
G01 X-2.03482 Y-0.52728
G01 X-2.03296 Y-0.52923
G01 X-2.03093 Y-0.53098
G01 X-2.02873 Y-0.53253
G01 X-2.02639 Y-0.53386
G01 X-2.02394 Y-0.53495
G01 X-2.02139 Y-0.53580
G01 X-2.01877 Y-0.53639
G01 X-2.01431 Y-0.53681
G01 X-1.97044 Y-0.53681
G01 X-1.96621 Y-0.53645
G01 X-1.96187 Y-0.53537
G01 X-1.95795 Y-0.53370
G01 X-1.95416 Y-0.53132
G01 X-1.95096 Y-0.52852
G01 X-1.94811 Y-0.52508
G01 X-1.94594 Y-0.52142
G01 X-1.94430 Y-0.51726
G01 X-1.94356 Y-0.51421
G01 X-1.94317 Y-0.51110
G01 X-1.94314 Y-0.50796
G04 P0 ( dwell for no time -- G64 should not smooth over this point )
G00 Z0.08000 ( retract )

G00 X-1.80297 Y-0.28839 ( rapid move to begin. )
G01 F180.00000
( Mill infeed pass 1/1 )
G01 Z-0.04000
G04 P0 ( dwell for no time -- G64 should not smooth over this point )
G01 F360.00000
G01 X-1.80297 Y-0.28839
G01 X-1.80322 Y-0.29238
G01 X-1.80378 Y-0.29594
G01 X-1.80479 Y-0.29981
G01 X-1.80603 Y-0.30319
G01 X-1.80775 Y-0.30679
G01 X-1.80962 Y-0.30987
G01 X-1.81201 Y-0.31308
G01 X-1.81443 Y-0.31575
G01 X-1.81708 Y-0.31818
G01 X-1.82027 Y-0.32058
G01 X-1.82334 Y-0.32246
G01 X-1.82682 Y-0.32416
G01 X-1.82691 Y-0.51982
G01 X-1.82735 Y-0.52222
G01 X-1.82816 Y-0.52451
G01 X-1.82932 Y-0.52665
G01 X-1.83108 Y-0.52887
G01 X-1.90115 Y-0.59895
G01 X-1.90300 Y-0.60053
G01 X-1.90507 Y-0.60180
G01 X-1.90810 Y-0.60296
G01 X-1.91130 Y-0.60347
G01 X-1.94788 Y-0.60349
G01 X-1.94975 Y-0.60594
G01 X-1.95176 Y-0.60804
G01 X-1.95398 Y-0.60993
G01 X-1.95639 Y-0.61156
G01 X-1.95896 Y-0.61294
G01 X-1.96165 Y-0.61403
G01 X-1.96445 Y-0.61484
G01 X-1.96732 Y-0.61535
G01 X-1.97067 Y-0.61555
G01 X-2.01409 Y-0.61555
G01 X-2.01699 Y-0.61539
G01 X-2.02117 Y-0.61460
G01 X-2.02518 Y-0.61317
G01 X-2.02873 Y-0.61127
G01 X-2.03213 Y-0.60872
G01 X-2.03511 Y-0.60568
G01 X-2.03758 Y-0.60222
G01 X-2.03948 Y-0.59842
G01 X-2.04079 Y-0.59437
G01 X-2.04145 Y-0.59017
G01 X-2.04146 Y-0.58592
G01 X-2.04081 Y-0.58172
G01 X-2.03953 Y-0.57767
G01 X-2.03763 Y-0.57386
G01 X-2.03532 Y-0.57056
G01 X-2.03239 Y-0.56748
G01 X-2.02901 Y-0.56490
G01 X-2.02609 Y-0.56324
G01 X-2.02278 Y-0.56188
G01 X-2.01954 Y-0.56100
G01 X-2.01599 Y-0.56051
G01 X-1.96877 Y-0.56050
G01 X-1.96566 Y-0.56089
G01 X-1.96261 Y-0.56164
G01 X-1.95967 Y-0.56272
G01 X-1.95687 Y-0.56413
G01 X-1.95425 Y-0.56586
G01 X-1.95185 Y-0.56786
G01 X-1.94968 Y-0.57013
G01 X-1.94788 Y-0.57249
G01 X-1.91853 Y-0.57249
G01 X-1.85782 Y-0.51178
G01 X-1.85782 Y-0.32416
G01 X-1.86130 Y-0.32246
G01 X-1.86437 Y-0.32058
G01 X-1.86756 Y-0.31818
G01 X-1.87022 Y-0.31575
G01 X-1.87264 Y-0.31308
G01 X-1.87503 Y-0.30987
G01 X-1.87689 Y-0.30679
G01 X-1.87862 Y-0.30319
G01 X-1.87986 Y-0.29981
G01 X-1.88086 Y-0.29594
G01 X-1.88143 Y-0.29238
G01 X-1.88167 Y-0.28839
G01 X-1.88154 Y-0.28479
G01 X-1.88101 Y-0.28083
G01 X-1.88009 Y-0.27694
G01 X-1.87886 Y-0.27338
G01 X-1.94874 Y-0.20349
G01 X-1.96673 Y-0.20349
G01 X-1.96673 Y-0.21358
G01 X-2.01791 Y-0.21358
G01 X-2.01791 Y-0.16240
G01 X-1.96673 Y-0.16240
G01 X-1.96673 Y-0.17249
G01 X-1.94070 Y-0.17258
G01 X-1.93870 Y-0.17292
G01 X-1.93639 Y-0.17367
G01 X-1.93457 Y-0.17457
G01 X-1.93257 Y-0.17595
G01 X-1.85694 Y-0.25146
G01 X-1.85318 Y-0.25017
G01 X-1.84929 Y-0.24926
G01 X-1.84532 Y-0.24876
G01 X-1.84172 Y-0.24865
G01 X-1.83773 Y-0.24891
G01 X-1.83379 Y-0.24958
G01 X-1.82993 Y-0.25064
G01 X-1.82657 Y-0.25193
G01 X-1.82299 Y-0.25372
G01 X-1.81962 Y-0.25585
G01 X-1.81677 Y-0.25806
G01 X-1.81387 Y-0.26081
G01 X-1.81126 Y-0.26384
G01 X-1.80918 Y-0.26678
G01 X-1.80738 Y-0.26990
G01 X-1.80572 Y-0.27354
G01 X-1.80456 Y-0.27694
G01 X-1.80363 Y-0.28083
G01 X-1.80310 Y-0.28479
G01 X-1.80297 Y-0.28839
G04 P0 ( dwell for no time -- G64 should not smooth over this point )
G00 Z0.08000 ( retract )

G00 X-1.80297 Y0.11201 ( rapid move to begin. )
G01 F180.00000
( Mill infeed pass 1/1 )
G01 Z-0.04000
G04 P0 ( dwell for no time -- G64 should not smooth over this point )
G01 F360.00000
G01 X-1.80297 Y0.11201
G01 X-1.80314 Y0.10841
G01 X-1.80363 Y0.10485
G01 X-1.80445 Y0.10134
G01 X-1.80558 Y0.09792
G01 X-1.80702 Y0.09463
G01 X-1.80897 Y0.09113
G01 X-1.81101 Y0.08817
G01 X-1.81332 Y0.08541
G01 X-1.81587 Y0.08287
G01 X-1.81865 Y0.08058
G01 X-1.82162 Y0.07855
G01 X-1.82512 Y0.07662
G01 X-1.82843 Y0.07519
G01 X-1.83185 Y0.07408
G01 X-1.83536 Y0.07328
G01 X-1.83893 Y0.07280
G01 X-1.84212 Y0.07266
G01 X-1.84532 Y0.07277
G01 X-1.84850 Y0.07315
G01 X-1.85125 Y0.07368
G01 X-1.85433 Y0.07453
G01 X-1.85696 Y0.07548
G01 X-1.85952 Y0.07662
G01 X-1.86234 Y0.07813
G01 X-1.86503 Y0.07987
G01 X-1.86756 Y0.08182
G01 X-1.86993 Y0.08397
G01 X-1.87186 Y0.08601
G01 X-1.87387 Y0.08849
G01 X-1.87546 Y0.09080
G01 X-1.87708 Y0.09356
G01 X-1.87838 Y0.09626
G01 X-2.20626 Y0.09626
G01 X-2.20757 Y0.09356
G01 X-2.20918 Y0.09080
G01 X-2.21101 Y0.08817
G01 X-2.21305 Y0.08571
G01 X-2.21529 Y0.08342
G01 X-2.21770 Y0.08131
G01 X-2.22027 Y0.07942
G01 X-2.22299 Y0.07773
G01 X-2.22584 Y0.07627
G01 X-2.22880 Y0.07505
G01 X-2.23185 Y0.07408
G01 X-2.23496 Y0.07335
G01 X-2.23813 Y0.07288
G01 X-2.24132 Y0.07267
G01 X-2.24452 Y0.07272
G01 X-2.24771 Y0.07303
G01 X-2.25202 Y0.07387
G01 X-2.25659 Y0.07534
G01 X-2.26060 Y0.07716
G01 X-2.26437 Y0.07942
G01 X-2.26787 Y0.08208
G01 X-2.27105 Y0.08512
G01 X-2.27387 Y0.08849
G01 X-2.27630 Y0.09216
G01 X-2.27830 Y0.09608
G01 X-2.27986 Y0.10019
G01 X-2.28094 Y0.10445
G01 X-2.28157 Y0.10921
G01 X-2.28164 Y0.11361
G01 X-2.28122 Y0.11799
G01 X-2.28031 Y0.12229
G01 X-2.27886 Y0.12662
G01 X-2.39524 Y0.24301
G01 X-2.73940 Y0.24301
G01 X-2.85579 Y0.12662
G01 X-2.85445 Y0.12267
G01 X-2.85349 Y0.11838
G01 X-2.85302 Y0.11401
G01 X-2.85303 Y0.10997
G01 X-2.60670 Y-0.01319
G01 X-2.52342 Y-0.01319
G01 X-2.52342 Y-0.15099
G01 X-2.66122 Y-0.15099
G01 X-2.66122 Y-0.02115
G01 X-2.86711 Y0.08179
G01 X-2.87094 Y0.07897
G01 X-2.87476 Y0.07679
G01 X-2.87918 Y0.07492
G01 X-2.88340 Y0.07368
G01 X-2.88813 Y0.07288
G01 X-2.89252 Y0.07266
G01 X-2.89691 Y0.07293
G01 X-2.90125 Y0.07368
G01 X-2.90547 Y0.07492
G01 X-2.90988 Y0.07679
G01 X-2.91404 Y0.07919
G01 X-2.91756 Y0.08182
G01 X-2.92078 Y0.08483
G01 X-2.92387 Y0.08849
G01 X-2.92630 Y0.09216
G01 X-2.92838 Y0.09626
G01 X-3.25626 Y0.09626
G01 X-3.25757 Y0.09356
G01 X-3.25918 Y0.09080
G01 X-3.26077 Y0.08849
G01 X-3.26279 Y0.08601
G01 X-3.26471 Y0.08397
G01 X-3.26708 Y0.08182
G01 X-3.26962 Y0.07987
G01 X-3.27196 Y0.07834
G01 X-3.27440 Y0.07697
G01 X-3.27731 Y0.07563
G01 X-3.27993 Y0.07466
G01 X-3.28301 Y0.07378
G01 X-3.28575 Y0.07321
G01 X-3.28893 Y0.07280
G01 X-3.29172 Y0.07266
G01 X-3.29492 Y0.07274
G01 X-3.29850 Y0.07315
G01 X-3.30202 Y0.07387
G01 X-3.30547 Y0.07492
G01 X-3.30916 Y0.07644
G01 X-3.31234 Y0.07813
G01 X-3.31568 Y0.08034
G01 X-3.31847 Y0.08261
G01 X-3.32105 Y0.08512
G01 X-3.32339 Y0.08786
G01 X-3.32546 Y0.09080
G01 X-3.32726 Y0.09391
G01 X-3.32892 Y0.09755
G01 X-3.33009 Y0.10096
G01 X-3.33094 Y0.10445
G01 X-3.33151 Y0.10841
G01 X-3.33167 Y0.11201
G01 X-3.33151 Y0.11560
G01 X-3.33094 Y0.11956
G01 X-3.33009 Y0.12306
G01 X-3.32892 Y0.12646
G01 X-3.32726 Y0.13010
G01 X-3.32546 Y0.13322
G01 X-3.32339 Y0.13616
G01 X-3.32078 Y0.13919
G01 X-3.31787 Y0.14194
G01 X-3.31503 Y0.14415
G01 X-3.31165 Y0.14628
G01 X-3.30844 Y0.14791
G01 X-3.30471 Y0.14936
G01 X-3.30125 Y0.15033
G01 X-3.29731 Y0.15104
G01 X-3.29372 Y0.15133
G01 X-3.29092 Y0.15133
G01 X-3.28773 Y0.15109
G01 X-3.28457 Y0.15059
G01 X-3.28185 Y0.14994
G01 X-3.27918 Y0.14910
G01 X-3.27621 Y0.14791
G01 X-3.27128 Y0.14526
G01 X-3.26677 Y0.14194
G01 X-3.26443 Y0.13976
G01 X-3.26252 Y0.13771
G01 X-3.26077 Y0.13552
G01 X-3.25897 Y0.13288
G01 X-3.25757 Y0.13046
G01 X-3.25626 Y0.12776
G01 X-2.92838 Y0.12776
G01 X-2.92670 Y0.13116
G01 X-2.92480 Y0.13422
G01 X-2.92238 Y0.13740
G01 X-2.91993 Y0.14004
G01 X-2.91695 Y0.14270
G01 X-2.91404 Y0.14482
G01 X-2.91060 Y0.14686
G01 X-2.90733 Y0.14838
G01 X-2.90357 Y0.14972
G01 X-2.90007 Y0.15059
G01 X-2.89612 Y0.15117
G01 X-2.89252 Y0.15136
G01 X-2.88893 Y0.15121
G01 X-2.88496 Y0.15066
G01 X-2.88146 Y0.14983
G01 X-2.87771 Y0.14854
G01 X-2.75649 Y0.26975
G01 X-2.75460 Y0.27128
G01 X-2.75249 Y0.27250
G01 X-2.75022 Y0.27337
G01 X-2.74824 Y0.27382
G01 X-2.74582 Y0.27401
G01 X-2.38882 Y0.27401
G01 X-2.38600 Y0.27375
G01 X-2.38289 Y0.27283
G01 X-2.38038 Y0.27151
G01 X-2.37815 Y0.26975
G01 X-2.25694 Y0.14854
G01 X-2.25318 Y0.14983
G01 X-2.24968 Y0.15066
G01 X-2.24572 Y0.15121
G01 X-2.24212 Y0.15136
G01 X-2.23853 Y0.15117
G01 X-2.23457 Y0.15059
G01 X-2.23108 Y0.14972
G01 X-2.22731 Y0.14838
G01 X-2.22405 Y0.14686
G01 X-2.22061 Y0.14482
G01 X-2.21770 Y0.14270
G01 X-2.21471 Y0.14004
G01 X-2.21226 Y0.13740
G01 X-2.20984 Y0.13422
G01 X-2.20795 Y0.13116
G01 X-2.20626 Y0.12776
G01 X-1.87838 Y0.12776
G01 X-1.87708 Y0.13046
G01 X-1.87568 Y0.13288
G01 X-1.87387 Y0.13552
G01 X-1.87212 Y0.13771
G01 X-1.87022 Y0.13976
G01 X-1.86787 Y0.14194
G01 X-1.86337 Y0.14526
G01 X-1.85844 Y0.14791
G01 X-1.85547 Y0.14910
G01 X-1.85280 Y0.14994
G01 X-1.85007 Y0.15059
G01 X-1.84691 Y0.15109
G01 X-1.84372 Y0.15133
G01 X-1.84092 Y0.15133
G01 X-1.83733 Y0.15104
G01 X-1.83340 Y0.15033
G01 X-1.82993 Y0.14936
G01 X-1.82621 Y0.14791
G01 X-1.82299 Y0.14628
G01 X-1.81962 Y0.14415
G01 X-1.81677 Y0.14194
G01 X-1.81387 Y0.13919
G01 X-1.81126 Y0.13616
G01 X-1.80918 Y0.13322
G01 X-1.80738 Y0.13010
G01 X-1.80572 Y0.12646
G01 X-1.80456 Y0.12306
G01 X-1.80370 Y0.11956
G01 X-1.80314 Y0.11560
G01 X-1.80297 Y0.11201
G04 P0 ( dwell for no time -- G64 should not smooth over this point )
G00 Z0.08000 ( retract )

G00 X-2.06520 Y-0.18939 ( rapid move to begin. )
G01 F180.00000
( Mill infeed pass 1/1 )
G01 Z-0.04000
G04 P0 ( dwell for no time -- G64 should not smooth over this point )
G01 F360.00000
G01 X-2.06520 Y-0.18939
G01 X-2.06520 Y-0.18659
G01 X-2.06565 Y-0.18301
G01 X-2.06647 Y-0.17991
G01 X-2.06767 Y-0.17694
G01 X-2.06945 Y-0.17381
G01 X-2.07139 Y-0.17125
G01 X-2.07393 Y-0.16870
G01 X-2.07648 Y-0.16675
G01 X-2.07925 Y-0.16513
G01 X-2.08219 Y-0.16387
G01 X-2.08528 Y-0.16299
G01 X-2.08884 Y-0.16247
G01 X-2.09205 Y-0.16243
G01 X-2.09563 Y-0.16287
G01 X-2.09873 Y-0.16368
G01 X-2.10171 Y-0.16487
G01 X-2.10485 Y-0.16664
G01 X-2.10771 Y-0.16883
G01 X-2.11024 Y-0.17141
G01 X-2.11237 Y-0.17431
G01 X-2.11408 Y-0.17749
G01 X-2.11533 Y-0.18087
G01 X-2.11608 Y-0.18440
G01 X-2.11634 Y-0.18799
G01 X-2.11611 Y-0.19143
G01 X-2.19717 Y-0.27249
G01 X-2.20615 Y-0.27249
G01 X-2.20757 Y-0.26954
G01 X-2.20918 Y-0.26678
G01 X-2.21126 Y-0.26384
G01 X-2.21332 Y-0.26140
G01 X-2.21558 Y-0.25913
G01 X-2.21833 Y-0.25680
G01 X-2.22128 Y-0.25474
G01 X-2.22405 Y-0.25314
G01 X-2.22805 Y-0.25132
G01 X-2.23262 Y-0.24986
G01 X-2.23733 Y-0.24896
G01 X-2.24212 Y-0.24864
G01 X-2.24771 Y-0.24901
G01 X-2.25086 Y-0.24958
G01 X-2.25357 Y-0.25028
G01 X-2.25659 Y-0.25132
G01 X-2.25916 Y-0.25243
G01 X-2.26404 Y-0.25518
G01 X-2.26663 Y-0.25705
G01 X-2.26877 Y-0.25886
G01 X-2.27264 Y-0.26290
G01 X-2.27589 Y-0.26746
G01 X-2.27726 Y-0.26990
G01 X-2.27849 Y-0.27249
G01 X-2.58170 Y-0.27249
G01 X-2.73825 Y-0.11594
G01 X-2.73977 Y-0.11460
G01 X-2.74146 Y-0.11348
G01 X-2.74366 Y-0.11243
G01 X-2.74559 Y-0.11183
G01 X-2.74719 Y-0.11153
G01 X-2.74921 Y-0.11140
G01 X-3.24282 Y-0.11142
G01 X-3.24563 Y-0.11183
G01 X-3.24794 Y-0.11258
G01 X-3.25045 Y-0.11390
G01 X-3.25268 Y-0.11566
G01 X-3.37813 Y-0.24110
G01 X-3.37995 Y-0.24328
G01 X-3.38133 Y-0.24576
G01 X-3.38224 Y-0.24844
G01 X-3.38265 Y-0.25125
G01 X-3.38267 Y-0.32433
G01 X-3.38248 Y-0.32634
G01 X-3.38191 Y-0.32871
G01 X-3.38116 Y-0.33059
G01 X-3.37995 Y-0.33270
G01 X-3.37813 Y-0.33488
G01 X-3.19221 Y-0.52077
G01 X-3.19028 Y-0.52225
G01 X-3.18777 Y-0.52357
G01 X-3.18546 Y-0.52432
G01 X-3.18306 Y-0.52470
G01 X-3.13676 Y-0.52475
G01 X-3.13496 Y-0.52711
G01 X-3.13296 Y-0.52923
G01 X-3.13075 Y-0.53112
G01 X-3.12835 Y-0.53277
G01 X-3.12579 Y-0.53415
G01 X-3.12310 Y-0.53526
G01 X-3.12030 Y-0.53607
G01 X-3.11744 Y-0.53659
G01 X-3.11409 Y-0.53681
G01 X-3.06932 Y-0.53678
G01 X-3.06511 Y-0.53624
G01 X-3.06123 Y-0.53514
G01 X-3.05736 Y-0.53338
G01 X-3.05398 Y-0.53119
G01 X-3.05081 Y-0.52836
G01 X-3.04811 Y-0.52508
G01 X-3.04604 Y-0.52162
G01 X-3.04443 Y-0.51768
G01 X-3.04345 Y-0.51355
G01 X-3.04311 Y-0.50931
G01 X-3.04340 Y-0.50529
G01 X-3.04433 Y-0.50114
G01 X-3.04589 Y-0.49719
G01 X-3.04804 Y-0.49352
G01 X-3.05058 Y-0.49039
G01 X-3.05372 Y-0.48752
G01 X-3.05687 Y-0.48539
G01 X-3.06050 Y-0.48364
G01 X-3.06434 Y-0.48243
G01 X-3.06810 Y-0.48181
G01 X-3.07067 Y-0.48169
G01 X-3.11532 Y-0.48173
G01 X-3.11866 Y-0.48209
G01 X-3.12171 Y-0.48280
G01 X-3.12466 Y-0.48385
G01 X-3.12748 Y-0.48523
G01 X-3.13012 Y-0.48692
G01 X-3.13255 Y-0.48889
G01 X-3.13474 Y-0.49114
G01 X-3.13676 Y-0.49375
G01 X-3.17542 Y-0.49375
G01 X-3.35167 Y-0.31750
G01 X-3.35167 Y-0.25848
G01 X-3.23559 Y-0.14240
G01 X-2.75563 Y-0.14240
G01 X-2.59908 Y-0.29895
G01 X-2.59756 Y-0.30029
G01 X-2.59622 Y-0.30121
G01 X-2.59330 Y-0.30260
G01 X-2.59055 Y-0.30330
G01 X-2.58812 Y-0.30349
G01 X-2.27849 Y-0.30349
G01 X-2.27610 Y-0.30818
G01 X-2.27289 Y-0.31277
G01 X-2.26907 Y-0.31686
G01 X-2.26470 Y-0.32036
G01 X-2.25988 Y-0.32321
G01 X-2.25471 Y-0.32534
G01 X-2.24929 Y-0.32672
G01 X-2.24372 Y-0.32732
G01 X-2.24092 Y-0.32732
G01 X-2.23773 Y-0.32707
G01 X-2.23457 Y-0.32657
G01 X-2.23185 Y-0.32592
G01 X-2.22918 Y-0.32508
G01 X-2.22621 Y-0.32389
G01 X-2.22128 Y-0.32124
G01 X-2.21865 Y-0.31942
G01 X-2.21647 Y-0.31766
G01 X-2.21443 Y-0.31575
G01 X-2.21226 Y-0.31339
G01 X-2.21053 Y-0.31119
G01 X-2.20875 Y-0.30853
G01 X-2.20738 Y-0.30609
G01 X-2.20615 Y-0.30349
G01 X-2.19075 Y-0.30349
G01 X-2.18872 Y-0.30336
G01 X-2.18674 Y-0.30296
G01 X-2.18482 Y-0.30231
G01 X-2.18300 Y-0.30142
G01 X-2.18131 Y-0.30029
G01 X-2.17979 Y-0.29895
G01 X-2.09418 Y-0.21335
G01 X-2.09125 Y-0.21358
G01 X-2.08844 Y-0.21348
G01 X-2.08528 Y-0.21299
G01 X-2.08257 Y-0.21224
G01 X-2.07997 Y-0.21120
G01 X-2.07749 Y-0.20988
G01 X-2.07486 Y-0.20805
G01 X-2.07276 Y-0.20619
G01 X-2.07113 Y-0.20442
G01 X-2.06945 Y-0.20218
G01 X-2.06802 Y-0.19976
G01 X-2.06687 Y-0.19720
G01 X-2.06611 Y-0.19492
G01 X-2.06550 Y-0.19218
G01 X-2.06520 Y-0.18939
G04 P0 ( dwell for no time -- G64 should not smooth over this point )
G00 Z0.08000 ( retract )

G00 X-2.70492 Y-0.63779 ( rapid move to begin. )
G01 F180.00000
( Mill infeed pass 1/1 )
G01 Z-0.04000
G04 P0 ( dwell for no time -- G64 should not smooth over this point )
G01 F360.00000
G01 X-2.70492 Y-0.63779
G01 X-2.70516 Y-0.63380
G01 X-2.70582 Y-0.62985
G01 X-2.70677 Y-0.62638
G01 X-2.70821 Y-0.62265
G01 X-2.70985 Y-0.61944
G01 X-2.71202 Y-0.61607
G01 X-2.71427 Y-0.61326
G01 X-2.71707 Y-0.61040
G01 X-2.72016 Y-0.60786
G01 X-2.72316 Y-0.60587
G01 X-2.72634 Y-0.60418
G01 X-2.73004 Y-0.60266
G01 X-2.73350 Y-0.60165
G01 X-2.73743 Y-0.60091
G01 X-2.74102 Y-0.60061
G01 X-2.74502 Y-0.60069
G01 X-2.74939 Y-0.60126
G01 X-2.75327 Y-0.60223
G01 X-2.75739 Y-0.60376
G01 X-2.76131 Y-0.60577
G01 X-2.76496 Y-0.60822
G01 X-2.76830 Y-0.61109
G01 X-2.77129 Y-0.61433
G01 X-2.77365 Y-0.61756
G01 X-2.77583 Y-0.62138
G01 X-2.77741 Y-0.62505
G01 X-2.77869 Y-0.62927
G01 X-2.77946 Y-0.63360
G01 X-2.77972 Y-0.63799
G01 X-2.77951 Y-0.64199
G01 X-2.77887 Y-0.64594
G01 X-2.77745 Y-0.65084
G01 X-2.77759 Y-0.65098
G01 X-3.04805 Y-0.65098
G01 X-3.04983 Y-0.64870
G01 X-3.05168 Y-0.64676
G01 X-3.05372 Y-0.64500
G01 X-3.05591 Y-0.64345
G01 X-3.05825 Y-0.64213
G01 X-3.06071 Y-0.64104
G01 X-3.06326 Y-0.64019
G01 X-3.06588 Y-0.63959
G01 X-3.07056 Y-0.63917
G01 X-3.11532 Y-0.63921
G01 X-3.11799 Y-0.63947
G01 X-3.12063 Y-0.63999
G01 X-3.12320 Y-0.64076
G01 X-3.12589 Y-0.64188
G01 X-3.12825 Y-0.64316
G01 X-3.13066 Y-0.64480
G01 X-3.13272 Y-0.64653
G01 X-3.13460 Y-0.64845
G01 X-3.13628 Y-0.65054
G01 X-3.13786 Y-0.65298
G01 X-3.13909 Y-0.65538
G01 X-3.14007 Y-0.65788
G01 X-3.14081 Y-0.66046
G01 X-3.14129 Y-0.66310
G01 X-3.14152 Y-0.66578
G01 X-3.14146 Y-0.66869
G01 X-3.14118 Y-0.67114
G01 X-3.14068 Y-0.67355
G01 X-3.13996 Y-0.67591
G01 X-3.13895 Y-0.67839
G01 X-3.13780 Y-0.68058
G01 X-3.13647 Y-0.68265
G01 X-3.13482 Y-0.68476
G01 X-3.13312 Y-0.68655
G01 X-3.13128 Y-0.68818
G01 X-3.12929 Y-0.68964
G01 X-3.12719 Y-0.69092
G01 X-3.12477 Y-0.69209
G01 X-3.12246 Y-0.69295
G01 X-3.11987 Y-0.69365
G01 X-3.11744 Y-0.69407
G01 X-3.11498 Y-0.69427
G01 X-3.07044 Y-0.69429
G01 X-3.06599 Y-0.69389
G01 X-3.06315 Y-0.69325
G01 X-3.06060 Y-0.69239
G01 X-3.05815 Y-0.69128
G01 X-3.05582 Y-0.68995
G01 X-3.05363 Y-0.68839
G01 X-3.05160 Y-0.68663
G01 X-3.04975 Y-0.68468
G01 X-3.04805 Y-0.68248
G01 X-2.76987 Y-0.68244
G01 X-2.76789 Y-0.68216
G01 X-2.76597 Y-0.68164
G01 X-2.76449 Y-0.68104
G01 X-2.76273 Y-0.68010
G01 X-2.76050 Y-0.67842
G01 X-2.75517 Y-0.67312
G01 X-2.75095 Y-0.67438
G01 X-2.74662 Y-0.67515
G01 X-2.74222 Y-0.67539
G01 X-2.73783 Y-0.67512
G01 X-2.73350 Y-0.67434
G01 X-2.72929 Y-0.67305
G01 X-2.72491 Y-0.67109
G01 X-2.72114 Y-0.66882
G01 X-2.71736 Y-0.66585
G01 X-2.71427 Y-0.66272
G01 X-2.71155 Y-0.65926
G01 X-2.70908 Y-0.65514
G01 X-2.70730 Y-0.65112
G01 X-2.70600 Y-0.64691
G01 X-2.70520 Y-0.64258
G01 X-2.70492 Y-0.63779
G04 P0 ( dwell for no time -- G64 should not smooth over this point )
G00 Z0.08000 ( retract )

G00 X-2.99211 Y-0.37930 ( rapid move to begin. )
G01 F180.00000
( Mill infeed pass 1/1 )
G01 Z-0.04000
G04 P0 ( dwell for no time -- G64 should not smooth over this point )
G01 F360.00000
G01 X-2.99211 Y-0.37930
G01 X-2.99213 Y-0.58430
G01 X-2.99245 Y-0.58671
G01 X-2.99314 Y-0.58904
G01 X-2.99419 Y-0.59124
G01 X-2.99556 Y-0.59324
G01 X-3.00235 Y-0.60004
G01 X-3.00436 Y-0.60141
G01 X-3.00693 Y-0.60260
G01 X-3.00928 Y-0.60323
G01 X-3.01170 Y-0.60349
G01 X-3.04788 Y-0.60349
G01 X-3.04975 Y-0.60594
G01 X-3.05176 Y-0.60804
G01 X-3.05398 Y-0.60993
G01 X-3.05639 Y-0.61156
G01 X-3.05896 Y-0.61294
G01 X-3.06165 Y-0.61403
G01 X-3.06445 Y-0.61484
G01 X-3.06732 Y-0.61535
G01 X-3.07067 Y-0.61555
G01 X-3.11498 Y-0.61553
G01 X-3.11877 Y-0.61513
G01 X-3.12267 Y-0.61414
G01 X-3.12639 Y-0.61260
G01 X-3.12985 Y-0.61052
G01 X-3.13296 Y-0.60797
G01 X-3.13553 Y-0.60516
G01 X-3.13780 Y-0.60184
G01 X-3.13957 Y-0.59821
G01 X-3.14056 Y-0.59524
G01 X-3.14118 Y-0.59240
G01 X-3.14149 Y-0.58950
G01 X-3.14150 Y-0.58659
G01 X-3.14120 Y-0.58370
G01 X-3.14053 Y-0.58063
G01 X-3.13961 Y-0.57787
G01 X-3.13840 Y-0.57523
G01 X-3.13679 Y-0.57254
G01 X-3.13503 Y-0.57022
G01 X-3.13304 Y-0.56809
G01 X-3.13066 Y-0.56606
G01 X-3.12806 Y-0.56430
G01 X-3.12548 Y-0.56295
G01 X-3.12278 Y-0.56188
G01 X-3.11998 Y-0.56109
G01 X-3.11710 Y-0.56061
G01 X-3.11420 Y-0.56043
G01 X-3.07056 Y-0.56043
G01 X-3.06743 Y-0.56062
G01 X-3.06456 Y-0.56112
G01 X-3.06176 Y-0.56191
G01 X-3.05886 Y-0.56309
G01 X-3.05630 Y-0.56448
G01 X-3.05390 Y-0.56613
G01 X-3.05168 Y-0.56802
G01 X-3.04968 Y-0.57013
G01 X-3.04788 Y-0.57249
G01 X-3.02311 Y-0.57249
G01 X-3.02311 Y-0.38572
G01 X-3.15437 Y-0.25434
G01 X-3.15575 Y-0.25233
G01 X-3.15664 Y-0.25051
G01 X-3.15739 Y-0.24820
G01 X-3.15777 Y-0.24580
G01 X-3.15782 Y-0.21358
G01 X-3.16791 Y-0.21358
G01 X-3.16791 Y-0.20349
G01 X-3.18590 Y-0.20349
G01 X-3.25579 Y-0.27338
G01 X-3.25467 Y-0.27656
G01 X-3.25378 Y-0.28005
G01 X-3.25322 Y-0.28360
G01 X-3.25299 Y-0.28679
G01 X-3.25302 Y-0.28999
G01 X-3.25337 Y-0.29357
G01 X-3.25404 Y-0.29711
G01 X-3.25504 Y-0.30057
G01 X-3.25634 Y-0.30392
G01 X-3.25775 Y-0.30679
G01 X-3.25940 Y-0.30954
G01 X-3.26150 Y-0.31246
G01 X-3.26387 Y-0.31517
G01 X-3.26647 Y-0.31766
G01 X-3.26897 Y-0.31966
G01 X-3.27196 Y-0.32166
G01 X-3.27584 Y-0.32373
G01 X-3.27993 Y-0.32534
G01 X-3.28418 Y-0.32649
G01 X-3.28853 Y-0.32716
G01 X-3.29292 Y-0.32734
G01 X-3.29731 Y-0.32702
G01 X-3.30125 Y-0.32632
G01 X-3.30547 Y-0.32508
G01 X-3.30952 Y-0.32338
G01 X-3.31337 Y-0.32124
G01 X-3.31695 Y-0.31869
G01 X-3.32022 Y-0.31575
G01 X-3.32314 Y-0.31246
G01 X-3.32546 Y-0.30920
G01 X-3.32762 Y-0.30537
G01 X-3.32934 Y-0.30133
G01 X-3.33031 Y-0.29827
G01 X-3.33094 Y-0.29555
G01 X-3.33143 Y-0.29238
G01 X-3.33164 Y-0.28959
G01 X-3.33165 Y-0.28679
G01 X-3.33143 Y-0.28360
G01 X-3.33094 Y-0.28044
G01 X-3.33031 Y-0.27771
G01 X-3.32934 Y-0.27466
G01 X-3.32830 Y-0.27206
G01 X-3.32689 Y-0.26919
G01 X-3.32387 Y-0.26448
G01 X-3.32186 Y-0.26199
G01 X-3.31787 Y-0.25806
G01 X-3.31370 Y-0.25496
G01 X-3.30916 Y-0.25243
G01 X-3.30433 Y-0.25052
G01 X-3.29889 Y-0.24919
G01 X-3.29372 Y-0.24867
G01 X-3.28813 Y-0.24887
G01 X-3.28301 Y-0.24976
G01 X-3.27771 Y-0.25146
G01 X-3.20208 Y-0.17595
G01 X-3.20007 Y-0.17457
G01 X-3.19825 Y-0.17367
G01 X-3.19594 Y-0.17292
G01 X-3.19394 Y-0.17258
G01 X-3.16791 Y-0.17249
G01 X-3.16791 Y-0.16240
G01 X-3.11673 Y-0.16240
G01 X-3.11673 Y-0.21358
G01 X-3.12682 Y-0.21358
G01 X-3.12682 Y-0.23816
G01 X-2.99665 Y-0.36833
G01 X-2.99556 Y-0.36954
G01 X-2.99439 Y-0.37120
G01 X-2.99300 Y-0.37412
G01 X-2.99237 Y-0.37647
G01 X-2.99211 Y-0.37930
( Piece #2, position [1;0] )

G04 P0 ( dwell for no time -- G64 should not smooth over this point )
G00 Z0.08000 ( retract )

G00 X0.22904 Y-0.55561 ( rapid move to begin. )
G01 F180.00000
( Mill infeed pass 1/1 )
G01 Z-0.04000
G04 P0 ( dwell for no time -- G64 should not smooth over this point )
G01 F360.00000
G01 X0.22904 Y-0.55561
G01 X0.22891 Y-0.55764
G01 X0.22841 Y-0.56002
G01 X0.22786 Y-0.56155
G01 X0.22697 Y-0.56336
G01 X0.22584 Y-0.56505
G01 X0.22450 Y-0.56657
G01 X0.04333 Y-0.74775
G01 X0.04180 Y-0.74909
G01 X0.03976 Y-0.75041
G01 X0.03716 Y-0.75153
G01 X0.03479 Y-0.75210
G01 X0.03237 Y-0.75229
G01 X-0.44150 Y-0.75221
G01 X-0.44389 Y-0.75176
G01 X-0.44618 Y-0.75095
G01 X-0.44832 Y-0.74979
G01 X-0.45025 Y-0.74831
G01 X-0.47927 Y-0.71932
G01 X-0.48131 Y-0.71680
G01 X-0.48230 Y-0.71504
G01 X-0.48305 Y-0.71315
G01 X-0.48355 Y-0.71119
G01 X-0.48379 Y-0.70917
G01 X-0.48381 Y-0.67736
G01 X-0.50571 Y-0.67736
G01 X-0.50571 Y-0.65349
G01 X-0.63090 Y-0.65349
G01 X-0.63090 Y-0.67736
G01 X-0.70571 Y-0.67736
G01 X-0.70571 Y-0.59862
G01 X-0.63090 Y-0.59862
G01 X-0.63090 Y-0.62249
G01 X-0.50571 Y-0.62249
G01 X-0.50571 Y-0.59862
G01 X-0.43091 Y-0.59862
G01 X-0.43091 Y-0.67736
G01 X-0.45281 Y-0.67736
G01 X-0.45281 Y-0.70194
G01 X-0.43346 Y-0.72129
G01 X0.02595 Y-0.72129
G01 X0.19804 Y-0.54919
G01 X0.19804 Y-0.15512
G01 X0.16456 Y-0.12164
G01 X-0.19126 Y-0.12164
G01 X-0.19328 Y-0.12151
G01 X-0.19527 Y-0.12111
G01 X-0.19719 Y-0.12046
G01 X-0.19901 Y-0.11956
G01 X-0.20069 Y-0.11844
G01 X-0.20222 Y-0.11710
G01 X-0.33983 Y0.02051
G01 X-0.36441 Y0.02051
G01 X-0.36441 Y-0.03289
G01 X-0.50221 Y-0.03289
G01 X-0.50221 Y0.08299
G01 X-0.54941 Y0.13019
G01 X-0.54941 Y0.08521
G01 X-0.68721 Y0.08521
G01 X-0.68721 Y0.22301
G01 X-0.54941 Y0.22301
G01 X-0.54941 Y0.16948
G01 X-0.54700 Y0.16897
G01 X-0.54473 Y0.16810
G01 X-0.54263 Y0.16688
G01 X-0.54074 Y0.16535
G01 X-0.48029 Y0.10491
G01 X-0.36441 Y0.10491
G01 X-0.36441 Y0.05151
G01 X-0.33219 Y0.05146
G01 X-0.32979 Y0.05108
G01 X-0.32748 Y0.05033
G01 X-0.32531 Y0.04922
G01 X-0.32365 Y0.04805
G01 X-0.18484 Y-0.09064
G01 X0.17098 Y-0.09064
G01 X0.17301 Y-0.09077
G01 X0.17538 Y-0.09128
G01 X0.17729 Y-0.09198
G01 X0.17942 Y-0.09314
G01 X0.18135 Y-0.09462
G01 X0.22450 Y-0.13774
G01 X0.22584 Y-0.13927
G01 X0.22717 Y-0.14131
G01 X0.22829 Y-0.14391
G01 X0.22885 Y-0.14628
G01 X0.22904 Y-0.14870
G01 X0.22904 Y-0.55561
G04 P0 ( dwell for no time -- G64 should not smooth over this point )
G00 Z0.08000 ( retract )

G00 X0.03089 Y-0.66589 ( rapid move to begin. )
G01 F180.00000
( Mill infeed pass 1/1 )
G01 Z-0.04000
G04 P0 ( dwell for no time -- G64 should not smooth over this point )
G01 F360.00000
G01 X0.03089 Y-0.66589
G01 X0.03068 Y-0.66321
G01 X0.03021 Y-0.66057
G01 X0.02948 Y-0.65798
G01 X0.02850 Y-0.65548
G01 X0.02729 Y-0.65308
G01 X0.02584 Y-0.65082
G01 X0.02404 Y-0.64853
G01 X0.02217 Y-0.64660
G01 X0.01994 Y-0.64473
G01 X0.01772 Y-0.64322
G01 X0.01536 Y-0.64193
G01 X0.01268 Y-0.64080
G01 X0.01011 Y-0.64002
G01 X0.00748 Y-0.63948
G01 X0.00480 Y-0.63921
G01 X-0.04018 Y-0.63917
G01 X-0.04464 Y-0.63957
G01 X-0.04726 Y-0.64016
G01 X-0.04982 Y-0.64100
G01 X-0.05248 Y-0.64218
G01 X-0.05481 Y-0.64352
G01 X-0.05700 Y-0.64507
G01 X-0.05903 Y-0.64683
G01 X-0.06087 Y-0.64879
G01 X-0.06258 Y-0.65098
G01 X-0.28678 Y-0.65098
G01 X-0.33104 Y-0.63483
G01 X-0.33149 Y-0.63142
G01 X-0.33218 Y-0.62830
G01 X-0.33315 Y-0.62524
G01 X-0.33454 Y-0.62192
G01 X-0.33603 Y-0.61909
G01 X-0.33777 Y-0.61640
G01 X-0.33973 Y-0.61387
G01 X-0.34218 Y-0.61123
G01 X-0.34488 Y-0.60884
G01 X-0.34746 Y-0.60694
G01 X-0.35019 Y-0.60527
G01 X-0.35305 Y-0.60384
G01 X-0.35603 Y-0.60266
G01 X-0.35909 Y-0.60174
G01 X-0.36223 Y-0.60109
G01 X-0.36581 Y-0.60067
G01 X-0.36981 Y-0.60062
G01 X-0.37340 Y-0.60094
G01 X-0.37694 Y-0.60160
G01 X-0.38077 Y-0.60273
G01 X-0.38447 Y-0.60426
G01 X-0.38764 Y-0.60597
G01 X-0.39095 Y-0.60822
G01 X-0.39400 Y-0.61081
G01 X-0.39676 Y-0.61371
G01 X-0.39896 Y-0.61656
G01 X-0.40088 Y-0.61961
G01 X-0.40266 Y-0.62320
G01 X-0.40392 Y-0.62657
G01 X-0.40494 Y-0.63044
G01 X-0.40554 Y-0.63439
G01 X-0.40571 Y-0.63799
G01 X-0.40560 Y-0.64079
G01 X-0.40529 Y-0.64358
G01 X-0.40477 Y-0.64633
G01 X-0.40404 Y-0.64903
G01 X-0.40311 Y-0.65168
G01 X-0.40199 Y-0.65425
G01 X-0.40068 Y-0.65672
G01 X-0.39919 Y-0.65909
G01 X-0.39752 Y-0.66135
G01 X-0.39569 Y-0.66347
G01 X-0.39371 Y-0.66544
G01 X-0.39158 Y-0.66727
G01 X-0.38932 Y-0.66893
G01 X-0.38695 Y-0.67042
G01 X-0.38447 Y-0.67172
G01 X-0.38190 Y-0.67284
G01 X-0.37694 Y-0.67438
G01 X-0.37419 Y-0.67493
G01 X-0.37141 Y-0.67526
G01 X-0.36861 Y-0.67539
G01 X-0.36581 Y-0.67531
G01 X-0.36065 Y-0.67460
G01 X-0.35565 Y-0.67319
G01 X-0.35305 Y-0.67214
G01 X-0.35054 Y-0.67090
G01 X-0.34812 Y-0.66948
G01 X-0.34582 Y-0.66788
G01 X-0.34184 Y-0.66442
G01 X-0.29497 Y-0.68153
G01 X-0.29308 Y-0.68209
G01 X-0.29075 Y-0.68244
G01 X-0.06258 Y-0.68248
G01 X-0.06080 Y-0.68476
G01 X-0.05895 Y-0.68671
G01 X-0.05691 Y-0.68846
G01 X-0.05471 Y-0.69001
G01 X-0.05238 Y-0.69134
G01 X-0.04992 Y-0.69243
G01 X-0.04737 Y-0.69328
G01 X-0.04475 Y-0.69387
G01 X-0.04007 Y-0.69429
G01 X0.00447 Y-0.69427
G01 X0.00692 Y-0.69406
G01 X0.00935 Y-0.69363
G01 X0.01172 Y-0.69299
G01 X0.01424 Y-0.69205
G01 X0.01646 Y-0.69097
G01 X0.01857 Y-0.68970
G01 X0.02056 Y-0.68825
G01 X0.02257 Y-0.68648
G01 X0.02441 Y-0.68451
G01 X0.02591 Y-0.68256
G01 X0.02723 Y-0.68048
G01 X0.02836 Y-0.67829
G01 X0.02930 Y-0.67601
G01 X0.03002 Y-0.67366
G01 X0.03057 Y-0.67103
G01 X0.03084 Y-0.66858
G01 X0.03089 Y-0.66589
G04 P0 ( dwell for no time -- G64 should not smooth over this point )
G00 Z0.08000 ( retract )

G00 X0.03088 Y-0.50796 ( rapid move to begin. )
G01 F180.00000
( Mill infeed pass 1/1 )
G01 Z-0.04000
G04 P0 ( dwell for no time -- G64 should not smooth over this point )
G01 F360.00000
G01 X0.03088 Y-0.50796
G01 X0.03055 Y-0.50485
G01 X0.02988 Y-0.50179
G01 X0.02886 Y-0.49882
G01 X0.02751 Y-0.49599
G01 X0.02584 Y-0.49334
G01 X0.02389 Y-0.49088
G01 X0.02167 Y-0.48867
G01 X0.01922 Y-0.48672
G01 X0.01656 Y-0.48507
G01 X0.01352 Y-0.48364
G01 X0.01054 Y-0.48265
G01 X0.00748 Y-0.48200
G01 X0.00435 Y-0.48171
G01 X-0.04018 Y-0.48169
G01 X-0.04464 Y-0.48209
G01 X-0.04748 Y-0.48274
G01 X-0.05003 Y-0.48360
G01 X-0.05248 Y-0.48470
G01 X-0.05481 Y-0.48603
G01 X-0.05700 Y-0.48759
G01 X-0.05903 Y-0.48935
G01 X-0.06087 Y-0.49130
G01 X-0.06257 Y-0.49350
G01 X-0.65459 Y-0.49350
G01 X-0.90256 Y-0.24553
G01 X-0.90264 Y-0.18637
G01 X-0.90298 Y-0.18437
G01 X-0.90343 Y-0.18282
G01 X-0.90480 Y-0.17988
G01 X-0.90675 Y-0.17729
G01 X-0.90918 Y-0.17516
G01 X-0.91090 Y-0.17409
G01 X-0.91313 Y-0.17312
G01 X-0.91548 Y-0.17250
G01 X-0.91790 Y-0.17225
G01 X-1.04971 Y-0.17224
G01 X-1.05161 Y-0.17007
G01 X-1.05399 Y-0.16793
G01 X-1.05663 Y-0.16610
G01 X-1.05910 Y-0.16478
G01 X-1.06209 Y-0.16362
G01 X-1.06480 Y-0.16291
G01 X-1.06798 Y-0.16247
G01 X-1.07078 Y-0.16242
G01 X-1.07476 Y-0.16287
G01 X-1.07862 Y-0.16394
G01 X-1.08227 Y-0.16560
G01 X-1.08561 Y-0.16781
G01 X-1.08857 Y-0.17051
G01 X-1.09107 Y-0.17364
G01 X-1.09305 Y-0.17712
G01 X-1.09446 Y-0.18087
G01 X-1.09509 Y-0.18360
G01 X-1.09539 Y-0.18599
G01 X-1.09546 Y-0.18879
G01 X-1.09522 Y-0.19159
G01 X-1.09467 Y-0.19434
G01 X-1.09383 Y-0.19702
G01 X-1.09270 Y-0.19958
G01 X-1.09129 Y-0.20201
G01 X-1.08963 Y-0.20427
G01 X-1.08773 Y-0.20633
G01 X-1.08593 Y-0.20793
G01 X-1.08365 Y-0.20956
G01 X-1.08120 Y-0.21094
G01 X-1.07862 Y-0.21204
G01 X-1.07594 Y-0.21286
G01 X-1.07358 Y-0.21331
G01 X-1.07038 Y-0.21358
G01 X-1.06678 Y-0.21339
G01 X-1.06363 Y-0.21281
G01 X-1.06020 Y-0.21168
G01 X-1.05732 Y-0.21029
G01 X-1.05431 Y-0.20830
G01 X-1.05189 Y-0.20619
G01 X-1.04971 Y-0.20374
G01 X-0.93406 Y-0.20374
G01 X-0.93406 Y-0.25193
G01 X-0.93867 Y-0.25432
G01 X-0.94293 Y-0.25730
G01 X-0.94676 Y-0.26081
G01 X-0.94986 Y-0.26448
G01 X-0.95268 Y-0.26884
G01 X-0.95476 Y-0.27316
G01 X-0.95629 Y-0.27771
G01 X-0.95731 Y-0.28281
G01 X-0.95764 Y-0.28679
G01 X-0.95753 Y-0.29119
G01 X-0.95700 Y-0.29515
G01 X-0.95607 Y-0.29904
G01 X-0.95476 Y-0.30282
G01 X-0.95287 Y-0.30679
G01 X-0.95079 Y-0.31021
G01 X-0.94836 Y-0.31339
G01 X-0.94505 Y-0.31686
G01 X-0.94166 Y-0.31966
G01 X-0.93763 Y-0.32227
G01 X-0.93332 Y-0.32437
G01 X-0.92917 Y-0.32581
G01 X-0.92448 Y-0.32685
G01 X-0.91971 Y-0.32732
G01 X-0.91491 Y-0.32720
G01 X-0.91056 Y-0.32657
G01 X-0.90592 Y-0.32534
G01 X-0.90147 Y-0.32356
G01 X-0.89726 Y-0.32124
G01 X-0.89368 Y-0.31869
G01 X-0.89013 Y-0.31546
G01 X-0.88700 Y-0.31183
G01 X-0.88450 Y-0.30813
G01 X-0.67225 Y-0.52039
G01 X-0.67070 Y-0.52175
G01 X-0.66934 Y-0.52268
G01 X-0.66752 Y-0.52364
G01 X-0.66558 Y-0.52435
G01 X-0.66357 Y-0.52481
G01 X-0.66111 Y-0.52500
G01 X-0.06258 Y-0.52500
G01 X-0.06080 Y-0.52728
G01 X-0.05895 Y-0.52923
G01 X-0.05691 Y-0.53098
G01 X-0.05471 Y-0.53253
G01 X-0.05238 Y-0.53386
G01 X-0.04992 Y-0.53495
G01 X-0.04737 Y-0.53580
G01 X-0.04475 Y-0.53639
G01 X-0.04030 Y-0.53681
G01 X0.00357 Y-0.53681
G01 X0.00781 Y-0.53645
G01 X0.01215 Y-0.53537
G01 X0.01606 Y-0.53370
G01 X0.01985 Y-0.53132
G01 X0.02305 Y-0.52852
G01 X0.02591 Y-0.52508
G01 X0.02807 Y-0.52142
G01 X0.02972 Y-0.51726
G01 X0.03046 Y-0.51421
G01 X0.03084 Y-0.51110
G01 X0.03088 Y-0.50796
G04 P0 ( dwell for no time -- G64 should not smooth over this point )
G00 Z0.08000 ( retract )

G00 X0.17104 Y-0.28839 ( rapid move to begin. )
G01 F180.00000
( Mill infeed pass 1/1 )
G01 Z-0.04000
G04 P0 ( dwell for no time -- G64 should not smooth over this point )
G01 F360.00000
G01 X0.17104 Y-0.28839
G01 X0.17080 Y-0.29238
G01 X0.17023 Y-0.29594
G01 X0.16923 Y-0.29981
G01 X0.16799 Y-0.30319
G01 X0.16626 Y-0.30679
G01 X0.16440 Y-0.30987
G01 X0.16201 Y-0.31308
G01 X0.15959 Y-0.31575
G01 X0.15694 Y-0.31818
G01 X0.15374 Y-0.32058
G01 X0.15067 Y-0.32246
G01 X0.14719 Y-0.32416
G01 X0.14711 Y-0.51982
G01 X0.14666 Y-0.52222
G01 X0.14585 Y-0.52451
G01 X0.14469 Y-0.52665
G01 X0.14294 Y-0.52887
G01 X0.07287 Y-0.59895
G01 X0.07102 Y-0.60053
G01 X0.06894 Y-0.60180
G01 X0.06592 Y-0.60296
G01 X0.06272 Y-0.60347
G01 X0.02613 Y-0.60349
G01 X0.02426 Y-0.60594
G01 X0.02225 Y-0.60804
G01 X0.02003 Y-0.60993
G01 X0.01762 Y-0.61156
G01 X0.01506 Y-0.61294
G01 X0.01236 Y-0.61403
G01 X0.00956 Y-0.61484
G01 X0.00670 Y-0.61535
G01 X0.00335 Y-0.61555
G01 X-0.04007 Y-0.61555
G01 X-0.04298 Y-0.61539
G01 X-0.04716 Y-0.61460
G01 X-0.05116 Y-0.61317
G01 X-0.05471 Y-0.61127
G01 X-0.05812 Y-0.60872
G01 X-0.06109 Y-0.60568
G01 X-0.06356 Y-0.60222
G01 X-0.06547 Y-0.59842
G01 X-0.06677 Y-0.59437
G01 X-0.06743 Y-0.59017
G01 X-0.06744 Y-0.58592
G01 X-0.06680 Y-0.58172
G01 X-0.06551 Y-0.57767
G01 X-0.06362 Y-0.57386
G01 X-0.06131 Y-0.57056
G01 X-0.05837 Y-0.56748
G01 X-0.05500 Y-0.56490
G01 X-0.05208 Y-0.56324
G01 X-0.04876 Y-0.56188
G01 X-0.04552 Y-0.56100
G01 X-0.04197 Y-0.56051
G01 X0.00525 Y-0.56050
G01 X0.00836 Y-0.56089
G01 X0.01140 Y-0.56164
G01 X0.01434 Y-0.56272
G01 X0.01714 Y-0.56413
G01 X0.01976 Y-0.56586
G01 X0.02217 Y-0.56786
G01 X0.02433 Y-0.57013
G01 X0.02613 Y-0.57249
G01 X0.05549 Y-0.57249
G01 X0.11619 Y-0.51178
G01 X0.11619 Y-0.32416
G01 X0.11271 Y-0.32246
G01 X0.10964 Y-0.32058
G01 X0.10645 Y-0.31818
G01 X0.10380 Y-0.31575
G01 X0.10138 Y-0.31308
G01 X0.09899 Y-0.30987
G01 X0.09713 Y-0.30679
G01 X0.09540 Y-0.30319
G01 X0.09416 Y-0.29981
G01 X0.09315 Y-0.29594
G01 X0.09259 Y-0.29238
G01 X0.09235 Y-0.28839
G01 X0.09247 Y-0.28479
G01 X0.09300 Y-0.28083
G01 X0.09393 Y-0.27694
G01 X0.09516 Y-0.27338
G01 X0.02527 Y-0.20349
G01 X0.00728 Y-0.20349
G01 X0.00728 Y-0.21358
G01 X-0.04390 Y-0.21358
G01 X-0.04390 Y-0.16240
G01 X0.00728 Y-0.16240
G01 X0.00728 Y-0.17249
G01 X0.03331 Y-0.17258
G01 X0.03531 Y-0.17292
G01 X0.03762 Y-0.17367
G01 X0.03944 Y-0.17457
G01 X0.04145 Y-0.17595
G01 X0.11708 Y-0.25146
G01 X0.12083 Y-0.25017
G01 X0.12473 Y-0.24926
G01 X0.12870 Y-0.24876
G01 X0.13229 Y-0.24865
G01 X0.13628 Y-0.24891
G01 X0.14023 Y-0.24958
G01 X0.14408 Y-0.25064
G01 X0.14744 Y-0.25193
G01 X0.15102 Y-0.25372
G01 X0.15440 Y-0.25585
G01 X0.15724 Y-0.25806
G01 X0.16015 Y-0.26081
G01 X0.16276 Y-0.26384
G01 X0.16484 Y-0.26678
G01 X0.16664 Y-0.26990
G01 X0.16829 Y-0.27354
G01 X0.16946 Y-0.27694
G01 X0.17039 Y-0.28083
G01 X0.17091 Y-0.28479
G01 X0.17104 Y-0.28839
G04 P0 ( dwell for no time -- G64 should not smooth over this point )
G00 Z0.08000 ( retract )

G00 X0.17104 Y0.11201 ( rapid move to begin. )
G01 F180.00000
( Mill infeed pass 1/1 )
G01 Z-0.04000
G04 P0 ( dwell for no time -- G64 should not smooth over this point )
G01 F360.00000
G01 X0.17104 Y0.11201
G01 X0.17088 Y0.10841
G01 X0.17039 Y0.10485
G01 X0.16957 Y0.10134
G01 X0.16844 Y0.09792
G01 X0.16700 Y0.09463
G01 X0.16505 Y0.09113
G01 X0.16300 Y0.08817
G01 X0.16069 Y0.08541
G01 X0.15814 Y0.08287
G01 X0.15537 Y0.08058
G01 X0.15240 Y0.07855
G01 X0.14889 Y0.07662
G01 X0.14559 Y0.07519
G01 X0.14217 Y0.07408
G01 X0.13866 Y0.07328
G01 X0.13509 Y0.07280
G01 X0.13189 Y0.07266
G01 X0.12870 Y0.07277
G01 X0.12552 Y0.07315
G01 X0.12277 Y0.07368
G01 X0.11969 Y0.07453
G01 X0.11705 Y0.07548
G01 X0.11449 Y0.07662
G01 X0.11167 Y0.07813
G01 X0.10899 Y0.07987
G01 X0.10645 Y0.08182
G01 X0.10408 Y0.08397
G01 X0.10216 Y0.08601
G01 X0.10014 Y0.08849
G01 X0.09855 Y0.09080
G01 X0.09694 Y0.09356
G01 X0.09563 Y0.09626
G01 X-0.23225 Y0.09626
G01 X-0.23355 Y0.09356
G01 X-0.23516 Y0.09080
G01 X-0.23700 Y0.08817
G01 X-0.23904 Y0.08571
G01 X-0.24127 Y0.08342
G01 X-0.24368 Y0.08131
G01 X-0.24626 Y0.07942
G01 X-0.24898 Y0.07773
G01 X-0.25183 Y0.07627
G01 X-0.25479 Y0.07505
G01 X-0.25783 Y0.07408
G01 X-0.26095 Y0.07335
G01 X-0.26411 Y0.07288
G01 X-0.26731 Y0.07267
G01 X-0.27051 Y0.07272
G01 X-0.27369 Y0.07303
G01 X-0.27801 Y0.07387
G01 X-0.28258 Y0.07534
G01 X-0.28658 Y0.07716
G01 X-0.29036 Y0.07942
G01 X-0.29386 Y0.08208
G01 X-0.29704 Y0.08512
G01 X-0.29986 Y0.08849
G01 X-0.30228 Y0.09216
G01 X-0.30429 Y0.09608
G01 X-0.30584 Y0.10019
G01 X-0.30693 Y0.10445
G01 X-0.30756 Y0.10921
G01 X-0.30762 Y0.11361
G01 X-0.30720 Y0.11799
G01 X-0.30629 Y0.12229
G01 X-0.30484 Y0.12662
G01 X-0.42123 Y0.24301
G01 X-0.76538 Y0.24301
G01 X-0.88177 Y0.12662
G01 X-0.88043 Y0.12267
G01 X-0.87948 Y0.11838
G01 X-0.87901 Y0.11401
G01 X-0.87901 Y0.10997
G01 X-0.63269 Y-0.01319
G01 X-0.54941 Y-0.01319
G01 X-0.54941 Y-0.15099
G01 X-0.68721 Y-0.15099
G01 X-0.68721 Y-0.02115
G01 X-0.89310 Y0.08179
G01 X-0.89693 Y0.07897
G01 X-0.90075 Y0.07679
G01 X-0.90516 Y0.07492
G01 X-0.90938 Y0.07368
G01 X-0.91411 Y0.07288
G01 X-0.91851 Y0.07266
G01 X-0.92290 Y0.07293
G01 X-0.92723 Y0.07368
G01 X-0.93145 Y0.07492
G01 X-0.93587 Y0.07679
G01 X-0.94002 Y0.07919
G01 X-0.94355 Y0.08182
G01 X-0.94676 Y0.08483
G01 X-0.94986 Y0.08849
G01 X-0.95228 Y0.09216
G01 X-0.95437 Y0.09626
G01 X-1.28225 Y0.09626
G01 X-1.28355 Y0.09356
G01 X-1.28516 Y0.09080
G01 X-1.28676 Y0.08849
G01 X-1.28877 Y0.08601
G01 X-1.29070 Y0.08397
G01 X-1.29306 Y0.08182
G01 X-1.29560 Y0.07987
G01 X-1.29794 Y0.07834
G01 X-1.30039 Y0.07697
G01 X-1.30329 Y0.07563
G01 X-1.30592 Y0.07466
G01 X-1.30899 Y0.07378
G01 X-1.31174 Y0.07321
G01 X-1.31491 Y0.07280
G01 X-1.31771 Y0.07266
G01 X-1.32091 Y0.07274
G01 X-1.32448 Y0.07315
G01 X-1.32801 Y0.07387
G01 X-1.33145 Y0.07492
G01 X-1.33515 Y0.07644
G01 X-1.33833 Y0.07813
G01 X-1.34166 Y0.08034
G01 X-1.34446 Y0.08261
G01 X-1.34704 Y0.08512
G01 X-1.34937 Y0.08786
G01 X-1.35145 Y0.09080
G01 X-1.35325 Y0.09391
G01 X-1.35491 Y0.09755
G01 X-1.35607 Y0.10096
G01 X-1.35693 Y0.10445
G01 X-1.35749 Y0.10841
G01 X-1.35766 Y0.11201
G01 X-1.35749 Y0.11560
G01 X-1.35693 Y0.11956
G01 X-1.35607 Y0.12306
G01 X-1.35491 Y0.12646
G01 X-1.35325 Y0.13010
G01 X-1.35145 Y0.13322
G01 X-1.34937 Y0.13616
G01 X-1.34676 Y0.13919
G01 X-1.34386 Y0.14194
G01 X-1.34101 Y0.14415
G01 X-1.33763 Y0.14628
G01 X-1.33442 Y0.14791
G01 X-1.33069 Y0.14936
G01 X-1.32723 Y0.15033
G01 X-1.32329 Y0.15104
G01 X-1.31971 Y0.15133
G01 X-1.31691 Y0.15133
G01 X-1.31372 Y0.15109
G01 X-1.31056 Y0.15059
G01 X-1.30783 Y0.14994
G01 X-1.30516 Y0.14910
G01 X-1.30219 Y0.14791
G01 X-1.29726 Y0.14526
G01 X-1.29276 Y0.14194
G01 X-1.29041 Y0.13976
G01 X-1.28851 Y0.13771
G01 X-1.28676 Y0.13552
G01 X-1.28495 Y0.13288
G01 X-1.28355 Y0.13046
G01 X-1.28225 Y0.12776
G01 X-0.95437 Y0.12776
G01 X-0.95268 Y0.13116
G01 X-0.95079 Y0.13422
G01 X-0.94836 Y0.13740
G01 X-0.94592 Y0.14004
G01 X-0.94293 Y0.14270
G01 X-0.94002 Y0.14482
G01 X-0.93658 Y0.14686
G01 X-0.93332 Y0.14838
G01 X-0.92955 Y0.14972
G01 X-0.92606 Y0.15059
G01 X-0.92210 Y0.15117
G01 X-0.91851 Y0.15136
G01 X-0.91491 Y0.15121
G01 X-0.91095 Y0.15066
G01 X-0.90745 Y0.14983
G01 X-0.90369 Y0.14854
G01 X-0.78248 Y0.26975
G01 X-0.78058 Y0.27128
G01 X-0.77848 Y0.27250
G01 X-0.77621 Y0.27337
G01 X-0.77423 Y0.27382
G01 X-0.77181 Y0.27401
G01 X-0.41481 Y0.27401
G01 X-0.41198 Y0.27375
G01 X-0.40888 Y0.27283
G01 X-0.40637 Y0.27151
G01 X-0.40414 Y0.26975
G01 X-0.28292 Y0.14854
G01 X-0.27917 Y0.14983
G01 X-0.27566 Y0.15066
G01 X-0.27170 Y0.15121
G01 X-0.26811 Y0.15136
G01 X-0.26451 Y0.15117
G01 X-0.26056 Y0.15059
G01 X-0.25706 Y0.14972
G01 X-0.25329 Y0.14838
G01 X-0.25003 Y0.14686
G01 X-0.24659 Y0.14482
G01 X-0.24368 Y0.14270
G01 X-0.24070 Y0.14004
G01 X-0.23825 Y0.13740
G01 X-0.23583 Y0.13422
G01 X-0.23393 Y0.13116
G01 X-0.23225 Y0.12776
G01 X0.09563 Y0.12776
G01 X0.09694 Y0.13046
G01 X0.09834 Y0.13288
G01 X0.10014 Y0.13552
G01 X0.10189 Y0.13771
G01 X0.10380 Y0.13976
G01 X0.10614 Y0.14194
G01 X0.11065 Y0.14526
G01 X0.11558 Y0.14791
G01 X0.11855 Y0.14910
G01 X0.12122 Y0.14994
G01 X0.12394 Y0.15059
G01 X0.12710 Y0.15109
G01 X0.13029 Y0.15133
G01 X0.13309 Y0.15133
G01 X0.13668 Y0.15104
G01 X0.14062 Y0.15033
G01 X0.14408 Y0.14936
G01 X0.14781 Y0.14791
G01 X0.15102 Y0.14628
G01 X0.15440 Y0.14415
G01 X0.15724 Y0.14194
G01 X0.16015 Y0.13919
G01 X0.16276 Y0.13616
G01 X0.16484 Y0.13322
G01 X0.16664 Y0.13010
G01 X0.16829 Y0.12646
G01 X0.16946 Y0.12306
G01 X0.17031 Y0.11956
G01 X0.17088 Y0.11560
G01 X0.17104 Y0.11201
G04 P0 ( dwell for no time -- G64 should not smooth over this point )
G00 Z0.08000 ( retract )

G00 X-0.09118 Y-0.18939 ( rapid move to begin. )
G01 F180.00000
( Mill infeed pass 1/1 )
G01 Z-0.04000
G04 P0 ( dwell for no time -- G64 should not smooth over this point )
G01 F360.00000
G01 X-0.09118 Y-0.18939
G01 X-0.09118 Y-0.18659
G01 X-0.09163 Y-0.18301
G01 X-0.09245 Y-0.17991
G01 X-0.09365 Y-0.17694
G01 X-0.09543 Y-0.17381
G01 X-0.09737 Y-0.17125
G01 X-0.09992 Y-0.16870
G01 X-0.10246 Y-0.16675
G01 X-0.10523 Y-0.16513
G01 X-0.10818 Y-0.16387
G01 X-0.11126 Y-0.16299
G01 X-0.11483 Y-0.16247
G01 X-0.11803 Y-0.16243
G01 X-0.12161 Y-0.16287
G01 X-0.12472 Y-0.16368
G01 X-0.12769 Y-0.16487
G01 X-0.13083 Y-0.16664
G01 X-0.13370 Y-0.16883
G01 X-0.13622 Y-0.17141
G01 X-0.13836 Y-0.17431
G01 X-0.14007 Y-0.17749
G01 X-0.14131 Y-0.18087
G01 X-0.14207 Y-0.18440
G01 X-0.14232 Y-0.18799
G01 X-0.14209 Y-0.19143
G01 X-0.22315 Y-0.27249
G01 X-0.23214 Y-0.27249
G01 X-0.23355 Y-0.26954
G01 X-0.23516 Y-0.26678
G01 X-0.23724 Y-0.26384
G01 X-0.23931 Y-0.26140
G01 X-0.24156 Y-0.25913
G01 X-0.24431 Y-0.25680
G01 X-0.24726 Y-0.25474
G01 X-0.25003 Y-0.25314
G01 X-0.25404 Y-0.25132
G01 X-0.25861 Y-0.24986
G01 X-0.26332 Y-0.24896
G01 X-0.26811 Y-0.24864
G01 X-0.27369 Y-0.24901
G01 X-0.27684 Y-0.24958
G01 X-0.27955 Y-0.25028
G01 X-0.28258 Y-0.25132
G01 X-0.28515 Y-0.25243
G01 X-0.29002 Y-0.25518
G01 X-0.29262 Y-0.25705
G01 X-0.29476 Y-0.25886
G01 X-0.29862 Y-0.26290
G01 X-0.30187 Y-0.26746
G01 X-0.30325 Y-0.26990
G01 X-0.30448 Y-0.27249
G01 X-0.60769 Y-0.27249
G01 X-0.76423 Y-0.11594
G01 X-0.76576 Y-0.11460
G01 X-0.76745 Y-0.11348
G01 X-0.76964 Y-0.11243
G01 X-0.77158 Y-0.11183
G01 X-0.77317 Y-0.11153
G01 X-0.77520 Y-0.11140
G01 X-1.26881 Y-0.11142
G01 X-1.27161 Y-0.11183
G01 X-1.27393 Y-0.11258
G01 X-1.27644 Y-0.11390
G01 X-1.27866 Y-0.11566
G01 X-1.40412 Y-0.24110
G01 X-1.40593 Y-0.24328
G01 X-1.40732 Y-0.24576
G01 X-1.40823 Y-0.24844
G01 X-1.40864 Y-0.25125
G01 X-1.40865 Y-0.32433
G01 X-1.40847 Y-0.32634
G01 X-1.40790 Y-0.32871
G01 X-1.40715 Y-0.33059
G01 X-1.40593 Y-0.33270
G01 X-1.40412 Y-0.33488
G01 X-1.21820 Y-0.52077
G01 X-1.21627 Y-0.52225
G01 X-1.21376 Y-0.52357
G01 X-1.21144 Y-0.52432
G01 X-1.20904 Y-0.52470
G01 X-1.16275 Y-0.52475
G01 X-1.16095 Y-0.52711
G01 X-1.15895 Y-0.52923
G01 X-1.15673 Y-0.53112
G01 X-1.15433 Y-0.53277
G01 X-1.15177 Y-0.53415
G01 X-1.14908 Y-0.53526
G01 X-1.14629 Y-0.53607
G01 X-1.14342 Y-0.53659
G01 X-1.14007 Y-0.53681
G01 X-1.09531 Y-0.53678
G01 X-1.09109 Y-0.53624
G01 X-1.08722 Y-0.53514
G01 X-1.08335 Y-0.53338
G01 X-1.07997 Y-0.53119
G01 X-1.07679 Y-0.52836
G01 X-1.07409 Y-0.52508
G01 X-1.07202 Y-0.52162
G01 X-1.07042 Y-0.51768
G01 X-1.06943 Y-0.51355
G01 X-1.06909 Y-0.50931
G01 X-1.06938 Y-0.50529
G01 X-1.07031 Y-0.50114
G01 X-1.07188 Y-0.49719
G01 X-1.07403 Y-0.49352
G01 X-1.07656 Y-0.49039
G01 X-1.07970 Y-0.48752
G01 X-1.08286 Y-0.48539
G01 X-1.08648 Y-0.48364
G01 X-1.09033 Y-0.48243
G01 X-1.09408 Y-0.48181
G01 X-1.09665 Y-0.48169
G01 X-1.14130 Y-0.48173
G01 X-1.14464 Y-0.48209
G01 X-1.14770 Y-0.48280
G01 X-1.15065 Y-0.48385
G01 X-1.15346 Y-0.48523
G01 X-1.15610 Y-0.48692
G01 X-1.15854 Y-0.48889
G01 X-1.16073 Y-0.49114
G01 X-1.16275 Y-0.49375
G01 X-1.20140 Y-0.49375
G01 X-1.37766 Y-0.31750
G01 X-1.37766 Y-0.25848
G01 X-1.26157 Y-0.14240
G01 X-0.78162 Y-0.14240
G01 X-0.62507 Y-0.29895
G01 X-0.62354 Y-0.30029
G01 X-0.62221 Y-0.30121
G01 X-0.61928 Y-0.30260
G01 X-0.61653 Y-0.30330
G01 X-0.61411 Y-0.30349
G01 X-0.30448 Y-0.30349
G01 X-0.30208 Y-0.30818
G01 X-0.29888 Y-0.31277
G01 X-0.29505 Y-0.31686
G01 X-0.29069 Y-0.32036
G01 X-0.28587 Y-0.32321
G01 X-0.28069 Y-0.32534
G01 X-0.27527 Y-0.32672
G01 X-0.26971 Y-0.32732
G01 X-0.26691 Y-0.32732
G01 X-0.26372 Y-0.32707
G01 X-0.26056 Y-0.32657
G01 X-0.25783 Y-0.32592
G01 X-0.25516 Y-0.32508
G01 X-0.25219 Y-0.32389
G01 X-0.24726 Y-0.32124
G01 X-0.24463 Y-0.31942
G01 X-0.24246 Y-0.31766
G01 X-0.24041 Y-0.31575
G01 X-0.23825 Y-0.31339
G01 X-0.23652 Y-0.31119
G01 X-0.23474 Y-0.30853
G01 X-0.23336 Y-0.30609
G01 X-0.23214 Y-0.30349
G01 X-0.21673 Y-0.30349
G01 X-0.21471 Y-0.30336
G01 X-0.21272 Y-0.30296
G01 X-0.21080 Y-0.30231
G01 X-0.20898 Y-0.30142
G01 X-0.20730 Y-0.30029
G01 X-0.20577 Y-0.29895
G01 X-0.12017 Y-0.21335
G01 X-0.11723 Y-0.21358
G01 X-0.11443 Y-0.21348
G01 X-0.11126 Y-0.21299
G01 X-0.10856 Y-0.21224
G01 X-0.10595 Y-0.21120
G01 X-0.10348 Y-0.20988
G01 X-0.10084 Y-0.20805
G01 X-0.09874 Y-0.20619
G01 X-0.09711 Y-0.20442
G01 X-0.09543 Y-0.20218
G01 X-0.09401 Y-0.19976
G01 X-0.09286 Y-0.19720
G01 X-0.09210 Y-0.19492
G01 X-0.09149 Y-0.19218
G01 X-0.09118 Y-0.18939
G04 P0 ( dwell for no time -- G64 should not smooth over this point )
G00 Z0.08000 ( retract )

G00 X-0.73091 Y-0.63779 ( rapid move to begin. )
G01 F180.00000
( Mill infeed pass 1/1 )
G01 Z-0.04000
G04 P0 ( dwell for no time -- G64 should not smooth over this point )
G01 F360.00000
G01 X-0.73091 Y-0.63779
G01 X-0.73114 Y-0.63380
G01 X-0.73180 Y-0.62985
G01 X-0.73275 Y-0.62638
G01 X-0.73420 Y-0.62265
G01 X-0.73583 Y-0.61944
G01 X-0.73800 Y-0.61607
G01 X-0.74025 Y-0.61326
G01 X-0.74305 Y-0.61040
G01 X-0.74614 Y-0.60786
G01 X-0.74915 Y-0.60587
G01 X-0.75232 Y-0.60418
G01 X-0.75603 Y-0.60266
G01 X-0.75948 Y-0.60165
G01 X-0.76342 Y-0.60091
G01 X-0.76701 Y-0.60061
G01 X-0.77101 Y-0.60069
G01 X-0.77537 Y-0.60126
G01 X-0.77925 Y-0.60223
G01 X-0.78338 Y-0.60376
G01 X-0.78729 Y-0.60577
G01 X-0.79095 Y-0.60822
G01 X-0.79429 Y-0.61109
G01 X-0.79727 Y-0.61433
G01 X-0.79963 Y-0.61756
G01 X-0.80182 Y-0.62138
G01 X-0.80340 Y-0.62505
G01 X-0.80468 Y-0.62927
G01 X-0.80545 Y-0.63360
G01 X-0.80571 Y-0.63799
G01 X-0.80549 Y-0.64199
G01 X-0.80485 Y-0.64594
G01 X-0.80343 Y-0.65084
G01 X-0.80357 Y-0.65098
G01 X-1.07404 Y-0.65098
G01 X-1.07581 Y-0.64870
G01 X-1.07767 Y-0.64676
G01 X-1.07970 Y-0.64500
G01 X-1.08190 Y-0.64345
G01 X-1.08424 Y-0.64213
G01 X-1.08669 Y-0.64104
G01 X-1.08924 Y-0.64019
G01 X-1.09186 Y-0.63959
G01 X-1.09654 Y-0.63917
G01 X-1.14130 Y-0.63921
G01 X-1.14398 Y-0.63947
G01 X-1.14661 Y-0.63999
G01 X-1.14919 Y-0.64076
G01 X-1.15187 Y-0.64188
G01 X-1.15424 Y-0.64316
G01 X-1.15664 Y-0.64480
G01 X-1.15870 Y-0.64653
G01 X-1.16058 Y-0.64845
G01 X-1.16226 Y-0.65054
G01 X-1.16385 Y-0.65298
G01 X-1.16507 Y-0.65538
G01 X-1.16606 Y-0.65788
G01 X-1.16680 Y-0.66046
G01 X-1.16728 Y-0.66310
G01 X-1.16750 Y-0.66578
G01 X-1.16745 Y-0.66869
G01 X-1.16717 Y-0.67114
G01 X-1.16666 Y-0.67355
G01 X-1.16595 Y-0.67591
G01 X-1.16493 Y-0.67839
G01 X-1.16379 Y-0.68058
G01 X-1.16246 Y-0.68265
G01 X-1.16080 Y-0.68476
G01 X-1.15911 Y-0.68655
G01 X-1.15726 Y-0.68818
G01 X-1.15528 Y-0.68964
G01 X-1.15317 Y-0.69092
G01 X-1.15075 Y-0.69209
G01 X-1.14844 Y-0.69295
G01 X-1.14585 Y-0.69365
G01 X-1.14342 Y-0.69407
G01 X-1.14097 Y-0.69427
G01 X-1.09643 Y-0.69429
G01 X-1.09197 Y-0.69389
G01 X-1.08913 Y-0.69325
G01 X-1.08659 Y-0.69239
G01 X-1.08414 Y-0.69128
G01 X-1.08181 Y-0.68995
G01 X-1.07961 Y-0.68839
G01 X-1.07759 Y-0.68663
G01 X-1.07574 Y-0.68468
G01 X-1.07404 Y-0.68248
G01 X-0.79585 Y-0.68244
G01 X-0.79388 Y-0.68216
G01 X-0.79195 Y-0.68164
G01 X-0.79047 Y-0.68104
G01 X-0.78872 Y-0.68010
G01 X-0.78649 Y-0.67842
G01 X-0.78116 Y-0.67312
G01 X-0.77694 Y-0.67438
G01 X-0.77260 Y-0.67515
G01 X-0.76821 Y-0.67539
G01 X-0.76381 Y-0.67512
G01 X-0.75948 Y-0.67434
G01 X-0.75527 Y-0.67305
G01 X-0.75089 Y-0.67109
G01 X-0.74712 Y-0.66882
G01 X-0.74335 Y-0.66585
G01 X-0.74025 Y-0.66272
G01 X-0.73754 Y-0.65926
G01 X-0.73507 Y-0.65514
G01 X-0.73328 Y-0.65112
G01 X-0.73198 Y-0.64691
G01 X-0.73119 Y-0.64258
G01 X-0.73091 Y-0.63779
G04 P0 ( dwell for no time -- G64 should not smooth over this point )
G00 Z0.08000 ( retract )

G00 X-1.01809 Y-0.37930 ( rapid move to begin. )
G01 F180.00000
( Mill infeed pass 1/1 )
G01 Z-0.04000
G04 P0 ( dwell for no time -- G64 should not smooth over this point )
G01 F360.00000
G01 X-1.01809 Y-0.37930
G01 X-1.01812 Y-0.58430
G01 X-1.01843 Y-0.58671
G01 X-1.01912 Y-0.58904
G01 X-1.02017 Y-0.59124
G01 X-1.02155 Y-0.59324
G01 X-1.02834 Y-0.60004
G01 X-1.03034 Y-0.60141
G01 X-1.03292 Y-0.60260
G01 X-1.03527 Y-0.60323
G01 X-1.03769 Y-0.60349
G01 X-1.07387 Y-0.60349
G01 X-1.07574 Y-0.60594
G01 X-1.07775 Y-0.60804
G01 X-1.07997 Y-0.60993
G01 X-1.08238 Y-0.61156
G01 X-1.08494 Y-0.61294
G01 X-1.08764 Y-0.61403
G01 X-1.09044 Y-0.61484
G01 X-1.09330 Y-0.61535
G01 X-1.09665 Y-0.61555
G01 X-1.14097 Y-0.61553
G01 X-1.14475 Y-0.61513
G01 X-1.14866 Y-0.61414
G01 X-1.15238 Y-0.61260
G01 X-1.15583 Y-0.61052
G01 X-1.15895 Y-0.60797
G01 X-1.16152 Y-0.60516
G01 X-1.16379 Y-0.60184
G01 X-1.16555 Y-0.59821
G01 X-1.16655 Y-0.59524
G01 X-1.16717 Y-0.59240
G01 X-1.16748 Y-0.58950
G01 X-1.16748 Y-0.58659
G01 X-1.16718 Y-0.58370
G01 X-1.16652 Y-0.58063
G01 X-1.16560 Y-0.57787
G01 X-1.16438 Y-0.57523
G01 X-1.16278 Y-0.57254
G01 X-1.16102 Y-0.57022
G01 X-1.15903 Y-0.56809
G01 X-1.15664 Y-0.56606
G01 X-1.15405 Y-0.56430
G01 X-1.15147 Y-0.56295
G01 X-1.14876 Y-0.56188
G01 X-1.14596 Y-0.56109
G01 X-1.14309 Y-0.56061
G01 X-1.14018 Y-0.56043
G01 X-1.09654 Y-0.56043
G01 X-1.09341 Y-0.56062
G01 X-1.09054 Y-0.56112
G01 X-1.08774 Y-0.56191
G01 X-1.08484 Y-0.56309
G01 X-1.08228 Y-0.56448
G01 X-1.07988 Y-0.56613
G01 X-1.07767 Y-0.56802
G01 X-1.07567 Y-0.57013
G01 X-1.07387 Y-0.57249
G01 X-1.04909 Y-0.57249
G01 X-1.04909 Y-0.38572
G01 X-1.18035 Y-0.25434
G01 X-1.18173 Y-0.25233
G01 X-1.18263 Y-0.25051
G01 X-1.18338 Y-0.24820
G01 X-1.18376 Y-0.24580
G01 X-1.18381 Y-0.21358
G01 X-1.19390 Y-0.21358
G01 X-1.19390 Y-0.20349
G01 X-1.21189 Y-0.20349
G01 X-1.28177 Y-0.27338
G01 X-1.28066 Y-0.27656
G01 X-1.27977 Y-0.28005
G01 X-1.27920 Y-0.28360
G01 X-1.27898 Y-0.28679
G01 X-1.27901 Y-0.28999
G01 X-1.27935 Y-0.29357
G01 X-1.28003 Y-0.29711
G01 X-1.28102 Y-0.30057
G01 X-1.28233 Y-0.30392
G01 X-1.28374 Y-0.30679
G01 X-1.28538 Y-0.30954
G01 X-1.28749 Y-0.31246
G01 X-1.28985 Y-0.31517
G01 X-1.29246 Y-0.31766
G01 X-1.29495 Y-0.31966
G01 X-1.29794 Y-0.32166
G01 X-1.30183 Y-0.32373
G01 X-1.30592 Y-0.32534
G01 X-1.31016 Y-0.32649
G01 X-1.31451 Y-0.32716
G01 X-1.31891 Y-0.32734
G01 X-1.32329 Y-0.32702
G01 X-1.32723 Y-0.32632
G01 X-1.33145 Y-0.32508
G01 X-1.33551 Y-0.32338
G01 X-1.33935 Y-0.32124
G01 X-1.34293 Y-0.31869
G01 X-1.34620 Y-0.31575
G01 X-1.34913 Y-0.31246
G01 X-1.35145 Y-0.30920
G01 X-1.35361 Y-0.30537
G01 X-1.35533 Y-0.30133
G01 X-1.35629 Y-0.29827
G01 X-1.35693 Y-0.29555
G01 X-1.35741 Y-0.29238
G01 X-1.35762 Y-0.28959
G01 X-1.35764 Y-0.28679
G01 X-1.35741 Y-0.28360
G01 X-1.35693 Y-0.28044
G01 X-1.35629 Y-0.27771
G01 X-1.35533 Y-0.27466
G01 X-1.35429 Y-0.27206
G01 X-1.35287 Y-0.26919
G01 X-1.34986 Y-0.26448
G01 X-1.34784 Y-0.26199
G01 X-1.34386 Y-0.25806
G01 X-1.33969 Y-0.25496
G01 X-1.33515 Y-0.25243
G01 X-1.33031 Y-0.25052
G01 X-1.32488 Y-0.24919
G01 X-1.31971 Y-0.24867
G01 X-1.31411 Y-0.24887
G01 X-1.30899 Y-0.24976
G01 X-1.30369 Y-0.25146
G01 X-1.22806 Y-0.17595
G01 X-1.22606 Y-0.17457
G01 X-1.22424 Y-0.17367
G01 X-1.22193 Y-0.17292
G01 X-1.21993 Y-0.17258
G01 X-1.19390 Y-0.17249
G01 X-1.19390 Y-0.16240
G01 X-1.14272 Y-0.16240
G01 X-1.14272 Y-0.21358
G01 X-1.15281 Y-0.21358
G01 X-1.15281 Y-0.23816
G01 X-1.02263 Y-0.36833
G01 X-1.02155 Y-0.36954
G01 X-1.02038 Y-0.37120
G01 X-1.01898 Y-0.37412
G01 X-1.01835 Y-0.37647
G01 X-1.01809 Y-0.37930
( Piece #3, position [0;1] )

G04 P0 ( dwell for no time -- G64 should not smooth over this point )
G00 Z0.08000 ( retract )

G00 X0.22904 Y0.81840 ( rapid move to begin. )
G01 F180.00000
( Mill infeed pass 1/1 )
G01 Z-0.04000
G04 P0 ( dwell for no time -- G64 should not smooth over this point )
G01 F360.00000
G01 X0.22904 Y0.81840
G01 X0.22891 Y0.81638
G01 X0.22841 Y0.81400
G01 X0.22786 Y0.81247
G01 X0.22697 Y0.81065
G01 X0.22584 Y0.80897
G01 X0.22450 Y0.80744
G01 X0.04333 Y0.62626
G01 X0.04180 Y0.62493
G01 X0.03976 Y0.62360
G01 X0.03716 Y0.62248
G01 X0.03479 Y0.62192
G01 X0.03237 Y0.62172
G01 X-0.44150 Y0.62181
G01 X-0.44389 Y0.62225
G01 X-0.44618 Y0.62306
G01 X-0.44832 Y0.62423
G01 X-0.45025 Y0.62571
G01 X-0.47927 Y0.65469
G01 X-0.48131 Y0.65721
G01 X-0.48230 Y0.65898
G01 X-0.48305 Y0.66086
G01 X-0.48355 Y0.66283
G01 X-0.48379 Y0.66484
G01 X-0.48381 Y0.69665
G01 X-0.50571 Y0.69665
G01 X-0.50571 Y0.72052
G01 X-0.63090 Y0.72052
G01 X-0.63090 Y0.69665
G01 X-0.70571 Y0.69665
G01 X-0.70571 Y0.77539
G01 X-0.63090 Y0.77539
G01 X-0.63090 Y0.75152
G01 X-0.50571 Y0.75152
G01 X-0.50571 Y0.77539
G01 X-0.43091 Y0.77539
G01 X-0.43091 Y0.69665
G01 X-0.45281 Y0.69665
G01 X-0.45281 Y0.67207
G01 X-0.43346 Y0.65272
G01 X0.02595 Y0.65272
G01 X0.19804 Y0.82482
G01 X0.19804 Y1.21889
G01 X0.16456 Y1.25237
G01 X-0.19126 Y1.25237
G01 X-0.19328 Y1.25251
G01 X-0.19527 Y1.25290
G01 X-0.19719 Y1.25355
G01 X-0.19901 Y1.25445
G01 X-0.20069 Y1.25558
G01 X-0.20222 Y1.25691
G01 X-0.33983 Y1.39452
G01 X-0.36441 Y1.39452
G01 X-0.36441 Y1.34112
G01 X-0.50221 Y1.34112
G01 X-0.50221 Y1.45700
G01 X-0.54941 Y1.50420
G01 X-0.54941 Y1.45922
G01 X-0.68721 Y1.45922
G01 X-0.68721 Y1.59702
G01 X-0.54941 Y1.59702
G01 X-0.54941 Y1.54349
G01 X-0.54700 Y1.54299
G01 X-0.54473 Y1.54211
G01 X-0.54263 Y1.54090
G01 X-0.54074 Y1.53937
G01 X-0.48029 Y1.47892
G01 X-0.36441 Y1.47892
G01 X-0.36441 Y1.42552
G01 X-0.33219 Y1.42548
G01 X-0.32979 Y1.42510
G01 X-0.32748 Y1.42434
G01 X-0.32531 Y1.42324
G01 X-0.32365 Y1.42207
G01 X-0.18484 Y1.28337
G01 X0.17098 Y1.28337
G01 X0.17301 Y1.28324
G01 X0.17538 Y1.28274
G01 X0.17729 Y1.28203
G01 X0.17942 Y1.28087
G01 X0.18135 Y1.27939
G01 X0.22450 Y1.23627
G01 X0.22584 Y1.23475
G01 X0.22717 Y1.23271
G01 X0.22829 Y1.23010
G01 X0.22885 Y1.22774
G01 X0.22904 Y1.22531
G01 X0.22904 Y0.81840
G04 P0 ( dwell for no time -- G64 should not smooth over this point )
G00 Z0.08000 ( retract )

G00 X0.03089 Y0.70812 ( rapid move to begin. )
G01 F180.00000
( Mill infeed pass 1/1 )
G01 Z-0.04000
G04 P0 ( dwell for no time -- G64 should not smooth over this point )
G01 F360.00000
G01 X0.03089 Y0.70812
G01 X0.03068 Y0.71080
G01 X0.03021 Y0.71345
G01 X0.02948 Y0.71603
G01 X0.02850 Y0.71854
G01 X0.02729 Y0.72093
G01 X0.02584 Y0.72320
G01 X0.02404 Y0.72548
G01 X0.02217 Y0.72741
G01 X0.01994 Y0.72929
G01 X0.01772 Y0.73080
G01 X0.01536 Y0.73209
G01 X0.01268 Y0.73321
G01 X0.01011 Y0.73400
G01 X0.00748 Y0.73453
G01 X0.00480 Y0.73480
G01 X-0.04018 Y0.73484
G01 X-0.04464 Y0.73444
G01 X-0.04726 Y0.73386
G01 X-0.04982 Y0.73302
G01 X-0.05248 Y0.73184
G01 X-0.05481 Y0.73050
G01 X-0.05700 Y0.72894
G01 X-0.05903 Y0.72718
G01 X-0.06087 Y0.72523
G01 X-0.06258 Y0.72303
G01 X-0.28678 Y0.72303
G01 X-0.33104 Y0.73919
G01 X-0.33149 Y0.74260
G01 X-0.33218 Y0.74572
G01 X-0.33315 Y0.74877
G01 X-0.33454 Y0.75210
G01 X-0.33603 Y0.75493
G01 X-0.33777 Y0.75762
G01 X-0.33973 Y0.76015
G01 X-0.34218 Y0.76279
G01 X-0.34488 Y0.76518
G01 X-0.34746 Y0.76707
G01 X-0.35019 Y0.76874
G01 X-0.35305 Y0.77017
G01 X-0.35603 Y0.77135
G01 X-0.35909 Y0.77227
G01 X-0.36223 Y0.77293
G01 X-0.36581 Y0.77334
G01 X-0.36981 Y0.77340
G01 X-0.37340 Y0.77308
G01 X-0.37694 Y0.77242
G01 X-0.38077 Y0.77129
G01 X-0.38447 Y0.76975
G01 X-0.38764 Y0.76804
G01 X-0.39095 Y0.76579
G01 X-0.39400 Y0.76320
G01 X-0.39676 Y0.76030
G01 X-0.39896 Y0.75745
G01 X-0.40088 Y0.75441
G01 X-0.40266 Y0.75082
G01 X-0.40392 Y0.74745
G01 X-0.40494 Y0.74358
G01 X-0.40554 Y0.73962
G01 X-0.40571 Y0.73602
G01 X-0.40560 Y0.73322
G01 X-0.40529 Y0.73044
G01 X-0.40477 Y0.72769
G01 X-0.40404 Y0.72498
G01 X-0.40311 Y0.72234
G01 X-0.40199 Y0.71977
G01 X-0.40068 Y0.71729
G01 X-0.39919 Y0.71492
G01 X-0.39752 Y0.71267
G01 X-0.39569 Y0.71055
G01 X-0.39371 Y0.70857
G01 X-0.39158 Y0.70675
G01 X-0.38932 Y0.70509
G01 X-0.38695 Y0.70360
G01 X-0.38447 Y0.70230
G01 X-0.38190 Y0.70118
G01 X-0.37694 Y0.69963
G01 X-0.37419 Y0.69909
G01 X-0.37141 Y0.69875
G01 X-0.36861 Y0.69862
G01 X-0.36581 Y0.69871
G01 X-0.36065 Y0.69941
G01 X-0.35565 Y0.70083
G01 X-0.35305 Y0.70187
G01 X-0.35054 Y0.70311
G01 X-0.34812 Y0.70454
G01 X-0.34582 Y0.70613
G01 X-0.34184 Y0.70960
G01 X-0.29497 Y0.69249
G01 X-0.29308 Y0.69193
G01 X-0.29075 Y0.69158
G01 X-0.06258 Y0.69153
G01 X-0.06080 Y0.68925
G01 X-0.05895 Y0.68731
G01 X-0.05691 Y0.68555
G01 X-0.05471 Y0.68401
G01 X-0.05238 Y0.68268
G01 X-0.04992 Y0.68159
G01 X-0.04737 Y0.68074
G01 X-0.04475 Y0.68014
G01 X-0.04007 Y0.67973
G01 X0.00447 Y0.67975
G01 X0.00692 Y0.67996
G01 X0.00935 Y0.68039
G01 X0.01172 Y0.68103
G01 X0.01424 Y0.68197
G01 X0.01646 Y0.68304
G01 X0.01857 Y0.68431
G01 X0.02056 Y0.68576
G01 X0.02257 Y0.68754
G01 X0.02441 Y0.68951
G01 X0.02591 Y0.69146
G01 X0.02723 Y0.69354
G01 X0.02836 Y0.69572
G01 X0.02930 Y0.69800
G01 X0.03002 Y0.70036
G01 X0.03057 Y0.70299
G01 X0.03084 Y0.70544
G01 X0.03089 Y0.70812
G04 P0 ( dwell for no time -- G64 should not smooth over this point )
G00 Z0.08000 ( retract )

G00 X0.03088 Y0.86605 ( rapid move to begin. )
G01 F180.00000
( Mill infeed pass 1/1 )
G01 Z-0.04000
G04 P0 ( dwell for no time -- G64 should not smooth over this point )
G01 F360.00000
G01 X0.03088 Y0.86605
G01 X0.03055 Y0.86917
G01 X0.02988 Y0.87223
G01 X0.02886 Y0.87519
G01 X0.02751 Y0.87802
G01 X0.02584 Y0.88068
G01 X0.02389 Y0.88313
G01 X0.02167 Y0.88535
G01 X0.01922 Y0.88729
G01 X0.01656 Y0.88895
G01 X0.01352 Y0.89038
G01 X0.01054 Y0.89137
G01 X0.00748 Y0.89201
G01 X0.00435 Y0.89230
G01 X-0.04018 Y0.89232
G01 X-0.04464 Y0.89192
G01 X-0.04748 Y0.89128
G01 X-0.05003 Y0.89042
G01 X-0.05248 Y0.88932
G01 X-0.05481 Y0.88798
G01 X-0.05700 Y0.88642
G01 X-0.05903 Y0.88466
G01 X-0.06087 Y0.88271
G01 X-0.06257 Y0.88051
G01 X-0.65459 Y0.88051
G01 X-0.90256 Y1.12848
G01 X-0.90264 Y1.18764
G01 X-0.90298 Y1.18964
G01 X-0.90343 Y1.19120
G01 X-0.90480 Y1.19413
G01 X-0.90675 Y1.19672
G01 X-0.90918 Y1.19886
G01 X-0.91090 Y1.19993
G01 X-0.91313 Y1.20090
G01 X-0.91548 Y1.20152
G01 X-0.91790 Y1.20177
G01 X-1.04971 Y1.20177
G01 X-1.05161 Y1.20394
G01 X-1.05399 Y1.20608
G01 X-1.05663 Y1.20791
G01 X-1.05910 Y1.20923
G01 X-1.06209 Y1.21040
G01 X-1.06480 Y1.21111
G01 X-1.06798 Y1.21154
G01 X-1.07078 Y1.21160
G01 X-1.07476 Y1.21114
G01 X-1.07862 Y1.21008
G01 X-1.08227 Y1.20842
G01 X-1.08561 Y1.20621
G01 X-1.08857 Y1.20351
G01 X-1.09107 Y1.20038
G01 X-1.09305 Y1.19689
G01 X-1.09446 Y1.19315
G01 X-1.09509 Y1.19041
G01 X-1.09539 Y1.18803
G01 X-1.09546 Y1.18522
G01 X-1.09522 Y1.18243
G01 X-1.09467 Y1.17968
G01 X-1.09383 Y1.17700
G01 X-1.09270 Y1.17443
G01 X-1.09129 Y1.17201
G01 X-1.08963 Y1.16975
G01 X-1.08773 Y1.16768
G01 X-1.08593 Y1.16609
G01 X-1.08365 Y1.16445
G01 X-1.08120 Y1.16307
G01 X-1.07862 Y1.16197
G01 X-1.07594 Y1.16116
G01 X-1.07358 Y1.16070
G01 X-1.07038 Y1.16044
G01 X-1.06678 Y1.16062
G01 X-1.06363 Y1.16121
G01 X-1.06020 Y1.16233
G01 X-1.05732 Y1.16373
G01 X-1.05431 Y1.16572
G01 X-1.05189 Y1.16782
G01 X-1.04971 Y1.17027
G01 X-0.93406 Y1.17027
G01 X-0.93406 Y1.12208
G01 X-0.93867 Y1.11970
G01 X-0.94293 Y1.11672
G01 X-0.94676 Y1.11320
G01 X-0.94986 Y1.10954
G01 X-0.95268 Y1.10518
G01 X-0.95476 Y1.10085
G01 X-0.95629 Y1.09631
G01 X-0.95731 Y1.09121
G01 X-0.95764 Y1.08722
G01 X-0.95753 Y1.08283
G01 X-0.95700 Y1.07886
G01 X-0.95607 Y1.07497
G01 X-0.95476 Y1.07120
G01 X-0.95287 Y1.06722
G01 X-0.95079 Y1.06381
G01 X-0.94836 Y1.06063
G01 X-0.94505 Y1.05716
G01 X-0.94166 Y1.05435
G01 X-0.93763 Y1.05175
G01 X-0.93332 Y1.04965
G01 X-0.92917 Y1.04820
G01 X-0.92448 Y1.04716
G01 X-0.91971 Y1.04670
G01 X-0.91491 Y1.04682
G01 X-0.91056 Y1.04744
G01 X-0.90592 Y1.04867
G01 X-0.90147 Y1.05046
G01 X-0.89726 Y1.05277
G01 X-0.89368 Y1.05533
G01 X-0.89013 Y1.05856
G01 X-0.88700 Y1.06219
G01 X-0.88450 Y1.06588
G01 X-0.67225 Y0.85363
G01 X-0.67070 Y0.85227
G01 X-0.66934 Y0.85134
G01 X-0.66752 Y0.85038
G01 X-0.66558 Y0.84966
G01 X-0.66357 Y0.84921
G01 X-0.66111 Y0.84901
G01 X-0.06258 Y0.84901
G01 X-0.06080 Y0.84673
G01 X-0.05895 Y0.84479
G01 X-0.05691 Y0.84303
G01 X-0.05471 Y0.84149
G01 X-0.05238 Y0.84016
G01 X-0.04992 Y0.83907
G01 X-0.04737 Y0.83822
G01 X-0.04475 Y0.83762
G01 X-0.04030 Y0.83721
G01 X0.00357 Y0.83721
G01 X0.00781 Y0.83757
G01 X0.01215 Y0.83865
G01 X0.01606 Y0.84031
G01 X0.01985 Y0.84269
G01 X0.02305 Y0.84550
G01 X0.02591 Y0.84894
G01 X0.02807 Y0.85260
G01 X0.02972 Y0.85676
G01 X0.03046 Y0.85981
G01 X0.03084 Y0.86292
G01 X0.03088 Y0.86605
G04 P0 ( dwell for no time -- G64 should not smooth over this point )
G00 Z0.08000 ( retract )

G00 X0.17104 Y1.08562 ( rapid move to begin. )
G01 F180.00000
( Mill infeed pass 1/1 )
G01 Z-0.04000
G04 P0 ( dwell for no time -- G64 should not smooth over this point )
G01 F360.00000
G01 X0.17104 Y1.08562
G01 X0.17080 Y1.08163
G01 X0.17023 Y1.07808
G01 X0.16923 Y1.07421
G01 X0.16799 Y1.07083
G01 X0.16626 Y1.06722
G01 X0.16440 Y1.06414
G01 X0.16201 Y1.06094
G01 X0.15959 Y1.05827
G01 X0.15694 Y1.05584
G01 X0.15374 Y1.05343
G01 X0.15067 Y1.05155
G01 X0.14719 Y1.04986
G01 X0.14711 Y0.85419
G01 X0.14666 Y0.85180
G01 X0.14585 Y0.84951
G01 X0.14469 Y0.84737
G01 X0.14294 Y0.84514
G01 X0.07287 Y0.77506
G01 X0.07102 Y0.77348
G01 X0.06894 Y0.77221
G01 X0.06592 Y0.77105
G01 X0.06272 Y0.77055
G01 X0.02613 Y0.77052
G01 X0.02426 Y0.76808
G01 X0.02225 Y0.76597
G01 X0.02003 Y0.76409
G01 X0.01762 Y0.76245
G01 X0.01506 Y0.76108
G01 X0.01236 Y0.75998
G01 X0.00956 Y0.75918
G01 X0.00670 Y0.75867
G01 X0.00335 Y0.75846
G01 X-0.04007 Y0.75847
G01 X-0.04298 Y0.75863
G01 X-0.04716 Y0.75942
G01 X-0.05116 Y0.76084
G01 X-0.05471 Y0.76275
G01 X-0.05812 Y0.76529
G01 X-0.06109 Y0.76833
G01 X-0.06356 Y0.77179
G01 X-0.06547 Y0.77559
G01 X-0.06677 Y0.77964
G01 X-0.06743 Y0.78384
G01 X-0.06744 Y0.78809
G01 X-0.06680 Y0.79230
G01 X-0.06551 Y0.79635
G01 X-0.06362 Y0.80016
G01 X-0.06131 Y0.80346
G01 X-0.05837 Y0.80653
G01 X-0.05500 Y0.80912
G01 X-0.05208 Y0.81078
G01 X-0.04876 Y0.81214
G01 X-0.04552 Y0.81302
G01 X-0.04197 Y0.81351
G01 X0.00525 Y0.81352
G01 X0.00836 Y0.81312
G01 X0.01140 Y0.81238
G01 X0.01434 Y0.81129
G01 X0.01714 Y0.80988
G01 X0.01976 Y0.80816
G01 X0.02217 Y0.80615
G01 X0.02433 Y0.80389
G01 X0.02613 Y0.80152
G01 X0.05549 Y0.80152
G01 X0.11619 Y0.86223
G01 X0.11619 Y1.04986
G01 X0.11271 Y1.05155
G01 X0.10964 Y1.05343
G01 X0.10645 Y1.05584
G01 X0.10380 Y1.05827
G01 X0.10138 Y1.06094
G01 X0.09899 Y1.06414
G01 X0.09713 Y1.06722
G01 X0.09540 Y1.07083
G01 X0.09416 Y1.07421
G01 X0.09315 Y1.07808
G01 X0.09259 Y1.08163
G01 X0.09235 Y1.08562
G01 X0.09247 Y1.08922
G01 X0.09300 Y1.09319
G01 X0.09393 Y1.09708
G01 X0.09516 Y1.10064
G01 X0.02527 Y1.17052
G01 X0.00728 Y1.17052
G01 X0.00728 Y1.16043
G01 X-0.04390 Y1.16043
G01 X-0.04390 Y1.21161
G01 X0.00728 Y1.21161
G01 X0.00728 Y1.20152
G01 X0.03331 Y1.20144
G01 X0.03531 Y1.20110
G01 X0.03762 Y1.20034
G01 X0.03944 Y1.19945
G01 X0.04145 Y1.19807
G01 X0.11708 Y1.12256
G01 X0.12083 Y1.12385
G01 X0.12473 Y1.12475
G01 X0.12870 Y1.12526
G01 X0.13229 Y1.12537
G01 X0.13628 Y1.12511
G01 X0.14023 Y1.12444
G01 X0.14408 Y1.12337
G01 X0.14744 Y1.12209
G01 X0.15102 Y1.12030
G01 X0.15440 Y1.11816
G01 X0.15724 Y1.11595
G01 X0.16015 Y1.11320
G01 X0.16276 Y1.11018
G01 X0.16484 Y1.10724
G01 X0.16664 Y1.10412
G01 X0.16829 Y1.10048
G01 X0.16946 Y1.09708
G01 X0.17039 Y1.09319
G01 X0.17091 Y1.08922
G01 X0.17104 Y1.08562
G04 P0 ( dwell for no time -- G64 should not smooth over this point )
G00 Z0.08000 ( retract )

G00 X0.17104 Y1.48602 ( rapid move to begin. )
G01 F180.00000
( Mill infeed pass 1/1 )
G01 Z-0.04000
G04 P0 ( dwell for no time -- G64 should not smooth over this point )
G01 F360.00000
G01 X0.17104 Y1.48602
G01 X0.17088 Y1.48243
G01 X0.17039 Y1.47886
G01 X0.16957 Y1.47536
G01 X0.16844 Y1.47194
G01 X0.16700 Y1.46864
G01 X0.16505 Y1.46515
G01 X0.16300 Y1.46219
G01 X0.16069 Y1.45943
G01 X0.15814 Y1.45689
G01 X0.15537 Y1.45459
G01 X0.15240 Y1.45256
G01 X0.14889 Y1.45063
G01 X0.14559 Y1.44921
G01 X0.14217 Y1.44809
G01 X0.13866 Y1.44730
G01 X0.13509 Y1.44682
G01 X0.13189 Y1.44667
G01 X0.12870 Y1.44679
G01 X0.12552 Y1.44716
G01 X0.12277 Y1.44770
G01 X0.11969 Y1.44855
G01 X0.11705 Y1.44950
G01 X0.11449 Y1.45063
G01 X0.11167 Y1.45215
G01 X0.10899 Y1.45389
G01 X0.10645 Y1.45584
G01 X0.10408 Y1.45799
G01 X0.10216 Y1.46002
G01 X0.10014 Y1.46251
G01 X0.09855 Y1.46481
G01 X0.09694 Y1.46757
G01 X0.09563 Y1.47027
G01 X-0.23225 Y1.47027
G01 X-0.23355 Y1.46757
G01 X-0.23516 Y1.46481
G01 X-0.23700 Y1.46219
G01 X-0.23904 Y1.45972
G01 X-0.24127 Y1.45743
G01 X-0.24368 Y1.45533
G01 X-0.24626 Y1.45343
G01 X-0.24898 Y1.45175
G01 X-0.25183 Y1.45029
G01 X-0.25479 Y1.44907
G01 X-0.25783 Y1.44809
G01 X-0.26095 Y1.44737
G01 X-0.26411 Y1.44690
G01 X-0.26731 Y1.44669
G01 X-0.27051 Y1.44674
G01 X-0.27369 Y1.44704
G01 X-0.27801 Y1.44789
G01 X-0.28258 Y1.44935
G01 X-0.28658 Y1.45117
G01 X-0.29036 Y1.45343
G01 X-0.29386 Y1.45610
G01 X-0.29704 Y1.45913
G01 X-0.29986 Y1.46251
G01 X-0.30228 Y1.46618
G01 X-0.30429 Y1.47009
G01 X-0.30584 Y1.47421
G01 X-0.30693 Y1.47847
G01 X-0.30756 Y1.48323
G01 X-0.30762 Y1.48762
G01 X-0.30720 Y1.49200
G01 X-0.30629 Y1.49631
G01 X-0.30484 Y1.50064
G01 X-0.42123 Y1.61702
G01 X-0.76538 Y1.61702
G01 X-0.88177 Y1.50064
G01 X-0.88043 Y1.49669
G01 X-0.87948 Y1.49240
G01 X-0.87901 Y1.48802
G01 X-0.87901 Y1.48398
G01 X-0.63269 Y1.36082
G01 X-0.54941 Y1.36082
G01 X-0.54941 Y1.22302
G01 X-0.68721 Y1.22302
G01 X-0.68721 Y1.35286
G01 X-0.89310 Y1.45581
G01 X-0.89693 Y1.45299
G01 X-0.90075 Y1.45081
G01 X-0.90516 Y1.44893
G01 X-0.90938 Y1.44770
G01 X-0.91411 Y1.44690
G01 X-0.91851 Y1.44667
G01 X-0.92290 Y1.44694
G01 X-0.92723 Y1.44770
G01 X-0.93145 Y1.44893
G01 X-0.93587 Y1.45081
G01 X-0.94002 Y1.45321
G01 X-0.94355 Y1.45584
G01 X-0.94676 Y1.45884
G01 X-0.94986 Y1.46251
G01 X-0.95228 Y1.46618
G01 X-0.95437 Y1.47027
G01 X-1.28225 Y1.47027
G01 X-1.28355 Y1.46757
G01 X-1.28516 Y1.46481
G01 X-1.28676 Y1.46251
G01 X-1.28877 Y1.46002
G01 X-1.29070 Y1.45799
G01 X-1.29306 Y1.45584
G01 X-1.29560 Y1.45389
G01 X-1.29794 Y1.45235
G01 X-1.30039 Y1.45099
G01 X-1.30329 Y1.44965
G01 X-1.30592 Y1.44867
G01 X-1.30899 Y1.44779
G01 X-1.31174 Y1.44723
G01 X-1.31491 Y1.44682
G01 X-1.31771 Y1.44668
G01 X-1.32091 Y1.44676
G01 X-1.32448 Y1.44716
G01 X-1.32801 Y1.44789
G01 X-1.33145 Y1.44893
G01 X-1.33515 Y1.45046
G01 X-1.33833 Y1.45215
G01 X-1.34166 Y1.45435
G01 X-1.34446 Y1.45662
G01 X-1.34704 Y1.45913
G01 X-1.34937 Y1.46187
G01 X-1.35145 Y1.46481
G01 X-1.35325 Y1.46793
G01 X-1.35491 Y1.47157
G01 X-1.35607 Y1.47497
G01 X-1.35693 Y1.47847
G01 X-1.35749 Y1.48243
G01 X-1.35766 Y1.48602
G01 X-1.35749 Y1.48962
G01 X-1.35693 Y1.49358
G01 X-1.35607 Y1.49708
G01 X-1.35491 Y1.50048
G01 X-1.35325 Y1.50412
G01 X-1.35145 Y1.50724
G01 X-1.34937 Y1.51018
G01 X-1.34676 Y1.51320
G01 X-1.34386 Y1.51595
G01 X-1.34101 Y1.51816
G01 X-1.33763 Y1.52030
G01 X-1.33442 Y1.52192
G01 X-1.33069 Y1.52337
G01 X-1.32723 Y1.52435
G01 X-1.32329 Y1.52506
G01 X-1.31971 Y1.52535
G01 X-1.31691 Y1.52535
G01 X-1.31372 Y1.52511
G01 X-1.31056 Y1.52460
G01 X-1.30783 Y1.52395
G01 X-1.30516 Y1.52311
G01 X-1.30219 Y1.52192
G01 X-1.29726 Y1.51927
G01 X-1.29276 Y1.51595
G01 X-1.29041 Y1.51378
G01 X-1.28851 Y1.51172
G01 X-1.28676 Y1.50954
G01 X-1.28495 Y1.50690
G01 X-1.28355 Y1.50447
G01 X-1.28225 Y1.50177
G01 X-0.95437 Y1.50177
G01 X-0.95268 Y1.50518
G01 X-0.95079 Y1.50824
G01 X-0.94836 Y1.51142
G01 X-0.94592 Y1.51406
G01 X-0.94293 Y1.51672
G01 X-0.94002 Y1.51884
G01 X-0.93658 Y1.52087
G01 X-0.93332 Y1.52240
G01 X-0.92955 Y1.52373
G01 X-0.92606 Y1.52460
G01 X-0.92210 Y1.52519
G01 X-0.91851 Y1.52537
G01 X-0.91491 Y1.52523
G01 X-0.91095 Y1.52468
G01 X-0.90745 Y1.52385
G01 X-0.90369 Y1.52256
G01 X-0.78248 Y1.64377
G01 X-0.78058 Y1.64530
G01 X-0.77848 Y1.64652
G01 X-0.77621 Y1.64739
G01 X-0.77423 Y1.64783
G01 X-0.77181 Y1.64802
G01 X-0.41481 Y1.64802
G01 X-0.41198 Y1.64777
G01 X-0.40888 Y1.64685
G01 X-0.40637 Y1.64552
G01 X-0.40414 Y1.64377
G01 X-0.28292 Y1.52256
G01 X-0.27917 Y1.52385
G01 X-0.27566 Y1.52468
G01 X-0.27170 Y1.52523
G01 X-0.26811 Y1.52537
G01 X-0.26451 Y1.52519
G01 X-0.26056 Y1.52460
G01 X-0.25706 Y1.52373
G01 X-0.25329 Y1.52240
G01 X-0.25003 Y1.52087
G01 X-0.24659 Y1.51884
G01 X-0.24368 Y1.51672
G01 X-0.24070 Y1.51406
G01 X-0.23825 Y1.51142
G01 X-0.23583 Y1.50824
G01 X-0.23393 Y1.50518
G01 X-0.23225 Y1.50177
G01 X0.09563 Y1.50177
G01 X0.09694 Y1.50447
G01 X0.09834 Y1.50690
G01 X0.10014 Y1.50954
G01 X0.10189 Y1.51172
G01 X0.10380 Y1.51378
G01 X0.10614 Y1.51595
G01 X0.11065 Y1.51927
G01 X0.11558 Y1.52192
G01 X0.11855 Y1.52311
G01 X0.12122 Y1.52395
G01 X0.12394 Y1.52460
G01 X0.12710 Y1.52511
G01 X0.13029 Y1.52535
G01 X0.13309 Y1.52535
G01 X0.13668 Y1.52506
G01 X0.14062 Y1.52435
G01 X0.14408 Y1.52337
G01 X0.14781 Y1.52192
G01 X0.15102 Y1.52030
G01 X0.15440 Y1.51816
G01 X0.15724 Y1.51595
G01 X0.16015 Y1.51320
G01 X0.16276 Y1.51018
G01 X0.16484 Y1.50724
G01 X0.16664 Y1.50412
G01 X0.16829 Y1.50048
G01 X0.16946 Y1.49708
G01 X0.17031 Y1.49358
G01 X0.17088 Y1.48962
G01 X0.17104 Y1.48602
G04 P0 ( dwell for no time -- G64 should not smooth over this point )
G00 Z0.08000 ( retract )

G00 X-0.09118 Y1.18462 ( rapid move to begin. )
G01 F180.00000
( Mill infeed pass 1/1 )
G01 Z-0.04000
G04 P0 ( dwell for no time -- G64 should not smooth over this point )
G01 F360.00000
G01 X-0.09118 Y1.18462
G01 X-0.09118 Y1.18743
G01 X-0.09163 Y1.19100
G01 X-0.09245 Y1.19410
G01 X-0.09365 Y1.19708
G01 X-0.09543 Y1.20021
G01 X-0.09737 Y1.20276
G01 X-0.09992 Y1.20532
G01 X-0.10246 Y1.20727
G01 X-0.10523 Y1.20888
G01 X-0.10818 Y1.21014
G01 X-0.11126 Y1.21102
G01 X-0.11483 Y1.21154
G01 X-0.11803 Y1.21158
G01 X-0.12161 Y1.21114
G01 X-0.12472 Y1.21034
G01 X-0.12769 Y1.20915
G01 X-0.13083 Y1.20738
G01 X-0.13370 Y1.20518
G01 X-0.13622 Y1.20261
G01 X-0.13836 Y1.19971
G01 X-0.14007 Y1.19653
G01 X-0.14131 Y1.19315
G01 X-0.14207 Y1.18962
G01 X-0.14232 Y1.18602
G01 X-0.14209 Y1.18259
G01 X-0.22315 Y1.10152
G01 X-0.23214 Y1.10152
G01 X-0.23355 Y1.10447
G01 X-0.23516 Y1.10724
G01 X-0.23724 Y1.11018
G01 X-0.23931 Y1.11262
G01 X-0.24156 Y1.11489
G01 X-0.24431 Y1.11721
G01 X-0.24726 Y1.11927
G01 X-0.25003 Y1.12087
G01 X-0.25404 Y1.12270
G01 X-0.25861 Y1.12416
G01 X-0.26332 Y1.12506
G01 X-0.26811 Y1.12537
G01 X-0.27369 Y1.12500
G01 X-0.27684 Y1.12444
G01 X-0.27955 Y1.12373
G01 X-0.28258 Y1.12270
G01 X-0.28515 Y1.12159
G01 X-0.29002 Y1.11884
G01 X-0.29262 Y1.11697
G01 X-0.29476 Y1.11516
G01 X-0.29862 Y1.11111
G01 X-0.30187 Y1.10656
G01 X-0.30325 Y1.10412
G01 X-0.30448 Y1.10152
G01 X-0.60769 Y1.10152
G01 X-0.76423 Y1.25808
G01 X-0.76576 Y1.25941
G01 X-0.76745 Y1.26054
G01 X-0.76964 Y1.26159
G01 X-0.77158 Y1.26219
G01 X-0.77317 Y1.26248
G01 X-0.77520 Y1.26261
G01 X-1.26881 Y1.26259
G01 X-1.27161 Y1.26219
G01 X-1.27393 Y1.26144
G01 X-1.27644 Y1.26011
G01 X-1.27866 Y1.25836
G01 X-1.40412 Y1.13291
G01 X-1.40593 Y1.13073
G01 X-1.40732 Y1.12826
G01 X-1.40823 Y1.12557
G01 X-1.40864 Y1.12276
G01 X-1.40865 Y1.04969
G01 X-1.40847 Y1.04767
G01 X-1.40790 Y1.04531
G01 X-1.40715 Y1.04342
G01 X-1.40593 Y1.04132
G01 X-1.40412 Y1.03914
G01 X-1.21820 Y0.85325
G01 X-1.21627 Y0.85177
G01 X-1.21376 Y0.85044
G01 X-1.21144 Y0.84969
G01 X-1.20904 Y0.84931
G01 X-1.16275 Y0.84926
G01 X-1.16095 Y0.84690
G01 X-1.15895 Y0.84479
G01 X-1.15673 Y0.84290
G01 X-1.15433 Y0.84125
G01 X-1.15177 Y0.83987
G01 X-1.14908 Y0.83876
G01 X-1.14629 Y0.83794
G01 X-1.14342 Y0.83742
G01 X-1.14007 Y0.83721
G01 X-1.09531 Y0.83724
G01 X-1.09109 Y0.83777
G01 X-1.08722 Y0.83887
G01 X-1.08335 Y0.84063
G01 X-1.07997 Y0.84283
G01 X-1.07679 Y0.84566
G01 X-1.07409 Y0.84894
G01 X-1.07202 Y0.85240
G01 X-1.07042 Y0.85633
G01 X-1.06943 Y0.86047
G01 X-1.06909 Y0.86471
G01 X-1.06938 Y0.86873
G01 X-1.07031 Y0.87287
G01 X-1.07188 Y0.87683
G01 X-1.07403 Y0.88050
G01 X-1.07656 Y0.88363
G01 X-1.07970 Y0.88649
G01 X-1.08286 Y0.88862
G01 X-1.08648 Y0.89038
G01 X-1.09033 Y0.89159
G01 X-1.09408 Y0.89220
G01 X-1.09665 Y0.89232
G01 X-1.14130 Y0.89229
G01 X-1.14464 Y0.89192
G01 X-1.14770 Y0.89122
G01 X-1.15065 Y0.89017
G01 X-1.15346 Y0.88879
G01 X-1.15610 Y0.88710
G01 X-1.15854 Y0.88512
G01 X-1.16073 Y0.88288
G01 X-1.16275 Y0.88026
G01 X-1.20140 Y0.88026
G01 X-1.37766 Y1.05652
G01 X-1.37766 Y1.11553
G01 X-1.26157 Y1.23161
G01 X-0.78162 Y1.23161
G01 X-0.62507 Y1.07506
G01 X-0.62354 Y1.07373
G01 X-0.62221 Y1.07281
G01 X-0.61928 Y1.07141
G01 X-0.61653 Y1.07071
G01 X-0.61411 Y1.07052
G01 X-0.30448 Y1.07052
G01 X-0.30208 Y1.06583
G01 X-0.29888 Y1.06124
G01 X-0.29505 Y1.05716
G01 X-0.29069 Y1.05366
G01 X-0.28587 Y1.05081
G01 X-0.28069 Y1.04867
G01 X-0.27527 Y1.04730
G01 X-0.26971 Y1.04670
G01 X-0.26691 Y1.04670
G01 X-0.26372 Y1.04694
G01 X-0.26056 Y1.04744
G01 X-0.25783 Y1.04809
G01 X-0.25516 Y1.04893
G01 X-0.25219 Y1.05012
G01 X-0.24726 Y1.05277
G01 X-0.24463 Y1.05459
G01 X-0.24246 Y1.05636
G01 X-0.24041 Y1.05827
G01 X-0.23825 Y1.06063
G01 X-0.23652 Y1.06283
G01 X-0.23474 Y1.06549
G01 X-0.23336 Y1.06793
G01 X-0.23214 Y1.07052
G01 X-0.21673 Y1.07052
G01 X-0.21471 Y1.07066
G01 X-0.21272 Y1.07105
G01 X-0.21080 Y1.07170
G01 X-0.20898 Y1.07260
G01 X-0.20730 Y1.07373
G01 X-0.20577 Y1.07506
G01 X-0.12017 Y1.16067
G01 X-0.11723 Y1.16044
G01 X-0.11443 Y1.16054
G01 X-0.11126 Y1.16103
G01 X-0.10856 Y1.16177
G01 X-0.10595 Y1.16281
G01 X-0.10348 Y1.16413
G01 X-0.10084 Y1.16596
G01 X-0.09874 Y1.16782
G01 X-0.09711 Y1.16959
G01 X-0.09543 Y1.17184
G01 X-0.09401 Y1.17425
G01 X-0.09286 Y1.17681
G01 X-0.09210 Y1.17909
G01 X-0.09149 Y1.18183
G01 X-0.09118 Y1.18462
G04 P0 ( dwell for no time -- G64 should not smooth over this point )
G00 Z0.08000 ( retract )

G00 X-0.73091 Y0.73622 ( rapid move to begin. )
G01 F180.00000
( Mill infeed pass 1/1 )
G01 Z-0.04000
G04 P0 ( dwell for no time -- G64 should not smooth over this point )
G01 F360.00000
G01 X-0.73091 Y0.73622
G01 X-0.73114 Y0.74022
G01 X-0.73180 Y0.74417
G01 X-0.73275 Y0.74764
G01 X-0.73420 Y0.75137
G01 X-0.73583 Y0.75458
G01 X-0.73800 Y0.75794
G01 X-0.74025 Y0.76076
G01 X-0.74305 Y0.76361
G01 X-0.74614 Y0.76615
G01 X-0.74915 Y0.76814
G01 X-0.75232 Y0.76984
G01 X-0.75603 Y0.77135
G01 X-0.75948 Y0.77237
G01 X-0.76342 Y0.77310
G01 X-0.76701 Y0.77340
G01 X-0.77101 Y0.77333
G01 X-0.77537 Y0.77275
G01 X-0.77925 Y0.77179
G01 X-0.78338 Y0.77025
G01 X-0.78729 Y0.76825
G01 X-0.79095 Y0.76579
G01 X-0.79429 Y0.76293
G01 X-0.79727 Y0.75969
G01 X-0.79963 Y0.75646
G01 X-0.80182 Y0.75264
G01 X-0.80340 Y0.74896
G01 X-0.80468 Y0.74475
G01 X-0.80545 Y0.74042
G01 X-0.80571 Y0.73602
G01 X-0.80549 Y0.73203
G01 X-0.80485 Y0.72808
G01 X-0.80343 Y0.72317
G01 X-0.80357 Y0.72303
G01 X-1.07404 Y0.72303
G01 X-1.07581 Y0.72532
G01 X-1.07767 Y0.72726
G01 X-1.07970 Y0.72901
G01 X-1.08190 Y0.73056
G01 X-1.08424 Y0.73189
G01 X-1.08669 Y0.73298
G01 X-1.08924 Y0.73383
G01 X-1.09186 Y0.73442
G01 X-1.09654 Y0.73484
G01 X-1.14130 Y0.73481
G01 X-1.14398 Y0.73455
G01 X-1.14661 Y0.73403
G01 X-1.14919 Y0.73325
G01 X-1.15187 Y0.73213
G01 X-1.15424 Y0.73086
G01 X-1.15664 Y0.72922
G01 X-1.15870 Y0.72749
G01 X-1.16058 Y0.72557
G01 X-1.16226 Y0.72347
G01 X-1.16385 Y0.72103
G01 X-1.16507 Y0.71864
G01 X-1.16606 Y0.71614
G01 X-1.16680 Y0.71356
G01 X-1.16728 Y0.71091
G01 X-1.16750 Y0.70824
G01 X-1.16745 Y0.70533
G01 X-1.16717 Y0.70288
G01 X-1.16666 Y0.70047
G01 X-1.16595 Y0.69811
G01 X-1.16493 Y0.69562
G01 X-1.16379 Y0.69344
G01 X-1.16246 Y0.69137
G01 X-1.16080 Y0.68925
G01 X-1.15911 Y0.68746
G01 X-1.15726 Y0.68583
G01 X-1.15528 Y0.68437
G01 X-1.15317 Y0.68310
G01 X-1.15075 Y0.68193
G01 X-1.14844 Y0.68106
G01 X-1.14585 Y0.68036
G01 X-1.14342 Y0.67994
G01 X-1.14097 Y0.67974
G01 X-1.09643 Y0.67973
G01 X-1.09197 Y0.68013
G01 X-1.08913 Y0.68077
G01 X-1.08659 Y0.68163
G01 X-1.08414 Y0.68273
G01 X-1.08181 Y0.68407
G01 X-1.07961 Y0.68562
G01 X-1.07759 Y0.68739
G01 X-1.07574 Y0.68934
G01 X-1.07404 Y0.69153
G01 X-0.79585 Y0.69158
G01 X-0.79388 Y0.69186
G01 X-0.79195 Y0.69238
G01 X-0.79047 Y0.69297
G01 X-0.78872 Y0.69392
G01 X-0.78649 Y0.69560
G01 X-0.78116 Y0.70090
G01 X-0.77694 Y0.69963
G01 X-0.77260 Y0.69887
G01 X-0.76821 Y0.69862
G01 X-0.76381 Y0.69889
G01 X-0.75948 Y0.69968
G01 X-0.75527 Y0.70097
G01 X-0.75089 Y0.70292
G01 X-0.74712 Y0.70520
G01 X-0.74335 Y0.70817
G01 X-0.74025 Y0.71129
G01 X-0.73754 Y0.71476
G01 X-0.73507 Y0.71887
G01 X-0.73328 Y0.72290
G01 X-0.73198 Y0.72710
G01 X-0.73119 Y0.73143
G01 X-0.73091 Y0.73622
G04 P0 ( dwell for no time -- G64 should not smooth over this point )
G00 Z0.08000 ( retract )

G00 X-1.01809 Y0.99472 ( rapid move to begin. )
G01 F180.00000
( Mill infeed pass 1/1 )
G01 Z-0.04000
G04 P0 ( dwell for no time -- G64 should not smooth over this point )
G01 F360.00000
G01 X-1.01809 Y0.99472
G01 X-1.01812 Y0.78971
G01 X-1.01843 Y0.78730
G01 X-1.01912 Y0.78497
G01 X-1.02017 Y0.78278
G01 X-1.02155 Y0.78077
G01 X-1.02834 Y0.77398
G01 X-1.03034 Y0.77260
G01 X-1.03292 Y0.77141
G01 X-1.03527 Y0.77078
G01 X-1.03769 Y0.77053
G01 X-1.07387 Y0.77052
G01 X-1.07574 Y0.76808
G01 X-1.07775 Y0.76597
G01 X-1.07997 Y0.76409
G01 X-1.08238 Y0.76245
G01 X-1.08494 Y0.76108
G01 X-1.08764 Y0.75998
G01 X-1.09044 Y0.75918
G01 X-1.09330 Y0.75867
G01 X-1.09665 Y0.75846
G01 X-1.14097 Y0.75848
G01 X-1.14475 Y0.75888
G01 X-1.14866 Y0.75987
G01 X-1.15238 Y0.76142
G01 X-1.15583 Y0.76349
G01 X-1.15895 Y0.76605
G01 X-1.16152 Y0.76885
G01 X-1.16379 Y0.77218
G01 X-1.16555 Y0.77580
G01 X-1.16655 Y0.77877
G01 X-1.16717 Y0.78162
G01 X-1.16748 Y0.78451
G01 X-1.16748 Y0.78742
G01 X-1.16718 Y0.79032
G01 X-1.16652 Y0.79338
G01 X-1.16560 Y0.79614
G01 X-1.16438 Y0.79879
G01 X-1.16278 Y0.80148
G01 X-1.16102 Y0.80380
G01 X-1.15903 Y0.80592
G01 X-1.15664 Y0.80796
G01 X-1.15405 Y0.80971
G01 X-1.15147 Y0.81107
G01 X-1.14876 Y0.81214
G01 X-1.14596 Y0.81292
G01 X-1.14309 Y0.81340
G01 X-1.14018 Y0.81358
G01 X-1.09654 Y0.81358
G01 X-1.09341 Y0.81339
G01 X-1.09054 Y0.81290
G01 X-1.08774 Y0.81210
G01 X-1.08484 Y0.81092
G01 X-1.08228 Y0.80954
G01 X-1.07988 Y0.80789
G01 X-1.07767 Y0.80600
G01 X-1.07567 Y0.80389
G01 X-1.07387 Y0.80152
G01 X-1.04909 Y0.80152
G01 X-1.04909 Y0.98830
G01 X-1.18035 Y1.11968
G01 X-1.18173 Y1.12168
G01 X-1.18263 Y1.12350
G01 X-1.18338 Y1.12582
G01 X-1.18376 Y1.12822
G01 X-1.18381 Y1.16043
G01 X-1.19390 Y1.16043
G01 X-1.19390 Y1.17052
G01 X-1.21189 Y1.17052
G01 X-1.28177 Y1.10064
G01 X-1.28066 Y1.09746
G01 X-1.27977 Y1.09397
G01 X-1.27920 Y1.09042
G01 X-1.27898 Y1.08722
G01 X-1.27901 Y1.08402
G01 X-1.27935 Y1.08044
G01 X-1.28003 Y1.07691
G01 X-1.28102 Y1.07345
G01 X-1.28233 Y1.07009
G01 X-1.28374 Y1.06722
G01 X-1.28538 Y1.06448
G01 X-1.28749 Y1.06156
G01 X-1.28985 Y1.05884
G01 X-1.29246 Y1.05636
G01 X-1.29495 Y1.05435
G01 X-1.29794 Y1.05235
G01 X-1.30183 Y1.05029
G01 X-1.30592 Y1.04867
G01 X-1.31016 Y1.04753
G01 X-1.31451 Y1.04686
G01 X-1.31891 Y1.04668
G01 X-1.32329 Y1.04699
G01 X-1.32723 Y1.04770
G01 X-1.33145 Y1.04893
G01 X-1.33551 Y1.05063
G01 X-1.33935 Y1.05277
G01 X-1.34293 Y1.05533
G01 X-1.34620 Y1.05827
G01 X-1.34913 Y1.06156
G01 X-1.35145 Y1.06481
G01 X-1.35361 Y1.06864
G01 X-1.35533 Y1.07269
G01 X-1.35629 Y1.07574
G01 X-1.35693 Y1.07847
G01 X-1.35741 Y1.08163
G01 X-1.35762 Y1.08442
G01 X-1.35764 Y1.08722
G01 X-1.35741 Y1.09042
G01 X-1.35693 Y1.09358
G01 X-1.35629 Y1.09631
G01 X-1.35533 Y1.09936
G01 X-1.35429 Y1.10196
G01 X-1.35287 Y1.10483
G01 X-1.34986 Y1.10954
G01 X-1.34784 Y1.11203
G01 X-1.34386 Y1.11595
G01 X-1.33969 Y1.11906
G01 X-1.33515 Y1.12159
G01 X-1.33031 Y1.12350
G01 X-1.32488 Y1.12482
G01 X-1.31971 Y1.12535
G01 X-1.31411 Y1.12515
G01 X-1.30899 Y1.12426
G01 X-1.30369 Y1.12256
G01 X-1.22806 Y1.19807
G01 X-1.22606 Y1.19945
G01 X-1.22424 Y1.20034
G01 X-1.22193 Y1.20110
G01 X-1.21993 Y1.20144
G01 X-1.19390 Y1.20152
G01 X-1.19390 Y1.21161
G01 X-1.14272 Y1.21161
G01 X-1.14272 Y1.16043
G01 X-1.15281 Y1.16043
G01 X-1.15281 Y1.13585
G01 X-1.02263 Y1.00568
G01 X-1.02155 Y1.00448
G01 X-1.02038 Y1.00282
G01 X-1.01898 Y0.99990
G01 X-1.01835 Y0.99755
G01 X-1.01809 Y0.99472
( Piece #4, position [1;1] )

G04 P0 ( dwell for no time -- G64 should not smooth over this point )
G00 Z0.08000 ( retract )

G00 X-1.74497 Y0.81840 ( rapid move to begin. )
G01 F180.00000
( Mill infeed pass 1/1 )
G01 Z-0.04000
G04 P0 ( dwell for no time -- G64 should not smooth over this point )
G01 F360.00000
G01 X-1.74497 Y0.81840
G01 X-1.74510 Y0.81638
G01 X-1.74561 Y0.81400
G01 X-1.74615 Y0.81247
G01 X-1.74705 Y0.81065
G01 X-1.74817 Y0.80897
G01 X-1.74951 Y0.80744
G01 X-1.93069 Y0.62626
G01 X-1.93221 Y0.62493
G01 X-1.93425 Y0.62360
G01 X-1.93686 Y0.62248
G01 X-1.93922 Y0.62192
G01 X-1.94165 Y0.62172
G01 X-2.41551 Y0.62181
G01 X-2.41790 Y0.62225
G01 X-2.42020 Y0.62306
G01 X-2.42233 Y0.62423
G01 X-2.42426 Y0.62571
G01 X-2.45328 Y0.65469
G01 X-2.45532 Y0.65721
G01 X-2.45631 Y0.65898
G01 X-2.45706 Y0.66086
G01 X-2.45756 Y0.66283
G01 X-2.45780 Y0.66484
G01 X-2.45782 Y0.69665
G01 X-2.47972 Y0.69665
G01 X-2.47972 Y0.72052
G01 X-2.60492 Y0.72052
G01 X-2.60492 Y0.69665
G01 X-2.67972 Y0.69665
G01 X-2.67972 Y0.77539
G01 X-2.60492 Y0.77539
G01 X-2.60492 Y0.75152
G01 X-2.47972 Y0.75152
G01 X-2.47972 Y0.77539
G01 X-2.40492 Y0.77539
G01 X-2.40492 Y0.69665
G01 X-2.42682 Y0.69665
G01 X-2.42682 Y0.67207
G01 X-2.40747 Y0.65272
G01 X-1.94807 Y0.65272
G01 X-1.77597 Y0.82482
G01 X-1.77597 Y1.21889
G01 X-1.80945 Y1.25237
G01 X-2.16527 Y1.25237
G01 X-2.16730 Y1.25251
G01 X-2.16928 Y1.25290
G01 X-2.17120 Y1.25355
G01 X-2.17302 Y1.25445
G01 X-2.17471 Y1.25558
G01 X-2.17623 Y1.25691
G01 X-2.31384 Y1.39452
G01 X-2.33842 Y1.39452
G01 X-2.33842 Y1.34112
G01 X-2.47622 Y1.34112
G01 X-2.47622 Y1.45700
G01 X-2.52342 Y1.50420
G01 X-2.52342 Y1.45922
G01 X-2.66122 Y1.45922
G01 X-2.66122 Y1.59702
G01 X-2.52342 Y1.59702
G01 X-2.52342 Y1.54349
G01 X-2.52102 Y1.54299
G01 X-2.51875 Y1.54211
G01 X-2.51664 Y1.54090
G01 X-2.51475 Y1.53937
G01 X-2.45430 Y1.47892
G01 X-2.33842 Y1.47892
G01 X-2.33842 Y1.42552
G01 X-2.30621 Y1.42548
G01 X-2.30380 Y1.42510
G01 X-2.30149 Y1.42434
G01 X-2.29932 Y1.42324
G01 X-2.29767 Y1.42207
G01 X-2.15885 Y1.28337
G01 X-1.80303 Y1.28337
G01 X-1.80101 Y1.28324
G01 X-1.79863 Y1.28274
G01 X-1.79673 Y1.28203
G01 X-1.79459 Y1.28087
G01 X-1.79266 Y1.27939
G01 X-1.74951 Y1.23627
G01 X-1.74817 Y1.23475
G01 X-1.74685 Y1.23271
G01 X-1.74573 Y1.23010
G01 X-1.74516 Y1.22774
G01 X-1.74497 Y1.22531
G01 X-1.74497 Y0.81840
G04 P0 ( dwell for no time -- G64 should not smooth over this point )
G00 Z0.08000 ( retract )

G00 X-1.94312 Y0.70812 ( rapid move to begin. )
G01 F180.00000
( Mill infeed pass 1/1 )
G01 Z-0.04000
G04 P0 ( dwell for no time -- G64 should not smooth over this point )
G01 F360.00000
G01 X-1.94312 Y0.70812
G01 X-1.94333 Y0.71080
G01 X-1.94381 Y0.71345
G01 X-1.94454 Y0.71603
G01 X-1.94551 Y0.71854
G01 X-1.94673 Y0.72093
G01 X-1.94817 Y0.72320
G01 X-1.94997 Y0.72548
G01 X-1.95185 Y0.72741
G01 X-1.95407 Y0.72929
G01 X-1.95630 Y0.73080
G01 X-1.95865 Y0.73209
G01 X-1.96134 Y0.73321
G01 X-1.96391 Y0.73400
G01 X-1.96654 Y0.73453
G01 X-1.96921 Y0.73480
G01 X-2.01420 Y0.73484
G01 X-2.01866 Y0.73444
G01 X-2.02128 Y0.73386
G01 X-2.02383 Y0.73302
G01 X-2.02649 Y0.73184
G01 X-2.02882 Y0.73050
G01 X-2.03101 Y0.72894
G01 X-2.03304 Y0.72718
G01 X-2.03489 Y0.72523
G01 X-2.03659 Y0.72303
G01 X-2.26080 Y0.72303
G01 X-2.30506 Y0.73919
G01 X-2.30550 Y0.74260
G01 X-2.30620 Y0.74572
G01 X-2.30716 Y0.74877
G01 X-2.30855 Y0.75210
G01 X-2.31005 Y0.75493
G01 X-2.31178 Y0.75762
G01 X-2.31374 Y0.76015
G01 X-2.31620 Y0.76279
G01 X-2.31889 Y0.76518
G01 X-2.32147 Y0.76707
G01 X-2.32420 Y0.76874
G01 X-2.32707 Y0.77017
G01 X-2.33004 Y0.77135
G01 X-2.33311 Y0.77227
G01 X-2.33624 Y0.77293
G01 X-2.33982 Y0.77334
G01 X-2.34382 Y0.77340
G01 X-2.34741 Y0.77308
G01 X-2.35095 Y0.77242
G01 X-2.35479 Y0.77129
G01 X-2.35849 Y0.76975
G01 X-2.36165 Y0.76804
G01 X-2.36496 Y0.76579
G01 X-2.36802 Y0.76320
G01 X-2.37077 Y0.76030
G01 X-2.37298 Y0.75745
G01 X-2.37489 Y0.75441
G01 X-2.37667 Y0.75082
G01 X-2.37794 Y0.74745
G01 X-2.37895 Y0.74358
G01 X-2.37955 Y0.73962
G01 X-2.37972 Y0.73602
G01 X-2.37962 Y0.73322
G01 X-2.37930 Y0.73044
G01 X-2.37878 Y0.72769
G01 X-2.37806 Y0.72498
G01 X-2.37713 Y0.72234
G01 X-2.37601 Y0.71977
G01 X-2.37470 Y0.71729
G01 X-2.37320 Y0.71492
G01 X-2.37154 Y0.71267
G01 X-2.36971 Y0.71055
G01 X-2.36772 Y0.70857
G01 X-2.36560 Y0.70675
G01 X-2.36334 Y0.70509
G01 X-2.36096 Y0.70360
G01 X-2.35849 Y0.70230
G01 X-2.35592 Y0.70118
G01 X-2.35095 Y0.69963
G01 X-2.34820 Y0.69909
G01 X-2.34542 Y0.69875
G01 X-2.34262 Y0.69862
G01 X-2.33982 Y0.69871
G01 X-2.33467 Y0.69941
G01 X-2.32967 Y0.70083
G01 X-2.32707 Y0.70187
G01 X-2.32455 Y0.70311
G01 X-2.32214 Y0.70454
G01 X-2.31984 Y0.70613
G01 X-2.31586 Y0.70960
G01 X-2.26898 Y0.69249
G01 X-2.26709 Y0.69193
G01 X-2.26476 Y0.69158
G01 X-2.03659 Y0.69153
G01 X-2.03482 Y0.68925
G01 X-2.03296 Y0.68731
G01 X-2.03093 Y0.68555
G01 X-2.02873 Y0.68401
G01 X-2.02639 Y0.68268
G01 X-2.02394 Y0.68159
G01 X-2.02139 Y0.68074
G01 X-2.01877 Y0.68014
G01 X-2.01409 Y0.67973
G01 X-1.96955 Y0.67975
G01 X-1.96709 Y0.67996
G01 X-1.96467 Y0.68039
G01 X-1.96229 Y0.68103
G01 X-1.95977 Y0.68197
G01 X-1.95756 Y0.68304
G01 X-1.95544 Y0.68431
G01 X-1.95345 Y0.68576
G01 X-1.95144 Y0.68754
G01 X-1.94961 Y0.68951
G01 X-1.94811 Y0.69146
G01 X-1.94678 Y0.69354
G01 X-1.94565 Y0.69572
G01 X-1.94472 Y0.69800
G01 X-1.94399 Y0.70036
G01 X-1.94345 Y0.70299
G01 X-1.94317 Y0.70544
G01 X-1.94312 Y0.70812
G04 P0 ( dwell for no time -- G64 should not smooth over this point )
G00 Z0.08000 ( retract )

G00 X-1.94314 Y0.86605 ( rapid move to begin. )
G01 F180.00000
( Mill infeed pass 1/1 )
G01 Z-0.04000
G04 P0 ( dwell for no time -- G64 should not smooth over this point )
G01 F360.00000
G01 X-1.94314 Y0.86605
G01 X-1.94346 Y0.86917
G01 X-1.94414 Y0.87223
G01 X-1.94516 Y0.87519
G01 X-1.94651 Y0.87802
G01 X-1.94817 Y0.88068
G01 X-1.95012 Y0.88313
G01 X-1.95234 Y0.88535
G01 X-1.95480 Y0.88729
G01 X-1.95746 Y0.88895
G01 X-1.96050 Y0.89038
G01 X-1.96347 Y0.89137
G01 X-1.96654 Y0.89201
G01 X-1.96966 Y0.89230
G01 X-2.01420 Y0.89232
G01 X-2.01866 Y0.89192
G01 X-2.02150 Y0.89128
G01 X-2.02404 Y0.89042
G01 X-2.02649 Y0.88932
G01 X-2.02882 Y0.88798
G01 X-2.03101 Y0.88642
G01 X-2.03304 Y0.88466
G01 X-2.03489 Y0.88271
G01 X-2.03659 Y0.88051
G01 X-2.62860 Y0.88051
G01 X-2.87657 Y1.12848
G01 X-2.87666 Y1.18764
G01 X-2.87699 Y1.18964
G01 X-2.87745 Y1.19120
G01 X-2.87882 Y1.19413
G01 X-2.88076 Y1.19672
G01 X-2.88320 Y1.19886
G01 X-2.88492 Y1.19993
G01 X-2.88715 Y1.20090
G01 X-2.88950 Y1.20152
G01 X-2.89192 Y1.20177
G01 X-3.02373 Y1.20177
G01 X-3.02563 Y1.20394
G01 X-3.02801 Y1.20608
G01 X-3.03064 Y1.20791
G01 X-3.03312 Y1.20923
G01 X-3.03610 Y1.21040
G01 X-3.03882 Y1.21111
G01 X-3.04199 Y1.21154
G01 X-3.04480 Y1.21160
G01 X-3.04878 Y1.21114
G01 X-3.05264 Y1.21008
G01 X-3.05628 Y1.20842
G01 X-3.05963 Y1.20621
G01 X-3.06258 Y1.20351
G01 X-3.06508 Y1.20038
G01 X-3.06706 Y1.19689
G01 X-3.06848 Y1.19315
G01 X-3.06911 Y1.19041
G01 X-3.06941 Y1.18803
G01 X-3.06947 Y1.18522
G01 X-3.06923 Y1.18243
G01 X-3.06869 Y1.17968
G01 X-3.06784 Y1.17700
G01 X-3.06671 Y1.17443
G01 X-3.06531 Y1.17201
G01 X-3.06364 Y1.16975
G01 X-3.06174 Y1.16768
G01 X-3.05994 Y1.16609
G01 X-3.05766 Y1.16445
G01 X-3.05522 Y1.16307
G01 X-3.05264 Y1.16197
G01 X-3.04995 Y1.16116
G01 X-3.04759 Y1.16070
G01 X-3.04440 Y1.16044
G01 X-3.04080 Y1.16062
G01 X-3.03765 Y1.16121
G01 X-3.03422 Y1.16233
G01 X-3.03133 Y1.16373
G01 X-3.02832 Y1.16572
G01 X-3.02591 Y1.16782
G01 X-3.02373 Y1.17027
G01 X-2.90807 Y1.17027
G01 X-2.90807 Y1.12208
G01 X-2.91269 Y1.11970
G01 X-2.91695 Y1.11672
G01 X-2.92078 Y1.11320
G01 X-2.92387 Y1.10954
G01 X-2.92670 Y1.10518
G01 X-2.92877 Y1.10085
G01 X-2.93031 Y1.09631
G01 X-2.93133 Y1.09121
G01 X-2.93165 Y1.08722
G01 X-2.93154 Y1.08283
G01 X-2.93101 Y1.07886
G01 X-2.93009 Y1.07497
G01 X-2.92877 Y1.07120
G01 X-2.92689 Y1.06722
G01 X-2.92480 Y1.06381
G01 X-2.92238 Y1.06063
G01 X-2.91907 Y1.05716
G01 X-2.91568 Y1.05435
G01 X-2.91165 Y1.05175
G01 X-2.90733 Y1.04965
G01 X-2.90318 Y1.04820
G01 X-2.89850 Y1.04716
G01 X-2.89372 Y1.04670
G01 X-2.88893 Y1.04682
G01 X-2.88457 Y1.04744
G01 X-2.87993 Y1.04867
G01 X-2.87548 Y1.05046
G01 X-2.87128 Y1.05277
G01 X-2.86770 Y1.05533
G01 X-2.86415 Y1.05856
G01 X-2.86101 Y1.06219
G01 X-2.85852 Y1.06588
G01 X-2.64626 Y0.85363
G01 X-2.64471 Y0.85227
G01 X-2.64336 Y0.85134
G01 X-2.64153 Y0.85038
G01 X-2.63960 Y0.84966
G01 X-2.63759 Y0.84921
G01 X-2.63513 Y0.84901
G01 X-2.03659 Y0.84901
G01 X-2.03482 Y0.84673
G01 X-2.03296 Y0.84479
G01 X-2.03093 Y0.84303
G01 X-2.02873 Y0.84149
G01 X-2.02639 Y0.84016
G01 X-2.02394 Y0.83907
G01 X-2.02139 Y0.83822
G01 X-2.01877 Y0.83762
G01 X-2.01431 Y0.83721
G01 X-1.97044 Y0.83721
G01 X-1.96621 Y0.83757
G01 X-1.96187 Y0.83865
G01 X-1.95795 Y0.84031
G01 X-1.95416 Y0.84269
G01 X-1.95096 Y0.84550
G01 X-1.94811 Y0.84894
G01 X-1.94594 Y0.85260
G01 X-1.94430 Y0.85676
G01 X-1.94356 Y0.85981
G01 X-1.94317 Y0.86292
G01 X-1.94314 Y0.86605
G04 P0 ( dwell for no time -- G64 should not smooth over this point )
G00 Z0.08000 ( retract )

G00 X-1.80297 Y1.08562 ( rapid move to begin. )
G01 F180.00000
( Mill infeed pass 1/1 )
G01 Z-0.04000
G04 P0 ( dwell for no time -- G64 should not smooth over this point )
G01 F360.00000
G01 X-1.80297 Y1.08562
G01 X-1.80322 Y1.08163
G01 X-1.80378 Y1.07808
G01 X-1.80479 Y1.07421
G01 X-1.80603 Y1.07083
G01 X-1.80775 Y1.06722
G01 X-1.80962 Y1.06414
G01 X-1.81201 Y1.06094
G01 X-1.81443 Y1.05827
G01 X-1.81708 Y1.05584
G01 X-1.82027 Y1.05343
G01 X-1.82334 Y1.05155
G01 X-1.82682 Y1.04986
G01 X-1.82691 Y0.85419
G01 X-1.82735 Y0.85180
G01 X-1.82816 Y0.84951
G01 X-1.82932 Y0.84737
G01 X-1.83108 Y0.84514
G01 X-1.90115 Y0.77506
G01 X-1.90300 Y0.77348
G01 X-1.90507 Y0.77221
G01 X-1.90810 Y0.77105
G01 X-1.91130 Y0.77055
G01 X-1.94788 Y0.77052
G01 X-1.94975 Y0.76808
G01 X-1.95176 Y0.76597
G01 X-1.95398 Y0.76409
G01 X-1.95639 Y0.76245
G01 X-1.95896 Y0.76108
G01 X-1.96165 Y0.75998
G01 X-1.96445 Y0.75918
G01 X-1.96732 Y0.75867
G01 X-1.97067 Y0.75846
G01 X-2.01409 Y0.75847
G01 X-2.01699 Y0.75863
G01 X-2.02117 Y0.75942
G01 X-2.02518 Y0.76084
G01 X-2.02873 Y0.76275
G01 X-2.03213 Y0.76529
G01 X-2.03511 Y0.76833
G01 X-2.03758 Y0.77179
G01 X-2.03948 Y0.77559
G01 X-2.04079 Y0.77964
G01 X-2.04145 Y0.78384
G01 X-2.04146 Y0.78809
G01 X-2.04081 Y0.79230
G01 X-2.03953 Y0.79635
G01 X-2.03763 Y0.80016
G01 X-2.03532 Y0.80346
G01 X-2.03239 Y0.80653
G01 X-2.02901 Y0.80912
G01 X-2.02609 Y0.81078
G01 X-2.02278 Y0.81214
G01 X-2.01954 Y0.81302
G01 X-2.01599 Y0.81351
G01 X-1.96877 Y0.81352
G01 X-1.96566 Y0.81312
G01 X-1.96261 Y0.81238
G01 X-1.95967 Y0.81129
G01 X-1.95687 Y0.80988
G01 X-1.95425 Y0.80816
G01 X-1.95185 Y0.80615
G01 X-1.94968 Y0.80389
G01 X-1.94788 Y0.80152
G01 X-1.91853 Y0.80152
G01 X-1.85782 Y0.86223
G01 X-1.85782 Y1.04986
G01 X-1.86130 Y1.05155
G01 X-1.86437 Y1.05343
G01 X-1.86756 Y1.05584
G01 X-1.87022 Y1.05827
G01 X-1.87264 Y1.06094
G01 X-1.87503 Y1.06414
G01 X-1.87689 Y1.06722
G01 X-1.87862 Y1.07083
G01 X-1.87986 Y1.07421
G01 X-1.88086 Y1.07808
G01 X-1.88143 Y1.08163
G01 X-1.88167 Y1.08562
G01 X-1.88154 Y1.08922
G01 X-1.88101 Y1.09319
G01 X-1.88009 Y1.09708
G01 X-1.87886 Y1.10064
G01 X-1.94874 Y1.17052
G01 X-1.96673 Y1.17052
G01 X-1.96673 Y1.16043
G01 X-2.01791 Y1.16043
G01 X-2.01791 Y1.21161
G01 X-1.96673 Y1.21161
G01 X-1.96673 Y1.20152
G01 X-1.94070 Y1.20144
G01 X-1.93870 Y1.20110
G01 X-1.93639 Y1.20034
G01 X-1.93457 Y1.19945
G01 X-1.93257 Y1.19807
G01 X-1.85694 Y1.12256
G01 X-1.85318 Y1.12385
G01 X-1.84929 Y1.12475
G01 X-1.84532 Y1.12526
G01 X-1.84172 Y1.12537
G01 X-1.83773 Y1.12511
G01 X-1.83379 Y1.12444
G01 X-1.82993 Y1.12337
G01 X-1.82657 Y1.12209
G01 X-1.82299 Y1.12030
G01 X-1.81962 Y1.11816
G01 X-1.81677 Y1.11595
G01 X-1.81387 Y1.11320
G01 X-1.81126 Y1.11018
G01 X-1.80918 Y1.10724
G01 X-1.80738 Y1.10412
G01 X-1.80572 Y1.10048
G01 X-1.80456 Y1.09708
G01 X-1.80363 Y1.09319
G01 X-1.80310 Y1.08922
G01 X-1.80297 Y1.08562
G04 P0 ( dwell for no time -- G64 should not smooth over this point )
G00 Z0.08000 ( retract )

G00 X-1.80297 Y1.48602 ( rapid move to begin. )
G01 F180.00000
( Mill infeed pass 1/1 )
G01 Z-0.04000
G04 P0 ( dwell for no time -- G64 should not smooth over this point )
G01 F360.00000
G01 X-1.80297 Y1.48602
G01 X-1.80314 Y1.48243
G01 X-1.80363 Y1.47886
G01 X-1.80445 Y1.47536
G01 X-1.80558 Y1.47194
G01 X-1.80702 Y1.46864
G01 X-1.80897 Y1.46515
G01 X-1.81101 Y1.46219
G01 X-1.81332 Y1.45943
G01 X-1.81587 Y1.45689
G01 X-1.81865 Y1.45459
G01 X-1.82162 Y1.45256
G01 X-1.82512 Y1.45063
G01 X-1.82843 Y1.44921
G01 X-1.83185 Y1.44809
G01 X-1.83536 Y1.44730
G01 X-1.83893 Y1.44682
G01 X-1.84212 Y1.44667
G01 X-1.84532 Y1.44679
G01 X-1.84850 Y1.44716
G01 X-1.85125 Y1.44770
G01 X-1.85433 Y1.44855
G01 X-1.85696 Y1.44950
G01 X-1.85952 Y1.45063
G01 X-1.86234 Y1.45215
G01 X-1.86503 Y1.45389
G01 X-1.86756 Y1.45584
G01 X-1.86993 Y1.45799
G01 X-1.87186 Y1.46002
G01 X-1.87387 Y1.46251
G01 X-1.87546 Y1.46481
G01 X-1.87708 Y1.46757
G01 X-1.87838 Y1.47027
G01 X-2.20626 Y1.47027
G01 X-2.20757 Y1.46757
G01 X-2.20918 Y1.46481
G01 X-2.21101 Y1.46219
G01 X-2.21305 Y1.45972
G01 X-2.21529 Y1.45743
G01 X-2.21770 Y1.45533
G01 X-2.22027 Y1.45343
G01 X-2.22299 Y1.45175
G01 X-2.22584 Y1.45029
G01 X-2.22880 Y1.44907
G01 X-2.23185 Y1.44809
G01 X-2.23496 Y1.44737
G01 X-2.23813 Y1.44690
G01 X-2.24132 Y1.44669
G01 X-2.24452 Y1.44674
G01 X-2.24771 Y1.44704
G01 X-2.25202 Y1.44789
G01 X-2.25659 Y1.44935
G01 X-2.26060 Y1.45117
G01 X-2.26437 Y1.45343
G01 X-2.26787 Y1.45610
G01 X-2.27105 Y1.45913
G01 X-2.27387 Y1.46251
G01 X-2.27630 Y1.46618
