( pcb2gcode 3.0.1 )
( Software-independent Gcode )

G94 ( Inches per minute feed rate. )
G20 ( Units == INCHES. )

G90 ( Absolute coordinates. )
G00 S12000 ( RPM spindle speed. )
G64 P0.00040 ( set maximum deviation from commanded toolpath )
G01 F360.00000 ( Feedrate. )


G00 Z1.00000 (Retract to tool change height)
T1
M5      (Spindle stop.)
G04 P5.00000 (Wait for spindle to stop)
(MSG, Change tool bit to mill diameter 0.00000in)
M6      (Tool change.)
M0      (Temporary machine stop.)
M3 ( Spindle on clockwise. )
G04 P1.00000 (Wait for spindle to get up to speed)
G04 P0 ( dwell for no time -- G64 should not smooth over this point )
G00 Z0.08000 ( retract )

G00 X-3.05000 Y-3.60000 ( rapid move to begin. )
G01 F180.00000
( Mill infeed pass 1/1 )
G01 Z-0.04000
G04 P0 ( dwell for no time -- G64 should not smooth over this point )
G01 F360.00000
G01 X-3.05000 Y-3.60000
G01 X-4.11744 Y-3.60000
G01 X-4.12032 Y-3.54704
G01 X-4.12268 Y-3.49978
G01 X-4.12151 Y-3.46950
G01 X-4.12059 Y-3.44991
G01 X-4.11839 Y-3.41080
G01 X-4.11752 Y-3.39859
G01 X-4.11607 Y-3.38184
G01 X-4.11501 Y-3.37243
G01 X-4.11386 Y-3.36411
G01 X-4.11172 Y-3.35257
G01 X-4.11022 Y-3.34670
G01 X-4.10925 Y-3.34352
G01 X-4.10520 Y-3.33223
G01 X-4.10274 Y-3.32336
G01 X-4.10150 Y-3.31729
G01 X-4.10065 Y-3.31132
G01 X-4.10015 Y-3.30534
G01 X-4.10001 Y-3.30054
G01 X-4.10013 Y-3.29505
G01 X-4.10054 Y-3.28969
G01 X-4.10140 Y-3.28334
G01 X-4.10246 Y-3.27781
G01 X-4.10377 Y-3.27257
G01 X-4.10495 Y-3.26857
G01 X-4.10991 Y-3.25435
G01 X-4.11119 Y-3.24961
G01 X-4.11300 Y-3.24101
G01 X-4.11470 Y-3.22993
G01 X-4.11571 Y-3.22141
G01 X-4.11707 Y-3.20653
G01 X-4.11571 Y-3.22141
G01 X-4.11470 Y-3.22993
G01 X-4.11300 Y-3.24101
G01 X-4.11119 Y-3.24961
G01 X-4.10991 Y-3.25435
G01 X-4.10495 Y-3.26857
G01 X-4.10377 Y-3.27257
G01 X-4.10246 Y-3.27781
G01 X-4.10140 Y-3.28334
G01 X-4.10054 Y-3.28969
G01 X-4.10013 Y-3.29505
G01 X-4.10001 Y-3.30054
G01 X-4.10015 Y-3.30534
G01 X-4.10065 Y-3.31132
G01 X-4.10150 Y-3.31729
G01 X-4.10274 Y-3.32336
G01 X-4.10520 Y-3.33223
G01 X-4.10925 Y-3.34352
G01 X-4.11022 Y-3.34670
G01 X-4.11172 Y-3.35257
G01 X-4.11386 Y-3.36411
G01 X-4.11501 Y-3.37243
G01 X-4.11607 Y-3.38184
G01 X-4.11752 Y-3.39859
G01 X-4.11839 Y-3.41080
G01 X-4.12059 Y-3.44991
G01 X-4.12151 Y-3.46950
G01 X-4.12268 Y-3.49978
G01 X-4.12032 Y-3.54704
G01 X-4.11744 Y-3.60000
G01 X-4.90000 Y-3.60000
G01 X-4.90000 Y-2.35000
G01 X-3.05000 Y-2.35000
G01 X-3.05000 Y-3.60000
G01 X-3.05000 Y-2.64759
G01 X-3.06599 Y-2.65023
G01 X-3.07256 Y-2.65115
G01 X-3.09651 Y-2.65392
G01 X-3.13969 Y-2.65833
G01 X-3.17272 Y-2.66229
G01 X-3.18737 Y-2.66427
G01 X-3.22104 Y-2.66925
G01 X-3.23217 Y-2.67033
G01 X-3.24287 Y-2.67088
G01 X-3.25271 Y-2.67097
G01 X-3.26255 Y-2.67066
G01 X-3.27206 Y-2.66999
G01 X-3.28438 Y-2.66855
G01 X-3.29365 Y-2.66705
G01 X-3.30259 Y-2.66528
G01 X-3.31247 Y-2.66292
G01 X-3.32557 Y-2.65920
G01 X-3.52784 Y-2.65920
G01 X-3.58176 Y-2.63688
G01 X-3.59504 Y-2.63576
G01 X-3.60890 Y-2.63388
G01 X-3.61779 Y-2.63221
G01 X-3.62990 Y-2.62929
G01 X-3.64032 Y-2.62609
G01 X-3.64951 Y-2.62265
G01 X-3.65827 Y-2.61873
G01 X-3.66786 Y-2.61360
G01 X-3.67461 Y-2.60939
G01 X-3.68046 Y-2.60524
G01 X-3.68396 Y-2.60251
G01 X-3.69224 Y-2.59540
G01 X-3.69836 Y-2.59049
G01 X-3.70633 Y-2.58463
G01 X-3.71461 Y-2.57905
G01 X-3.71636 Y-2.56915
G01 X-3.71723 Y-2.56136
G01 X-3.71780 Y-2.55323
G01 X-3.71888 Y-2.54510
G01 X-3.72431 Y-2.53831
G01 X-3.73065 Y-2.53243
G01 X-3.73792 Y-2.52747
G01 X-3.74610 Y-2.52343
G01 X-3.83152 Y-2.48805
G01 X-3.83338 Y-2.48805
G01 X-3.88232 Y-2.46778
G01 X-3.91110 Y-2.43900
G01 X-3.91610 Y-2.43462
G01 X-3.92110 Y-2.43150
G01 X-3.92610 Y-2.42962
G01 X-3.93110 Y-2.42900
G01 X-4.06890 Y-2.42900
G01 X-4.07390 Y-2.42962
G01 X-4.07890 Y-2.43150
G01 X-4.08390 Y-2.43462
G01 X-4.08890 Y-2.43900
G01 X-4.12418 Y-2.47428
G01 X-4.14506 Y-2.52470
G01 X-4.11287 Y-2.57680
G01 X-4.10382 Y-2.58909
G01 X-4.09348 Y-2.59878
G01 X-4.08184 Y-2.60588
G01 X-4.06890 Y-2.61039
G01 X-4.00277 Y-2.62600
G01 X-3.93310 Y-2.62600
G01 X-3.93110 Y-2.62800
G01 X-3.92077 Y-2.63980
G01 X-3.91340 Y-2.65160
G01 X-3.90897 Y-2.66340
G01 X-3.90750 Y-2.67520
G01 X-3.90750 Y-2.69490
G01 X-3.90602 Y-2.70670
G01 X-3.90160 Y-2.71850
G01 X-3.89422 Y-2.73030
G01 X-3.88390 Y-2.74210
G01 X-3.81131 Y-2.81470
G01 X-3.82628 Y-2.82854
G01 X-3.84126 Y-2.84053
G01 X-3.85623 Y-2.85068
G01 X-3.87121 Y-2.85899
G01 X-3.88618 Y-2.86545
G01 X-3.90115 Y-2.87006
G01 X-3.91613 Y-2.87283
G01 X-3.93110 Y-2.87375
G01 X-3.96421 Y-2.87375
G01 X-4.06890 Y-2.83039
G01 X-4.07460 Y-2.82739
G01 X-4.07939 Y-2.82349
G01 X-4.08329 Y-2.81870
G01 X-4.08629 Y-2.81300
G01 X-4.11402 Y-2.74604
G01 X-4.11625 Y-2.74099
G01 X-4.12047 Y-2.73262
G01 X-4.12500 Y-2.72485
G01 X-4.12821 Y-2.71982
G01 X-4.13554 Y-2.71671
G01 X-4.14221 Y-2.71425
G01 X-4.15282 Y-2.71106
G01 X-4.28118 Y-2.68069
G01 X-4.29551 Y-2.68132
G01 X-4.30581 Y-2.68130
G01 X-4.31021 Y-2.68116
G01 X-4.32497 Y-2.68017
G01 X-4.33984 Y-2.67834
G01 X-4.35106 Y-2.67639
G01 X-4.35586 Y-2.67542
G01 X-4.36799 Y-2.67256
G01 X-4.37875 Y-2.66958
G01 X-4.62129 Y-2.66959
G01 X-4.63037 Y-2.67215
G01 X-4.64072 Y-2.67469
G01 X-4.67432 Y-2.68152
G01 X-4.69449 Y-2.68598
G01 X-4.71399 Y-2.69060
G01 X-4.74714 Y-2.69902
G01 X-4.76059 Y-2.70203
G01 X-4.76530 Y-2.70298
G01 X-4.78498 Y-2.70630
G01 X-4.80762 Y-2.70899
G01 X-4.83267 Y-2.71078
G01 X-4.85989 Y-2.71145
G01 X-4.88586 Y-2.71101
G01 X-4.90000 Y-2.71024
G01 X-4.88586 Y-2.71101
G01 X-4.85989 Y-2.71145
G01 X-4.83267 Y-2.71078
G01 X-4.80762 Y-2.70899
G01 X-4.78498 Y-2.70630
G01 X-4.76530 Y-2.70298
G01 X-4.76059 Y-2.70203
G01 X-4.74714 Y-2.69902
G01 X-4.71399 Y-2.69060
G01 X-4.69449 Y-2.68598
G01 X-4.67432 Y-2.68152
G01 X-4.64072 Y-2.67469
G01 X-4.63037 Y-2.67215
G01 X-4.62129 Y-2.66959
G01 X-4.37875 Y-2.66958
G01 X-4.36799 Y-2.67256
G01 X-4.35586 Y-2.67542
G01 X-4.35106 Y-2.67639
G01 X-4.33984 Y-2.67834
G01 X-4.32497 Y-2.68017
G01 X-4.31021 Y-2.68116
G01 X-4.30581 Y-2.68130
G01 X-4.29551 Y-2.68132
G01 X-4.28118 Y-2.68069
G01 X-4.15282 Y-2.71106
G01 X-4.14221 Y-2.71425
G01 X-4.13554 Y-2.71671
G01 X-4.12821 Y-2.71982
G01 X-4.12500 Y-2.72485
G01 X-4.12047 Y-2.73262
G01 X-4.11625 Y-2.74099
G01 X-4.11402 Y-2.74604
G01 X-4.08629 Y-2.81300
G01 X-4.08329 Y-2.81870
G01 X-4.07939 Y-2.82349
G01 X-4.07460 Y-2.82739
G01 X-4.06890 Y-2.83039
G01 X-3.96421 Y-2.87375
G01 X-3.93110 Y-2.87375
G01 X-3.91613 Y-2.87283
G01 X-3.90115 Y-2.87006
G01 X-3.88618 Y-2.86545
G01 X-3.87121 Y-2.85899
G01 X-3.85623 Y-2.85068
G01 X-3.84126 Y-2.84053
G01 X-3.82628 Y-2.82854
G01 X-3.81131 Y-2.81470
G01 X-3.74610 Y-2.81470
G01 X-3.73384 Y-2.81439
G01 X-3.71979 Y-2.80948
G01 X-3.70810 Y-2.81159
G01 X-3.69480 Y-2.81447
G01 X-3.68297 Y-2.81751
G01 X-3.67158 Y-2.82091
G01 X-3.66112 Y-2.82451
G01 X-3.65536 Y-2.82667
G01 X-3.64453 Y-2.83115
G01 X-3.61613 Y-2.84412
G01 X-3.60873 Y-2.84297
G01 X-3.59640 Y-2.84045
G01 X-3.58793 Y-2.83818
G01 X-3.57836 Y-2.83502
G01 X-3.56944 Y-2.83147
G01 X-3.56072 Y-2.82516
G01 X-3.55513 Y-2.82154
G01 X-3.54668 Y-2.81671
G01 X-3.53881 Y-2.81292
G01 X-3.53140 Y-2.80996
G01 X-3.52433 Y-2.80769
G01 X-3.51770 Y-2.80606
G01 X-3.51179 Y-2.80501
G01 X-3.50581 Y-2.80434
G01 X-3.50221 Y-2.80412
G01 X-3.49628 Y-2.80407
G01 X-3.48995 Y-2.80443
G01 X-3.48396 Y-2.80518
G01 X-3.47514 Y-2.80699
G01 X-3.46886 Y-2.80880
G01 X-3.46206 Y-2.81124
G01 X-3.45471 Y-2.81443
G01 X-3.44743 Y-2.80988
G01 X-3.44015 Y-2.80663
G01 X-3.43287 Y-2.80468
G01 X-3.42559 Y-2.80403
G01 X-3.37441 Y-2.80403
G01 X-3.36423 Y-2.80530
G01 X-3.35406 Y-2.80911
G01 X-3.34830 Y-2.80912
G01 X-3.34403 Y-2.80930
G01 X-3.33826 Y-2.80993
G01 X-3.32990 Y-2.81155
G01 X-3.32338 Y-2.81342
G01 X-3.31778 Y-2.81545
G01 X-3.24540 Y-2.84540
G01 X-3.24269 Y-2.85193
G01 X-3.23657 Y-2.85874
G01 X-3.22931 Y-2.86757
G01 X-3.22627 Y-2.87157
G01 X-3.22092 Y-2.87914
G01 X-3.21428 Y-2.88984
G01 X-3.21208 Y-2.89384
G01 X-3.20893 Y-2.90011
G01 X-3.20611 Y-2.90650
G01 X-3.20373 Y-2.91273
G01 X-3.20193 Y-2.91824
G01 X-3.20009 Y-2.92509
G01 X-3.19894 Y-2.93058
G01 X-3.19814 Y-2.93559
G01 X-3.19754 Y-2.94101
G01 X-3.19715 Y-2.94992
G01 X-3.19728 Y-2.95522
G01 X-3.19778 Y-2.96150
G01 X-3.19915 Y-2.97052
G01 X-3.20036 Y-2.97603
G01 X-3.20232 Y-2.98304
G01 X-3.20435 Y-2.98900
G01 X-3.20660 Y-2.99466
G01 X-3.20908 Y-3.00020
G01 X-3.20912 Y-3.18184
G01 X-3.20956 Y-3.18895
G01 X-3.21052 Y-3.19548
G01 X-3.21141 Y-3.19970
G01 X-3.21585 Y-3.20532
G01 X-3.21990 Y-3.20974
G01 X-3.28997 Y-3.27981
G01 X-3.29328 Y-3.28293
G01 X-3.29842 Y-3.28719
G01 X-3.30540 Y-3.29200
G01 X-3.31098 Y-3.29522
G01 X-3.31402 Y-3.29677
G01 X-3.32251 Y-3.30052
G01 X-3.32346 Y-3.30590
G01 X-3.32489 Y-3.31230
G01 X-3.32739 Y-3.32099
G01 X-3.32923 Y-3.32619
G01 X-3.33119 Y-3.33094
G01 X-3.33312 Y-3.33506
G01 X-3.33604 Y-3.34048
G01 X-3.33812 Y-3.34386
G01 X-3.34175 Y-3.34906
G01 X-3.34408 Y-3.35202
G01 X-3.34737 Y-3.35575
G01 X-3.35017 Y-3.35861
G01 X-3.35496 Y-3.36291
G01 X-3.35892 Y-3.36601
G01 X-3.36201 Y-3.36817
G01 X-3.36867 Y-3.36922
G01 X-3.37607 Y-3.36976
G01 X-3.42176 Y-3.36980
G01 X-3.42604 Y-3.36968
G01 X-3.43360 Y-3.36892
G01 X-3.44043 Y-3.36764
G01 X-3.44632 Y-3.36609
G01 X-3.45275 Y-3.36389
G01 X-3.67244 Y-3.36387
G01 X-3.67771 Y-3.36359
G01 X-3.68242 Y-3.36300
G01 X-3.71942 Y-3.35648
G01 X-3.72522 Y-3.35780
G01 X-3.73067 Y-3.35878
G01 X-3.73916 Y-3.35984
G01 X-3.74682 Y-3.36030
G01 X-3.75415 Y-3.36027
G01 X-3.76042 Y-3.35989
G01 X-3.76578 Y-3.35930
G01 X-3.77098 Y-3.35851
G01 X-3.77645 Y-3.35744
G01 X-3.78121 Y-3.35631
G01 X-3.78790 Y-3.35439
G01 X-3.78881 Y-3.35040
G01 X-3.79033 Y-3.34485
G01 X-3.79409 Y-3.33436
G01 X-3.79655 Y-3.32624
G01 X-3.79751 Y-3.32229
G01 X-3.79878 Y-3.31561
G01 X-3.79975 Y-3.30702
G01 X-3.80000 Y-3.30047
G01 X-3.79984 Y-3.29449
G01 X-3.79940 Y-3.28909
G01 X-3.79801 Y-3.28008
G01 X-3.79676 Y-3.27458
G01 X-3.79529 Y-3.26935
G01 X-3.79353 Y-3.26406
G01 X-3.79127 Y-3.25802
G01 X-3.78911 Y-3.25082
G01 X-3.78714 Y-3.24178
G01 X-3.78518 Y-3.22892
G01 X-3.79889 Y-3.22509
G01 X-3.81260 Y-3.22382
G01 X-3.88740 Y-3.22382
G01 X-3.89788 Y-3.22456
G01 X-3.90836 Y-3.22680
G01 X-3.91884 Y-3.23053
G01 X-3.92932 Y-3.23575
G01 X-3.97068 Y-3.23575
G01 X-3.98116 Y-3.23053
G01 X-3.99164 Y-3.22680
G01 X-4.00212 Y-3.22456
G01 X-4.01260 Y-3.22382
G01 X-4.04280 Y-3.22382
G01 X-4.04817 Y-3.22366
G01 X-4.05558 Y-3.22303
G01 X-4.06260 Y-3.22194
G01 X-4.06773 Y-3.22085
G01 X-4.07627 Y-3.21848
G01 X-4.08133 Y-3.21674
G01 X-4.08740 Y-3.21436
G01 X-4.10145 Y-3.20966
G01 X-4.11707 Y-3.20653
G01 X-4.12326 Y-3.20279
G01 X-4.13289 Y-3.19753
G01 X-4.14289 Y-3.19268
G01 X-4.15007 Y-3.18958
G01 X-4.16298 Y-3.18466
G01 X-4.16763 Y-3.18309
G01 X-4.18219 Y-3.17874
G01 X-4.19378 Y-3.17587
G01 X-4.19889 Y-3.17476
G01 X-4.21310 Y-3.17210
G01 X-4.21848 Y-3.17125
G01 X-4.23523 Y-3.16914
G01 X-4.24090 Y-3.16859
G01 X-4.26285 Y-3.16717
G01 X-4.26972 Y-3.18291
G01 X-4.33313 Y-3.24632
G01 X-4.34132 Y-3.25400
G01 X-4.35214 Y-3.26294
G01 X-4.35457 Y-3.26476
G01 X-4.36416 Y-3.27122
G01 X-4.37286 Y-3.27613
G01 X-4.37932 Y-3.27917
G01 X-4.38893 Y-3.28315
G01 X-4.39421 Y-3.28506
G01 X-4.40116 Y-3.28701
G01 X-4.40824 Y-3.28838
G01 X-4.41446 Y-3.28905
G01 X-4.41938 Y-3.28924
G01 X-4.44536 Y-3.28924
G01 X-4.44568 Y-3.28936
G01 X-4.44897 Y-3.28938
G01 X-4.67385 Y-3.28938
G01 X-4.73678 Y-3.31210
G01 X-4.78742 Y-3.33221
G01 X-4.82884 Y-3.35036
G01 X-4.86498 Y-3.36735
G01 X-4.90000 Y-3.38473
G01 X-4.86498 Y-3.36735
G01 X-4.82884 Y-3.35036
G01 X-4.78742 Y-3.33221
G01 X-4.73678 Y-3.31210
G01 X-4.67385 Y-3.28938
G01 X-4.65705 Y-3.27788
G01 X-4.61948 Y-3.25165
G01 X-4.60322 Y-3.24004
G01 X-4.58847 Y-3.22917
G01 X-4.58143 Y-3.22426
G01 X-4.57474 Y-3.22011
G01 X-4.56823 Y-3.21654
G01 X-4.56240 Y-3.21374
G01 X-4.55672 Y-3.21137
G01 X-4.55470 Y-3.21063
G01 X-4.45113 Y-3.21062
G01 X-4.44742 Y-3.20279
G01 X-4.44424 Y-3.19398
G01 X-4.44269 Y-3.18813
G01 X-4.44186 Y-3.18388
G01 X-4.44109 Y-3.17794
G01 X-4.44080 Y-3.17060
G01 X-4.44106 Y-3.16504
G01 X-4.44153 Y-3.16079
G01 X-4.44302 Y-3.15301
G01 X-4.44482 Y-3.14669
G01 X-4.44719 Y-3.14028
G01 X-4.44907 Y-3.13603
G01 X-4.45244 Y-3.12945
G01 X-4.45682 Y-3.12221
G01 X-4.46250 Y-3.11418
G01 X-4.46628 Y-3.10941
G01 X-4.47375 Y-3.10090
G01 X-4.49868 Y-3.07583
G01 X-4.52305 Y-3.06573
G01 X-4.53197 Y-3.06232
G01 X-4.54635 Y-3.05763
G01 X-4.55287 Y-3.05579
G01 X-4.58872 Y-3.01992
G01 X-4.60424 Y-3.02135
G01 X-4.61471 Y-3.02195
G01 X-4.62848 Y-3.02223
G01 X-4.64023 Y-3.02196
G01 X-4.65476 Y-3.02084
G01 X-4.66568 Y-3.01935
G01 X-4.67574 Y-3.01741
G01 X-4.68464 Y-3.01516
G01 X-4.69260 Y-3.01265
G01 X-4.70200 Y-3.00899
G01 X-4.70627 Y-3.00705
G01 X-4.71178 Y-3.00422
G01 X-4.71862 Y-3.00017
G01 X-4.72356 Y-2.99681
G01 X-4.72710 Y-2.99413
G01 X-4.73255 Y-2.98952
G01 X-4.73667 Y-2.98556
G01 X-4.73969 Y-2.98236
G01 X-4.74314 Y-2.97835
G01 X-4.74638 Y-2.97413
G01 X-4.74772 Y-2.96788
G01 X-4.74852 Y-2.96273
G01 X-4.74917 Y-2.95594
G01 X-4.74933 Y-2.95165
G01 X-4.74921 Y-2.94489
G01 X-4.74892 Y-2.94086
G01 X-4.74841 Y-2.93643
G01 X-4.74723 Y-2.92956
G01 X-4.74639 Y-2.92586
G01 X-4.74554 Y-2.92471
G01 X-4.74085 Y-2.91894
G01 X-4.73780 Y-2.91560
G01 X-4.73383 Y-2.91166
G01 X-4.72870 Y-2.90715
G01 X-4.72323 Y-2.90296
G01 X-4.71556 Y-2.89794
G01 X-4.71049 Y-2.89509
G01 X-4.70335 Y-2.89160
G01 X-4.69278 Y-2.88740
G01 X-4.63345 Y-2.82811
G01 X-4.62363 Y-2.82405
G01 X-4.62017 Y-2.82280
G01 X-4.61525 Y-2.82137
G01 X-4.61088 Y-2.82043
G01 X-4.60420 Y-2.81961
G01 X-4.58983 Y-2.81948
G01 X-4.58271 Y-2.81568
G01 X-4.57559 Y-2.81441
G01 X-4.52441 Y-2.81441
G01 X-4.51941 Y-2.81503
G01 X-4.51441 Y-2.81691
G01 X-4.50941 Y-2.82003
G01 X-4.50441 Y-2.82441
G01 X-4.49875 Y-2.83007
G01 X-4.49997 Y-2.83737
G01 X-4.50065 Y-2.84503
G01 X-4.50074 Y-2.85283
G01 X-4.50043 Y-2.85826
G01 X-4.49982 Y-2.86374
G01 X-4.49888 Y-2.86932
G01 X-4.49616 Y-2.88107
G01 X-4.49428 Y-2.89192
G01 X-4.49040 Y-2.89567
G01 X-4.48564 Y-2.89982
G01 X-4.48036 Y-2.90396
G01 X-4.47713 Y-2.90628
G01 X-4.46875 Y-2.91162
G01 X-4.46295 Y-2.91482
G01 X-4.45869 Y-2.91693
G01 X-4.44977 Y-2.92083
G01 X-4.43931 Y-2.92459
G01 X-4.42791 Y-2.92783
G01 X-4.42379 Y-2.92882
G01 X-4.41044 Y-2.93139
G01 X-4.40566 Y-2.93337
G01 X-4.40203 Y-2.94368
G01 X-4.39938 Y-2.95033
G01 X-4.39479 Y-2.96059
G01 X-4.39026 Y-2.96944
G01 X-4.38823 Y-2.97306
G01 X-4.38331 Y-2.98117
G01 X-4.38035 Y-2.98561
G01 X-4.37472 Y-2.99337
G01 X-4.36357 Y-3.00740
G01 X-4.35460 Y-3.01942
G01 X-4.34807 Y-3.02868
G01 X-4.33601 Y-3.04659
G01 X-4.33289 Y-3.05099
G01 X-4.32671 Y-3.05916
G01 X-4.32286 Y-3.06395
G01 X-4.31441 Y-3.07384
G01 X-4.31006 Y-3.07864
G01 X-4.29883 Y-3.09025
G01 X-4.29192 Y-3.09698
G01 X-4.26285 Y-3.16717
G01 X-4.24090 Y-3.16859
G01 X-4.23523 Y-3.16914
G01 X-4.21848 Y-3.17125
G01 X-4.21310 Y-3.17210
G01 X-4.19889 Y-3.17476
G01 X-4.19378 Y-3.17587
G01 X-4.18219 Y-3.17874
G01 X-4.16763 Y-3.18309
G01 X-4.16298 Y-3.18466
G01 X-4.15007 Y-3.18958
G01 X-4.14289 Y-3.19268
G01 X-4.13289 Y-3.19753
G01 X-4.12326 Y-3.20279
G01 X-4.11707 Y-3.20653
G01 X-4.10145 Y-3.20966
G01 X-4.08740 Y-3.21436
G01 X-4.08133 Y-3.21674
G01 X-4.07627 Y-3.21848
G01 X-4.06773 Y-3.22085
G01 X-4.06260 Y-3.22194
G01 X-4.05558 Y-3.22303
G01 X-4.04817 Y-3.22366
G01 X-4.04280 Y-3.22382
G01 X-4.01260 Y-3.22382
G01 X-4.00212 Y-3.22456
G01 X-3.99164 Y-3.22680
G01 X-3.98116 Y-3.23053
G01 X-3.97068 Y-3.23575
G01 X-3.92932 Y-3.23575
G01 X-3.91884 Y-3.23053
G01 X-3.90836 Y-3.22680
G01 X-3.89788 Y-3.22456
G01 X-3.88740 Y-3.22382
G01 X-3.81260 Y-3.22382
G01 X-3.79889 Y-3.22509
G01 X-3.78518 Y-3.22892
G01 X-3.77367 Y-3.22668
G01 X-3.76211 Y-3.22530
G01 X-3.75099 Y-3.22482
G01 X-3.74315 Y-3.22497
G01 X-3.73605 Y-3.22546
G01 X-3.72631 Y-3.22668
G01 X-3.71970 Y-3.22786
G01 X-3.70929 Y-3.23032
G01 X-3.70227 Y-3.23239
G01 X-3.69116 Y-3.23633
G01 X-3.68271 Y-3.23987
G01 X-3.67460 Y-3.24371
G01 X-3.66548 Y-3.24856
G01 X-3.65734 Y-3.25000
G01 X-3.51212 Y-3.25000
G01 X-3.50109 Y-3.26038
G01 X-3.49684 Y-3.26402
G01 X-3.48973 Y-3.26964
G01 X-3.48548 Y-3.27274
G01 X-3.47959 Y-3.27671
G01 X-3.47533 Y-3.27933
G01 X-3.47036 Y-3.28215
G01 X-3.46185 Y-3.28633
G01 X-3.45432 Y-3.28937
G01 X-3.34531 Y-3.28937
G01 X-3.33859 Y-3.29205
G01 X-3.33291 Y-3.29471
G01 X-3.32718 Y-3.29776
G01 X-3.32251 Y-3.30052
G01 X-3.32718 Y-3.29776
G01 X-3.33291 Y-3.29471
G01 X-3.33859 Y-3.29205
G01 X-3.34531 Y-3.28937
G01 X-3.45432 Y-3.28937
G01 X-3.46185 Y-3.28633
G01 X-3.47036 Y-3.28215
G01 X-3.47533 Y-3.27933
G01 X-3.47959 Y-3.27671
G01 X-3.48548 Y-3.27274
G01 X-3.48973 Y-3.26964
G01 X-3.49684 Y-3.26402
G01 X-3.50109 Y-3.26038
G01 X-3.51212 Y-3.25000
G01 X-3.50142 Y-3.23990
G01 X-3.49716 Y-3.23625
G01 X-3.49001 Y-3.23057
G01 X-3.48576 Y-3.22745
G01 X-3.47984 Y-3.22345
G01 X-3.47072 Y-3.21805
G01 X-3.46249 Y-3.21396
G01 X-3.45432 Y-3.21064
G01 X-3.34532 Y-3.21061
G01 X-3.33799 Y-3.20767
G01 X-3.33743 Y-3.20740
G01 X-3.33479 Y-3.20451
G01 X-3.32936 Y-3.19778
G01 X-3.32419 Y-3.19023
G01 X-3.32035 Y-3.18370
G01 X-3.31710 Y-3.17731
G01 X-3.31405 Y-3.17035
G01 X-3.31120 Y-3.16270
G01 X-3.30902 Y-3.15576
G01 X-3.30986 Y-3.14936
G01 X-3.31140 Y-3.14107
G01 X-3.31439 Y-3.12941
G01 X-3.31729 Y-3.12062
G01 X-3.31959 Y-3.11461
G01 X-3.32531 Y-3.10187
G01 X-3.33069 Y-3.09172
G01 X-3.33541 Y-3.08379
G01 X-3.34355 Y-3.07158
G01 X-3.35312 Y-3.05891
G01 X-3.35566 Y-3.05578
G01 X-3.36781 Y-3.04186
G01 X-3.37765 Y-3.03157
G01 X-3.38319 Y-3.02846
G01 X-3.39466 Y-3.02161
G01 X-3.39866 Y-3.01909
G01 X-3.41278 Y-3.00965
G01 X-3.44461 Y-3.00979
G01 X-3.45343 Y-2.98070
G01 X-3.45957 Y-2.95429
G01 X-3.45838 Y-2.92213
G01 X-3.45772 Y-2.91139
G01 X-3.45664 Y-2.89933
G01 X-3.45560 Y-2.89107
G01 X-3.45454 Y-2.88460
G01 X-3.45071 Y-2.86714
G01 X-3.44967 Y-2.85943
G01 X-3.44930 Y-2.85400
G01 X-3.44932 Y-2.84564
G01 X-3.44955 Y-2.84203
G01 X-3.45028 Y-2.83561
G01 X-3.45141 Y-2.82927
G01 X-3.45312 Y-2.82217
G01 X-3.45471 Y-2.81443
G01 X-3.45312 Y-2.82217
G01 X-3.45141 Y-2.82927
G01 X-3.45028 Y-2.83561
G01 X-3.44955 Y-2.84203
G01 X-3.44932 Y-2.84564
G01 X-3.44930 Y-2.85400
G01 X-3.44967 Y-2.85943
G01 X-3.45071 Y-2.86714
G01 X-3.45454 Y-2.88460
G01 X-3.45560 Y-2.89107
G01 X-3.45664 Y-2.89933
G01 X-3.45772 Y-2.91139
G01 X-3.45838 Y-2.92213
G01 X-3.45957 Y-2.95429
G01 X-3.45343 Y-2.98070
G01 X-3.44461 Y-3.00979
G01 X-3.45820 Y-3.01698
G01 X-3.46992 Y-3.02384
G01 X-3.48047 Y-3.03060
G01 X-3.50688 Y-3.04154
G01 X-3.51430 Y-3.04448
G01 X-3.53036 Y-3.05001
G01 X-3.54789 Y-3.05471
G01 X-3.56096 Y-3.05731
G01 X-3.56653 Y-3.05820
G01 X-3.57520 Y-3.06099
G01 X-3.58561 Y-3.06392
G01 X-3.59120 Y-3.06533
G01 X-3.60437 Y-3.06817
G01 X-3.61376 Y-3.06974
G01 X-3.62264 Y-3.07089
G01 X-3.62907 Y-3.07152
G01 X-3.63905 Y-3.07217
G01 X-3.64860 Y-3.07242
G01 X-3.66029 Y-3.07218
G01 X-3.66588 Y-3.07188
G01 X-3.67784 Y-3.07081
G01 X-3.68343 Y-3.07011
G01 X-3.69572 Y-3.06812
G01 X-3.70132 Y-3.06701
G01 X-3.71413 Y-3.06399
G01 X-3.72642 Y-3.06050
G01 X-3.99693 Y-3.06050
G01 X-4.00542 Y-3.05671
G01 X-4.01961 Y-3.04943
G01 X-4.02216 Y-3.04798
G01 X-4.03643 Y-3.03892
G01 X-4.03911 Y-3.03702
G01 X-4.05053 Y-3.02819
G01 X-4.05754 Y-3.02200
G01 X-4.06278 Y-3.01698
G01 X-4.19612 Y-2.88363
G01 X-4.21140 Y-2.87730
G01 X-4.24042 Y-2.84832
G01 X-4.24718 Y-2.84209
G01 X-4.25317 Y-2.83722
G01 X-4.25942 Y-2.83279
G01 X-4.26266 Y-2.83073
G01 X-4.26776 Y-2.82783
G01 X-4.27100 Y-2.82621
G01 X-4.27529 Y-2.82433
G01 X-4.27853 Y-2.82311
G01 X-4.28359 Y-2.82153
G01 X-4.29085 Y-2.82002
G01 X-4.29562 Y-2.81950
G01 X-4.29959 Y-2.81933
G01 X-4.42517 Y-2.81933
G01 X-4.43239 Y-2.81700
G01 X-4.43979 Y-2.81539
G01 X-4.44509 Y-2.81471
G01 X-4.45228 Y-2.81442
G01 X-4.45762 Y-2.81468
G01 X-4.46324 Y-2.81538
G01 X-4.46899 Y-2.81655
G01 X-4.47494 Y-2.81826
G01 X-4.48117 Y-2.82058
G01 X-4.48779 Y-2.82364
G01 X-4.49494 Y-2.82764
G01 X-4.49875 Y-2.83007

G04 P0 ( dwell for no time -- G64 should not smooth over this point )
G00 Z1.000000 ( retract )

M5 ( Spindle off. )
G04 P5.000000
M9 ( Coolant off. )
M2 ( Program end. )

