( pcb2gcode 3.0.1 )
( Software-independent Gcode )

G94 ( Inches per minute feed rate. )
G20 ( Units == INCHES. )

G90 ( Absolute coordinates. )
G00 S12000 ( RPM spindle speed. )
G64 P0.00040 ( set maximum deviation from commanded toolpath )
G01 F360.00000 ( Feedrate. )


G00 Z1.00000 (Retract to tool change height)
T1
M5      (Spindle stop.)
G04 P1.00000 (Wait for spindle to stop)
(MSG, Change tool bit to mill diameter 0.00787in)
M6      (Tool change.)
M0      (Temporary machine stop.)
M3 ( Spindle on clockwise. )
G04 P1.00000 (Wait for spindle to get up to speed)
G04 P0 ( dwell for no time -- G64 should not smooth over this point )
G00 Z0.08000 ( retract )

G00 X-3.05000 Y-3.60000 ( rapid move to begin. )
G01 F180.00000
( Mill infeed pass 1/1 )
G01 Z-0.04000
G04 P0 ( dwell for no time -- G64 should not smooth over this point )
G01 F360.00000
G01 X-3.05000 Y-3.60000
G01 X-4.90000 Y-3.60000
G01 X-4.90000 Y-3.38473
G01 X-4.86498 Y-3.36735
G01 X-4.82884 Y-3.35036
G01 X-4.78742 Y-3.33221
G01 X-4.73678 Y-3.31210
G01 X-4.67385 Y-3.28938
G01 X-4.65705 Y-3.27788
G01 X-4.61948 Y-3.25165
G01 X-4.60322 Y-3.24004
G01 X-4.58847 Y-3.22917
G01 X-4.58143 Y-3.22426
G01 X-4.57161 Y-3.21834
G01 X-4.56531 Y-3.21509
G01 X-4.55949 Y-3.21248
G01 X-4.55470 Y-3.21063
G01 X-4.45113 Y-3.21062
G01 X-4.44933 Y-3.20705
G01 X-4.44642 Y-3.20030
G01 X-4.44424 Y-3.19398
G01 X-4.44269 Y-3.18813
G01 X-4.44186 Y-3.18388
G01 X-4.44109 Y-3.17794
G01 X-4.44080 Y-3.17060
G01 X-4.44106 Y-3.16504
G01 X-4.44153 Y-3.16079
G01 X-4.44259 Y-3.15486
G01 X-4.44482 Y-3.14669
G01 X-4.44719 Y-3.14028
G01 X-4.45042 Y-3.13325
G01 X-4.45430 Y-3.12624
G01 X-4.45955 Y-3.11821
G01 X-4.46250 Y-3.11418
G01 X-4.46628 Y-3.10941
G01 X-4.46951 Y-3.10560
G01 X-4.47621 Y-3.09832
G01 X-4.49868 Y-3.07583
G01 X-4.52305 Y-3.06573
G01 X-4.53197 Y-3.06232
G01 X-4.54635 Y-3.05763
G01 X-4.55287 Y-3.05579
G01 X-4.58872 Y-3.01992
G01 X-4.60424 Y-3.02135
G01 X-4.61471 Y-3.02195
G01 X-4.62848 Y-3.02223
G01 X-4.64023 Y-3.02196
G01 X-4.65476 Y-3.02084
G01 X-4.66568 Y-3.01935
G01 X-4.67574 Y-3.01741
G01 X-4.68464 Y-3.01516
G01 X-4.69260 Y-3.01265
G01 X-4.70200 Y-3.00899
G01 X-4.70627 Y-3.00705
G01 X-4.71178 Y-3.00422
G01 X-4.71862 Y-3.00017
G01 X-4.72356 Y-2.99681
G01 X-4.72710 Y-2.99413
G01 X-4.73255 Y-2.98952
G01 X-4.73667 Y-2.98556
G01 X-4.73969 Y-2.98236
G01 X-4.74314 Y-2.97835
G01 X-4.74638 Y-2.97413
G01 X-4.74792 Y-2.96677
G01 X-4.74892 Y-2.95914
G01 X-4.74921 Y-2.95516
G01 X-4.74934 Y-2.94885
G01 X-4.74892 Y-2.94086
G01 X-4.74792 Y-2.93323
G01 X-4.74639 Y-2.92586
G01 X-4.74146 Y-2.91963
G01 X-4.73780 Y-2.91560
G01 X-4.73264 Y-2.91056
G01 X-4.72742 Y-2.90612
G01 X-4.72178 Y-2.90193
G01 X-4.71556 Y-2.89794
G01 X-4.70833 Y-2.89397
G01 X-4.70068 Y-2.89044
G01 X-4.69278 Y-2.88740
G01 X-4.63345 Y-2.82811
G01 X-4.62363 Y-2.82405
G01 X-4.61774 Y-2.82204
G01 X-4.61322 Y-2.82089
G01 X-4.60623 Y-2.81978
G01 X-4.60167 Y-2.81950
G01 X-4.58983 Y-2.81948
G01 X-4.58271 Y-2.81568
G01 X-4.57559 Y-2.81441
G01 X-4.52441 Y-2.81441
G01 X-4.51941 Y-2.81503
G01 X-4.51441 Y-2.81691
G01 X-4.50941 Y-2.82003
G01 X-4.50441 Y-2.82441
G01 X-4.49875 Y-2.83007
G01 X-4.49997 Y-2.83737
G01 X-4.50065 Y-2.84503
G01 X-4.50074 Y-2.85283
G01 X-4.50043 Y-2.85826
G01 X-4.49982 Y-2.86374
G01 X-4.49888 Y-2.86932
G01 X-4.49616 Y-2.88107
G01 X-4.49428 Y-2.89192
G01 X-4.49040 Y-2.89567
G01 X-4.48564 Y-2.89982
G01 X-4.48036 Y-2.90396
G01 X-4.47713 Y-2.90628
G01 X-4.46875 Y-2.91162
G01 X-4.46295 Y-2.91482
G01 X-4.45869 Y-2.91693
G01 X-4.44977 Y-2.92083
G01 X-4.43931 Y-2.92459
G01 X-4.42791 Y-2.92783
G01 X-4.42379 Y-2.92882
G01 X-4.41044 Y-2.93139
G01 X-4.40566 Y-2.93337
G01 X-4.40203 Y-2.94368
G01 X-4.39938 Y-2.95033
G01 X-4.39479 Y-2.96059
G01 X-4.39026 Y-2.96944
G01 X-4.38823 Y-2.97306
G01 X-4.38331 Y-2.98117
G01 X-4.38035 Y-2.98561
G01 X-4.37472 Y-2.99337
G01 X-4.36357 Y-3.00740
G01 X-4.35460 Y-3.01942
G01 X-4.34807 Y-3.02868
G01 X-4.33601 Y-3.04659
G01 X-4.33289 Y-3.05099
G01 X-4.32671 Y-3.05916
G01 X-4.32286 Y-3.06395
G01 X-4.31441 Y-3.07384
G01 X-4.31006 Y-3.07864
G01 X-4.29883 Y-3.09025
G01 X-4.29192 Y-3.09698
G01 X-4.26285 Y-3.16717
G01 X-4.24090 Y-3.16859
G01 X-4.23523 Y-3.16914
G01 X-4.21848 Y-3.17125
G01 X-4.21310 Y-3.17210
G01 X-4.19889 Y-3.17476
G01 X-4.19378 Y-3.17587
G01 X-4.18219 Y-3.17874
G01 X-4.16763 Y-3.18309
G01 X-4.16298 Y-3.18466
G01 X-4.15007 Y-3.18958
G01 X-4.14289 Y-3.19268
G01 X-4.13289 Y-3.19753
G01 X-4.12326 Y-3.20279
G01 X-4.11707 Y-3.20653
G01 X-4.11571 Y-3.22141
G01 X-4.11470 Y-3.22993
G01 X-4.11300 Y-3.24101
G01 X-4.11119 Y-3.24961
G01 X-4.10991 Y-3.25435
G01 X-4.10495 Y-3.26857
G01 X-4.10377 Y-3.27257
G01 X-4.10246 Y-3.27781
G01 X-4.10140 Y-3.28334
G01 X-4.10054 Y-3.28969
G01 X-4.10013 Y-3.29505
G01 X-4.10001 Y-3.30054
G01 X-4.10015 Y-3.30534
G01 X-4.10065 Y-3.31132
G01 X-4.10150 Y-3.31729
G01 X-4.10274 Y-3.32336
G01 X-4.10520 Y-3.33223
G01 X-4.10925 Y-3.34352
G01 X-4.11022 Y-3.34670
G01 X-4.11172 Y-3.35257
G01 X-4.11386 Y-3.36411
G01 X-4.11501 Y-3.37243
G01 X-4.11607 Y-3.38184
G01 X-4.11752 Y-3.39859
G01 X-4.11839 Y-3.41080
G01 X-4.12059 Y-3.44991
G01 X-4.12151 Y-3.46950
G01 X-4.12268 Y-3.49978
G01 X-4.12032 Y-3.54704
G01 X-4.11744 Y-3.60000
G01 X-4.12032 Y-3.54704
G01 X-4.12268 Y-3.49978
G01 X-4.12151 Y-3.46950
G01 X-4.12059 Y-3.44991
G01 X-4.11839 Y-3.41080
G01 X-4.11752 Y-3.39859
G01 X-4.11607 Y-3.38184
G01 X-4.11501 Y-3.37243
G01 X-4.11386 Y-3.36411
G01 X-4.11172 Y-3.35257
G01 X-4.11022 Y-3.34670
G01 X-4.10925 Y-3.34352
G01 X-4.10520 Y-3.33223
G01 X-4.10274 Y-3.32336
G01 X-4.10150 Y-3.31729
G01 X-4.10065 Y-3.31132
G01 X-4.10015 Y-3.30534
G01 X-4.10001 Y-3.30054
G01 X-4.10394 Y-3.30048
G01 X-4.10409 Y-3.30517
G01 X-4.10456 Y-3.31090
G01 X-4.10539 Y-3.31664
G01 X-4.10657 Y-3.32249
G01 X-4.10895 Y-3.33101
G01 X-4.11296 Y-3.34219
G01 X-4.11399 Y-3.34555
G01 X-4.11553 Y-3.35161
G01 X-4.11658 Y-3.35668
G01 X-4.11776 Y-3.36357
G01 X-4.11892 Y-3.37188
G01 X-4.11998 Y-3.38140
G01 X-4.12145 Y-3.39831
G01 X-4.12232 Y-3.41052
G01 X-4.12452 Y-3.44973
G01 X-4.12545 Y-3.46932
G01 X-4.12661 Y-3.49998
G01 X-4.12425 Y-3.54725
G01 X-4.12159 Y-3.59606
G01 X-4.12030 Y-3.59729
G01 X-4.12159 Y-3.59606
G01 X-4.89606 Y-3.59606
G01 X-4.89722 Y-3.59722
G01 X-4.89606 Y-3.59606
G01 X-4.89606 Y-3.38716
G01 X-4.89666 Y-3.38679
G01 X-4.89606 Y-3.38716
G01 X-4.86329 Y-3.37091
G01 X-4.82721 Y-3.35394
G01 X-4.78593 Y-3.33585
G01 X-4.73538 Y-3.31578
G01 X-4.67319 Y-3.29326
G01 X-4.44894 Y-3.29331
G01 X-4.44478 Y-3.29318
G01 X-4.41938 Y-3.29318
G01 X-4.41410 Y-3.29297
G01 X-4.40756 Y-3.29226
G01 X-4.40031 Y-3.29086
G01 X-4.39287 Y-3.28876
G01 X-4.38742 Y-3.28678
G01 X-4.37765 Y-3.28273
G01 X-4.37103 Y-3.27961
G01 X-4.36219 Y-3.27463
G01 X-4.35949 Y-3.27293
G01 X-4.34979 Y-3.26610
G01 X-4.33873 Y-3.25696
G01 X-4.33035 Y-3.24910
G01 X-4.26694 Y-3.18569
G01 X-4.26611 Y-3.18447
G01 X-4.26038 Y-3.17123
G01 X-4.26081 Y-3.17050
G01 X-4.26038 Y-3.17123
G01 X-4.24123 Y-3.17251
G01 X-4.23567 Y-3.17305
G01 X-4.21903 Y-3.17515
G01 X-4.21377 Y-3.17598
G01 X-4.19967 Y-3.17861
G01 X-4.18319 Y-3.18254
G01 X-4.16884 Y-3.18683
G01 X-4.16430 Y-3.18837
G01 X-4.15158 Y-3.19321
G01 X-4.14111 Y-3.19785
G01 X-4.13106 Y-3.20294
G01 X-4.12083 Y-3.20884
G01 X-4.12044 Y-3.20857
G01 X-4.12083 Y-3.20884
G01 X-4.11962 Y-3.22187
G01 X-4.11860 Y-3.23049
G01 X-4.11686 Y-3.24177
G01 X-4.11503 Y-3.25049
G01 X-4.11371 Y-3.25538
G01 X-4.10870 Y-3.26973
G01 X-4.10630 Y-3.27868
G01 X-4.10527 Y-3.28401
G01 X-4.10445 Y-3.29006
G01 X-4.10406 Y-3.29522
G01 X-4.10394 Y-3.30048
G01 X-4.10001 Y-3.30054
G01 X-4.10020 Y-3.29369
G01 X-4.10117 Y-3.28475
G01 X-4.10246 Y-3.27781
G01 X-4.10377 Y-3.27257
G01 X-4.10553 Y-3.26676
G01 X-4.10991 Y-3.25435
G01 X-4.11201 Y-3.24604
G01 X-4.11384 Y-3.23598
G01 X-4.11470 Y-3.22993
G01 X-4.11571 Y-3.22141
G01 X-4.11707 Y-3.20653
G01 X-4.10145 Y-3.20966
G01 X-4.08740 Y-3.21436
G01 X-4.08133 Y-3.21674
G01 X-4.07463 Y-3.21899
G01 X-4.06773 Y-3.22085
G01 X-4.06054 Y-3.22231
G01 X-4.05352 Y-3.22326
G01 X-4.04570 Y-3.22376
G01 X-4.01260 Y-3.22382
G01 X-4.00212 Y-3.22456
G01 X-3.99164 Y-3.22680
G01 X-3.98116 Y-3.23053
G01 X-3.97068 Y-3.23575
G01 X-3.92932 Y-3.23575
G01 X-3.91884 Y-3.23053
G01 X-3.90836 Y-3.22680
G01 X-3.89788 Y-3.22456
G01 X-3.88740 Y-3.22382
G01 X-3.81260 Y-3.22382
G01 X-3.79889 Y-3.22509
G01 X-3.78518 Y-3.22892
G01 X-3.77367 Y-3.22668
G01 X-3.76211 Y-3.22530
G01 X-3.75099 Y-3.22482
G01 X-3.74315 Y-3.22497
G01 X-3.73605 Y-3.22546
G01 X-3.72631 Y-3.22668
G01 X-3.71970 Y-3.22786
G01 X-3.70929 Y-3.23032
G01 X-3.70227 Y-3.23239
G01 X-3.69116 Y-3.23633
G01 X-3.68271 Y-3.23987
G01 X-3.67460 Y-3.24371
G01 X-3.66548 Y-3.24856
G01 X-3.65734 Y-3.25000
G01 X-3.51212 Y-3.25000
G01 X-3.50109 Y-3.26038
G01 X-3.49684 Y-3.26402
G01 X-3.48973 Y-3.26964
G01 X-3.48548 Y-3.27274
G01 X-3.47959 Y-3.27671
G01 X-3.47533 Y-3.27933
G01 X-3.47036 Y-3.28215
G01 X-3.46185 Y-3.28633
G01 X-3.45432 Y-3.28937
G01 X-3.34531 Y-3.28937
G01 X-3.33859 Y-3.29205
G01 X-3.33291 Y-3.29471
G01 X-3.32718 Y-3.29776
G01 X-3.32251 Y-3.30052
G01 X-3.32395 Y-3.29963
G01 X-3.32598 Y-3.30213
G01 X-3.32684 Y-3.30251
G01 X-3.32871 Y-3.31135
G01 X-3.33025 Y-3.31697
G01 X-3.33192 Y-3.32210
G01 X-3.33480 Y-3.32936
G01 X-3.33740 Y-3.33478
G01 X-3.34070 Y-3.34058
G01 X-3.34348 Y-3.34477
G01 X-3.34712 Y-3.34952
G01 X-3.35023 Y-3.35305
G01 X-3.35480 Y-3.35755
G01 X-3.35838 Y-3.36063
G01 X-3.36321 Y-3.36422
G01 X-3.36315 Y-3.36436
G01 X-3.36321 Y-3.36422
G01 X-3.36354 Y-3.36444
G01 X-3.36915 Y-3.36532
G01 X-3.37620 Y-3.36583
G01 X-3.42173 Y-3.36586
G01 X-3.42797 Y-3.36560
G01 X-3.43302 Y-3.36503
G01 X-3.43957 Y-3.36380
G01 X-3.44517 Y-3.36232
G01 X-3.45138 Y-3.36020
G01 X-3.45275 Y-3.35996
G01 X-3.67237 Y-3.35993
G01 X-3.67735 Y-3.35966
G01 X-3.68182 Y-3.35911
G01 X-3.71874 Y-3.35260
G01 X-3.72036 Y-3.35265
G01 X-3.72872 Y-3.35447
G01 X-3.73635 Y-3.35560
G01 X-3.74457 Y-3.35627
G01 X-3.75130 Y-3.35640
G01 X-3.75840 Y-3.35610
G01 X-3.76524 Y-3.35540
G01 X-3.77033 Y-3.35462
G01 X-3.77562 Y-3.35360
G01 X-3.78457 Y-3.35129
G01 X-3.78498 Y-3.35173
G01 X-3.78457 Y-3.35129
G01 X-3.78562 Y-3.34699
G01 X-3.78717 Y-3.34181
G01 X-3.79126 Y-3.33036
G01 X-3.79366 Y-3.32145
G01 X-3.79489 Y-3.31499
G01 X-3.79550 Y-3.31039
G01 X-3.79597 Y-3.30404
G01 X-3.79605 Y-3.29945
G01 X-3.79591 Y-3.29474
G01 X-3.79549 Y-3.28954
G01 X-3.79414 Y-3.28083
G01 X-3.79294 Y-3.27553
G01 X-3.79153 Y-3.27049
G01 X-3.78982 Y-3.26538
G01 X-3.78753 Y-3.25925
G01 X-3.78528 Y-3.25174
G01 X-3.78328 Y-3.24256
G01 X-3.78236 Y-3.23719
G01 X-3.78164 Y-3.23217
G01 X-3.78225 Y-3.23155
G01 X-3.78164 Y-3.23217
G01 X-3.77306 Y-3.23057
G01 X-3.76530 Y-3.22955
G01 X-3.75822 Y-3.22898
G01 X-3.75097 Y-3.22875
G01 X-3.74332 Y-3.22890
G01 X-3.73642 Y-3.22938
G01 X-3.73004 Y-3.23010
G01 X-3.72360 Y-3.23113
G01 X-3.71702 Y-3.23246
G01 X-3.71031 Y-3.23412
G01 X-3.70033 Y-3.23716
G01 X-3.69260 Y-3.23999
G01 X-3.68433 Y-3.24346
G01 X-3.67638 Y-3.24723
G01 X-3.66679 Y-3.25227
G01 X-3.65734 Y-3.25394
G01 X-3.51375 Y-3.25394
G01 X-3.51365 Y-3.25367
G01 X-3.51375 Y-3.25394
G01 X-3.51250 Y-3.25518
G01 X-3.50365 Y-3.26338
G01 X-3.49928 Y-3.26710
G01 X-3.49217 Y-3.27273
G01 X-3.48768 Y-3.27601
G01 X-3.48165 Y-3.28006
G01 X-3.47727 Y-3.28276
G01 X-3.47216 Y-3.28565
G01 X-3.46338 Y-3.28996
G01 X-3.45900 Y-3.29180
G01 X-3.45498 Y-3.29325
G01 X-3.42529 Y-3.29334
G01 X-3.34598 Y-3.29321
G01 X-3.34017 Y-3.29565
G01 X-3.33468 Y-3.29823
G01 X-3.32684 Y-3.30251
G01 X-3.32598 Y-3.30213
G01 X-3.32395 Y-3.29963
G01 X-3.32986 Y-3.29628
G01 X-3.33583 Y-3.29330
G01 X-3.34127 Y-3.29091
G01 X-3.34531 Y-3.28937
G01 X-3.45432 Y-3.28937
G01 X-3.46185 Y-3.28633
G01 X-3.47036 Y-3.28215
G01 X-3.47533 Y-3.27933
G01 X-3.47959 Y-3.27671
G01 X-3.48548 Y-3.27274
G01 X-3.48973 Y-3.26964
G01 X-3.49684 Y-3.26402
G01 X-3.50109 Y-3.26038
G01 X-3.51212 Y-3.25000
G01 X-3.50142 Y-3.23990
G01 X-3.49716 Y-3.23625
G01 X-3.49001 Y-3.23057
G01 X-3.48576 Y-3.22745
G01 X-3.47984 Y-3.22345
G01 X-3.47072 Y-3.21805
G01 X-3.46249 Y-3.21396
G01 X-3.45432 Y-3.21064
G01 X-3.34532 Y-3.21061
G01 X-3.33799 Y-3.20767
G01 X-3.33743 Y-3.20740
G01 X-3.33479 Y-3.20451
G01 X-3.32936 Y-3.19778
G01 X-3.32419 Y-3.19023
G01 X-3.32035 Y-3.18370
G01 X-3.31710 Y-3.17731
G01 X-3.31405 Y-3.17035
G01 X-3.31120 Y-3.16270
G01 X-3.30902 Y-3.15576
G01 X-3.30917 Y-3.15437
G01 X-3.31302 Y-3.15541
G01 X-3.31376 Y-3.14996
G01 X-3.31525 Y-3.14188
G01 X-3.31816 Y-3.13055
G01 X-3.32099 Y-3.12198
G01 X-3.32324 Y-3.11606
G01 X-3.32736 Y-3.10667
G01 X-3.33242 Y-3.09672
G01 X-3.33876 Y-3.08586
G01 X-3.34084 Y-3.08259
G01 X-3.34897 Y-3.07080
G01 X-3.35868 Y-3.05830
G01 X-3.36790 Y-3.04760
G01 X-3.38002 Y-3.03470
G01 X-3.38521 Y-3.03184
G01 X-3.39676 Y-3.02494
G01 X-3.41324 Y-3.01412
G01 X-3.41402 Y-3.01358
G01 X-3.41397 Y-3.01342
G01 X-3.41402 Y-3.01358
G01 X-3.43387 Y-3.01372
G01 X-3.44365 Y-3.01373
G01 X-3.44367 Y-3.01362
G01 X-3.44365 Y-3.01373
G01 X-3.45625 Y-3.02041
G01 X-3.46788 Y-3.02721
G01 X-3.47896 Y-3.03424
G01 X-3.50543 Y-3.04521
G01 X-3.51291 Y-3.04816
G01 X-3.52909 Y-3.05373
G01 X-3.54700 Y-3.05855
G01 X-3.56019 Y-3.06117
G01 X-3.56560 Y-3.06204
G01 X-3.57402 Y-3.06475
G01 X-3.58465 Y-3.06774
G01 X-3.59035 Y-3.06918
G01 X-3.60032 Y-3.07139
G01 X-3.61323 Y-3.07364
G01 X-3.62218 Y-3.07480
G01 X-3.62869 Y-3.07544
G01 X-3.63890 Y-3.07611
G01 X-3.65140 Y-3.07635
G01 X-3.66609 Y-3.07581
G01 X-3.67833 Y-3.07472
G01 X-3.68406 Y-3.07400
G01 X-3.69635 Y-3.07201
G01 X-3.70209 Y-3.07088
G01 X-3.71503 Y-3.06783
G01 X-3.72698 Y-3.06441
G01 X-3.99774 Y-3.06435
G01 X-4.00707 Y-3.06028
G01 X-4.02140 Y-3.05293
G01 X-4.02411 Y-3.05140
G01 X-4.03870 Y-3.04214
G01 X-4.04151 Y-3.04015
G01 X-4.05304 Y-3.03121
G01 X-4.06014 Y-3.02495
G01 X-4.06552 Y-3.01981
G01 X-4.19831 Y-2.88691
G01 X-4.21358 Y-2.88058
G01 X-4.24315 Y-2.85116
G01 X-4.25170 Y-2.84342
G01 X-4.25709 Y-2.83919
G01 X-4.26469 Y-2.83411
G01 X-4.26961 Y-2.83131
G01 X-4.27266 Y-2.82977
G01 X-4.27677 Y-2.82798
G01 X-4.27984 Y-2.82682
G01 X-4.28459 Y-2.82532
G01 X-4.29143 Y-2.82392
G01 X-4.29590 Y-2.82341
G01 X-4.29964 Y-2.82327
G01 X-4.42517 Y-2.82327
G01 X-4.42658 Y-2.82301
G01 X-4.43341 Y-2.82081
G01 X-4.43737 Y-2.81985
G01 X-4.44162 Y-2.81909
G01 X-4.44541 Y-2.81864
G01 X-4.44957 Y-2.81838
G01 X-4.45345 Y-2.81838
G01 X-4.45878 Y-2.81874
G01 X-4.46264 Y-2.81926
G01 X-4.46808 Y-2.82038
G01 X-4.47581 Y-2.82272
G01 X-4.48215 Y-2.82530
G01 X-4.48902 Y-2.82875
G01 X-4.49518 Y-2.83247
G01 X-4.49557 Y-2.83221
G01 X-4.49518 Y-2.83247
G01 X-4.49606 Y-2.83788
G01 X-4.49658 Y-2.84293
G01 X-4.49681 Y-2.84754
G01 X-4.49680 Y-2.85272
G01 X-4.49624 Y-2.86063
G01 X-4.49550 Y-2.86590
G01 X-4.49445 Y-2.87127
G01 X-4.49169 Y-2.88334
G01 X-4.49057 Y-2.89005
G01 X-4.49075 Y-2.89015
G01 X-4.49057 Y-2.89005
G01 X-4.48773 Y-2.89277
G01 X-4.48313 Y-2.89679
G01 X-4.47803 Y-2.90080
G01 X-4.47488 Y-2.90305
G01 X-4.46677 Y-2.90821
G01 X-4.46115 Y-2.91132
G01 X-4.45699 Y-2.91338
G01 X-4.44830 Y-2.91718
G01 X-4.43808 Y-2.92085
G01 X-4.42694 Y-2.92402
G01 X-4.42295 Y-2.92497
G01 X-4.40893 Y-2.92776
G01 X-4.40415 Y-2.92974
G01 X-4.40279 Y-2.93068
G01 X-4.40193 Y-2.93210
G01 X-4.39835 Y-2.94228
G01 X-4.39574 Y-2.94882
G01 X-4.39124 Y-2.95889
G01 X-4.38942 Y-2.96258
G01 X-4.38482 Y-2.97110
G01 X-4.38000 Y-2.97903
G01 X-4.37711 Y-2.98339
G01 X-4.37160 Y-2.99098
G01 X-4.36044 Y-3.00502
G01 X-4.35144 Y-3.01708
G01 X-4.34480 Y-3.02649
G01 X-4.33277 Y-3.04435
G01 X-4.32971 Y-3.04867
G01 X-4.32361 Y-3.05674
G01 X-4.31983 Y-3.06144
G01 X-4.31146 Y-3.07124
G01 X-4.30718 Y-3.07595
G01 X-4.29604 Y-3.08747
G01 X-4.28866 Y-3.09476
G01 X-4.26017 Y-3.16335
G01 X-4.26057 Y-3.16392
G01 X-4.26017 Y-3.16335
G01 X-4.24052 Y-3.16467
G01 X-4.23474 Y-3.16523
G01 X-4.21799 Y-3.16735
G01 X-4.21238 Y-3.16823
G01 X-4.19805 Y-3.17091
G01 X-4.19283 Y-3.17205
G01 X-4.18114 Y-3.17494
G01 X-4.16636 Y-3.17936
G01 X-4.16161 Y-3.18097
G01 X-4.14850 Y-3.18597
G01 X-4.14124 Y-3.18911
G01 X-4.13114 Y-3.19400
G01 X-4.12134 Y-3.19936
G01 X-4.11563 Y-3.20285
G01 X-4.10020 Y-3.20592
G01 X-4.08615 Y-3.21063
G01 X-4.08000 Y-3.21304
G01 X-4.07505 Y-3.21474
G01 X-4.06685 Y-3.21701
G01 X-4.06184 Y-3.21808
G01 X-4.05508 Y-3.21913
G01 X-4.04794 Y-3.21973
G01 X-4.04277 Y-3.21988
G01 X-4.01260 Y-3.21988
G01 X-4.00129 Y-3.22071
G01 X-3.99032 Y-3.22309
G01 X-3.97940 Y-3.22701
G01 X-3.96975 Y-3.23182
G01 X-3.96977 Y-3.23192
G01 X-3.96975 Y-3.23182
G01 X-3.93025 Y-3.23182
G01 X-3.93022 Y-3.23192
G01 X-3.93025 Y-3.23182
G01 X-3.92060 Y-3.22701
G01 X-3.90918 Y-3.22295
G01 X-3.89870 Y-3.22071
G01 X-3.88768 Y-3.21989
G01 X-3.81223 Y-3.21990
G01 X-3.79783 Y-3.22130
G01 X-3.78507 Y-3.22487
G01 X-3.78507 Y-3.22497
G01 X-3.78507 Y-3.22487
G01 X-3.78273 Y-3.22435
G01 X-3.77434 Y-3.22280
G01 X-3.76608 Y-3.22172
G01 X-3.75502 Y-3.22096
G01 X-3.74686 Y-3.22091
G01 X-3.73923 Y-3.22125
G01 X-3.72894 Y-3.22231
G01 X-3.71896 Y-3.22400
G01 X-3.70822 Y-3.22653
G01 X-3.69784 Y-3.22970
G01 X-3.68976 Y-3.23265
G01 X-3.68483 Y-3.23466
G01 X-3.67287 Y-3.24018
G01 X-3.66416 Y-3.24483
G01 X-3.65699 Y-3.24608
G01 X-3.51375 Y-3.24606
G01 X-3.51365 Y-3.24633
G01 X-3.51375 Y-3.24606
G01 X-3.51285 Y-3.24516
G01 X-3.50410 Y-3.23702
G01 X-3.49973 Y-3.23327
G01 X-3.49234 Y-3.22739
G01 X-3.48796 Y-3.22419
G01 X-3.48204 Y-3.22019
G01 X-3.47754 Y-3.21740
G01 X-3.46838 Y-3.21239
G01 X-3.45979 Y-3.20852
G01 X-3.45491 Y-3.20675
G01 X-3.35429 Y-3.20665
G01 X-3.34604 Y-3.20675
G01 X-3.33980 Y-3.20415
G01 X-3.33972 Y-3.20426
G01 X-3.33980 Y-3.20415
G01 X-3.33505 Y-3.19869
G01 X-3.32994 Y-3.19183
G01 X-3.32752 Y-3.18813
G01 X-3.32381 Y-3.18183
G01 X-3.32066 Y-3.17563
G01 X-3.31770 Y-3.16887
G01 X-3.31493 Y-3.16144
G01 X-3.31302 Y-3.15541
G01 X-3.30917 Y-3.15437
G01 X-3.31039 Y-3.14623
G01 X-3.31211 Y-3.13794
G01 X-3.31439 Y-3.12941
G01 X-3.31619 Y-3.12376
G01 X-3.31959 Y-3.11461
G01 X-3.32379 Y-3.10500
G01 X-3.32531 Y-3.10187
G01 X-3.33069 Y-3.09172
G01 X-3.33754 Y-3.08044
G01 X-3.34355 Y-3.07158
G01 X-3.35312 Y-3.05891
G01 X-3.36495 Y-3.04499
G01 X-3.37729 Y-3.03193
G01 X-3.37765 Y-3.03157
G01 X-3.38319 Y-3.02846
G01 X-3.39466 Y-3.02161
G01 X-3.39866 Y-3.01909
G01 X-3.41278 Y-3.00965
G01 X-3.44461 Y-3.00979
G01 X-3.44932 Y-3.00782
G01 X-3.45727 Y-2.98159
G01 X-3.46340 Y-2.95518
G01 X-3.46350 Y-2.95421
G01 X-3.46323 Y-2.94407
G01 X-3.46232 Y-2.92193
G01 X-3.46164 Y-2.91108
G01 X-3.46056 Y-2.89895
G01 X-3.45950 Y-2.89055
G01 X-3.45842 Y-2.88393
G01 X-3.45506 Y-2.86895
G01 X-3.45421 Y-2.86415
G01 X-3.45359 Y-2.85905
G01 X-3.45324 Y-2.85383
G01 X-3.45317 Y-2.84866
G01 X-3.45377 Y-2.83925
G01 X-3.45526 Y-2.83009
G01 X-3.45820 Y-2.81717
G01 X-3.45784 Y-2.81689
G01 X-3.45820 Y-2.81717
G01 X-3.46698 Y-2.81359
G01 X-3.47302 Y-2.81163
G01 X-3.47888 Y-2.81015
G01 X-3.48457 Y-2.80907
G01 X-3.49030 Y-2.80836
G01 X-3.49637 Y-2.80800
G01 X-3.50203 Y-2.80804
G01 X-3.50815 Y-2.80851
G01 X-3.51381 Y-2.80932
G01 X-3.51979 Y-2.81057
G01 X-3.52326 Y-2.81148
G01 X-3.53007 Y-2.81367
G01 X-3.53722 Y-2.81652
G01 X-3.54136 Y-2.81844
G01 X-3.54484 Y-2.82020
G01 X-3.55305 Y-2.82488
G01 X-3.55852 Y-2.82843
G01 X-3.56710 Y-2.83463
G01 X-3.56794 Y-2.83511
G01 X-3.57483 Y-2.83790
G01 X-3.58459 Y-2.84128
G01 X-3.59550 Y-2.84428
G01 X-3.60809 Y-2.84686
G01 X-3.61629 Y-2.84805
G01 X-3.61774 Y-2.84771
G01 X-3.64610 Y-2.83476
G01 X-3.65681 Y-2.83034
G01 X-3.66245 Y-2.82822
G01 X-3.67281 Y-2.82465
G01 X-3.68404 Y-2.82130
G01 X-3.69572 Y-2.81829
G01 X-3.70887 Y-2.81545
G01 X-3.71944 Y-2.81354
G01 X-3.71945 Y-2.81340
G01 X-3.71944 Y-2.81354
G01 X-3.72904 Y-2.81693
G01 X-3.73259 Y-2.81812
G01 X-3.73374 Y-2.81832
G01 X-3.74610 Y-2.81864
G01 X-3.80977 Y-2.81864
G01 X-3.80988 Y-2.81837
G01 X-3.80977 Y-2.81864
G01 X-3.82361 Y-2.83143
G01 X-3.83905 Y-2.84379
G01 X-3.85402 Y-2.85394
G01 X-3.86930 Y-2.86243
G01 X-3.88462 Y-2.86906
G01 X-3.89999 Y-2.87382
G01 X-3.91588 Y-2.87676
G01 X-3.93110 Y-2.87769
G01 X-3.96421 Y-2.87769
G01 X-3.96572 Y-2.87739
G01 X-4.07041 Y-2.83402
G01 X-4.07643 Y-2.83087
G01 X-4.08188 Y-2.82655
G01 X-4.08635 Y-2.82118
G01 X-4.08977 Y-2.81483
G01 X-4.11893 Y-2.74462
G01 X-4.12390 Y-2.73454
G01 X-4.12836 Y-2.72689
G01 X-4.13087 Y-2.72296
G01 X-4.13073 Y-2.72279
G01 X-4.13087 Y-2.72296
G01 X-4.13695 Y-2.72039
G01 X-4.14352 Y-2.71796
G01 X-4.15382 Y-2.71486
G01 X-4.28153 Y-2.68462
G01 X-4.29541 Y-2.68526
G01 X-4.30582 Y-2.68523
G01 X-4.31044 Y-2.68509
G01 X-4.32542 Y-2.68409
G01 X-4.34040 Y-2.68224
G01 X-4.35185 Y-2.68025
G01 X-4.35676 Y-2.67925
G01 X-4.36889 Y-2.67639
G01 X-4.37929 Y-2.67349
G01 X-4.62072 Y-2.67349
G01 X-4.62938 Y-2.67596
G01 X-4.63988 Y-2.67854
G01 X-4.67350 Y-2.68537
G01 X-4.69360 Y-2.68981
G01 X-4.71675 Y-2.69534
G01 X-4.74618 Y-2.70284
G01 X-4.75973 Y-2.70588
G01 X-4.76463 Y-2.70686
G01 X-4.78440 Y-2.71019
G01 X-4.80722 Y-2.71291
G01 X-4.82754 Y-2.71446
G01 X-4.85472 Y-2.71535
G01 X-4.85996 Y-2.71539
G01 X-4.89131 Y-2.71473
G01 X-4.89606 Y-2.71443
G01 X-4.89725 Y-2.71321
G01 X-4.89606 Y-2.71443
G01 X-4.89606 Y-3.37836
G01 X-4.89790 Y-3.38130
G01 X-4.89606 Y-3.37836
G01 X-4.87349 Y-3.36709
G01 X-4.83043 Y-3.34676
G01 X-4.79617 Y-3.33165
G01 X-4.78888 Y-3.32855
G01 X-4.73813 Y-3.30840
G01 X-4.67564 Y-3.28587
G01 X-4.65929 Y-3.27464
G01 X-4.62176 Y-3.24844
G01 X-4.60904 Y-3.23939
G01 X-4.59077 Y-3.22597
G01 X-4.58364 Y-3.22101
G01 X-4.57678 Y-3.21674
G01 X-4.57007 Y-3.21306
G01 X-4.56406 Y-3.21017
G01 X-4.55818 Y-3.20772
G01 X-4.55607 Y-3.20694
G01 X-4.55470 Y-3.20670
G01 X-4.45353 Y-3.20666
G01 X-4.45317 Y-3.20725
G01 X-4.45353 Y-3.20666
G01 X-4.45009 Y-3.19890
G01 X-4.44862 Y-3.19479
G01 X-4.44693 Y-3.18898
G01 X-4.44574 Y-3.18319
G01 X-4.44489 Y-3.17613
G01 X-4.44474 Y-3.17203
G01 X-4.44487 Y-3.16679
G01 X-4.44565 Y-3.15977
G01 X-4.44684 Y-3.15397
G01 X-4.44795 Y-3.14986
G01 X-4.44992 Y-3.14405
G01 X-4.45264 Y-3.13768
G01 X-4.45587 Y-3.13135
G01 X-4.46012 Y-3.12437
G01 X-4.46563 Y-3.11657
G01 X-4.46933 Y-3.11190
G01 X-4.47664 Y-3.10358
G01 X-4.50086 Y-3.07910
G01 X-4.52451 Y-3.06939
G01 X-4.53333 Y-3.06602
G01 X-4.54749 Y-3.06140
G01 X-4.55392 Y-3.05958
G01 X-4.55514 Y-3.05900
G01 X-4.59019 Y-3.02402
G01 X-4.59006 Y-3.02365
G01 X-4.59019 Y-3.02402
G01 X-4.59838 Y-3.02483
G01 X-4.61457 Y-3.02589
G01 X-4.62853 Y-3.02617
G01 X-4.63364 Y-3.02611
G01 X-4.64473 Y-3.02565
G01 X-4.65515 Y-3.02476
G01 X-4.66637 Y-3.02323
G01 X-4.67664 Y-3.02124
G01 X-4.68074 Y-3.02027
G01 X-4.68903 Y-3.01796
G01 X-4.69672 Y-3.01536
G01 X-4.70353 Y-3.01262
G01 X-4.70800 Y-3.01058
G01 X-4.71533 Y-3.00675
G01 X-4.72072 Y-3.00350
G01 X-4.72463 Y-3.00088
G01 X-4.73074 Y-2.99626
G01 X-4.73518 Y-2.99245
G01 X-4.73853 Y-2.98927
G01 X-4.74355 Y-2.98395
G01 X-4.74704 Y-2.97978
G01 X-4.74992 Y-2.97586
G01 X-4.75066 Y-2.97317
G01 X-4.75180 Y-2.96746
G01 X-4.75285 Y-2.95944
G01 X-4.75315 Y-2.95531
G01 X-4.75328 Y-2.94886
G01 X-4.75285 Y-2.94056
G01 X-4.75165 Y-2.93168
G01 X-4.75087 Y-2.92774
G01 X-4.74997 Y-2.92424
G01 X-4.74865 Y-2.92230
G01 X-4.74448 Y-2.91711
G01 X-4.74065 Y-2.91289
G01 X-4.73531 Y-2.90767
G01 X-4.72990 Y-2.90306
G01 X-4.72394 Y-2.89864
G01 X-4.71760 Y-2.89457
G01 X-4.71014 Y-2.89047
G01 X-4.70224 Y-2.88683
G01 X-4.69491 Y-2.88406
G01 X-4.63563 Y-2.82484
G01 X-4.62497 Y-2.82035
G01 X-4.62134 Y-2.81904
G01 X-4.61628 Y-2.81757
G01 X-4.61149 Y-2.81655
G01 X-4.60453 Y-2.81568
G01 X-4.60168 Y-2.81556
G01 X-4.59079 Y-2.81564
G01 X-4.58400 Y-2.81196
G01 X-4.57559 Y-2.81047
G01 X-4.52392 Y-2.81050
G01 X-4.51803 Y-2.81135
G01 X-4.51232 Y-2.81357
G01 X-4.50682 Y-2.81707
G01 X-4.50182 Y-2.82145
G01 X-4.49820 Y-2.82505
G01 X-4.49831 Y-2.82594
G01 X-4.49820 Y-2.82505
G01 X-4.49291 Y-2.82191
G01 X-4.48964 Y-2.82017
G01 X-4.48274 Y-2.81697
G01 X-4.47622 Y-2.81453
G01 X-4.46998 Y-2.81274
G01 X-4.46393 Y-2.81150
G01 X-4.45800 Y-2.81076
G01 X-4.45224 Y-2.81048
G01 X-4.44470 Y-2.81079
G01 X-4.43906 Y-2.81152
G01 X-4.43133 Y-2.81321
G01 X-4.42444 Y-2.81542
G01 X-4.29959 Y-2.81539
G01 X-4.29542 Y-2.81556
G01 X-4.29019 Y-2.81614
G01 X-4.28504 Y-2.81712
G01 X-4.28032 Y-2.81837
G01 X-4.27390 Y-2.82065
G01 X-4.26942 Y-2.82261
G01 X-4.26600 Y-2.82431
G01 X-4.26054 Y-2.82741
G01 X-4.25243 Y-2.83285
G01 X-4.24666 Y-2.83737
G01 X-4.23764 Y-2.84553
G01 X-4.20921 Y-2.87402
G01 X-4.19462 Y-2.87999
G01 X-4.19334 Y-2.88085
G01 X-4.06002 Y-3.01417
G01 X-4.05489 Y-3.01909
G01 X-4.04796 Y-3.02520
G01 X-4.03677 Y-3.03385
G01 X-4.03423 Y-3.03565
G01 X-4.02013 Y-3.04460
G01 X-4.01773 Y-3.04597
G01 X-4.00370 Y-3.05317
G01 X-3.99609 Y-3.05657
G01 X-3.99612 Y-3.05667
G01 X-3.99609 Y-3.05657
G01 X-3.72642 Y-3.05657
G01 X-3.72531 Y-3.05673
G01 X-3.71316 Y-3.06018
G01 X-3.70049 Y-3.06317
G01 X-3.69503 Y-3.06425
G01 X-3.68287 Y-3.06621
G01 X-3.67742 Y-3.06690
G01 X-3.66560 Y-3.06795
G01 X-3.65135 Y-3.06848
G01 X-3.63924 Y-3.06824
G01 X-3.62942 Y-3.06761
G01 X-3.62306 Y-3.06698
G01 X-3.61432 Y-3.06584
G01 X-3.60197 Y-3.06369
G01 X-3.58662 Y-3.06012
G01 X-3.57632 Y-3.05722
G01 X-3.56775 Y-3.05446
G01 X-3.56167 Y-3.05344
G01 X-3.54872 Y-3.05087
G01 X-3.53156 Y-3.04626
G01 X-3.51571 Y-3.04080
G01 X-3.48230 Y-3.02711
G01 X-3.47199 Y-3.02050
G01 X-3.46019 Y-3.01358
G01 X-3.44932 Y-3.00782
G01 X-3.44461 Y-3.00979
G01 X-3.45343 Y-2.98070
G01 X-3.45957 Y-2.95429
G01 X-3.45838 Y-2.92213
G01 X-3.45772 Y-2.91139
G01 X-3.45664 Y-2.89933
G01 X-3.45560 Y-2.89107
G01 X-3.45454 Y-2.88460
G01 X-3.45071 Y-2.86714
G01 X-3.44967 Y-2.85943
G01 X-3.44930 Y-2.85400
G01 X-3.44932 Y-2.84564
G01 X-3.44955 Y-2.84203
G01 X-3.45028 Y-2.83561
G01 X-3.45141 Y-2.82927
G01 X-3.45312 Y-2.82217
G01 X-3.45471 Y-2.81443
G01 X-3.45312 Y-2.82217
G01 X-3.45141 Y-2.82927
G01 X-3.45028 Y-2.83561
G01 X-3.44955 Y-2.84203
G01 X-3.44932 Y-2.84564
G01 X-3.44930 Y-2.85400
G01 X-3.44967 Y-2.85943
G01 X-3.45071 Y-2.86714
G01 X-3.45454 Y-2.88460
G01 X-3.45560 Y-2.89107
G01 X-3.45664 Y-2.89933
G01 X-3.45772 Y-2.91139
G01 X-3.45838 Y-2.92213
G01 X-3.45957 Y-2.95429
G01 X-3.45343 Y-2.98070
G01 X-3.44461 Y-3.00979
G01 X-3.45820 Y-3.01698
G01 X-3.46992 Y-3.02384
G01 X-3.48047 Y-3.03060
G01 X-3.50688 Y-3.04154
G01 X-3.51430 Y-3.04448
G01 X-3.53036 Y-3.05001
G01 X-3.54789 Y-3.05471
G01 X-3.56096 Y-3.05731
G01 X-3.56653 Y-3.05820
G01 X-3.57520 Y-3.06099
G01 X-3.58561 Y-3.06392
G01 X-3.59120 Y-3.06533
G01 X-3.60437 Y-3.06817
G01 X-3.61376 Y-3.06974
G01 X-3.62264 Y-3.07089
G01 X-3.62907 Y-3.07152
G01 X-3.63905 Y-3.07217
G01 X-3.64860 Y-3.07242
G01 X-3.66029 Y-3.07218
G01 X-3.66588 Y-3.07188
G01 X-3.67784 Y-3.07081
G01 X-3.68343 Y-3.07011
G01 X-3.69572 Y-3.06812
G01 X-3.70132 Y-3.06701
G01 X-3.71413 Y-3.06399
G01 X-3.72642 Y-3.06050
G01 X-3.99693 Y-3.06050
G01 X-4.00542 Y-3.05671
G01 X-4.01961 Y-3.04943
G01 X-4.02216 Y-3.04798
G01 X-4.03643 Y-3.03892
G01 X-4.03911 Y-3.03702
G01 X-4.05053 Y-3.02819
G01 X-4.05754 Y-3.02200
G01 X-4.06278 Y-3.01698
G01 X-4.19612 Y-2.88363
G01 X-4.21140 Y-2.87730
G01 X-4.24042 Y-2.84832
G01 X-4.24718 Y-2.84209
G01 X-4.25317 Y-2.83722
G01 X-4.25942 Y-2.83279
G01 X-4.26266 Y-2.83073
G01 X-4.26776 Y-2.82783
G01 X-4.27100 Y-2.82621
G01 X-4.27529 Y-2.82433
G01 X-4.28156 Y-2.82211
G01 X-4.28841 Y-2.82044
G01 X-4.29562 Y-2.81950
G01 X-4.29959 Y-2.81933
G01 X-4.42517 Y-2.81933
G01 X-4.43089 Y-2.81742
G01 X-4.43658 Y-2.81600
G01 X-4.44387 Y-2.81483
G01 X-4.44947 Y-2.81445
G01 X-4.45361 Y-2.81445
G01 X-4.45924 Y-2.81483
G01 X-4.46499 Y-2.81568
G01 X-4.46899 Y-2.81655
G01 X-4.47716 Y-2.81902
G01 X-4.48379 Y-2.82172
G01 X-4.49093 Y-2.82531
G01 X-4.49875 Y-2.83007
G01 X-4.49997 Y-2.83737
G01 X-4.50065 Y-2.84503
G01 X-4.50074 Y-2.85283
G01 X-4.50043 Y-2.85826
G01 X-4.49982 Y-2.86374
G01 X-4.49888 Y-2.86932
G01 X-4.49616 Y-2.88107
G01 X-4.49428 Y-2.89192
G01 X-4.49040 Y-2.89567
G01 X-4.48564 Y-2.89982
G01 X-4.48036 Y-2.90396
G01 X-4.47713 Y-2.90628
G01 X-4.46875 Y-2.91162
G01 X-4.46295 Y-2.91482
G01 X-4.45869 Y-2.91693
G01 X-4.44977 Y-2.92083
G01 X-4.43931 Y-2.92459
G01 X-4.42791 Y-2.92783
G01 X-4.42379 Y-2.92882
G01 X-4.41044 Y-2.93139
G01 X-4.40566 Y-2.93337
G01 X-4.40203 Y-2.94368
G01 X-4.39938 Y-2.95033
G01 X-4.39479 Y-2.96059
G01 X-4.39026 Y-2.96944
G01 X-4.38823 Y-2.97306
G01 X-4.38331 Y-2.98117
G01 X-4.38035 Y-2.98561
G01 X-4.37472 Y-2.99337
G01 X-4.36357 Y-3.00740
G01 X-4.35460 Y-3.01942
G01 X-4.34807 Y-3.02868
G01 X-4.33601 Y-3.04659
G01 X-4.33289 Y-3.05099
G01 X-4.32671 Y-3.05916
G01 X-4.32286 Y-3.06395
G01 X-4.31441 Y-3.07384
G01 X-4.31006 Y-3.07864
G01 X-4.29883 Y-3.09025
G01 X-4.29192 Y-3.09698
G01 X-4.26285 Y-3.16717
G01 X-4.26972 Y-3.18291
G01 X-4.33313 Y-3.24632
G01 X-4.34375 Y-3.25613
G01 X-4.35457 Y-3.26476
G01 X-4.36173 Y-3.26969
G01 X-4.37043 Y-3.27485
G01 X-4.37932 Y-3.27917
G01 X-4.38893 Y-3.28315
G01 X-4.39421 Y-3.28506
G01 X-4.40116 Y-3.28701
G01 X-4.40824 Y-3.28838
G01 X-4.41446 Y-3.28905
G01 X-4.41938 Y-3.28924
G01 X-4.44536 Y-3.28924
G01 X-4.44568 Y-3.28936
G01 X-4.44897 Y-3.28938
G01 X-4.67385 Y-3.28938
G01 X-4.73678 Y-3.31210
G01 X-4.78742 Y-3.33221
G01 X-4.82884 Y-3.35036
G01 X-4.86498 Y-3.36735
G01 X-4.90000 Y-3.38473
G01 X-4.90000 Y-2.35000
G01 X-3.05000 Y-2.35000
G01 X-3.05394 Y-2.35394
G01 X-4.89606 Y-2.35394
G01 X-4.89722 Y-2.35278
G01 X-4.89606 Y-2.35394
G01 X-4.89606 Y-2.70654
G01 X-4.89718 Y-2.70763
G01 X-4.89606 Y-2.70654
G01 X-4.88575 Y-2.70707
G01 X-4.85987 Y-2.70751
G01 X-4.83283 Y-2.70685
G01 X-4.80796 Y-2.70507
G01 X-4.80292 Y-2.70457
G01 X-4.78119 Y-2.70175
G01 X-4.76603 Y-2.69911
G01 X-4.74805 Y-2.69519
G01 X-4.71493 Y-2.68677
G01 X-4.69540 Y-2.68215
G01 X-4.67513 Y-2.67767
G01 X-4.64161 Y-2.67085
G01 X-4.63139 Y-2.66835
G01 X-4.62242 Y-2.66582
G01 X-4.62129 Y-2.66565
G01 X-4.37875 Y-2.66565
G01 X-4.37767 Y-2.66580
G01 X-4.36703 Y-2.66874
G01 X-4.35501 Y-2.67157
G01 X-4.35033 Y-2.67252
G01 X-4.33923 Y-2.67445
G01 X-4.32457 Y-2.67626
G01 X-4.31004 Y-2.67723
G01 X-4.30575 Y-2.67736
G01 X-4.29556 Y-2.67739
G01 X-4.28138 Y-2.67676
G01 X-4.28027 Y-2.67686
G01 X-4.15179 Y-2.70726
G01 X-4.14085 Y-2.71056
G01 X-4.13218 Y-2.71382
G01 X-4.12598 Y-2.71658
G01 X-4.12491 Y-2.71768
G01 X-4.12159 Y-2.72287
G01 X-4.11700 Y-2.73076
G01 X-4.11272 Y-2.73925
G01 X-4.11041 Y-2.74447
G01 X-4.08272 Y-2.81133
G01 X-4.08000 Y-2.81653
G01 X-4.07661 Y-2.82071
G01 X-4.07243 Y-2.82410
G01 X-4.06723 Y-2.82682
G01 X-3.96345 Y-2.86989
G01 X-3.93122 Y-2.86981
G01 X-3.91661 Y-2.86892
G01 X-3.90209 Y-2.86624
G01 X-3.88754 Y-2.86175
G01 X-3.87294 Y-2.85545
G01 X-3.85829 Y-2.84733
G01 X-3.84360 Y-2.83737
G01 X-3.82885 Y-2.82556
G01 X-3.81698 Y-2.81458
G01 X-3.81524 Y-2.81462
G01 X-3.81698 Y-2.81458
G01 X-3.88668 Y-2.74488
G01 X-3.89756 Y-2.73239
G01 X-3.90529 Y-2.71988
G01 X-3.90971 Y-2.70808
G01 X-3.90993 Y-2.70719
G01 X-3.91141 Y-2.69539
G01 X-3.91143 Y-2.67544
G01 X-3.91280 Y-2.66434
G01 X-3.91693 Y-2.65334
G01 X-3.92394 Y-2.64215
G01 X-3.93473 Y-2.62994
G01 X-3.93457 Y-2.62959
G01 X-3.93473 Y-2.62994
G01 X-4.00277 Y-2.62994
G01 X-4.00367 Y-2.62983
G01 X-4.06980 Y-2.61422
G01 X-4.08313 Y-2.60960
G01 X-4.09553 Y-2.60214
G01 X-4.10699 Y-2.59142
G01 X-4.11604 Y-2.57913
G01 X-4.14841 Y-2.52677
G01 X-4.14894 Y-2.52539
G01 X-4.14892 Y-2.52391
G01 X-4.12745 Y-2.47209
G01 X-4.09168 Y-2.43622
G01 X-4.08649 Y-2.43166
G01 X-4.08099 Y-2.42816
G01 X-4.07528 Y-2.42594
G01 X-4.06890 Y-2.42506
G01 X-3.93110 Y-2.42506
G01 X-3.92561 Y-2.42572
G01 X-3.91972 Y-2.42781
G01 X-3.91401 Y-2.43129
G01 X-3.90851 Y-2.43604
G01 X-3.88013 Y-2.46450
G01 X-3.83261 Y-2.48415
G01 X-3.83075 Y-2.48419
G01 X-3.83001 Y-2.48441
G01 X-3.74459 Y-2.51979
G01 X-3.73617 Y-2.52394
G01 X-3.72843 Y-2.52918
G01 X-3.72123 Y-2.53585
G01 X-3.71581 Y-2.54264
G01 X-3.71516 Y-2.54383
G01 X-3.71441 Y-2.54825
G01 X-3.71389 Y-2.55279
G01 X-3.71299 Y-2.56432
G01 X-3.71196 Y-2.57185
G01 X-3.71108 Y-2.57663
G01 X-3.71139 Y-2.57681
G01 X-3.71108 Y-2.57663
G01 X-3.70723 Y-2.57922
G01 X-3.69780 Y-2.58597
G01 X-3.68973 Y-2.59236
G01 X-3.68149 Y-2.59944
G01 X-3.67599 Y-2.60364
G01 X-3.66998 Y-2.60770
G01 X-3.66586 Y-2.61021
G01 X-3.65655 Y-2.61519
G01 X-3.64801 Y-2.61901
G01 X-3.63904 Y-2.62237
G01 X-3.62886 Y-2.62550
G01 X-3.61698 Y-2.62836
G01 X-3.60825 Y-2.62999
G01 X-3.59860 Y-2.63139
G01 X-3.58793 Y-2.63248
G01 X-3.58149 Y-2.63295
G01 X-3.58025 Y-2.63324
G01 X-3.52708 Y-2.65534
G01 X-3.32557 Y-2.65526
G01 X-3.32443 Y-2.65543
G01 X-3.31147 Y-2.65911
G01 X-3.30174 Y-2.66143
G01 X-3.29021 Y-2.66366
G01 X-3.28069 Y-2.66507
G01 X-3.27171 Y-2.66606
G01 X-3.26549 Y-2.66655
G01 X-3.25580 Y-2.66698
G01 X-3.24300 Y-2.66695
G01 X-3.23248 Y-2.66640
G01 X-3.22152 Y-2.66535
G01 X-3.18557 Y-2.66004
G01 X-3.16114 Y-2.65685
G01 X-3.14010 Y-2.65441
G01 X-3.09692 Y-2.65001
G01 X-3.07306 Y-2.64724
G01 X-3.06658 Y-2.64634
G01 X-3.05394 Y-2.64425
G01 X-3.05299 Y-2.64506
G01 X-3.05394 Y-2.64425
G01 X-3.05394 Y-2.35394
G01 X-3.05000 Y-2.35000
G01 X-3.05000 Y-2.64759
G01 X-3.05394 Y-2.65223
G01 X-3.06535 Y-2.65411
G01 X-3.07210 Y-2.65506
G01 X-3.09606 Y-2.65783
G01 X-3.13926 Y-2.66224
G01 X-3.16017 Y-2.66467
G01 X-3.18447 Y-2.66784
G01 X-3.22060 Y-2.67316
G01 X-3.23191 Y-2.67426
G01 X-3.24598 Y-2.67489
G01 X-3.25598 Y-2.67485
G01 X-3.26598 Y-2.67441
G01 X-3.27524 Y-2.67363
G01 X-3.28498 Y-2.67244
G01 X-3.29433 Y-2.67093
G01 X-3.30348 Y-2.66911
G01 X-3.31343 Y-2.66674
G01 X-3.32614 Y-2.66310
G01 X-3.52861 Y-2.66306
G01 X-3.58266 Y-2.64073
G01 X-3.59550 Y-2.63967
G01 X-3.60951 Y-2.63776
G01 X-3.61864 Y-2.63606
G01 X-3.63091 Y-2.63310
G01 X-3.64155 Y-2.62983
G01 X-3.65104 Y-2.62627
G01 X-3.66004 Y-2.62225
G01 X-3.66981 Y-2.61702
G01 X-3.67675 Y-2.61269
G01 X-3.68279 Y-2.60841
G01 X-3.68646 Y-2.60555
G01 X-3.69476 Y-2.59842
G01 X-3.70078 Y-2.59359
G01 X-3.70857 Y-2.58787
G01 X-3.71672 Y-2.58238
G01 X-3.71785 Y-2.58128
G01 X-3.71847 Y-2.57983
G01 X-3.72026 Y-2.56964
G01 X-3.72115 Y-2.56173
G01 X-3.72172 Y-2.55361
G01 X-3.72261 Y-2.54674
G01 X-3.72246 Y-2.54668
G01 X-3.72261 Y-2.54674
G01 X-3.72719 Y-2.54099
G01 X-3.73311 Y-2.53551
G01 X-3.73990 Y-2.53087
G01 X-3.74772 Y-2.52702
G01 X-3.83229 Y-2.49195
G01 X-3.83415 Y-2.49191
G01 X-3.83489 Y-2.49169
G01 X-3.88382 Y-2.47142
G01 X-3.88510 Y-2.47056
G01 X-3.91379 Y-2.44188
G01 X-3.91845 Y-2.43778
G01 X-3.92284 Y-2.43503
G01 X-3.92704 Y-2.43345
G01 X-3.93134 Y-2.43293
G01 X-4.06865 Y-2.43294
G01 X-4.07296 Y-2.43345
G01 X-4.07716 Y-2.43503
G01 X-4.08155 Y-2.43778
G01 X-4.08621 Y-2.44188
G01 X-4.12090 Y-2.47647
G01 X-4.14066 Y-2.52435
G01 X-4.14114 Y-2.52439
G01 X-4.14066 Y-2.52435
G01 X-4.10960 Y-2.57459
G01 X-4.10088 Y-2.58648
G01 X-4.09109 Y-2.59565
G01 X-4.08016 Y-2.60232
G01 X-4.06780 Y-2.60660
G01 X-4.00231 Y-2.62209
G01 X-3.93310 Y-2.62206
G01 X-3.93159 Y-2.62236
G01 X-3.93032 Y-2.62322
G01 X-3.92814 Y-2.62541
G01 X-3.91744 Y-2.63771
G01 X-3.91006 Y-2.64951
G01 X-3.90529 Y-2.66202
G01 X-3.90359 Y-2.67471
G01 X-3.90356 Y-2.69465
G01 X-3.90220 Y-2.70576
G01 X-3.89807 Y-2.71676
G01 X-3.89106 Y-2.72795
G01 X-3.88102 Y-2.73941
G01 X-3.80967 Y-2.81076
G01 X-3.80980 Y-2.81107
G01 X-3.80967 Y-2.81076
G01 X-3.74615 Y-2.81076
G01 X-3.73452 Y-2.81052
G01 X-3.72113 Y-2.80578
G01 X-3.71979 Y-2.80554
G01 X-3.71911 Y-2.80560
G01 X-3.70736 Y-2.80772
G01 X-3.69384 Y-2.81065
G01 X-3.68194 Y-2.81371
G01 X-3.67030 Y-2.81719
G01 X-3.65983 Y-2.82079
G01 X-3.65398 Y-2.82299
G01 X-3.64303 Y-2.82752
G01 X-3.61557 Y-2.84006
G01 X-3.61560 Y-2.84025
G01 X-3.61557 Y-2.84006
G01 X-3.60944 Y-2.83910
G01 X-3.59735 Y-2.83663
G01 X-3.58901 Y-2.83440
G01 X-3.57968 Y-2.83131
G01 X-3.57139 Y-2.82804
G01 X-3.56297 Y-2.82193
G01 X-3.55715 Y-2.81816
G01 X-3.54845 Y-2.81320
G01 X-3.54034 Y-2.80929
G01 X-3.53280 Y-2.80628
G01 X-3.52533 Y-2.80389
G01 X-3.51844 Y-2.80220
G01 X-3.51241 Y-2.80112
G01 X-3.50895 Y-2.80068
G01 X-3.50231 Y-2.80018
G01 X-3.49613 Y-2.80013
G01 X-3.48953 Y-2.80052
G01 X-3.48057 Y-2.80177
G01 X-3.47411 Y-2.80319
G01 X-3.46759 Y-2.80507
G01 X-3.46067 Y-2.80756
G01 X-3.45694 Y-2.80910
G01 X-3.45501 Y-2.80998
G01 X-3.45497 Y-2.81044
G01 X-3.45501 Y-2.80998
G01 X-3.44952 Y-2.80654
G01 X-3.44117 Y-2.80283
G01 X-3.43322 Y-2.80076
G01 X-3.42559 Y-2.80009
G01 X-3.37392 Y-2.80012
G01 X-3.36286 Y-2.80161
G01 X-3.35336 Y-2.80522
G01 X-3.34813 Y-2.80518
G01 X-3.34166 Y-2.80555
G01 X-3.33522 Y-2.80643
G01 X-3.33104 Y-2.80724
G01 X-3.32465 Y-2.80890
G01 X-3.31627 Y-2.81181
G01 X-3.24389 Y-2.84176
G01 X-3.24261 Y-2.84261
G01 X-3.24176 Y-2.84389
G01 X-3.23936 Y-2.84978
G01 X-3.23356 Y-2.85620
G01 X-3.22624 Y-2.86510
G01 X-3.22308 Y-2.86926
G01 X-3.21767 Y-2.87691
G01 X-3.21529 Y-2.88056
G01 X-3.21089 Y-2.88785
G01 X-3.20859 Y-2.89202
G01 X-3.20540 Y-2.89838
G01 X-3.20246 Y-2.90503
G01 X-3.20004 Y-2.91136
G01 X-3.19815 Y-2.91713
G01 X-3.19665 Y-2.92256
G01 X-3.19536 Y-2.92835
G01 X-3.19444 Y-2.93363
G01 X-3.19362 Y-2.94065
G01 X-3.19328 Y-2.94625
G01 X-3.19335 Y-2.95534
G01 X-3.19372 Y-2.96045
G01 X-3.19462 Y-2.96752
G01 X-3.19561 Y-2.97290
G01 X-3.19799 Y-2.98232
G01 X-3.19991 Y-2.98828
G01 X-3.20296 Y-2.99617
G01 X-3.20521 Y-3.00106
G01 X-3.20518 Y-3.18184
G01 X-3.20541 Y-3.18688
G01 X-3.20619 Y-3.19357
G01 X-3.20666 Y-3.19630
G01 X-3.20782 Y-3.20133
G01 X-3.20976 Y-3.20408
G01 X-3.21280 Y-3.20781
G01 X-3.21711 Y-3.21252
G01 X-3.28719 Y-3.28260
G01 X-3.29060 Y-3.28582
G01 X-3.29598 Y-3.29028
G01 X-3.30033 Y-3.29340
G01 X-3.30343 Y-3.29541
G01 X-3.30902 Y-3.29863
G01 X-3.31237 Y-3.30034
G01 X-3.31899 Y-3.30332
G01 X-3.31933 Y-3.30306
G01 X-3.31899 Y-3.30332
G01 X-3.32106 Y-3.31320
G01 X-3.32269 Y-3.31919
G01 X-3.32452 Y-3.32478
G01 X-3.32640 Y-3.32973
G01 X-3.32844 Y-3.33441
G01 X-3.33045 Y-3.33848
G01 X-3.33398 Y-3.34468
G01 X-3.33628 Y-3.34820
G01 X-3.33946 Y-3.35255
G01 X-3.34355 Y-3.35742
G01 X-3.34647 Y-3.36049
G01 X-3.35045 Y-3.36423
G01 X-3.35546 Y-3.36833
G01 X-3.35980 Y-3.37143
G01 X-3.36130 Y-3.37204
G01 X-3.36824 Y-3.37314
G01 X-3.37590 Y-3.37370
G01 X-3.42180 Y-3.37373
G01 X-3.42622 Y-3.37361
G01 X-3.43414 Y-3.37282
G01 X-3.44125 Y-3.37150
G01 X-3.44742 Y-3.36987
G01 X-3.45345 Y-3.36779
G01 X-3.67259 Y-3.36781
G01 X-3.67801 Y-3.36751
G01 X-3.68304 Y-3.36689
G01 X-3.71930 Y-3.36044
G01 X-3.72728 Y-3.36221
G01 X-3.73533 Y-3.36341
G01 X-3.74409 Y-3.36413
G01 X-3.74956 Y-3.36428
G01 X-3.75610 Y-3.36413
G01 X-3.76361 Y-3.36354
G01 X-3.77168 Y-3.36238
G01 X-3.77725 Y-3.36130
G01 X-3.78222 Y-3.36011
G01 X-3.78905 Y-3.35816
G01 X-3.79052 Y-3.35734
G01 X-3.79151 Y-3.35598
G01 X-3.79410 Y-3.34600
G01 X-3.79783 Y-3.33559
G01 X-3.80037 Y-3.32719
G01 X-3.80218 Y-3.31908
G01 X-3.80321 Y-3.31230
G01 X-3.80360 Y-3.30836
G01 X-3.80393 Y-3.30055
G01 X-3.80377 Y-3.29430
G01 X-3.80330 Y-3.28859
G01 X-3.80277 Y-3.28449
G01 X-3.80186 Y-3.27928
G01 X-3.80059 Y-3.27368
G01 X-3.79908 Y-3.26826
G01 X-3.79722 Y-3.26269
G01 X-3.79499 Y-3.25672
G01 X-3.79291 Y-3.24983
G01 X-3.79101 Y-3.24105
G01 X-3.78954 Y-3.23179
G01 X-3.78835 Y-3.23105
G01 X-3.78954 Y-3.23179
G01 X-3.79961 Y-3.22897
G01 X-3.81278 Y-3.22775
G01 X-3.88726 Y-3.22776
G01 X-3.89733 Y-3.22847
G01 X-3.90728 Y-3.23060
G01 X-3.91730 Y-3.23416
G01 X-3.92842 Y-3.23959
G01 X-3.92932 Y-3.23969
G01 X-3.97068 Y-3.23969
G01 X-3.97158 Y-3.23959
G01 X-3.97243 Y-3.23928
G01 X-3.98270 Y-3.23416
G01 X-3.99271 Y-3.23059
G01 X-4.00267 Y-3.22846
G01 X-4.01274 Y-3.22775
G01 X-4.04280 Y-3.22776
G01 X-4.04832 Y-3.22760
G01 X-4.05602 Y-3.22694
G01 X-4.06342 Y-3.22579
G01 X-4.07073 Y-3.22416
G01 X-4.07744 Y-3.22224
G01 X-4.08272 Y-3.22043
G01 X-4.08878 Y-3.21805
G01 X-4.10246 Y-3.21346
G01 X-4.11273 Y-3.21141
G01 X-4.11456 Y-3.20940
G01 X-4.11273 Y-3.21141
G01 X-4.11180 Y-3.22098
G01 X-4.10995 Y-3.23538
G01 X-4.10912 Y-3.24031
G01 X-4.10737 Y-3.24866
G01 X-4.10534 Y-3.25576
G01 X-4.10117 Y-3.26746
G01 X-4.09953 Y-3.27320
G01 X-4.09827 Y-3.27861
G01 X-4.09728 Y-3.28412
G01 X-4.09661 Y-3.28936
G01 X-4.09620 Y-3.29483
G01 X-4.09607 Y-3.30054
G01 X-4.09622 Y-3.30558
G01 X-4.09674 Y-3.31179
G01 X-4.09763 Y-3.31799
G01 X-4.09889 Y-3.32418
G01 X-4.10145 Y-3.33340
G01 X-4.10551 Y-3.34475
G01 X-4.10643 Y-3.34776
G01 X-4.10788 Y-3.35346
G01 X-4.10997 Y-3.36471
G01 X-4.11111 Y-3.37291
G01 X-4.11215 Y-3.38223
G01 X-4.11360 Y-3.39890
G01 X-4.11446 Y-3.41105
G01 X-4.11666 Y-3.45011
G01 X-4.11758 Y-3.46967
G01 X-4.11874 Y-3.49976
G01 X-4.11639 Y-3.54683
G01 X-4.11371 Y-3.59606
G01 X-4.11473 Y-3.59714
G01 X-4.11371 Y-3.59606
G01 X-3.05394 Y-3.59606
G01 X-3.05278 Y-3.59722
G01 X-3.05394 Y-3.59606
G01 X-3.05394 Y-2.65223
G01 X-3.05000 Y-2.64759
G01 X-3.05000 Y-3.60000
G01 X-3.05000 Y-2.64759
G01 X-3.06599 Y-2.65023
G01 X-3.07256 Y-2.65115
G01 X-3.09651 Y-2.65392
G01 X-3.13969 Y-2.65833
G01 X-3.17272 Y-2.66229
G01 X-3.18737 Y-2.66427
G01 X-3.22104 Y-2.66925
G01 X-3.23217 Y-2.67033
G01 X-3.24287 Y-2.67088
G01 X-3.25271 Y-2.67097
G01 X-3.26255 Y-2.67066
G01 X-3.27206 Y-2.66999
G01 X-3.28438 Y-2.66855
G01 X-3.29365 Y-2.66705
G01 X-3.30259 Y-2.66528
G01 X-3.31247 Y-2.66292
G01 X-3.32557 Y-2.65920
G01 X-3.52784 Y-2.65920
G01 X-3.58176 Y-2.63688
G01 X-3.59504 Y-2.63576
G01 X-3.60890 Y-2.63388
G01 X-3.61779 Y-2.63221
G01 X-3.62990 Y-2.62929
G01 X-3.64032 Y-2.62609
G01 X-3.64951 Y-2.62265
G01 X-3.65827 Y-2.61873
G01 X-3.66786 Y-2.61360
G01 X-3.67461 Y-2.60939
G01 X-3.68046 Y-2.60524
G01 X-3.68396 Y-2.60251
G01 X-3.69224 Y-2.59540
G01 X-3.69836 Y-2.59049
G01 X-3.70633 Y-2.58463
G01 X-3.71461 Y-2.57905
G01 X-3.71636 Y-2.56915
G01 X-3.71723 Y-2.56136
G01 X-3.71780 Y-2.55323
G01 X-3.71888 Y-2.54510
G01 X-3.72431 Y-2.53831
G01 X-3.73065 Y-2.53243
G01 X-3.73792 Y-2.52747
G01 X-3.74610 Y-2.52343
G01 X-3.83152 Y-2.48805
G01 X-3.83338 Y-2.48805
G01 X-3.88232 Y-2.46778
G01 X-3.91110 Y-2.43900
G01 X-3.91610 Y-2.43462
G01 X-3.92110 Y-2.43150
G01 X-3.92610 Y-2.42962
G01 X-3.93110 Y-2.42900
G01 X-4.06890 Y-2.42900
G01 X-4.07390 Y-2.42962
G01 X-4.07890 Y-2.43150
G01 X-4.08390 Y-2.43462
G01 X-4.08890 Y-2.43900
G01 X-4.12418 Y-2.47428
G01 X-4.14506 Y-2.52470
G01 X-4.11287 Y-2.57680
G01 X-4.10382 Y-2.58909
G01 X-4.09348 Y-2.59878
G01 X-4.08184 Y-2.60588
G01 X-4.06890 Y-2.61039
G01 X-4.00277 Y-2.62600
G01 X-3.93310 Y-2.62600
G01 X-3.93110 Y-2.62800
G01 X-3.92077 Y-2.63980
G01 X-3.91340 Y-2.65160
G01 X-3.90897 Y-2.66340
G01 X-3.90750 Y-2.67520
G01 X-3.90750 Y-2.69490
G01 X-3.90602 Y-2.70670
G01 X-3.90160 Y-2.71850
G01 X-3.89422 Y-2.73030
G01 X-3.88390 Y-2.74210
G01 X-3.81131 Y-2.81470
G01 X-3.82628 Y-2.82854
G01 X-3.84126 Y-2.84053
G01 X-3.85623 Y-2.85068
G01 X-3.87121 Y-2.85899
G01 X-3.88618 Y-2.86545
G01 X-3.90115 Y-2.87006
G01 X-3.91613 Y-2.87283
G01 X-3.93110 Y-2.87375
G01 X-3.96421 Y-2.87375
G01 X-4.06890 Y-2.83039
G01 X-4.07460 Y-2.82739
G01 X-4.07939 Y-2.82349
G01 X-4.08329 Y-2.81870
G01 X-4.08629 Y-2.81300
G01 X-4.11402 Y-2.74604
G01 X-4.11625 Y-2.74099
G01 X-4.12047 Y-2.73262
G01 X-4.12500 Y-2.72485
G01 X-4.12821 Y-2.71982
G01 X-4.13554 Y-2.71671
G01 X-4.14221 Y-2.71425
G01 X-4.15282 Y-2.71106
G01 X-4.28118 Y-2.68069
G01 X-4.29551 Y-2.68132
G01 X-4.30581 Y-2.68130
G01 X-4.31021 Y-2.68116
G01 X-4.32497 Y-2.68017
G01 X-4.33984 Y-2.67834
G01 X-4.35106 Y-2.67639
G01 X-4.35586 Y-2.67542
G01 X-4.36799 Y-2.67256
G01 X-4.37875 Y-2.66958
G01 X-4.62129 Y-2.66959
G01 X-4.63037 Y-2.67215
G01 X-4.64072 Y-2.67469
G01 X-4.67432 Y-2.68152
G01 X-4.69449 Y-2.68598
G01 X-4.71399 Y-2.69060
G01 X-4.74714 Y-2.69902
G01 X-4.76059 Y-2.70203
G01 X-4.76530 Y-2.70298
G01 X-4.78498 Y-2.70630
G01 X-4.80762 Y-2.70899
G01 X-4.83267 Y-2.71078
G01 X-4.85989 Y-2.71145
G01 X-4.88586 Y-2.71101
G01 X-4.90000 Y-2.71024
G01 X-4.88586 Y-2.71101
G01 X-4.85989 Y-2.71145
G01 X-4.83267 Y-2.71078
G01 X-4.80762 Y-2.70899
G01 X-4.78498 Y-2.70630
G01 X-4.76530 Y-2.70298
G01 X-4.76059 Y-2.70203
G01 X-4.74714 Y-2.69902
G01 X-4.71399 Y-2.69060
G01 X-4.69449 Y-2.68598
G01 X-4.67432 Y-2.68152
G01 X-4.64072 Y-2.67469
G01 X-4.63037 Y-2.67215
G01 X-4.62129 Y-2.66959
G01 X-4.37875 Y-2.66958
G01 X-4.36799 Y-2.67256
G01 X-4.35586 Y-2.67542
G01 X-4.35106 Y-2.67639
G01 X-4.33984 Y-2.67834
G01 X-4.32497 Y-2.68017
G01 X-4.31021 Y-2.68116
G01 X-4.30581 Y-2.68130
G01 X-4.29551 Y-2.68132
G01 X-4.28118 Y-2.68069
G01 X-4.15282 Y-2.71106
G01 X-4.14221 Y-2.71425
G01 X-4.13554 Y-2.71671
G01 X-4.12821 Y-2.71982
G01 X-4.12500 Y-2.72485
G01 X-4.12047 Y-2.73262
G01 X-4.11625 Y-2.74099
G01 X-4.11402 Y-2.74604
G01 X-4.08629 Y-2.81300
G01 X-4.08329 Y-2.81870
G01 X-4.07939 Y-2.82349
G01 X-4.07460 Y-2.82739
G01 X-4.06890 Y-2.83039
G01 X-3.96421 Y-2.87375
G01 X-3.93110 Y-2.87375
G01 X-3.91613 Y-2.87283
G01 X-3.90115 Y-2.87006
G01 X-3.88618 Y-2.86545
G01 X-3.87121 Y-2.85899
G01 X-3.85623 Y-2.85068
G01 X-3.84126 Y-2.84053
G01 X-3.82628 Y-2.82854
G01 X-3.81131 Y-2.81470
G01 X-3.74610 Y-2.81470
G01 X-3.73384 Y-2.81439
G01 X-3.71979 Y-2.80948
G01 X-3.70810 Y-2.81159
G01 X-3.69480 Y-2.81447
G01 X-3.68297 Y-2.81751
G01 X-3.67158 Y-2.82091
G01 X-3.66112 Y-2.82451
G01 X-3.65536 Y-2.82667
G01 X-3.64453 Y-2.83115
G01 X-3.61613 Y-2.84412
G01 X-3.60873 Y-2.84297
G01 X-3.59640 Y-2.84045
G01 X-3.58573 Y-2.83751
G01 X-3.57627 Y-2.83424
G01 X-3.56944 Y-2.83147
G01 X-3.56072 Y-2.82516
G01 X-3.55513 Y-2.82154
G01 X-3.54668 Y-2.81671
G01 X-3.54307 Y-2.81489
G01 X-3.53521 Y-2.81141
G01 X-3.52779 Y-2.80874
G01 X-3.52073 Y-2.80675
G01 X-3.51449 Y-2.80544
G01 X-3.50581 Y-2.80434
G01 X-3.49948 Y-2.80405
G01 X-3.49356 Y-2.80417
G01 X-3.48995 Y-2.80443
G01 X-3.48396 Y-2.80518
G01 X-3.47514 Y-2.80699
G01 X-3.46886 Y-2.80880
G01 X-3.46206 Y-2.81124
G01 X-3.45471 Y-2.81443
G01 X-3.44743 Y-2.80988
G01 X-3.44015 Y-2.80663
G01 X-3.43287 Y-2.80468
G01 X-3.42559 Y-2.80403
G01 X-3.37441 Y-2.80403
G01 X-3.36423 Y-2.80530
G01 X-3.35406 Y-2.80911
G01 X-3.34830 Y-2.80912
G01 X-3.34403 Y-2.80930
G01 X-3.33826 Y-2.80993
G01 X-3.32990 Y-2.81155
G01 X-3.32338 Y-2.81342
G01 X-3.31778 Y-2.81545
G01 X-3.24540 Y-2.84540
G01 X-3.24269 Y-2.85193
G01 X-3.23657 Y-2.85874
G01 X-3.23319 Y-2.86274
G01 X-3.22627 Y-2.87157
G01 X-3.22092 Y-2.87914
G01 X-3.21428 Y-2.88984
G01 X-3.21069 Y-2.89651
G01 X-3.20783 Y-2.90250
G01 X-3.20611 Y-2.90650
G01 X-3.20307 Y-2.91464
G01 X-3.20145 Y-2.91989
G01 X-3.20009 Y-2.92509
G01 X-3.19894 Y-2.93058
G01 X-3.19814 Y-2.93559
G01 X-3.19754 Y-2.94101
G01 X-3.19715 Y-2.94992
G01 X-3.20108 Y-2.94994
G01 X-3.20146 Y-2.94132
G01 X-3.20203 Y-2.93610
G01 X-3.20308 Y-2.92988
G01 X-3.20430 Y-2.92446
G01 X-3.20681 Y-2.91588
G01 X-3.20889 Y-2.91015
G01 X-3.21143 Y-2.90410
G01 X-3.21421 Y-2.89828
G01 X-3.21954 Y-2.88866
G01 X-3.22196 Y-2.88474
G01 X-3.22661 Y-2.87781
G01 X-3.23241 Y-2.86999
G01 X-3.23623 Y-2.86524
G01 X-3.24600 Y-2.85406
G01 X-3.24841 Y-2.84841
G01 X-3.24818 Y-2.84818
G01 X-3.24841 Y-2.84841
G01 X-3.31920 Y-2.81912
G01 X-3.32463 Y-2.81714
G01 X-3.33087 Y-2.81537
G01 X-3.33881 Y-2.81381
G01 X-3.34428 Y-2.81323
G01 X-3.35477 Y-2.81298
G01 X-3.36518 Y-2.80912
G01 X-3.37465 Y-2.80796
G01 X-3.42541 Y-2.80797
G01 X-3.43218 Y-2.80856
G01 X-3.43884 Y-2.81034
G01 X-3.44558 Y-2.81336
G01 X-3.45034 Y-2.81634
G01 X-3.45114 Y-2.81600
G01 X-3.45034 Y-2.81634
G01 X-3.44757 Y-2.82839
G01 X-3.44639 Y-2.83497
G01 X-3.44563 Y-2.84165
G01 X-3.44539 Y-2.84539
G01 X-3.44537 Y-2.85410
G01 X-3.44576 Y-2.85986
G01 X-3.44644 Y-2.86536
G01 X-3.44735 Y-2.87055
G01 X-3.45066 Y-2.88531
G01 X-3.45170 Y-2.89163
G01 X-3.45272 Y-2.89975
G01 X-3.45379 Y-2.91167
G01 X-3.45445 Y-2.92235
G01 X-3.45565 Y-2.95389
G01 X-3.44963 Y-2.97968
G01 X-3.44169 Y-3.00586
G01 X-3.44226 Y-3.00663
G01 X-3.44169 Y-3.00586
G01 X-3.41278 Y-3.00571
G01 X-3.41122 Y-3.00603
G01 X-3.39261 Y-3.01825
G01 X-3.38121 Y-3.02505
G01 X-3.37573 Y-3.02813
G01 X-3.37445 Y-3.02921
G01 X-3.36496 Y-3.03914
G01 X-3.35260 Y-3.05330
G01 X-3.34268 Y-3.06606
G01 X-3.34035 Y-3.06928
G01 X-3.33203 Y-3.08178
G01 X-3.32725 Y-3.08981
G01 X-3.32181 Y-3.10005
G01 X-3.32020 Y-3.10339
G01 X-3.31591 Y-3.11320
G01 X-3.31357 Y-3.11932
G01 X-3.31061 Y-3.12833
G01 X-3.30754 Y-3.14031
G01 X-3.30598 Y-3.14871
G01 X-3.30510 Y-3.15611
G01 X-3.30580 Y-3.15877
G01 X-3.30745 Y-3.16391
G01 X-3.31042 Y-3.17187
G01 X-3.31357 Y-3.17903
G01 X-3.31852 Y-3.18847
G01 X-3.32349 Y-3.19634
G01 X-3.32887 Y-3.20358
G01 X-3.33452 Y-3.21005
G01 X-3.33509 Y-3.21057
G01 X-3.33632 Y-3.21123
G01 X-3.34393 Y-3.21430
G01 X-3.34527 Y-3.21455
G01 X-3.45366 Y-3.21451
G01 X-3.46088 Y-3.21755
G01 X-3.46494 Y-3.21948
G01 X-3.47358 Y-3.22420
G01 X-3.47770 Y-3.22676
G01 X-3.48349 Y-3.23067
G01 X-3.48762 Y-3.23370
G01 X-3.49466 Y-3.23929
G01 X-3.49879 Y-3.24284
G01 X-3.50650 Y-3.25001
G01 X-3.50843 Y-3.25001
G01 X-3.50650 Y-3.25001
G01 X-3.49847 Y-3.25744
G01 X-3.49433 Y-3.26098
G01 X-3.48735 Y-3.26651
G01 X-3.48322 Y-3.26952
G01 X-3.47745 Y-3.27340
G01 X-3.46849 Y-3.27868
G01 X-3.46025 Y-3.28273
G01 X-3.45366 Y-3.28549
G01 X-3.45134 Y-3.28539
G01 X-3.34463 Y-3.28549
G01 X-3.34237 Y-3.28625
G01 X-3.33705 Y-3.28842
G01 X-3.33120 Y-3.29117
G01 X-3.32217 Y-3.29611
G01 X-3.32218 Y-3.29661
G01 X-3.32217 Y-3.29611
G01 X-3.31574 Y-3.29322
G01 X-3.31286 Y-3.29176
G01 X-3.30745 Y-3.28865
G01 X-3.30079 Y-3.28404
G01 X-3.29589 Y-3.27998
G01 X-3.29272 Y-3.27700
G01 X-3.22272 Y-3.20700
G01 X-3.21885 Y-3.20277
G01 X-3.21508 Y-3.19804
G01 X-3.21495 Y-3.19810
G01 X-3.21508 Y-3.19804
G01 X-3.21399 Y-3.19246
G01 X-3.21346 Y-3.18852
G01 X-3.21305 Y-3.18175
G01 X-3.21301 Y-3.00020
G01 X-3.21265 Y-2.99855
G01 X-3.21022 Y-2.99312
G01 X-3.20737 Y-2.98576
G01 X-3.20556 Y-2.98016
G01 X-3.20418 Y-2.97511
G01 X-3.20302 Y-2.96979
G01 X-3.20168 Y-2.96105
G01 X-3.20122 Y-2.95505
G01 X-3.20108 Y-2.94994
G01 X-3.19715 Y-2.94992
G01 X-3.19728 Y-2.95522
G01 X-3.19778 Y-2.96150
G01 X-3.19915 Y-2.97052
G01 X-3.20036 Y-2.97603
G01 X-3.20232 Y-2.98304
G01 X-3.20435 Y-2.98900
G01 X-3.20660 Y-2.99466
G01 X-3.20908 Y-3.00020
G01 X-3.20912 Y-3.18184
G01 X-3.20956 Y-3.18895
G01 X-3.21052 Y-3.19548
G01 X-3.21141 Y-3.19970
G01 X-3.21585 Y-3.20532
G01 X-3.21990 Y-3.20974
G01 X-3.28997 Y-3.27981
G01 X-3.29328 Y-3.28293
G01 X-3.29842 Y-3.28719
G01 X-3.30540 Y-3.29200
G01 X-3.31098 Y-3.29522
G01 X-3.31402 Y-3.29677
G01 X-3.32251 Y-3.30052
G01 X-3.32412 Y-3.30904
G01 X-3.32648 Y-3.31810
G01 X-3.32923 Y-3.32619
G01 X-3.33199 Y-3.33270
G01 X-3.33525 Y-3.33908
G01 X-3.33951 Y-3.34595
G01 X-3.34408 Y-3.35202
G01 X-3.34923 Y-3.35769
G01 X-3.35496 Y-3.36291
G01 X-3.35892 Y-3.36601
G01 X-3.36201 Y-3.36817
G01 X-3.36992 Y-3.36936
G01 X-3.37722 Y-3.36979
G01 X-3.42176 Y-3.36980
G01 X-3.42828 Y-3.36953
G01 X-3.43360 Y-3.36892
G01 X-3.44043 Y-3.36764
G01 X-3.44632 Y-3.36609
G01 X-3.45275 Y-3.36389
G01 X-3.67244 Y-3.36387
G01 X-3.67771 Y-3.36359
G01 X-3.68242 Y-3.36300
G01 X-3.71942 Y-3.35648
G01 X-3.72803 Y-3.35834
G01 X-3.73587 Y-3.35950
G01 X-3.74436 Y-3.36020
G01 X-3.74962 Y-3.36034
G01 X-3.75587 Y-3.36020
G01 X-3.76322 Y-3.35962
G01 X-3.77098 Y-3.35851
G01 X-3.77840 Y-3.35700
G01 X-3.78790 Y-3.35439
G01 X-3.78881 Y-3.35040
G01 X-3.79033 Y-3.34485
G01 X-3.79501 Y-3.33156
G01 X-3.79725 Y-3.32343
G01 X-3.79893 Y-3.31458
G01 X-3.79941 Y-3.31079
G01 X-3.79991 Y-3.30422
G01 X-3.79990 Y-3.29579
G01 X-3.79954 Y-3.29049
G01 X-3.79888 Y-3.28509
G01 X-3.79801 Y-3.28008
G01 X-3.79676 Y-3.27458
G01 X-3.79529 Y-3.26935
G01 X-3.79353 Y-3.26406
G01 X-3.79127 Y-3.25802
G01 X-3.78911 Y-3.25082
G01 X-3.78714 Y-3.24178
G01 X-3.78518 Y-3.22892
G01 X-3.79889 Y-3.22509
G01 X-3.81260 Y-3.22382
G01 X-3.88740 Y-3.22382
G01 X-3.89788 Y-3.22456
G01 X-3.90836 Y-3.22680
G01 X-3.91884 Y-3.23053
G01 X-3.92932 Y-3.23575
G01 X-3.97068 Y-3.23575
G01 X-3.98116 Y-3.23053
G01 X-3.99164 Y-3.22680
G01 X-4.00212 Y-3.22456
G01 X-4.01260 Y-3.22382
G01 X-4.04280 Y-3.22382
G01 X-4.04817 Y-3.22366
G01 X-4.05352 Y-3.22326
G01 X-4.06054 Y-3.22231
G01 X-4.06979 Y-3.22034
G01 X-4.07627 Y-3.21848
G01 X-4.08133 Y-3.21674
G01 X-4.08740 Y-3.21436
G01 X-4.10145 Y-3.20966
G01 X-4.11707 Y-3.20653
G01 X-4.12326 Y-3.20279
G01 X-4.13289 Y-3.19753
G01 X-4.14289 Y-3.19268
G01 X-4.15410 Y-3.18795
G01 X-4.16763 Y-3.18309
G01 X-4.17777 Y-3.17997
G01 X-4.19378 Y-3.17587
G01 X-4.19889 Y-3.17476
G01 X-4.21310 Y-3.17210
G01 X-4.21848 Y-3.17125
G01 X-4.23523 Y-3.16914
G01 X-4.24090 Y-3.16859
G01 X-4.26102 Y-3.16724
G01 X-4.26714 Y-3.16709
G01 X-4.29518 Y-3.09920
G01 X-4.30166 Y-3.09299
G01 X-4.31297 Y-3.08128
G01 X-4.31740 Y-3.07640
G01 X-4.32586 Y-3.06651
G01 X-4.32978 Y-3.06162
G01 X-4.33603 Y-3.05337
G01 X-4.33922 Y-3.04887
G01 X-4.35131 Y-3.03091
G01 X-4.35779 Y-3.02173
G01 X-4.36667 Y-3.00983
G01 X-4.37788 Y-2.99572
G01 X-4.38357 Y-2.98788
G01 X-4.38664 Y-2.98326
G01 X-4.39162 Y-2.97507
G01 X-4.39375 Y-2.97127
G01 X-4.39832 Y-2.96233
G01 X-4.40300 Y-2.95188
G01 X-4.40568 Y-2.94514
G01 X-4.40881 Y-2.93633
G01 X-4.40856 Y-2.93609
G01 X-4.40881 Y-2.93633
G01 X-4.41153 Y-2.93518
G01 X-4.42471 Y-2.93265
G01 X-4.43701 Y-2.92943
G01 X-4.44751 Y-2.92592
G01 X-4.45131 Y-2.92445
G01 X-4.46035 Y-2.92050
G01 X-4.46480 Y-2.91829
G01 X-4.47068 Y-2.91505
G01 X-4.47942 Y-2.90948
G01 X-4.48500 Y-2.90539
G01 X-4.48819 Y-2.90282
G01 X-4.49309 Y-2.89854
G01 X-4.49759 Y-2.89406
G01 X-4.49819 Y-2.89244
G01 X-4.50001 Y-2.88189
G01 X-4.50273 Y-2.87014
G01 X-4.50372 Y-2.86424
G01 X-4.50436 Y-2.85854
G01 X-4.50471 Y-2.85031
G01 X-4.50443 Y-2.84238
G01 X-4.50335 Y-2.83338
G01 X-4.50299 Y-2.83140
G01 X-4.50255 Y-2.83124
G01 X-4.50299 Y-2.83140
G01 X-4.50710 Y-2.82728
G01 X-4.51175 Y-2.82319
G01 X-4.51615 Y-2.82044
G01 X-4.52035 Y-2.81886
G01 X-4.52465 Y-2.81834
G01 X-4.57524 Y-2.81833
G01 X-4.58142 Y-2.81940
G01 X-4.58797 Y-2.82295
G01 X-4.58887 Y-2.82329
G01 X-4.58982 Y-2.82341
G01 X-4.60395 Y-2.82354
G01 X-4.60790 Y-2.82395
G01 X-4.61429 Y-2.82517
G01 X-4.61892 Y-2.82653
G01 X-4.62221 Y-2.82772
G01 X-4.63127 Y-2.83137
G01 X-4.69000 Y-2.89018
G01 X-4.69142 Y-2.89109
G01 X-4.69917 Y-2.89408
G01 X-4.70658 Y-2.89750
G01 X-4.71357 Y-2.90133
G01 X-4.72091 Y-2.90614
G01 X-4.72617 Y-2.91017
G01 X-4.73111 Y-2.91450
G01 X-4.73582 Y-2.91923
G01 X-4.74021 Y-2.92429
G01 X-4.74273 Y-2.92753
G01 X-4.74287 Y-2.92747
G01 X-4.74273 Y-2.92753
G01 X-4.74390 Y-2.93306
G01 X-4.74462 Y-2.93775
G01 X-4.74524 Y-2.94432
G01 X-4.74540 Y-2.94888
G01 X-4.74528 Y-2.95497
G01 X-4.74493 Y-2.95952
G01 X-4.74404 Y-2.96612
G01 X-4.74276 Y-2.97240
G01 X-4.74289 Y-2.97246
G01 X-4.74276 Y-2.97240
G01 X-4.73757 Y-2.97883
G01 X-4.73301 Y-2.98368
G01 X-4.72898 Y-2.98744
G01 X-4.72569 Y-2.99022
G01 X-4.72123 Y-2.99363
G01 X-4.71518 Y-2.99769
G01 X-4.70991 Y-3.00076
G01 X-4.70459 Y-3.00348
G01 X-4.70042 Y-3.00539
G01 X-4.69391 Y-3.00800
G01 X-4.68674 Y-3.01043
G01 X-4.67877 Y-3.01265
G01 X-4.66984 Y-3.01461
G01 X-4.66504 Y-3.01547
G01 X-4.65973 Y-3.01626
G01 X-4.64979 Y-3.01737
G01 X-4.64005 Y-3.01803
G01 X-4.62848 Y-3.01830
G01 X-4.61489 Y-3.01802
G01 X-4.60451 Y-3.01742
G01 X-4.58911 Y-3.01600
G01 X-4.58842 Y-3.01599
G01 X-4.58708 Y-3.01634
G01 X-4.58594 Y-3.01713
G01 X-4.55082 Y-3.05227
G01 X-4.55087 Y-3.05237
G01 X-4.55082 Y-3.05227
G01 X-4.54516 Y-3.05388
G01 X-4.53057 Y-3.05864
G01 X-4.52165 Y-3.06205
G01 X-4.49717 Y-3.07219
G01 X-4.49589 Y-3.07304
G01 X-4.47091 Y-3.09818
G01 X-4.46328 Y-3.10686
G01 X-4.45941 Y-3.11174
G01 X-4.45637 Y-3.11588
G01 X-4.45089 Y-3.12427
G01 X-4.44897 Y-3.12760
G01 X-4.44553 Y-3.13430
G01 X-4.44353 Y-3.13882
G01 X-4.44111 Y-3.14538
G01 X-4.43872 Y-3.15413
G01 X-4.43762 Y-3.16035
G01 X-4.43713 Y-3.16475
G01 X-4.43687 Y-3.17046
G01 X-4.43717 Y-3.17825
G01 X-4.43797 Y-3.18449
G01 X-4.43886 Y-3.18904
G01 X-4.44044 Y-3.19503
G01 X-4.44271 Y-3.20163
G01 X-4.44574 Y-3.20866
G01 X-4.44730 Y-3.21181
G01 X-4.44807 Y-3.21309
G01 X-4.44914 Y-3.21401
G01 X-4.45047 Y-3.21450
G01 X-4.45118 Y-3.21455
G01 X-4.55402 Y-3.21449
G01 X-4.56079 Y-3.21733
G01 X-4.56643 Y-3.22004
G01 X-4.57275 Y-3.22351
G01 X-4.57643 Y-3.22574
G01 X-4.58330 Y-3.23030
G01 X-4.60448 Y-3.24581
G01 X-4.61722 Y-3.25488
G01 X-4.66110 Y-3.28546
G01 X-4.66978 Y-3.28823
G01 X-4.66112 Y-3.28547
G01 X-4.44898 Y-3.28544
G01 X-4.44536 Y-3.28531
G01 X-4.41943 Y-3.28530
G01 X-4.41474 Y-3.28513
G01 X-4.40883 Y-3.28449
G01 X-4.40475 Y-3.28378
G01 X-4.39773 Y-3.28204
G01 X-4.39035 Y-3.27947
G01 X-4.38091 Y-3.27557
G01 X-4.37233 Y-3.27140
G01 X-4.36390 Y-3.26640
G01 X-4.35687 Y-3.26156
G01 X-4.35456 Y-3.25984
G01 X-4.34397 Y-3.25108
G01 X-4.33587 Y-3.24349
G01 X-4.27298 Y-3.18070
G01 X-4.26714 Y-3.16709

G04 P0 ( dwell for no time -- G64 should not smooth over this point )
G00 Z1.000000 ( retract )

M5 ( Spindle off. )
G04 P1.000000
M9 ( Coolant off. )
M2 ( Program end. )

