( pcb2gcode 3.0.2 )
( Software-independent Gcode )

G94 ( Millimeters per minute feed rate. )
G21 ( Units == Millimeters. )

G90 ( Absolute coordinates. )
G00 S12000 ( RPM spindle speed. )
G01 F100.00000 ( Feedrate. )


G00 Z10.00000 (Retract to tool change height)
T1
M5      (Spindle stop.)
G04 P1.00000 (Wait for spindle to stop)
(MSG, Change tool bit to mill diameter 0.45000mm)
M6      (Tool change.)
M0      (Temporary machine stop.)
M3 ( Spindle on clockwise. )
G04 P1.00000 (Wait for spindle to get up to speed)
G04 P0 ( dwell for no time -- G64 should not smooth over this point )
G00 Z0.50000 ( retract )

G00 X0.00000 Y0.33795 ( rapid move to begin. )
G01 F25.00000
( Mill infeed pass 1/1 )
G01 Z-0.15000
G04 P0 ( dwell for no time -- G64 should not smooth over this point )
G01 F100.00000
G01 X0.00000 Y0.33795
G01 X0.00000 Y9.82043
G01 X0.05669 Y9.91425
G01 X0.13002 Y10.00285
G01 X0.19870 Y10.06706
G01 X0.29233 Y10.13389
G01 X0.33800 Y10.16000
G01 X14.90038 Y10.16000
G01 X14.99425 Y10.10326
G01 X15.08285 Y10.02993
G01 X15.14706 Y9.96122
G01 X15.21389 Y9.86762
G01 X15.24000 Y9.82195
G01 X15.24000 Y0.33957
G01 X15.18326 Y0.24569
G01 X15.10993 Y0.15710
G01 X15.04122 Y0.09289
G01 X14.94762 Y0.02606
G01 X14.90200 Y0.00000
G01 X0.33952 Y0.00000
G01 X0.24569 Y0.05669
G01 X0.14201 Y0.14450
G01 X0.07369 Y0.22352
G01 X0.03165 Y0.28349
G01 X0.00000 Y0.33795
G01 X0.13320 Y0.70998
G01 X0.13368 Y9.47123
G01 X0.13932 Y9.52401
G01 X0.15718 Y9.61405
G01 X0.17739 Y9.67059
G01 X0.21384 Y9.74385
G01 X0.24768 Y9.79437
G01 X0.30117 Y9.85665
G01 X0.33846 Y9.89096
G01 X0.39649 Y9.93353
G01 X0.45809 Y9.96869
G01 X0.55369 Y10.00514
G01 X0.61311 Y10.01804
G01 X0.70998 Y10.02675
G01 X14.55123 Y10.02627
G01 X14.66492 Y10.01001
G01 X14.75059 Y9.98256
G01 X14.84968 Y9.93005
G01 X14.94384 Y9.85164
G01 X14.97731 Y9.81359
G01 X15.01353 Y9.76346
G01 X15.05689 Y9.68332
G01 X15.07904 Y9.62561
G01 X15.09260 Y9.57677
G01 X15.10662 Y9.46114
G01 X15.10662 Y0.69934
G01 X15.10063 Y0.63594
G01 X15.08277 Y0.54590
G01 X15.06256 Y0.48936
G01 X15.02611 Y0.41610
G01 X14.99227 Y0.36558
G01 X14.93878 Y0.30330
G01 X14.89359 Y0.26264
G01 X14.83502 Y0.22080
G01 X14.77264 Y0.18707
G01 X14.68625 Y0.15481
G01 X14.62684 Y0.14191
G01 X14.52999 Y0.13320
G01 X0.69934 Y0.13332
G01 X0.64643 Y0.13769
G01 X0.57503 Y0.14994
G01 X0.48936 Y0.17739
G01 X0.39027 Y0.22990
G01 X0.29611 Y0.30831
G01 X0.26264 Y0.34635
G01 X0.22642 Y0.39649
G01 X0.18306 Y0.47663
G01 X0.16091 Y0.53434
G01 X0.14735 Y0.58318
G01 X0.13332 Y0.69880
G01 X0.13320 Y0.70998
G01 X0.35796 Y0.70998
G01 X0.36744 Y0.62898
G01 X0.38867 Y0.56774
G01 X0.40889 Y0.52802
G01 X0.45481 Y0.46751
G01 X0.51280 Y0.41839
G01 X0.57978 Y0.38318
G01 X0.62103 Y0.36995
G01 X0.70998 Y0.35796
G01 X14.52999 Y0.35796
G01 X14.62179 Y0.37018
G01 X14.68252 Y0.39299
G01 X14.71193 Y0.40889
G01 X14.77244 Y0.45481
G01 X14.81498 Y0.50378
G01 X14.83330 Y0.53177
G01 X14.86743 Y0.61049
G01 X14.88199 Y0.70998
G01 X14.88199 Y9.44999
G01 X14.87251 Y9.53097
G01 X14.85128 Y9.59221
G01 X14.83106 Y9.63193
G01 X14.78514 Y9.69244
G01 X14.72715 Y9.74156
G01 X14.66017 Y9.77676
G01 X14.61892 Y9.79000
G01 X14.53929 Y9.80178
G01 X0.70998 Y9.80199
G01 X0.61816 Y9.78977
G01 X0.55743 Y9.76696
G01 X0.52802 Y9.75106
G01 X0.46751 Y9.70514
G01 X0.42497 Y9.65617
G01 X0.40665 Y9.62817
G01 X0.37252 Y9.54946
G01 X0.35796 Y9.44999
G01 X0.35796 Y0.70998
G04 P0 ( dwell for no time -- G64 should not smooth over this point )
G00 Z0.50000 ( retract )

G00 X5.33697 Y4.62585 ( rapid move to begin. )
G01 F25.00000
( Mill infeed pass 1/1 )
G01 Z-0.15000
G04 P0 ( dwell for no time -- G64 should not smooth over this point )
G01 F100.00000
G01 X5.33697 Y4.62585
G01 X5.68455 Y3.78676
G01 X6.32676 Y3.14455
G01 X7.16585 Y2.79697
G01 X8.07410 Y2.79697
G01 X8.91319 Y3.14455
G01 X9.55540 Y3.78676
G01 X9.90298 Y4.62585
G01 X9.90298 Y5.53410
G01 X9.55540 Y6.37319
G01 X8.91319 Y7.01540
G01 X8.07410 Y7.36298
G01 X7.16585 Y7.36298
G01 X6.32676 Y7.01540
G01 X5.68455 Y6.37319
G01 X5.33697 Y5.53410
G01 X5.33697 Y4.62585
G01 X5.39641 Y5.00492
G01 X5.41604 Y4.77462
G01 X5.46054 Y4.54495
G01 X5.52084 Y4.34231
G01 X5.60057 Y4.14647
G01 X5.70954 Y3.93946
G01 X5.84004 Y3.74533
G01 X5.97459 Y3.58224
G01 X6.13255 Y3.42524
G01 X6.31467 Y3.27838
G01 X6.49145 Y3.16243
G01 X6.67868 Y3.06418
G01 X6.89544 Y2.97627
G01 X7.12041 Y2.91206
G01 X7.32841 Y2.87416
G01 X7.53913 Y2.85671
G01 X7.78424 Y2.86131
G01 X7.99417 Y2.88668
G01 X8.20062 Y2.93235
G01 X8.42167 Y3.00444
G01 X8.57768 Y3.07165
G01 X8.76267 Y3.17111
G01 X8.95693 Y3.30144
G01 X9.13610 Y3.45183
G01 X9.28400 Y3.60294
G01 X9.42332 Y3.77668
G01 X9.54456 Y3.96347
G01 X9.64164 Y4.15130
G01 X9.72820 Y4.36862
G01 X9.78875 Y4.58295
G01 X9.82589 Y4.79110
G01 X9.84428 Y5.02430
G01 X9.83793 Y5.25534
G01 X9.81972 Y5.41431
G01 X9.77565 Y5.63115
G01 X9.70562 Y5.85437
G01 X9.62292 Y6.04896
G01 X9.51601 Y6.24434
G01 X9.38309 Y6.43679
G01 X9.24651 Y6.59821
G01 X9.08660 Y6.75322
G01 X8.90265 Y6.89775
G01 X8.72444 Y7.01152
G01 X8.52581 Y7.11225
G01 X8.30735 Y7.19590
G01 X8.10346 Y7.25183
G01 X7.88393 Y7.28927
G01 X7.65051 Y7.30453
G01 X7.43918 Y7.29762
G01 X7.21977 Y7.26869
G01 X7.05396 Y7.23179
G01 X6.85368 Y7.16859
G01 X6.63847 Y7.07682
G01 X6.44380 Y6.96869
G01 X6.26999 Y6.84832
G01 X6.09161 Y6.69699
G01 X5.93047 Y6.52739
G01 X5.80050 Y6.36059
G01 X5.68736 Y6.18200
G01 X5.57886 Y5.96529
G01 X5.52036 Y5.81635
G01 X5.45760 Y5.60413
G01 X5.41477 Y5.37416
G01 X5.39661 Y5.16491
G01 X5.39641 Y5.00492

G04 P0 ( dwell for no time -- G64 should not smooth over this point )
G00 Z10.000000 ( retract )

M5 ( Spindle off. )
G04 P1.000000
M9 ( Coolant off. )
M2 ( Program end. )

