( pcb2gcode 3.0.2 )
( Software-independent Gcode )

G94 ( Inches per minute feed rate. )
G20 ( Units == INCHES. )

G90 ( Absolute coordinates. )
G00 S12000 ( RPM spindle speed. )
G64 P0.00040 ( set maximum deviation from commanded toolpath )
G01 F360.00000 ( Feedrate. )


G00 Z1.00000 (Retract to tool change height)
T1
M5      (Spindle stop.)
G04 P1.00000 (Wait for spindle to stop)
(MSG, Change tool bit to mill diameter 0.02362in)
M6      (Tool change.)
M0      (Temporary machine stop.)
M3 ( Spindle on clockwise. )
G04 P1.00000 (Wait for spindle to get up to speed)
G04 P0 ( dwell for no time -- G64 should not smooth over this point )
G00 Z0.08000 ( retract )

G00 X4.72827 Y-3.78499 ( rapid move to begin. )
G01 F180.00000
( Mill infeed pass 1/1 )
G01 Z-0.04000
G04 P0 ( dwell for no time -- G64 should not smooth over this point )
G01 F360.00000
G01 X4.72827 Y-3.78499
G01 X4.71718 Y-3.78672
G01 X4.70603 Y-3.78977
G01 X4.70395 Y-3.79054
G01 X4.68942 Y-3.79696
G01 X4.68029 Y-3.79032
G01 X4.66800 Y-3.78342
G01 X4.65620 Y-3.77875
G01 X4.65409 Y-3.77814
G01 X4.64481 Y-3.77607
G01 X4.64040 Y-3.77554
G01 X4.64481 Y-3.77607
G01 X4.65368 Y-3.77803
G01 X4.65571 Y-3.77862
G01 X4.66799 Y-3.78345
G01 X4.67509 Y-3.78735
G01 X4.71483 Y-3.78735
G01 X4.71829 Y-3.78649
G01 X4.72675 Y-3.78518
G01 X4.73628 Y-3.78461
G01 X4.77590 Y-3.78460
G01 X4.78078 Y-3.78444
G01 X4.79170 Y-3.78306
G01 X4.79653 Y-3.78174
G01 X4.80036 Y-3.77912
G01 X4.80451 Y-3.77552
G01 X4.80700 Y-3.77298
G01 X4.80979 Y-3.76952
G01 X4.81177 Y-3.76643
G01 X4.81416 Y-3.76172
G01 X4.81543 Y-3.75829
G01 X4.81664 Y-3.75356
G01 X4.81723 Y-3.74872
G01 X4.81733 Y-3.74473
G01 X4.81699 Y-3.74075
G01 X4.81609 Y-3.73598
G01 X4.81487 Y-3.73210
G01 X4.81295 Y-3.72768
G01 X4.81094 Y-3.72424
G01 X4.80813 Y-3.72036
G01 X4.80577 Y-3.71771
G01 X4.80286 Y-3.71505
G01 X4.79931 Y-3.71238
G01 X4.79581 Y-3.71030
G01 X4.79216 Y-3.70860
G01 X4.78839 Y-3.70731
G01 X4.78328 Y-3.70617
G01 X4.77968 Y-3.70574
G01 X4.77443 Y-3.70576
G01 X4.77043 Y-3.70623
G01 X4.76813 Y-3.70667
G01 X4.61900 Y-3.70670
G01 X4.61260 Y-3.70753
G01 X4.60984 Y-3.70822
G01 X4.60713 Y-3.70911
G01 X4.60230 Y-3.71125
G01 X4.59915 Y-3.71310
G01 X4.59680 Y-3.71471
G01 X4.59458 Y-3.71650
G01 X4.59221 Y-3.71873
G01 X4.58878 Y-3.72275
G01 X4.58692 Y-3.72541
G01 X4.58547 Y-3.72786
G01 X4.58301 Y-3.73339
G01 X4.58206 Y-3.73644
G01 X4.58146 Y-3.73918
G01 X4.58085 Y-3.74317
G01 X4.58065 Y-3.74639
G01 X4.58071 Y-3.74922
G01 X4.58101 Y-3.75203
G01 X4.58169 Y-3.75600
G01 X4.58250 Y-3.75909
G01 X4.58358 Y-3.76210
G01 X4.58509 Y-3.76541
G01 X4.58670 Y-3.76824
G01 X4.58854 Y-3.77092
G01 X4.59051 Y-3.77344
G01 X4.59242 Y-3.77548
G01 X4.59732 Y-3.77967
G01 X4.59795 Y-3.78012
G01 X4.62108 Y-3.77606
G01 X4.62554 Y-3.77554
G01 X4.66425 Y-3.79477
G01 X4.67396 Y-3.80032
G01 X4.68231 Y-3.80639
G01 X4.68097 Y-3.81368
G01 X4.67985 Y-3.82111
G01 X4.67912 Y-3.83687
G01 X4.67989 Y-3.84733
G01 X4.68135 Y-3.85633
G01 X4.68445 Y-3.86823
G01 X4.68516 Y-3.87040
G01 X4.68516 Y-3.88083
G01 X4.68170 Y-3.88429
G01 X4.68516 Y-3.88083
G01 X4.69484 Y-3.88083
G01 X4.69961 Y-3.88271
G01 X4.71117 Y-3.88623
G01 X4.72230 Y-3.88837
G01 X4.73227 Y-3.88929
G01 X4.73700 Y-3.88941
G01 X4.81698 Y-3.88941
G01 X4.82177 Y-3.88973
G01 X4.83459 Y-3.88964
G01 X4.84610 Y-3.88814
G01 X4.85230 Y-3.88682
G01 X4.85234 Y-3.88692
G01 X4.85230 Y-3.88682
G01 X4.85349 Y-3.88643
G01 X4.85457 Y-3.88579
G01 X4.85473 Y-3.88601
G01 X4.85457 Y-3.88579
G01 X4.85626 Y-3.88397
G01 X4.86078 Y-3.87559
G01 X4.86590 Y-3.86363
G01 X4.86883 Y-3.85349
G01 X4.87054 Y-3.84269
G01 X4.87087 Y-3.83264
G01 X4.87011 Y-3.82348
G01 X4.86846 Y-3.81493
G01 X4.86804 Y-3.81342
G01 X4.86557 Y-3.80548
G01 X4.86266 Y-3.79830
G01 X4.86275 Y-3.74715
G01 X4.86319 Y-3.74352
G01 X4.86423 Y-3.73883
G01 X4.86536 Y-3.73547
G01 X4.86700 Y-3.73189
G01 X4.86940 Y-3.72768
G01 X4.87179 Y-3.72443
G01 X4.87424 Y-3.72174
G01 X4.87815 Y-3.71823
G01 X4.88110 Y-3.71611
G01 X4.88461 Y-3.71411
G01 X4.88902 Y-3.71218
G01 X4.89315 Y-3.71087
G01 X4.89702 Y-3.71012
G01 X4.90215 Y-3.70966
G01 X4.90649 Y-3.70982
G01 X4.91122 Y-3.71054
G01 X4.91514 Y-3.71152
G01 X4.91855 Y-3.71278
G01 X4.92324 Y-3.71515
G01 X4.92632 Y-3.71707
G01 X4.93009 Y-3.72011
G01 X4.93345 Y-3.72360
G01 X4.93615 Y-3.72700
G01 X4.93823 Y-3.73034
G01 X4.94030 Y-3.73463
G01 X4.94174 Y-3.73872
G01 X4.94287 Y-3.74417
G01 X4.94332 Y-3.74844
G01 X4.94331 Y-3.91264
G01 X4.94275 Y-3.91785
G01 X4.94124 Y-3.92378
G01 X4.93949 Y-3.92823
G01 X4.93715 Y-3.93241
G01 X4.93434 Y-3.93637
G01 X4.93176 Y-3.93931
G01 X4.90862 Y-3.96236
G01 X4.90564 Y-3.96495
G01 X4.90339 Y-3.96657
G01 X4.90102 Y-3.96800
G01 X4.89789 Y-3.96960
G01 X4.89534 Y-3.97071
G01 X4.89041 Y-3.97222
G01 X4.88457 Y-3.97317
G01 X4.88100 Y-3.97335
G01 X4.63420 Y-3.97335
G01 X4.63103 Y-3.97313
G01 X4.62754 Y-3.97261
G01 X4.62482 Y-3.97204
G01 X4.62215 Y-3.97125
G01 X4.61919 Y-3.97010
G01 X4.61566 Y-3.96837
G01 X4.61123 Y-3.96561
G01 X4.60784 Y-3.96280
G01 X4.60301 Y-3.95794
G01 X4.60049 Y-3.95490
G01 X4.59832 Y-3.95160
G01 X4.59580 Y-3.94652
G01 X4.59440 Y-3.94276
G01 X4.59336 Y-3.93848
G01 X4.59275 Y-3.93370
G01 X4.59265 Y-3.84529
G01 X4.59414 Y-3.84114
G01 X4.59644 Y-3.83257
G01 X4.59799 Y-3.82238
G01 X4.59840 Y-3.81508
G01 X4.59866 Y-3.79382
G01 X4.60006 Y-3.79174
G01 X4.59866 Y-3.79382
G01 X4.59868 Y-3.79200
G01 X4.62287 Y-3.78774
G01 X4.62960 Y-3.78701
G01 X4.63582 Y-3.78698
G01 X4.64246 Y-3.78764
G01 X4.65210 Y-3.78987
G01 X4.66301 Y-3.79416
G01 X4.66947 Y-3.79775
G01 X4.67101 Y-3.80144
G01 X4.67216 Y-3.80534
G01 X4.67305 Y-3.81013
G01 X4.67334 Y-3.81459
G01 X4.67335 Y-3.89264
G01 X4.66989 Y-3.89610
G01 X4.67335 Y-3.89264
G01 X4.86265 Y-3.89264
G01 X4.86611 Y-3.89610
G01 X4.86265 Y-3.89264
G01 X4.86265 Y-3.87119
G01 X4.86572 Y-3.86403
G01 X4.86638 Y-3.86212
G01 X4.86881 Y-3.85349
G01 X4.87030 Y-3.84467
G01 X4.87055 Y-3.84226
G01 X4.87084 Y-3.83221
G01 X4.87013 Y-3.82378
G01 X4.86804 Y-3.81342
G01 X4.86557 Y-3.80548
G01 X4.86287 Y-3.79878
G01 X4.86136 Y-3.79543
G01 X4.85289 Y-3.78034
G01 X4.85085 Y-3.77739
G01 X4.85085 Y-3.74918
G01 X4.85115 Y-3.74431
G01 X4.85170 Y-3.74070
G01 X4.85266 Y-3.73636
G01 X4.85372 Y-3.73290
G01 X4.85487 Y-3.72990
G01 X4.85642 Y-3.72663
G01 X4.85856 Y-3.72275
G01 X4.86052 Y-3.71973
G01 X4.86271 Y-3.71686
G01 X4.86539 Y-3.71389
G01 X4.86861 Y-3.71085
G01 X4.87137 Y-3.70854
G01 X4.87430 Y-3.70644
G01 X4.87738 Y-3.70457
G01 X4.88024 Y-3.70311
G01 X4.88430 Y-3.70134
G01 X4.88814 Y-3.70000
G01 X4.91786 Y-3.70000
G01 X4.92088 Y-3.70100
G01 X4.92385 Y-3.70220
G01 X4.92886 Y-3.70476
G01 X4.93228 Y-3.70684
G01 X4.93582 Y-3.70946
G01 X4.93882 Y-3.71211
G01 X4.94268 Y-3.71621
G01 X4.94543 Y-3.71967
G01 X4.94785 Y-3.72337
G01 X4.95000 Y-3.72745
G01 X4.95000 Y-3.93363
G01 X4.94771 Y-3.93782
G01 X4.94472 Y-3.94222
G01 X4.94226 Y-3.94534
G01 X4.93982 Y-3.94795
G01 X4.91667 Y-3.97101
G01 X4.91430 Y-3.97314
G01 X4.91179 Y-3.97511
G01 X4.90915 Y-3.97691
G01 X4.90640 Y-3.97852
G01 X4.90253 Y-3.98048
G01 X4.89958 Y-3.98174
G01 X4.89655 Y-3.98279
G01 X4.89345 Y-3.98364
G01 X4.88645 Y-3.98485
G01 X4.88100 Y-3.98516
G01 X4.63422 Y-3.98516
G01 X4.62916 Y-3.98480
G01 X4.62294 Y-3.98373
G01 X4.61793 Y-3.98229
G01 X4.61347 Y-3.98048
G01 X4.60994 Y-3.97870
G01 X4.60713 Y-3.97708
G01 X4.60444 Y-3.97528
G01 X4.60188 Y-3.97329
G01 X4.59917 Y-3.97085
G01 X4.59462 Y-3.96626
G01 X4.59251 Y-3.96387
G01 X4.59034 Y-3.96102
G01 X4.58859 Y-3.95836
G01 X4.58685 Y-3.95522
G01 X4.58493 Y-3.95114
G01 X4.58375 Y-3.94816
G01 X4.58278 Y-3.94511
G01 X4.58201 Y-3.94199
G01 X4.58146 Y-3.93884
G01 X4.58098 Y-3.93471
G01 X4.58083 Y-3.93100
G01 X4.58083 Y-3.86879
G01 X4.58490 Y-3.86233
G01 X4.59029 Y-3.85151
G01 X4.59375 Y-3.84236
G01 X4.59634 Y-3.83286
G01 X4.59796 Y-3.82238
G01 X4.59815 Y-3.82019
G01 X4.59840 Y-3.81508
G01 X4.59863 Y-3.79551
G01 X4.58682 Y-3.79565
G01 X4.58659 Y-3.81481
G01 X4.58625 Y-3.82085
G01 X4.58498 Y-3.82951
G01 X4.58285 Y-3.83768
G01 X4.58136 Y-3.84169
G01 X4.57685 Y-3.84579
G01 X4.57454 Y-3.84746
G01 X4.57211 Y-3.84895
G01 X4.56813 Y-3.85099
G01 X4.56355 Y-3.85266
G01 X4.55920 Y-3.85369
G01 X4.55439 Y-3.85427
G01 X4.50518 Y-3.85433
G01 X4.50000 Y-3.85389
G01 X4.50000 Y-3.84185
G01 X4.50247 Y-3.84232
G01 X4.50519 Y-3.84252
G01 X4.55283 Y-3.84253
G01 X4.55653 Y-3.84216
G01 X4.55893 Y-3.84169
G01 X4.56203 Y-3.84071
G01 X4.56428 Y-3.83976
G01 X4.56815 Y-3.83752
G01 X4.57072 Y-3.83554
G01 X4.57359 Y-3.83266
G01 X4.57624 Y-3.82906
G01 X4.57779 Y-3.82620
G01 X4.57935 Y-3.82215
G01 X4.58028 Y-3.81748
G01 X4.58054 Y-3.81420
G01 X4.58028 Y-3.81052
G01 X4.57981 Y-3.80775
G01 X4.57924 Y-3.80547
G01 X4.57762 Y-3.80143
G01 X4.57579 Y-3.79826
G01 X4.57287 Y-3.79453
G01 X4.56933 Y-3.79134
G01 X4.56593 Y-3.78911
G01 X4.56382 Y-3.78802
G01 X4.56165 Y-3.78715
G01 X4.55668 Y-3.78586
G01 X4.55280 Y-3.78548
G01 X4.50559 Y-3.78546
G01 X4.50350 Y-3.78559
G01 X4.50000 Y-3.78610
G01 X4.50000 Y-3.76222
G01 X4.50563 Y-3.76184
G01 X4.55283 Y-3.76185
G01 X4.55685 Y-3.76206
G01 X4.56045 Y-3.76254
G01 X4.56089 Y-3.76262
G01 X4.58691 Y-3.78941
G01 X4.58659 Y-3.81481
G01 X4.58625 Y-3.82085
G01 X4.58498 Y-3.82951
G01 X4.58255 Y-3.83861
G01 X4.57940 Y-3.84690
G01 X4.57400 Y-3.85757
G01 X4.57072 Y-3.86268
G01 X4.56700 Y-3.86396
G01 X4.56386 Y-3.86480
G01 X4.56066 Y-3.86542
G01 X4.55706 Y-3.86589
G01 X4.55198 Y-3.86617
G01 X4.50558 Y-3.86615
G01 X4.50000 Y-3.86582
G01 X4.50000 Y-3.82961
G01 X4.49840 Y-3.82889
G01 X4.49631 Y-3.82764
G01 X4.49411 Y-3.82577
G01 X4.49273 Y-3.82415
G01 X4.49120 Y-3.82177
G01 X4.49039 Y-3.82000
G01 X4.48955 Y-3.81690
G01 X4.48928 Y-3.81441
G01 X4.48955 Y-3.81690
G01 X4.49039 Y-3.82000
G01 X4.49120 Y-3.82177
G01 X4.49298 Y-3.82449
G01 X4.49442 Y-3.82606
G01 X4.49665 Y-3.82787
G01 X4.49915 Y-3.82927
G01 X4.50112 Y-3.82996
G01 X4.50351 Y-3.83053
G01 X4.50559 Y-3.83072
G01 X4.55199 Y-3.83073
G01 X4.55547 Y-3.83036
G01 X4.55857 Y-3.82939
G01 X4.56175 Y-3.82759
G01 X4.56391 Y-3.82574
G01 X4.56617 Y-3.82287
G01 X4.56763 Y-3.81996
G01 X4.56823 Y-3.81795
G01 X4.56873 Y-3.81400
G01 X4.56830 Y-3.81046
G01 X4.56778 Y-3.80843
G01 X4.56660 Y-3.80582
G01 X4.56523 Y-3.80380
G01 X4.56387 Y-3.80222
G01 X4.56135 Y-3.80013
G01 X4.55885 Y-3.79873
G01 X4.55688 Y-3.79804
G01 X4.55449 Y-3.79747
G01 X4.55241 Y-3.79728
G01 X4.50600 Y-3.79727
G01 X4.50253 Y-3.79764
G01 X4.49943 Y-3.79861
G01 X4.49625 Y-3.80041
G01 X4.49380 Y-3.80255
G01 X4.49161 Y-3.80547
G01 X4.49037 Y-3.80803
G01 X4.48946 Y-3.81157
G01 X4.48928 Y-3.81441
G01 X4.48940 Y-3.81197
G01 X4.48998 Y-3.80919
G01 X4.49085 Y-3.80691
G01 X4.49183 Y-3.80513
G01 X4.49353 Y-3.80285
G01 X4.49559 Y-3.80090
G01 X4.49833 Y-3.79914
G01 X4.50000 Y-3.79839
G01 X4.50000 Y-3.77412
G01 X4.50321 Y-3.77375
G01 X4.50601 Y-3.77365
G01 X4.55242 Y-3.77366
G01 X4.55600 Y-3.77385
G01 X4.56033 Y-3.77456
G01 X4.56611 Y-3.77620
G01 X4.57049 Y-3.77814
G01 X4.57501 Y-3.78085
G01 X4.57972 Y-3.78469
G01 X4.58325 Y-3.78849
G01 X4.58685 Y-3.79366
G01 X4.58682 Y-3.79565
G01 X4.61229 Y-3.79536
G01 X4.61459 Y-3.79320
G01 X4.61685 Y-3.79148
G01 X4.62000 Y-3.78960
G01 X4.62297 Y-3.78829
G01 X4.62565 Y-3.78742
G01 X4.62868 Y-3.78707
G01 X4.63531 Y-3.78695
G01 X4.64010 Y-3.78738
G01 X4.64324 Y-3.78836
G01 X4.64617 Y-3.78969
G01 X4.64959 Y-3.79183
G01 X4.65187 Y-3.79359
G01 X4.65392 Y-3.79561
G01 X4.65621 Y-3.79846
G01 X4.65829 Y-3.80176
G01 X4.66002 Y-3.80581
G01 X4.66118 Y-3.81054
G01 X4.66152 Y-3.81418
G01 X4.66154 Y-3.90446
G01 X4.65808 Y-3.90792
G01 X4.66154 Y-3.90446
G01 X4.86918 Y-3.90446
G01 X4.86955 Y-3.90536
G01 X4.86918 Y-3.90446
G01 X4.87446 Y-3.89918
G01 X4.87536 Y-3.89955
G01 X4.87446 Y-3.89918
G01 X4.87447 Y-3.74959
G01 X4.87470 Y-3.74635
G01 X4.87531 Y-3.74316
G01 X4.87610 Y-3.74046
G01 X4.87702 Y-3.73823
G01 X4.87875 Y-3.73502
G01 X4.88010 Y-3.73296
G01 X4.88195 Y-3.73075
G01 X4.88431 Y-3.72850
G01 X4.88621 Y-3.72693
G01 X4.88826 Y-3.72556
G01 X4.89044 Y-3.72442
G01 X4.89380 Y-3.72300
G01 X4.89610 Y-3.72230
G01 X4.89847 Y-3.72184
G01 X4.90168 Y-3.72149
G01 X4.90409 Y-3.72148
G01 X4.90649 Y-3.72172
G01 X4.91010 Y-3.72237
G01 X4.91399 Y-3.72367
G01 X4.91868 Y-3.72617
G01 X4.92195 Y-3.72867
G01 X4.92503 Y-3.73191
G01 X4.92738 Y-3.73517
G01 X4.92953 Y-3.73949
G01 X4.93063 Y-3.74294
G01 X4.93138 Y-3.74727
G01 X4.93154 Y-3.75000
G01 X4.93149 Y-3.91267
G01 X4.93092 Y-3.91674
G01 X4.93005 Y-3.91999
G01 X4.92936 Y-3.92193
G01 X4.92771 Y-3.92525
G01 X4.92483 Y-3.92936
G01 X4.92315 Y-3.93121
G01 X4.90027 Y-3.95400
G01 X4.89776 Y-3.95610
G01 X4.89534 Y-3.95764
G01 X4.89213 Y-3.95926
G01 X4.88903 Y-3.96039
G01 X4.88469 Y-3.96125
G01 X4.88141 Y-3.96154
G01 X4.63294 Y-3.96145
G01 X4.62897 Y-3.96087
G01 X4.62657 Y-3.96027
G01 X4.62387 Y-3.95926
G01 X4.62069 Y-3.95766
G01 X4.61867 Y-3.95641
G01 X4.61680 Y-3.95497
G01 X4.61165 Y-3.94988
G01 X4.61008 Y-3.94800
G01 X4.60871 Y-3.94597
G01 X4.60621 Y-3.94078
G01 X4.60546 Y-3.93850
G01 X4.60501 Y-3.93654
G01 X4.60457 Y-3.93331
G01 X4.60446 Y-3.93100
G01 X4.58083 Y-3.93100
G01 X4.61627 Y-3.93100
G01 X4.61660 Y-3.93421
G01 X4.61723 Y-3.93653
G01 X4.61884 Y-3.93990
G01 X4.62031 Y-3.94185
G01 X4.62434 Y-3.94588
G01 X4.62638 Y-3.94731
G01 X4.62849 Y-3.94838
G01 X4.63003 Y-3.94897
G01 X4.63426 Y-3.94971
G01 X4.88137 Y-3.94973
G01 X4.88437 Y-3.94935
G01 X4.88637 Y-3.94885
G01 X4.88962 Y-3.94731
G01 X4.89131 Y-3.94617
G01 X4.91510 Y-3.92255
G01 X4.91737 Y-3.91951
G01 X4.91833 Y-3.91769
G01 X4.91940 Y-3.91411
G01 X4.91971 Y-3.91182
G01 X4.91971 Y-3.74922
G01 X4.91913 Y-3.74562
G01 X4.91826 Y-3.74321
G01 X4.91662 Y-3.74030
G01 X4.91416 Y-3.73756
G01 X4.91198 Y-3.73592
G01 X4.90880 Y-3.73431
G01 X4.90654 Y-3.73369
G01 X4.90282 Y-3.73327
G01 X4.89991 Y-3.73357
G01 X4.89784 Y-3.73410
G01 X4.89452 Y-3.73559
G01 X4.89231 Y-3.73719
G01 X4.89004 Y-3.73942
G01 X4.88873 Y-3.74135
G01 X4.88725 Y-3.74434
G01 X4.88640 Y-3.74797
G01 X4.88628 Y-3.74959
G01 X4.88627 Y-3.90407
G01 X4.87407 Y-3.91627
G01 X4.64973 Y-3.91627
G01 X4.64971 Y-3.81459
G01 X4.64960 Y-3.81297
G01 X4.64890 Y-3.80980
G01 X4.64778 Y-3.80716
G01 X4.64565 Y-3.80412
G01 X4.64404 Y-3.80243
G01 X4.64107 Y-3.80038
G01 X4.63875 Y-3.79930
G01 X4.63559 Y-3.79847
G01 X4.63235 Y-3.79828
G01 X4.62953 Y-3.79864
G01 X4.62681 Y-3.79946
G01 X4.62498 Y-3.80035
G01 X4.62259 Y-3.80190
G01 X4.62053 Y-3.80385
G01 X4.61861 Y-3.80647
G01 X4.61737 Y-3.80904
G01 X4.61677 Y-3.81105
G01 X4.61627 Y-3.81500
G01 X4.61627 Y-3.93100
G01 X4.60446 Y-3.93100
G01 X4.60446 Y-3.81461
G01 X4.60466 Y-3.81188
G01 X4.60527 Y-3.80836
G01 X4.60588 Y-3.80610
G01 X4.60671 Y-3.80391
G01 X4.60774 Y-3.80170
G01 X4.60898 Y-3.79960
G01 X4.61064 Y-3.79729
G01 X4.61229 Y-3.79536
G01 X4.66425 Y-3.79477
G01 X4.62554 Y-3.77554
G01 X4.61944 Y-3.77549
G01 X4.61502 Y-3.77490
G01 X4.60998 Y-3.77333
G01 X4.60814 Y-3.77247
G01 X4.60532 Y-3.77085
G01 X4.60304 Y-3.76914
G01 X4.60013 Y-3.76647
G01 X4.59815 Y-3.76406
G01 X4.59593 Y-3.76066
G01 X4.59441 Y-3.75737
G01 X4.59345 Y-3.75440
G01 X4.59266 Y-3.75007
G01 X4.59246 Y-3.74721
G01 X4.56883 Y-3.74720
G01 X4.59246 Y-3.74721
G01 X4.60427 Y-3.74700
G01 X4.60477 Y-3.74305
G01 X4.60537 Y-3.74104
G01 X4.60661 Y-3.73847
G01 X4.60880 Y-3.73555
G01 X4.61092 Y-3.73365
G01 X4.61406 Y-3.73178
G01 X4.61673 Y-3.73082
G01 X4.61990 Y-3.73032
G01 X4.77133 Y-3.73027
G01 X4.77373 Y-3.72962
G01 X4.77730 Y-3.72927
G01 X4.77886 Y-3.72939
G01 X4.78121 Y-3.72986
G01 X4.78360 Y-3.73063
G01 X4.78645 Y-3.73221
G01 X4.78839 Y-3.73375
G01 X4.78957 Y-3.73498
G01 X4.79171 Y-3.73803
G01 X4.79310 Y-3.74146
G01 X4.79371 Y-3.74510
G01 X4.79342 Y-3.74919
G01 X4.79265 Y-3.75193
G01 X4.79139 Y-3.75448
G01 X4.79028 Y-3.75618
G01 X4.78829 Y-3.75834
G01 X4.78567 Y-3.76061
G01 X4.78369 Y-3.76185
G01 X4.78033 Y-3.76316
G01 X4.77716 Y-3.76368
G01 X4.62100 Y-3.76373
G01 X4.61801 Y-3.76346
G01 X4.61488 Y-3.76257
G01 X4.61233 Y-3.76131
G01 X4.60975 Y-3.75935
G01 X4.60828 Y-3.75786
G01 X4.60640 Y-3.75518
G01 X4.60522 Y-3.75256
G01 X4.60470 Y-3.75054
G01 X4.60427 Y-3.74700
G01 X4.59246 Y-3.74721
G01 X4.59250 Y-3.74556
G01 X4.59278 Y-3.74311
G01 X4.59345 Y-3.73960
G01 X4.59413 Y-3.73736
G01 X4.59521 Y-3.73480
G01 X4.59655 Y-3.73229
G01 X4.59815 Y-3.72994
G01 X4.59967 Y-3.72803
G01 X4.60108 Y-3.72656
G01 X4.60290 Y-3.72493
G01 X4.60485 Y-3.72348
G01 X4.60764 Y-3.72180
G01 X4.60983 Y-3.72073
G01 X4.61251 Y-3.71976
G01 X4.61486 Y-3.71913
G01 X4.61808 Y-3.71864
G01 X4.62058 Y-3.71846
G01 X4.76952 Y-3.71847
G01 X4.77186 Y-3.71796
G01 X4.77551 Y-3.71752
G01 X4.77797 Y-3.71747
G01 X4.78043 Y-3.71768
G01 X4.78553 Y-3.71877
G01 X4.78774 Y-3.71955
G01 X4.78989 Y-3.72055
G01 X4.79338 Y-3.72264
G01 X4.79561 Y-3.72438
G01 X4.79739 Y-3.72602
G01 X4.79898 Y-3.72783
G01 X4.80087 Y-3.73043
G01 X4.80281 Y-3.73382
G01 X4.80449 Y-3.73832
G01 X4.80542 Y-3.74346
G01 X4.80553 Y-3.74619
G01 X4.80536 Y-3.74896
G01 X4.80503 Y-3.75138
G01 X4.80457 Y-3.75336
G01 X4.80371 Y-3.75607
G01 X4.80273 Y-3.75831
G01 X4.80117 Y-3.76116
G01 X4.79979 Y-3.76317
G01 X4.79674 Y-3.76661
G01 X4.79347 Y-3.76951
G01 X4.79148 Y-3.77097
G01 X4.78899 Y-3.77240
G01 X4.78631 Y-3.77358
G01 X4.78398 Y-3.77440
G01 X4.78158 Y-3.77498
G01 X4.77832 Y-3.77543
G01 X4.77600 Y-3.77554
G01 X4.64040 Y-3.77554
G01 X4.63564 Y-3.77515
G01 X4.62932 Y-3.77521
G01 X4.62108 Y-3.77606
G01 X4.59491 Y-3.78068
G01 X4.56943 Y-3.75445
G01 X4.56889 Y-3.74920
G01 X4.56896 Y-3.74360
G01 X4.56981 Y-3.73723
G01 X4.57101 Y-3.73211
G01 X4.57261 Y-3.72754
G01 X4.57520 Y-3.72203
G01 X4.57775 Y-3.71787
G01 X4.58143 Y-3.71301
G01 X4.58479 Y-3.70946
G01 X4.58909 Y-3.70573
G01 X4.59310 Y-3.70295
G01 X4.59837 Y-3.70000
G01 X4.80159 Y-3.70000
G01 X4.80454 Y-3.70169
G01 X4.80756 Y-3.70375
G01 X4.81106 Y-3.70651
G01 X4.81401 Y-3.70924
G01 X4.81646 Y-3.71190
G01 X4.81869 Y-3.71474
G01 X4.82123 Y-3.71839
G01 X4.82326 Y-3.72189
G01 X4.82482 Y-3.72517
G01 X4.82629 Y-3.72895
G01 X4.82737 Y-3.73245
G01 X4.82817 Y-3.73602
G01 X4.82885 Y-3.74042
G01 X4.82913 Y-3.74405
G01 X4.82912 Y-3.74768
G01 X4.82878 Y-3.75213
G01 X4.82792 Y-3.75734
G01 X4.82650 Y-3.76243
G01 X4.82475 Y-3.76699
G01 X4.82245 Y-3.77153
G01 X4.81556 Y-3.77506
G01 X4.80839 Y-3.77810
G01 X4.80602 Y-3.77900
G01 X4.79255 Y-3.78289
G01 X4.85198 Y-3.80335
G01 X4.85091 Y-3.80098
G01 X4.84270 Y-3.78631
G01 X4.84109 Y-3.78407
G01 X4.83815 Y-3.78327
G01 X4.83502 Y-3.78264
G01 X4.82815 Y-3.78188
G01 X4.81982 Y-3.78611
G01 X4.80999 Y-3.79015
G01 X4.79559 Y-3.79430
G01 X4.79344 Y-3.79474
G01 X4.78274 Y-3.79618
G01 X4.77619 Y-3.79641
G01 X4.73674 Y-3.79641
G01 X4.72813 Y-3.79691
G01 X4.72027 Y-3.79814
G01 X4.70850 Y-3.80144
G01 X4.69406 Y-3.80783
G01 X4.69263 Y-3.81557
G01 X4.69162 Y-3.82236
G01 X4.69093 Y-3.83562
G01 X4.69666 Y-3.83387
G01 X4.70847 Y-3.83377
G01 X4.70854 Y-3.83176
G01 X4.70885 Y-3.82937
G01 X4.71032 Y-3.82387
G01 X4.71207 Y-3.82015
G01 X4.71506 Y-3.81575
G01 X4.71792 Y-3.81281
G01 X4.72046 Y-3.81079
G01 X4.72240 Y-3.80948
G01 X4.72666 Y-3.80740
G01 X4.73055 Y-3.80623
G01 X4.73375 Y-3.80565
G01 X4.73659 Y-3.80547
G01 X4.82599 Y-3.80546
G01 X4.82831 Y-3.80557
G01 X4.83198 Y-3.80610
G01 X4.83516 Y-3.80698
G01 X4.83899 Y-3.80859
G01 X4.84183 Y-3.81026
G01 X4.84611 Y-3.81381
G01 X4.84823 Y-3.81593
G01 X4.85051 Y-3.81881
G01 X4.85255 Y-3.82233
G01 X4.85385 Y-3.82531
G01 X4.85495 Y-3.82922
G01 X4.85546 Y-3.83325
G01 X4.85550 Y-3.83647
G01 X4.85511 Y-3.83966
G01 X4.85411 Y-3.84390
G01 X4.85297 Y-3.84681
G01 X4.85105 Y-3.85037
G01 X4.84887 Y-3.85330
G01 X4.84698 Y-3.85539
G01 X4.84485 Y-3.85723
G01 X4.84159 Y-3.85951
G01 X4.83883 Y-3.86097
G01 X4.83584 Y-3.86214
G01 X4.83309 Y-3.86287
G01 X4.82950 Y-3.86343
G01 X4.82749 Y-3.86354
G01 X4.82508 Y-3.86344
G01 X4.82186 Y-3.86304
G01 X4.81952 Y-3.86252
G01 X4.73661 Y-3.86254
G01 X4.73303 Y-3.86226
G01 X4.72984 Y-3.86161
G01 X4.72561 Y-3.86017
G01 X4.72132 Y-3.85785
G01 X4.71752 Y-3.85484
G01 X4.71462 Y-3.85169
G01 X4.71194 Y-3.84766
G01 X4.71000 Y-3.84327
G01 X4.70883 Y-3.83862
G01 X4.70847 Y-3.83377
G01 X4.72028 Y-3.83365
G01 X4.72055 Y-3.83111
G01 X4.72153 Y-3.82764
G01 X4.72260 Y-3.82556
G01 X4.72469 Y-3.82267
G01 X4.72774 Y-3.82010
G01 X4.72953 Y-3.81903
G01 X4.73219 Y-3.81798
G01 X4.73537 Y-3.81735
G01 X4.82600 Y-3.81727
G01 X4.82958 Y-3.81766
G01 X4.83107 Y-3.81806
G01 X4.83298 Y-3.81883
G01 X4.83504 Y-3.81993
G01 X4.83861 Y-3.82295
G01 X4.84052 Y-3.82515
G01 X4.84233 Y-3.82832
G01 X4.84324 Y-3.83101
G01 X4.84372 Y-3.83465
G01 X4.84356 Y-3.83721
G01 X4.84282 Y-3.84043
G01 X4.84184 Y-3.84271
G01 X4.84079 Y-3.84445
G01 X4.83866 Y-3.84700
G01 X4.83602 Y-3.84903
G01 X4.83422 Y-3.85009
G01 X4.83154 Y-3.85110
G01 X4.82872 Y-3.85163
G01 X4.82574 Y-3.85164
G01 X4.82333 Y-3.85131
G01 X4.82134 Y-3.85073
G01 X4.73651 Y-3.85072
G01 X4.73361 Y-3.85038
G01 X4.73013 Y-3.84926
G01 X4.72731 Y-3.84764
G01 X4.72483 Y-3.84549
G01 X4.72261 Y-3.84253
G01 X4.72138 Y-3.83998
G01 X4.72052 Y-3.83691
G01 X4.72028 Y-3.83365
G01 X4.69666 Y-3.83387
G01 X4.69093 Y-3.83562
G01 X4.69171 Y-3.84655
G01 X4.69311 Y-3.85480
G01 X4.69583 Y-3.86505
G01 X4.69638 Y-3.86671
G01 X4.69905 Y-3.86979
G01 X4.70325 Y-3.87147
G01 X4.71364 Y-3.87466
G01 X4.72295 Y-3.87651
G01 X4.73291 Y-3.87750
G01 X4.81721 Y-3.87759
G01 X4.82187 Y-3.87792
G01 X4.83425 Y-3.87779
G01 X4.84407 Y-3.87650
G01 X4.84720 Y-3.87584
G01 X4.84999 Y-3.87074
G01 X4.85478 Y-3.85958
G01 X4.85726 Y-3.85100
G01 X4.85875 Y-3.84168
G01 X4.85904 Y-3.83248
G01 X4.85838 Y-3.82503
G01 X4.85694 Y-3.81769
G01 X4.85443 Y-3.80941
G01 X4.85198 Y-3.80335
G01 X4.85036 Y-3.80188
G01 X4.84773 Y-3.80000
G01 X4.84494 Y-3.79837
G01 X4.84239 Y-3.79716
G01 X4.83895 Y-3.79579
G01 X4.83625 Y-3.79497
G01 X4.83310 Y-3.79429
G01 X4.82947 Y-3.79382
G01 X4.82638 Y-3.79365
G01 X4.79785 Y-3.79365
G01 X4.79344 Y-3.79474
G01 X4.78313 Y-3.79611
G01 X4.77619 Y-3.79641
G01 X4.73674 Y-3.79641
G01 X4.72813 Y-3.79691
G01 X4.72027 Y-3.79814
G01 X4.71681 Y-3.79906
G01 X4.71418 Y-3.80076
G01 X4.71067 Y-3.80347
G01 X4.70829 Y-3.80565
G01 X4.70637 Y-3.80773
G01 X4.70440 Y-3.81028
G01 X4.70198 Y-3.81401
G01 X4.70046 Y-3.81687
G01 X4.69922 Y-3.81985
G01 X4.69835 Y-3.82254
G01 X4.69732 Y-3.82682
G01 X4.69685 Y-3.82994
G01 X4.69667 Y-3.83309
G01 X4.69679 Y-3.83709
G01 X4.69714 Y-3.84032
G01 X4.69780 Y-3.84351
G01 X4.69890 Y-3.84729
G01 X4.70109 Y-3.85241
G01 X4.70383 Y-3.85693
G01 X4.70575 Y-3.85951
G01 X4.70758 Y-3.86162
G01 X4.70958 Y-3.86358
G01 X4.71203 Y-3.86568
G01 X4.71603 Y-3.86848
G01 X4.72109 Y-3.87108
G01 X4.72375 Y-3.87210
G01 X4.72686 Y-3.87304
G01 X4.73165 Y-3.87399
G01 X4.73700 Y-3.87435
G01 X4.81813 Y-3.87434
G01 X4.82400 Y-3.87520
G01 X4.82912 Y-3.87530
G01 X4.83186 Y-3.87504
G01 X4.83544 Y-3.87444
G01 X4.83820 Y-3.87377
G01 X4.84090 Y-3.87287
G01 X4.84388 Y-3.87165
G01 X4.84638 Y-3.87039
G01 X4.84876 Y-3.86894
G01 X4.85163 Y-3.86691

G04 P0 ( dwell for no time -- G64 should not smooth over this point )
G00 Z1.000000 ( retract )

M5 ( Spindle off. )
G04 P1.000000
M9 ( Coolant off. )
M2 ( Program end. )

