( pcb2gcode 3.0.3 )
( Software-independent Gcode )

G94 ( Millimeters per minute feed rate. )
G21 ( Units == Millimeters. )

G90 ( Absolute coordinates. )
G00 S10000 ( RPM spindle speed. )
G01 F360.00000 ( Feedrate. )


G00 Z50.00000 (Retract to tool change height)
T1
M5      (Spindle stop.)
G04 P1.00000 (Wait for spindle to stop)
(MSG, Change tool bit to mill diameter 0.00000mm)
M6      (Tool change.)
M0      (Temporary machine stop.)
M3 ( Spindle on clockwise. )
G04 P1.00000 (Wait for spindle to get up to speed)
G04 P0 ( dwell for no time -- G64 should not smooth over this point )
G00 Z10.00000 ( retract )

G00 X-0.75768 Y8.62393 ( rapid move to begin. )
G01 F30.00000
( Mill infeed pass 1/1 )
G01 Z-0.10000
G04 P0 ( dwell for no time -- G64 should not smooth over this point )
G01 F360.00000
G01 X-0.75768 Y8.62393
G01 X-0.75768 Y9.51293
G01 X-1.01168 Y9.51293
G01 X-1.01168 Y8.87794
G01 X-1.64668 Y8.87794
G01 X-1.64668 Y8.62393
G01 X-0.75768 Y8.62393
G04 P0 ( dwell for no time -- G64 should not smooth over this point )
G00 Z10.00000 ( retract )

G00 X-0.75768 Y9.76694 ( rapid move to begin. )
G01 F30.00000
( Mill infeed pass 1/1 )
G01 Z-0.10000
G04 P0 ( dwell for no time -- G64 should not smooth over this point )
G01 F360.00000
G01 X-0.75768 Y9.76694
G01 X-0.75768 Y10.65593
G01 X-1.64668 Y10.65593
G01 X-1.64668 Y10.40193
G01 X-1.01168 Y10.40193
G01 X-1.01168 Y9.76694
G01 X-0.75768 Y9.76694
G04 P0 ( dwell for no time -- G64 should not smooth over this point )
G00 Z10.00000 ( retract )

G00 X-1.90068 Y8.62393 ( rapid move to begin. )
G01 F30.00000
( Mill infeed pass 1/1 )
G01 Z-0.10000
G04 P0 ( dwell for no time -- G64 should not smooth over this point )
G01 F360.00000
G01 X-1.90068 Y8.62393
G01 X-1.90068 Y8.87794
G01 X-2.53568 Y8.87794
G01 X-2.53568 Y9.51293
G01 X-2.78968 Y9.51293
G01 X-2.78968 Y8.62393
G01 X-1.90068 Y8.62393
G04 P0 ( dwell for no time -- G64 should not smooth over this point )
G00 Z10.00000 ( retract )

G00 X-3.42085 Y9.63993 ( rapid move to begin. )
G01 F30.00000
( Mill infeed pass 1/1 )
G01 Z-0.10000
G04 P0 ( dwell for no time -- G64 should not smooth over this point )
G01 F360.00000
G01 X-3.42085 Y9.63993
G01 X-3.43106 Y9.74641
G01 X-3.45178 Y9.87077
G01 X-3.49923 Y9.99635
G01 X-3.54056 Y10.08624
G01 X-3.58714 Y10.15271
G01 X-3.68254 Y10.27110
G01 X-3.76672 Y10.34072
G01 X-3.86730 Y10.41273
G01 X-3.98097 Y10.46432
G01 X-4.08244 Y10.50221
G01 X-4.16397 Y10.51649
G01 X-4.31366 Y10.53249
G01 X-4.42389 Y10.52200
G01 X-4.54457 Y10.50193
G01 X-4.66270 Y10.45748
G01 X-4.76001 Y10.41309
G01 X-4.82884 Y10.36470
G01 X-4.94480 Y10.27105
G01 X-5.01625 Y10.18451
G01 X-5.08653 Y10.08609
G01 X-5.14325 Y9.95959
G01 X-5.17601 Y9.87097
G01 X-5.19054 Y9.78743
G01 X-5.20626 Y9.63991
G01 X-5.19532 Y9.52668
G01 X-5.17568 Y9.40897
G01 X-5.12572 Y9.27798
G01 X-5.08686 Y9.19356
G01 X-5.03009 Y9.11347
G01 X-4.94477 Y9.00882
G01 X-4.85658 Y8.93600
G01 X-4.75978 Y8.86717
G01 X-4.64081 Y8.81332
G01 X-4.54462 Y8.77773
G01 X-4.45828 Y8.76257
G01 X-4.31366 Y8.74723
G01 X-4.19755 Y8.75858
G01 X-4.08252 Y8.77788
G01 X-3.95912 Y8.82462
G01 X-3.86710 Y8.86676
G01 X-3.79435 Y8.91812
G01 X-3.68252 Y9.00872
G01 X-3.60797 Y9.09935
G01 X-3.54091 Y9.19381
G01 X-3.48595 Y9.31553
G01 X-3.45138 Y9.40895
G01 X-3.42826 Y9.55693
G01 X-3.42085 Y9.63993
G04 P0 ( dwell for no time -- G64 should not smooth over this point )
G00 Z10.00000 ( retract )

G00 X-1.90068 Y10.40193 ( rapid move to begin. )
G01 F30.00000
( Mill infeed pass 1/1 )
G01 Z-0.10000
G04 P0 ( dwell for no time -- G64 should not smooth over this point )
G01 F360.00000
G01 X-1.90068 Y10.40193
G01 X-1.90068 Y10.65593
G01 X-2.78968 Y10.65593
G01 X-2.78968 Y9.76694
G01 X-2.53568 Y9.76694
G01 X-2.53568 Y10.40193
G01 X-1.90068 Y10.40193
G04 P0 ( dwell for no time -- G64 should not smooth over this point )
G00 Z10.00000 ( retract )

G00 X-0.88085 Y12.17994 ( rapid move to begin. )
G01 F30.00000
( Mill infeed pass 1/1 )
G01 Z-0.10000
G04 P0 ( dwell for no time -- G64 should not smooth over this point )
G01 F360.00000
G01 X-0.88085 Y12.17994
G01 X-0.89106 Y12.28641
G01 X-0.91178 Y12.41077
G01 X-0.95923 Y12.53635
G01 X-1.00056 Y12.62624
G01 X-1.04714 Y12.69271
G01 X-1.14254 Y12.81110
G01 X-1.22672 Y12.88072
G01 X-1.32730 Y12.95273
G01 X-1.44097 Y13.00432
G01 X-1.54244 Y13.04221
G01 X-1.62397 Y13.05649
G01 X-1.77366 Y13.07249
G01 X-1.88389 Y13.06200
G01 X-2.00457 Y13.04193
G01 X-2.12270 Y12.99748
G01 X-2.22001 Y12.95309
G01 X-2.28884 Y12.90470
G01 X-2.40480 Y12.81105
G01 X-2.47625 Y12.72451
G01 X-2.54653 Y12.62609
G01 X-2.60325 Y12.49959
G01 X-2.63601 Y12.41097
G01 X-2.65054 Y12.32743
G01 X-2.66626 Y12.17991
G01 X-2.65532 Y12.06668
G01 X-2.63568 Y11.94897
G01 X-2.58572 Y11.81798
G01 X-2.54686 Y11.73356
G01 X-2.49009 Y11.65347
G01 X-2.40477 Y11.54882
G01 X-2.31658 Y11.47600
G01 X-2.21978 Y11.40717
G01 X-2.10081 Y11.35332
G01 X-2.00467 Y11.31773
G01 X-1.91828 Y11.30259
G01 X-1.77366 Y11.28738
G01 X-1.65755 Y11.29863
G01 X-1.54244 Y11.31791
G01 X-1.41912 Y11.36462
G01 X-1.32710 Y11.40676
G01 X-1.25435 Y11.45812
G01 X-1.14252 Y11.54872
G01 X-1.06797 Y11.63935
G01 X-1.00091 Y11.73381
G01 X-0.94595 Y11.85553
G01 X-0.91138 Y11.94895
G01 X-0.88826 Y12.09693
G01 X-0.88085 Y12.17994
G04 P0 ( dwell for no time -- G64 should not smooth over this point )
G00 Z10.00000 ( retract )

G00 X-1.39700 Y21.46008 ( rapid move to begin. )
G01 F30.00000
( Mill infeed pass 1/1 )
G01 Z-0.10000
G04 P0 ( dwell for no time -- G64 should not smooth over this point )
G01 F360.00000
G01 X-1.39700 Y21.46008
G01 X-1.50216 Y21.47379
G01 X-1.71831 Y21.56346
G01 X-1.90398 Y21.70595
G01 X-2.04648 Y21.89163
G01 X-2.13614 Y22.10778
G01 X-2.14986 Y22.21293
G01 X-1.89215 Y22.21293
G01 X-1.86591 Y22.12061
G01 X-1.82819 Y22.03722
G01 X-1.77889 Y21.96013
G01 X-1.71900 Y21.89091
G01 X-1.64976 Y21.83102
G01 X-1.57269 Y21.78172
G01 X-1.48930 Y21.74400
G01 X-1.39700 Y21.71776
G01 X-1.39700 Y21.46008
G04 P0 ( dwell for no time -- G64 should not smooth over this point )
G00 Z10.00000 ( retract )

G00 X-0.39014 Y22.21293 ( rapid move to begin. )
G01 F30.00000
( Mill infeed pass 1/1 )
G01 Z-0.10000
G04 P0 ( dwell for no time -- G64 should not smooth over this point )
G01 F360.00000
G01 X-0.39014 Y22.21293
G01 X-0.40386 Y22.10778
G01 X-0.49352 Y21.89163
G01 X-0.63602 Y21.70595
G01 X-0.82166 Y21.56346
G01 X-1.03784 Y21.47379
G01 X-1.14300 Y21.46008
G01 X-1.14300 Y21.71776
G01 X-1.05067 Y21.74400
G01 X-0.96728 Y21.78172
G01 X-0.89019 Y21.83102
G01 X-0.82095 Y21.89091
G01 X-0.76109 Y21.96013
G01 X-0.71178 Y22.03722
G01 X-0.67407 Y22.12061
G01 X-0.64783 Y22.21293
G01 X-0.39014 Y22.21293
G04 P0 ( dwell for no time -- G64 should not smooth over this point )
G00 Z10.00000 ( retract )

G00 X-0.39014 Y22.46693 ( rapid move to begin. )
G01 F30.00000
( Mill infeed pass 1/1 )
G01 Z-0.10000
G04 P0 ( dwell for no time -- G64 should not smooth over this point )
G01 F360.00000
G01 X-0.39014 Y22.46693
G01 X-0.40386 Y22.57209
G01 X-0.49352 Y22.78824
G01 X-0.63602 Y22.97392
G01 X-0.82166 Y23.11641
G01 X-1.03784 Y23.20607
G01 X-1.14300 Y23.21979
G01 X-1.14300 Y22.96208
G01 X-1.05067 Y22.93584
G01 X-0.96728 Y22.89813
G01 X-0.89019 Y22.84882
G01 X-0.82095 Y22.78893
G01 X-0.76109 Y22.71972
G01 X-0.71178 Y22.64263
G01 X-0.67407 Y22.55924
G01 X-0.64783 Y22.46693
G01 X-0.39014 Y22.46693
G04 P0 ( dwell for no time -- G64 should not smooth over this point )
G00 Z10.00000 ( retract )

G00 X-1.39700 Y22.96208 ( rapid move to begin. )
G01 F30.00000
( Mill infeed pass 1/1 )
G01 Z-0.10000
G04 P0 ( dwell for no time -- G64 should not smooth over this point )
G01 F360.00000
G01 X-1.39700 Y22.96208
G01 X-1.48930 Y22.93584
G01 X-1.57269 Y22.89813
G01 X-1.64976 Y22.84882
G01 X-1.71900 Y22.78893
G01 X-1.77889 Y22.71972
G01 X-1.82819 Y22.64263
G01 X-1.86591 Y22.55924
G01 X-1.89215 Y22.46693
G01 X-2.14986 Y22.46693
G01 X-2.13614 Y22.57209
G01 X-2.04648 Y22.78824
G01 X-1.90398 Y22.97392
G01 X-1.71831 Y23.11641
G01 X-1.50216 Y23.20607
G01 X-1.39700 Y23.21979
G01 X-1.39700 Y22.96208
G04 P0 ( dwell for no time -- G64 should not smooth over this point )
G00 Z10.00000 ( retract )

G00 X-1.66014 Y24.75293 ( rapid move to begin. )
G01 F30.00000
( Mill infeed pass 1/1 )
G01 Z-0.10000
G04 P0 ( dwell for no time -- G64 should not smooth over this point )
G01 F360.00000
G01 X-1.66014 Y24.75293
G01 X-1.67386 Y24.64778
G01 X-1.76352 Y24.43163
G01 X-1.90602 Y24.24595
G01 X-2.09169 Y24.10346
G01 X-2.30784 Y24.01380
G01 X-2.41300 Y24.00008
G01 X-2.41300 Y24.25776
G01 X-2.32067 Y24.28400
G01 X-2.23728 Y24.32172
G01 X-2.16019 Y24.37102
G01 X-2.09098 Y24.43091
G01 X-2.03109 Y24.50013
G01 X-1.98178 Y24.57722
G01 X-1.94407 Y24.66061
G01 X-1.91783 Y24.75293
G01 X-1.66014 Y24.75293
G04 P0 ( dwell for no time -- G64 should not smooth over this point )
G00 Z10.00000 ( retract )

G00 X-1.66014 Y25.00693 ( rapid move to begin. )
G01 F30.00000
( Mill infeed pass 1/1 )
G01 Z-0.10000
G04 P0 ( dwell for no time -- G64 should not smooth over this point )
G01 F360.00000
G01 X-1.66014 Y25.00693
G01 X-1.67386 Y25.11209
G01 X-1.76352 Y25.32824
G01 X-1.90602 Y25.51392
G01 X-2.09169 Y25.65641
G01 X-2.30784 Y25.74607
G01 X-2.41300 Y25.75979
G01 X-2.41300 Y25.50208
G01 X-2.32067 Y25.47584
G01 X-2.23728 Y25.43813
G01 X-2.16019 Y25.38882
G01 X-2.09098 Y25.32893
G01 X-2.03109 Y25.25972
G01 X-1.98178 Y25.18263
G01 X-1.94407 Y25.09924
G01 X-1.91783 Y25.00693
G01 X-1.66014 Y25.00693
G04 P0 ( dwell for no time -- G64 should not smooth over this point )
G00 Z10.00000 ( retract )

G00 X-2.66700 Y25.50208 ( rapid move to begin. )
G01 F30.00000
( Mill infeed pass 1/1 )
G01 Z-0.10000
G04 P0 ( dwell for no time -- G64 should not smooth over this point )
G01 F360.00000
G01 X-2.66700 Y25.50208
G01 X-2.66700 Y25.75979
G01 X-2.77216 Y25.74607
G01 X-2.98831 Y25.65641
G01 X-3.17398 Y25.51392
G01 X-3.31640 Y25.32824
G01 X-3.40614 Y25.11209
G01 X-3.41986 Y25.00693
G01 X-3.16215 Y25.00693
G01 X-3.13591 Y25.09924
G01 X-3.09819 Y25.18263
G01 X-3.04889 Y25.25972
G01 X-2.98900 Y25.32893
G01 X-2.91978 Y25.38882
G01 X-2.84269 Y25.43813
G01 X-2.75930 Y25.47584
G01 X-2.66700 Y25.50208
G04 P0 ( dwell for no time -- G64 should not smooth over this point )
G00 Z10.00000 ( retract )

G00 X-2.66700 Y24.00008 ( rapid move to begin. )
G01 F30.00000
( Mill infeed pass 1/1 )
G01 Z-0.10000
G04 P0 ( dwell for no time -- G64 should not smooth over this point )
G01 F360.00000
G01 X-2.66700 Y24.00008
G01 X-2.77216 Y24.01380
G01 X-2.98831 Y24.10346
G01 X-3.17398 Y24.24595
G01 X-3.31640 Y24.43163
G01 X-3.40614 Y24.64778
G01 X-3.41986 Y24.75293
G01 X-3.16215 Y24.75293
G01 X-3.13591 Y24.66061
G01 X-3.09819 Y24.57722
G01 X-3.04889 Y24.50013
G01 X-2.98900 Y24.43091
G01 X-2.91978 Y24.37102
G01 X-2.84269 Y24.32172
G01 X-2.75930 Y24.28400
G01 X-2.66700 Y24.25776
G01 X-2.66700 Y24.00008
G04 P0 ( dwell for no time -- G64 should not smooth over this point )
G00 Z10.00000 ( retract )

G00 X-6.21868 Y19.24047 ( rapid move to begin. )
G01 F30.00000
( Mill infeed pass 1/1 )
G01 Z-0.10000
G04 P0 ( dwell for no time -- G64 should not smooth over this point )
G01 F360.00000
G01 X-6.21868 Y19.24047
G01 X-6.31099 Y19.21424
G01 X-6.39437 Y19.17652
G01 X-6.47146 Y19.12722
G01 X-6.54068 Y19.06732
G01 X-6.60057 Y18.99811
G01 X-6.64985 Y18.92102
G01 X-6.68759 Y18.83763
G01 X-6.71383 Y18.74533
G01 X-6.97154 Y18.74533
G01 X-6.95782 Y18.85048
G01 X-6.86816 Y19.06664
G01 X-6.72567 Y19.25231
G01 X-6.53999 Y19.39506
G01 X-6.32358 Y19.48447
G01 X-6.21868 Y19.49844
G01 X-6.21868 Y19.24047
G04 P0 ( dwell for no time -- G64 should not smooth over this point )
G00 Z10.00000 ( retract )

G00 X-5.21157 Y18.74533 ( rapid move to begin. )
G01 F30.00000
( Mill infeed pass 1/1 )
G01 Z-0.10000
G04 P0 ( dwell for no time -- G64 should not smooth over this point )
G01 F360.00000
G01 X-5.21157 Y18.74533
G01 X-5.46951 Y18.74533
G01 X-5.49575 Y18.83763
G01 X-5.53347 Y18.92102
G01 X-5.58277 Y18.99811
G01 X-5.64266 Y19.06732
G01 X-5.71188 Y19.12722
G01 X-5.78896 Y19.17652
G01 X-5.87235 Y19.21424
G01 X-5.96468 Y19.24047
G01 X-5.96468 Y19.49844
G01 X-5.85953 Y19.48447
G01 X-5.64337 Y19.39506
G01 X-5.45744 Y19.25231
G01 X-5.31495 Y19.06664
G01 X-5.22554 Y18.85048
G01 X-5.21157 Y18.74533
G04 P0 ( dwell for no time -- G64 should not smooth over this point )
G00 Z10.00000 ( retract )

G00 X-5.21157 Y18.49133 ( rapid move to begin. )
G01 F30.00000
( Mill infeed pass 1/1 )
G01 Z-0.10000
G04 P0 ( dwell for no time -- G64 should not smooth over this point )
G01 F360.00000
G01 X-5.21157 Y18.49133
G01 X-5.46951 Y18.49133
G01 X-5.49575 Y18.39900
G01 X-5.53347 Y18.31561
G01 X-5.58277 Y18.23852
G01 X-5.64266 Y18.16931
G01 X-5.71188 Y18.10941
G01 X-5.78896 Y18.06011
G01 X-5.87235 Y18.02239
G01 X-5.96468 Y17.99615
G01 X-5.96468 Y17.73847
G01 X-5.85953 Y17.75219
G01 X-5.64337 Y17.84185
G01 X-5.45744 Y17.98434
G01 X-5.31495 Y18.17002
G01 X-5.22554 Y18.38642
G01 X-5.21157 Y18.49133
G04 P0 ( dwell for no time -- G64 should not smooth over this point )
G00 Z10.00000 ( retract )

G00 X-6.21868 Y17.73847 ( rapid move to begin. )
G01 F30.00000
( Mill infeed pass 1/1 )
G01 Z-0.10000
G04 P0 ( dwell for no time -- G64 should not smooth over this point )
G01 F360.00000
G01 X-6.21868 Y17.73847
G01 X-6.32358 Y17.75219
G01 X-6.53999 Y17.84185
G01 X-6.72567 Y17.98434
G01 X-6.86816 Y18.17002
G01 X-6.95782 Y18.38642
G01 X-6.97154 Y18.49133
G01 X-6.71383 Y18.49133
G01 X-6.68759 Y18.39900
G01 X-6.64985 Y18.31561
G01 X-6.60057 Y18.23852
G01 X-6.54068 Y18.16931
G01 X-6.47146 Y18.10941
G01 X-6.39437 Y18.06011
G01 X-6.31099 Y18.02239
G01 X-6.21868 Y17.99615
G01 X-6.21868 Y17.73847
G04 P0 ( dwell for no time -- G64 should not smooth over this point )
G00 Z10.00000 ( retract )

G00 X-6.21868 Y16.19247 ( rapid move to begin. )
G01 F30.00000
( Mill infeed pass 1/1 )
G01 Z-0.10000
G04 P0 ( dwell for no time -- G64 should not smooth over this point )
G01 F360.00000
G01 X-6.21868 Y16.19247
G01 X-6.31099 Y16.16624
G01 X-6.39437 Y16.12852
G01 X-6.47146 Y16.07922
G01 X-6.54068 Y16.01932
G01 X-6.60057 Y15.95011
G01 X-6.64985 Y15.87302
G01 X-6.68759 Y15.78963
G01 X-6.71383 Y15.69733
G01 X-6.97154 Y15.69733
G01 X-6.95782 Y15.80248
G01 X-6.86816 Y16.01864
G01 X-6.72567 Y16.20431
G01 X-6.53999 Y16.34706
G01 X-6.32358 Y16.43647
G01 X-6.21868 Y16.45044
G01 X-6.21868 Y16.19247
G04 P0 ( dwell for no time -- G64 should not smooth over this point )
G00 Z10.00000 ( retract )

G00 X-5.21157 Y15.44333 ( rapid move to begin. )
G01 F30.00000
( Mill infeed pass 1/1 )
G01 Z-0.10000
G04 P0 ( dwell for no time -- G64 should not smooth over this point )
G01 F360.00000
G01 X-5.21157 Y15.44333
G01 X-5.22554 Y15.33843
G01 X-5.31495 Y15.12202
G01 X-5.45744 Y14.93634
G01 X-5.64337 Y14.79385
G01 X-5.85953 Y14.70419
G01 X-5.96468 Y14.69047
G01 X-5.96468 Y14.94815
G01 X-5.87235 Y14.97439
G01 X-5.78896 Y15.01211
G01 X-5.71188 Y15.06141
G01 X-5.64266 Y15.12131
G01 X-5.58277 Y15.19052
G01 X-5.53347 Y15.26761
G01 X-5.49575 Y15.35100
G01 X-5.46951 Y15.44333
G01 X-5.21157 Y15.44333
G04 P0 ( dwell for no time -- G64 should not smooth over this point )
G00 Z10.00000 ( retract )

G00 X-5.21157 Y15.69733 ( rapid move to begin. )
G01 F30.00000
( Mill infeed pass 1/1 )
G01 Z-0.10000
G04 P0 ( dwell for no time -- G64 should not smooth over this point )
G01 F360.00000
G01 X-5.21157 Y15.69733
G01 X-5.22554 Y15.80248
G01 X-5.31495 Y16.01864
G01 X-5.45744 Y16.20431
G01 X-5.64337 Y16.34706
G01 X-5.85953 Y16.43647
G01 X-5.96468 Y16.45044
G01 X-5.96468 Y16.19247
G01 X-5.87235 Y16.16624
G01 X-5.78896 Y16.12852
G01 X-5.71188 Y16.07922
G01 X-5.64266 Y16.01932
G01 X-5.58277 Y15.95011
G01 X-5.53347 Y15.87302
G01 X-5.49575 Y15.78963
G01 X-5.46951 Y15.69733
G01 X-5.21157 Y15.69733
G04 P0 ( dwell for no time -- G64 should not smooth over this point )
G00 Z10.00000 ( retract )

G00 X-6.21868 Y14.69047 ( rapid move to begin. )
G01 F30.00000
( Mill infeed pass 1/1 )
G01 Z-0.10000
G04 P0 ( dwell for no time -- G64 should not smooth over this point )
G01 F360.00000
G01 X-6.21868 Y14.69047
G01 X-6.21868 Y14.94815
G01 X-6.31099 Y14.97439
G01 X-6.39437 Y15.01211
G01 X-6.47146 Y15.06141
G01 X-6.54068 Y15.12131
G01 X-6.60057 Y15.19052
G01 X-6.64985 Y15.26761
G01 X-6.68759 Y15.35100
G01 X-6.71383 Y15.44333
G01 X-6.97154 Y15.44333
G01 X-6.95782 Y15.33843
G01 X-6.86816 Y15.12202
G01 X-6.72567 Y14.93634
G01 X-6.53999 Y14.79385
G01 X-6.32358 Y14.70419
G01 X-6.21868 Y14.69047
G04 P0 ( dwell for no time -- G64 should not smooth over this point )
G00 Z10.00000 ( retract )

G00 X-8.45127 Y11.80244 ( rapid move to begin. )
G01 F30.00000
( Mill infeed pass 1/1 )
G01 Z-0.10000
G04 P0 ( dwell for no time -- G64 should not smooth over this point )
G01 F360.00000
G01 X-8.45127 Y11.80244
G01 X-8.47748 Y11.86632
G01 X-8.50857 Y11.97074
G01 X-8.51172 Y11.99215
G01 X-8.51217 Y12.06934
G01 X-8.50153 Y12.17988
G01 X-8.51733 Y12.33084
G01 X-8.53204 Y12.41072
G01 X-8.58804 Y12.55654
G01 X-8.62117 Y12.62588
G01 X-8.72653 Y12.76894
G01 X-8.76295 Y12.81069
G01 X-8.79775 Y12.84135
G01 X-8.89142 Y12.91417
G01 X-8.94753 Y12.95235
G01 X-9.00887 Y12.98197
G01 X-9.16300 Y13.04158
G01 X-9.33465 Y13.06833
G01 X-9.45345 Y13.07937
G01 X-9.50234 Y13.09116
G01 X-9.52759 Y13.20660
G01 X-9.52759 Y14.79431
G01 X-9.53681 Y14.86433
G01 X-9.55787 Y14.95273
G01 X-9.58835 Y15.00459
G01 X-9.64867 Y15.08646
G01 X-12.08707 Y17.52486
G01 X-12.17750 Y17.59062
G01 X-12.22068 Y17.61564
G01 X-12.23846 Y17.62072
G01 X-12.30175 Y17.63527
G01 X-12.37922 Y17.64594
G01 X-28.86659 Y17.64594
G01 X-28.94858 Y17.65869
G01 X-29.03057 Y17.69692
G01 X-29.10741 Y17.74469
G01 X-29.27114 Y17.69613
G01 X-29.42874 Y17.66387
G01 X-29.58582 Y17.64563
G01 X-29.75219 Y17.64147
G01 X-29.91869 Y17.65287
G01 X-30.01696 Y17.66692
G01 X-30.17490 Y17.70090
G01 X-30.31995 Y17.74469
G01 X-30.33354 Y17.80723
G01 X-30.37858 Y17.93222
G01 X-30.48660 Y18.08368
G01 X-30.53949 Y18.20080
G01 X-30.57510 Y18.29913
G01 X-30.59402 Y18.40664
G01 X-30.60555 Y18.52993
G01 X-30.59478 Y18.64647
G01 X-30.56631 Y18.82831
G01 X-30.61051 Y18.88658
G01 X-34.44768 Y22.72375
G01 X-34.50554 Y22.76772
G01 X-34.68146 Y22.74024
G01 X-34.79366 Y22.72924
G01 X-34.95408 Y22.74722
G01 X-35.02116 Y22.76008
G01 X-35.08146 Y22.78088
G01 X-35.23358 Y22.84773
G01 X-35.32165 Y22.90986
G01 X-35.41619 Y22.98710
G01 X-35.52972 Y23.13092
G01 X-35.55591 Y23.16985
G01 X-35.61504 Y23.30211
G01 X-35.64443 Y23.38200
G01 X-35.65835 Y23.46168
G01 X-35.67392 Y23.60994
G01 X-35.66023 Y23.74529
G01 X-35.64443 Y23.83785
G01 X-35.61029 Y23.92972
G01 X-35.55604 Y24.05007
G01 X-35.48797 Y24.14552
G01 X-35.42789 Y24.21941
G01 X-35.36518 Y24.27592
G01 X-35.29015 Y24.33356
G01 X-35.23397 Y24.37275
G01 X-35.17572 Y24.40010
G01 X-35.02137 Y24.46068
G01 X-34.93958 Y24.47498
G01 X-34.79366 Y24.49071
G01 X-34.63072 Y24.47232
G01 X-34.54989 Y24.45522
G01 X-34.47811 Y24.42820
G01 X-34.35314 Y24.37270
G01 X-34.23547 Y24.28677
G01 X-34.17075 Y24.23267
G01 X-34.11555 Y24.16627
G01 X-34.03100 Y24.05014
G01 X-33.98098 Y23.93922
G01 X-33.94390 Y23.83765
G01 X-33.93303 Y23.78299
G01 X-33.91385 Y23.60991
G01 X-33.92388 Y23.49873
G01 X-33.95094 Y23.32083
G01 X-33.90750 Y23.26394
G01 X-30.07015 Y19.42668
G01 X-30.01137 Y19.38221
G01 X-29.83144 Y19.41096
G01 X-29.71366 Y19.42277
G01 X-29.57911 Y19.40862
G01 X-29.48272 Y19.39117
G01 X-29.42120 Y19.37007
G01 X-29.26751 Y19.30243
G01 X-29.18153 Y19.24195
G01 X-29.08239 Y19.16128
G01 X-29.02201 Y19.08853
G01 X-28.94079 Y18.97611
G01 X-28.89496 Y18.87621
G01 X-28.86034 Y18.78681
G01 X-28.84157 Y18.70771
G01 X-28.82694 Y18.60100
G01 X-28.82085 Y18.52991
G01 X-28.82963 Y18.43522
G01 X-28.85173 Y18.29905
G01 X-28.89042 Y18.19453
G01 X-28.94089 Y18.08376
G01 X-29.03662 Y17.95140
G01 X-29.07071 Y17.88599
G01 X-29.10741 Y17.74469
G01 X-29.27114 Y17.69613
G01 X-29.35762 Y17.67670
G01 X-29.50261 Y17.65356
G01 X-29.68104 Y17.64134
G01 X-29.76408 Y17.64175
G01 X-29.91869 Y17.65287
G01 X-30.10375 Y17.68386
G01 X-30.19257 Y17.70558
G01 X-30.31995 Y17.74469
G01 X-30.39676 Y17.69692
G01 X-30.47876 Y17.65869
G01 X-30.56077 Y17.64594
G01 X-33.96158 Y17.64594
G01 X-34.04357 Y17.65869
G01 X-34.12556 Y17.69692
G01 X-34.20433 Y17.74589
G01 X-34.34133 Y17.70497
G01 X-34.43046 Y17.68439
G01 X-34.53331 Y17.66623
G01 X-34.62904 Y17.65468
G01 X-34.78436 Y17.64703
G01 X-34.87928 Y17.64911
G01 X-35.06346 Y17.66763
G01 X-35.22177 Y17.69892
G01 X-35.38286 Y17.74584
G01 X-35.39787 Y17.81007
G01 X-35.42797 Y17.90301
G01 X-35.46533 Y17.96532
G01 X-35.55604 Y18.08975
G01 X-35.60122 Y18.18808
G01 X-35.63973 Y18.28846
G01 X-35.65657 Y18.37014
G01 X-35.67400 Y18.52369
G01 X-35.66765 Y18.60713
G01 X-35.64407 Y18.75775
G01 X-35.60585 Y18.86059
G01 X-35.56765 Y18.94683
G01 X-35.55614 Y18.97012
G01 X-35.51585 Y19.02828
G01 X-35.41644 Y19.15274
G01 X-35.28065 Y19.26036
G01 X-35.23376 Y19.29242
G01 X-35.19795 Y19.30994
G01 X-35.12162 Y19.34324
G01 X-35.02134 Y19.38035
G01 X-34.87887 Y19.40296
G01 X-34.79366 Y19.41071
G01 X-34.70148 Y19.40220
G01 X-34.56574 Y19.38038
G01 X-34.46003 Y19.34098
G01 X-34.35342 Y19.29227
G01 X-34.24550 Y19.21464
G01 X-34.17075 Y19.15267
G01 X-34.11075 Y19.08038
G01 X-34.03112 Y18.97009
G01 X-33.98337 Y18.86529
G01 X-33.94324 Y18.75782
G01 X-33.92175 Y18.62503
G01 X-33.91299 Y18.53103
G01 X-33.92175 Y18.43479
G01 X-33.94321 Y18.30202
G01 X-33.98375 Y18.19354
G01 X-34.03130 Y18.08980
G01 X-34.11893 Y17.96910
G01 X-34.15660 Y17.90863
G01 X-34.18764 Y17.81754
G01 X-34.20433 Y17.74589
G01 X-34.35927 Y17.70047
G01 X-34.51766 Y17.66860
G01 X-34.62904 Y17.65468
G01 X-34.78436 Y17.64703
G01 X-34.89305 Y17.64982
G01 X-35.06346 Y17.66763
G01 X-35.22177 Y17.69892
G01 X-35.38286 Y17.74584
G01 X-35.46152 Y17.69692
G01 X-35.54352 Y17.65869
G01 X-35.62553 Y17.64594
G01 X-35.85464 Y17.64594
G01 X-35.90712 Y17.65117
G01 X-35.94786 Y17.68455
G01 X-36.44745 Y18.18394
G01 X-36.49099 Y18.24104
G01 X-36.46805 Y18.38780
G01 X-36.45311 Y18.52991
G01 X-36.46320 Y18.63679
G01 X-36.48329 Y18.75780
G01 X-36.52368 Y18.86613
G01 X-36.57117 Y18.96999
G01 X-36.64346 Y19.07096
G01 X-36.71108 Y19.15259
G01 X-36.82324 Y19.24340
G01 X-36.89320 Y19.29272
G01 X-37.00178 Y19.34164
G01 X-37.10155 Y19.37921
G01 X-37.19617 Y19.39615
G01 X-37.33366 Y19.41020
G01 X-37.50419 Y19.39102
G01 X-37.56127 Y19.38010
G01 X-37.60711 Y19.36445
G01 X-37.77397 Y19.29275
G01 X-37.86914 Y19.22437
G01 X-37.95161 Y19.15686
G01 X-38.01331 Y19.08432
G01 X-38.09578 Y18.96991
G01 X-38.15837 Y18.82920
G01 X-38.18402 Y18.75775
G01 X-38.20592 Y18.62165
G01 X-38.21351 Y18.52991
G01 X-38.19690 Y18.37271
G01 X-38.18362 Y18.30222
G01 X-38.16843 Y18.25719
G01 X-38.12332 Y18.14700
G01 X-38.09563 Y18.09001
G01 X-38.05428 Y18.02950
G01 X-37.98082 Y17.93573
G01 X-37.95585 Y17.90766
G01 X-37.89368 Y17.85473
G01 X-37.77356 Y17.76778
G01 X-37.68039 Y17.72448
G01 X-37.57595 Y17.68427
G01 X-37.45786 Y17.66184
G01 X-37.33366 Y17.64911
G01 X-37.20970 Y17.66181
G01 X-37.04493 Y17.68744
G01 X-36.98763 Y17.64381
G01 X-36.34676 Y17.00312
G01 X-36.28238 Y16.95425
G01 X-36.21336 Y16.91241
G01 X-36.14981 Y16.89616
G01 X-36.05446 Y16.88244
G01 X-35.61944 Y16.88244
G01 X-35.53709 Y16.86964
G01 X-35.45474 Y16.83121
G01 X-35.37524 Y16.78170
G01 X-35.24072 Y16.82097
G01 X-35.13046 Y16.84515
G01 X-34.98916 Y16.86651
G01 X-34.82764 Y16.87683
G01 X-34.68271 Y16.87368
G01 X-34.53559 Y16.85836
G01 X-34.38530 Y16.83014
G01 X-34.21263 Y16.78120
G01 X-34.13232 Y16.83118
G01 X-34.05000 Y16.86961
G01 X-33.96767 Y16.88241
G01 X-30.72966 Y16.88236
G01 X-30.60337 Y16.85219
G01 X-30.47568 Y16.88325
G01 X-28.95168 Y16.88323
G01 X-28.82397 Y16.85216
G01 X-28.69766 Y16.88231
G01 X-12.57907 Y16.88203
G01 X-12.52659 Y16.87680
G01 X-12.48580 Y16.84340
G01 X-11.91194 Y16.26941
G01 X-11.86005 Y16.19669
G01 X-11.82893 Y16.10319
G01 X-11.81379 Y16.02712
G01 X-11.68255 Y15.97266
G01 X-11.61057 Y15.93593
G01 X-11.55309 Y15.89966
G01 X-11.48507 Y15.84683
G01 X-10.39701 Y14.76151
G01 X-10.34519 Y14.70355
G01 X-10.30201 Y14.64473
G01 X-10.29030 Y14.56809
G01 X-10.28659 Y14.49487
G01 X-10.28649 Y12.68545
G01 X-10.27913 Y12.59073
G01 X-10.25749 Y12.48862
G01 X-10.27468 Y12.36713
G01 X-10.28339 Y12.24260
G01 X-10.28357 Y12.12281
G01 X-10.27433 Y11.98992
G01 X-10.25274 Y11.84379
G01 X-10.22815 Y11.73208
G01 X-10.19355 Y11.61263
G01 X-10.08322 Y11.49177
G01 X-9.96109 Y11.37966
G01 X-9.83841 Y11.34466
G01 X-9.72668 Y11.32025
G01 X-9.60295 Y11.30137
G01 X-9.47158 Y11.29081
G01 X-9.34077 Y11.28989
G01 X-9.20994 Y11.29858
G01 X-9.08886 Y11.31517
G01 X-8.95513 Y11.34313
G01 X-8.82627 Y11.37981
G01 X-8.71240 Y11.48352
G01 X-8.62213 Y11.57900
G01 X-8.53158 Y11.68941
G01 X-8.45127 Y11.80244
G01 X-8.36008 Y11.81748
G01 X-8.25731 Y11.84839
G01 X-8.17850 Y11.90328
G01 X-7.75327 Y12.32847
G01 X-7.73059 Y12.35431
G01 X-7.70306 Y12.44737
G01 X-7.65752 Y12.56043
G01 X-7.62582 Y12.62568
G01 X-7.57458 Y12.70015
G01 X-7.48487 Y12.81113
G01 X-7.39920 Y12.88169
G01 X-7.30001 Y12.95309
G01 X-7.18391 Y13.00516
G01 X-7.08447 Y13.04160
G01 X-6.95300 Y13.06335
G01 X-6.84660 Y13.07221
G01 X-6.72915 Y13.06007
G01 X-6.62244 Y13.04221
G01 X-6.50847 Y12.99911
G01 X-6.40718 Y12.95291
G01 X-6.32351 Y12.89355
G01 X-6.24015 Y12.82657
G01 X-6.16885 Y12.74714
G01 X-6.08104 Y12.62596
G01 X-6.01789 Y12.48382
G01 X-5.99183 Y12.41077
G01 X-5.98584 Y12.38204
G01 X-5.96986 Y12.27628
G01 X-5.96113 Y12.17991
G01 X-5.97240 Y12.06337
G01 X-5.99173 Y11.94905
G01 X-6.04299 Y11.81494
G01 X-6.08129 Y11.73401
G01 X-6.19133 Y11.57762
G01 X-6.23301 Y11.46018
G01 X-6.24792 Y11.39495
G01 X-6.36610 Y11.35802
G01 X-6.47779 Y11.33084
G01 X-6.61365 Y11.30727
G01 X-6.74616 Y11.29431
G01 X-6.87695 Y11.29121
G01 X-7.02706 Y11.29949
G01 X-7.16110 Y11.31763
G01 X-7.29917 Y11.34689
G01 X-7.46300 Y11.39106
G01 X-7.51009 Y11.36426
G01 X-7.59587 Y11.30539
G01 X-7.66989 Y11.24217
G01 X-8.31720 Y10.59546
G01 X-8.38129 Y10.53788
G01 X-8.47697 Y10.46739
G01 X-8.62764 Y10.36582
G01 X-8.47697 Y10.46739
G01 X-8.38129 Y10.53788
G01 X-8.31720 Y10.59546
G01 X-7.66989 Y11.24217
G01 X-7.59587 Y11.30539
G01 X-7.51009 Y11.36426
G01 X-7.46300 Y11.39106
G01 X-7.29917 Y11.34689
G01 X-7.16110 Y11.31763
G01 X-7.02706 Y11.29949
G01 X-6.89564 Y11.29154
G01 X-6.76521 Y11.29325
G01 X-6.61365 Y11.30727
G01 X-6.47779 Y11.33084
G01 X-6.36610 Y11.35802
G01 X-6.24792 Y11.39495
G01 X-6.17063 Y11.34692
G01 X-6.08861 Y11.30866
G01 X-6.00659 Y11.29591
G01 X-5.80034 Y11.29594
G01 X-5.74784 Y11.30115
G01 X-5.70708 Y11.33457
G01 X-5.21127 Y11.83038
G01 X-5.16809 Y11.88684
G01 X-5.19527 Y12.06668
G01 X-5.20499 Y12.16111
G01 X-5.19821 Y12.26957
G01 X-5.17538 Y12.41080
G01 X-5.12572 Y12.54183
G01 X-5.07789 Y12.63945
G01 X-5.02191 Y12.71707
G01 X-4.94474 Y12.81100
G01 X-4.81035 Y12.91814
G01 X-4.75978 Y12.95265
G01 X-4.72867 Y12.96812
G01 X-4.64157 Y13.00617
G01 X-4.54467 Y13.04232
G01 X-4.44574 Y13.05908
G01 X-4.31366 Y13.07224
G01 X-4.16484 Y13.05662
G01 X-4.08249 Y13.04199
G01 X-3.97162 Y13.00043
G01 X-3.86710 Y12.95309
G01 X-3.78351 Y12.89355
G01 X-3.68270 Y12.81095
G01 X-3.58714 Y12.69271
G01 X-3.54094 Y12.62601
G01 X-3.49075 Y12.51603
G01 X-3.45125 Y12.41092
G01 X-3.43400 Y12.30823
G01 X-3.42130 Y12.17991
G01 X-3.42836 Y12.09611
G01 X-3.45191 Y11.94910
G01 X-3.50363 Y11.81336
G01 X-3.54066 Y11.73366
G01 X-3.60698 Y11.64069
G01 X-3.68236 Y11.54857
G01 X-3.75536 Y11.48799
G01 X-3.86720 Y11.40694
G01 X-3.98338 Y11.35459
G01 X-4.09638 Y11.31499
G01 X-4.20677 Y11.29751
G01 X-4.31335 Y11.28761
G01 X-4.45488 Y11.30257
G01 X-4.61742 Y11.32959
G01 X-4.67617 Y11.28512
G01 X-5.30832 Y10.65296
G01 X-5.37053 Y10.60585
G01 X-5.44187 Y10.56236
G01 X-5.52305 Y10.54268
G01 X-5.60050 Y10.53201
G01 X-6.01269 Y10.53201
G01 X-6.09476 Y10.51923
G01 X-6.17685 Y10.48093
G01 X-6.25582 Y10.43181
G01 X-6.32620 Y10.45479
G01 X-6.43791 Y10.48431
G01 X-6.59768 Y10.51441
G01 X-6.70938 Y10.52693
G01 X-6.84106 Y10.53272
G01 X-7.00397 Y10.52645
G01 X-7.11568 Y10.51352
G01 X-7.19798 Y10.49868
G01 X-7.26064 Y10.45652
G01 X-7.35002 Y10.38791
G01 X-7.46120 Y10.28906
G01 X-7.53626 Y10.21184
G01 X-7.61444 Y10.12048
G01 X-7.71258 Y9.98446
G01 X-7.72462 Y9.91906
G01 X-7.73829 Y9.81080
G01 X-7.74532 Y9.70349
G01 X-7.74591 Y9.59543
G01 X-7.73890 Y9.47542
G01 X-7.72350 Y9.35358
G01 X-7.70433 Y9.25198
G01 X-7.63775 Y8.99231
G01 X-7.62053 Y8.91327
G01 X-7.59760 Y8.77265
G01 X-7.68614 Y8.67420
G01 X-8.12823 Y8.23219
G01 X-8.56231 Y8.05246
G01 X-8.62716 Y8.02937
G01 X-8.73699 Y8.00250
G01 X-8.85876 Y7.99107
G01 X-10.67717 Y7.98927
G01 X-10.75957 Y7.99528
G01 X-10.85256 Y8.01251
G01 X-10.92210 Y8.03293
G01 X-11.06835 Y8.09120
G01 X-11.13168 Y8.04885
G01 X-11.21987 Y8.00461
G01 X-11.30808 Y7.98987
G01 X-28.69768 Y7.98987
G01 X-28.79123 Y8.00646
G01 X-28.88480 Y8.05627
G01 X-28.95168 Y8.05045
G01 X-30.47568 Y8.05045
G01 X-30.54253 Y8.05627
G01 X-30.63611 Y8.00646
G01 X-30.72968 Y7.98987
G01 X-31.27883 Y7.98987
G01 X-31.33131 Y7.99511
G01 X-31.37207 Y8.02851
G01 X-33.90750 Y10.56394
G01 X-33.95094 Y10.62083
G01 X-33.92162 Y10.81560
G01 X-33.91456 Y10.88677
G01 X-33.91311 Y10.90991
G01 X-33.91964 Y10.98568
G01 X-33.94319 Y11.13787
G01 X-33.98858 Y11.25792
G01 X-34.05693 Y11.41042
G01 X-34.07443 Y11.49248
G01 X-34.07804 Y11.58403
G01 X-34.07514 Y11.64834
G01 X-34.22152 Y11.70224
G01 X-34.34956 Y11.73902
G01 X-34.47379 Y11.76584
G01 X-34.57550 Y11.78133
G01 X-34.71581 Y11.79307
G01 X-34.83585 Y11.79429
G01 X-34.93755 Y11.78893
G01 X-35.05853 Y11.77493
G01 X-35.20592 Y11.74674
G01 X-35.37864 Y11.69731
G01 X-35.40422 Y11.59457
G01 X-35.44946 Y11.49589
G01 X-35.55573 Y11.35009
G01 X-35.62233 Y11.19891
G01 X-35.64362 Y11.13765
G01 X-35.66975 Y10.96622
G01 X-35.67392 Y10.90994
G01 X-35.67125 Y10.86922
G01 X-35.66023 Y10.77453
G01 X-35.64407 Y10.68207
G01 X-35.60615 Y10.58001
G01 X-35.56765 Y10.49299
G01 X-35.55611 Y10.46970
G01 X-35.51646 Y10.41240
G01 X-35.41606 Y10.28748
G01 X-35.28273 Y10.18106
G01 X-35.23356 Y10.14781
G01 X-35.17885 Y10.12121
G01 X-35.05838 Y10.07227
G01 X-35.02127 Y10.05977
G01 X-34.93054 Y10.04364
G01 X-34.79366 Y10.02911
G01 X-34.66970 Y10.04181
G01 X-34.50501 Y10.06744
G01 X-34.44768 Y10.02375
G01 X-31.77078 Y7.34687
G01 X-31.69412 Y7.27718
G01 X-31.64807 Y7.21589
G01 X-31.58932 Y7.11667
G01 X-31.50197 Y6.98464
G01 X-31.34609 Y6.72310
G01 X-31.19021 Y6.36742
G01 X-31.03433 Y5.91767
G01 X-30.87845 Y5.37375
G01 X-30.64500 Y5.52440
G01 X-30.33987 Y5.69392
G01 X-29.99318 Y5.84446
G01 X-29.52049 Y5.98368
G01 X-29.16771 Y6.03507
G01 X-28.93035 Y6.04561
G01 X-28.40337 Y6.04175
G01 X-28.33248 Y6.03786
G01 X-28.13075 Y6.04561
G01 X-27.86403 Y6.04561
G01 X-27.66444 Y6.03849
G01 X-27.66327 Y4.81002
G01 X-27.65285 Y4.71165
G01 X-27.60066 Y4.53883
G01 X-27.59761 Y4.49976
G01 X-27.59761 Y4.23332
G01 X-27.60226 Y4.18384
G01 X-27.61201 Y4.14680
G01 X-27.68531 Y3.96659
G01 X-27.80622 Y3.61084
G01 X-27.86515 Y3.45399
G01 X-27.97526 Y3.18889
G01 X-28.14376 Y2.72420
G01 X-28.26321 Y2.36550
G01 X-28.34018 Y2.34668
G01 X-28.32738 Y3.42798
G01 X-28.33157 Y3.74393
G01 X-28.33035 Y4.09989
G01 X-28.32458 Y4.16911
G01 X-28.36093 Y4.22780
G01 X-28.39044 Y4.30553
G01 X-28.39717 Y4.35595
G01 X-28.39712 Y4.50954
G01 X-28.38717 Y4.57276
G01 X-28.34307 Y4.70515
G01 X-28.33319 Y4.78285
G01 X-28.32913 Y4.90703
G01 X-28.33248 Y6.03786
G01 X-28.32913 Y4.90703
G01 X-28.33319 Y4.78285
G01 X-28.34307 Y4.70515
G01 X-28.38717 Y4.57276
G01 X-28.39712 Y4.50954
G01 X-28.39717 Y4.35595
G01 X-28.39044 Y4.30553
G01 X-28.36093 Y4.22780
G01 X-28.32458 Y4.16911
G01 X-28.33035 Y4.09989
G01 X-28.33157 Y3.74393
G01 X-28.32738 Y3.42798
G01 X-28.34018 Y2.34668
G01 X-28.26321 Y2.36550
G01 X-27.19779 Y2.36652
G01 X-26.73261 Y2.38460
G01 X-26.31173 Y2.49880
G01 X-26.12822 Y2.49177
G01 X-26.06357 Y2.49987
G01 X-25.59807 Y2.50002
G01 X-25.33172 Y2.48834
G01 X-25.07485 Y2.51026
G01 X-24.93581 Y2.68478
G01 X-24.79850 Y2.87322
G01 X-24.13213 Y3.27269
G01 X-24.01837 Y3.31932
G01 X-23.86543 Y3.38943
G01 X-23.53323 Y3.49976
G01 X-22.49073 Y3.50086
G01 X-22.35850 Y3.51302
G01 X-22.19848 Y3.54429
G01 X-21.76579 Y3.39989
G01 X-21.59015 Y3.35229
G01 X-21.53270 Y3.39623
G01 X-21.15993 Y3.47754
G01 X-21.11926 Y3.48455
G01 X-20.93801 Y3.49938
G01 X-20.13331 Y3.50007
G01 X-20.03491 Y3.49529
G01 X-19.58640 Y3.44670
G01 X-19.35617 Y3.43411
G01 X-19.06402 Y3.43202
G01 X-18.52755 Y2.68117
G01 X-18.22922 Y2.33167
G01 X-18.00527 Y2.35501
G01 X-17.80070 Y2.57713
G01 X-17.59994 Y2.75925
G01 X-17.40593 Y2.92311
G01 X-17.12979 Y3.12484
G01 X-16.79776 Y3.27513
G01 X-16.53184 Y3.34823
G01 X-16.26461 Y3.37276
G01 X-15.93301 Y3.35313
G01 X-15.53139 Y3.37988
G01 X-15.36807 Y3.36746
G01 X-15.15478 Y3.36588
G01 X-15.13423 Y3.36634
G01 X-15.06553 Y3.38442
G01 X-14.93162 Y3.37274
G01 X-14.78808 Y3.36680
G01 X-14.66517 Y3.37276
G01 X-14.37566 Y3.39862
G01 X-14.33241 Y3.40269
G01 X-13.99868 Y3.58437
G01 X-13.72885 Y3.45597
G01 X-13.58123 Y3.41663
G01 X-13.40767 Y3.38183
G01 X-13.18832 Y3.36674
G01 X-12.99644 Y3.36614
G01 X-12.86584 Y3.33019
G01 X-12.71013 Y3.35542
G01 X-12.57016 Y3.36601
G01 X-12.41120 Y3.30403
G01 X-12.26688 Y3.25544
G01 X-11.99944 Y3.22570
G01 X-11.86594 Y3.20352
G01 X-11.40003 Y3.30693
G01 X-11.29812 Y3.36306
G01 X-11.19960 Y3.36702
G01 X-10.96891 Y3.36741
G01 X-10.73374 Y3.47015
G01 X-10.53259 Y3.49253
G01 X-10.42152 Y3.49898
G01 X-6.35010 Y3.49989
G01 X-6.90199 Y4.10192
G01 X-7.50390 Y4.70345
G01 X-7.70326 Y4.91170
G01 X-8.39973 Y5.67868
G01 X-8.84095 Y5.91551
G01 X-9.12640 Y6.03009
G01 X-9.37026 Y6.10113
G01 X-9.62337 Y6.15150
G01 X-9.88675 Y6.17571
G01 X-10.13559 Y6.17563
G01 X-10.42596 Y6.14271
G01 X-10.83114 Y6.04388
G01 X-11.19962 Y6.04584
G01 X-11.39607 Y6.03849
G01 X-11.65723 Y6.04469
G01 X-11.86828 Y6.03303
G01 X-12.00536 Y6.04195
G01 X-12.33289 Y6.03870
G01 X-12.53259 Y6.04584
G01 X-12.79906 Y6.04581
G01 X-13.00089 Y6.03806
G01 X-13.07165 Y6.04195
G01 X-13.59888 Y6.04581
G01 X-13.80505 Y6.03771
G01 X-13.91798 Y6.02757
G01 X-14.25936 Y6.12127
G01 X-14.52423 Y6.16443
G01 X-14.74686 Y6.17804
G01 X-15.06568 Y6.16504
G01 X-15.34211 Y6.17888
G01 X-15.68437 Y6.15424
G01 X-16.00657 Y6.08985
G01 X-16.17624 Y6.03974
G01 X-16.19466 Y6.03842
G01 X-16.39854 Y6.04548
G01 X-16.66258 Y6.04243
G01 X-16.81340 Y6.04515
G01 X-17.06740 Y6.03288
G01 X-17.33090 Y6.04576
G01 X-17.59763 Y6.04576
G01 X-17.79410 Y6.03839
G01 X-17.98208 Y6.04548
G01 X-18.12590 Y6.04573
G01 X-18.44817 Y6.02689
G01 X-18.89790 Y5.94124
G01 X-18.95630 Y5.96557
G01 X-19.32506 Y6.08980
G01 X-19.71068 Y6.16171
G01 X-20.00689 Y6.17906
G01 X-20.42894 Y6.17781
G01 X-20.82297 Y6.14378
G01 X-21.18934 Y6.05655
G01 X-21.41822 Y6.09399
G01 X-21.64710 Y6.11045
G01 X-22.00529 Y6.09831
G01 X-22.06559 Y6.09168
G01 X-22.34486 Y6.11127
G01 X-22.67179 Y6.09831
G01 X-23.00006 Y6.04487
G01 X-23.33216 Y6.04568
G01 X-23.53186 Y6.03855
G01 X-23.73279 Y6.04538
G01 X-24.26475 Y6.04197
G01 X-24.45144 Y6.02757
G01 X-24.70206 Y6.10095
G01 X-24.95512 Y6.15130
G01 X-25.21847 Y6.17550
G01 X-25.65306 Y6.15823
G01 X-25.68430 Y6.15412
G01 X-26.07274 Y6.07103
G01 X-26.16281 Y6.04368
G01 X-26.53129 Y6.04563
G01 X-26.72779 Y6.03829
G01 X-26.98890 Y6.04446
G01 X-27.19862 Y6.03296
G01 X-27.45377 Y6.04535
G01 X-27.66444 Y6.03849
G01 X-27.86403 Y6.04561
G01 X-28.13075 Y6.04561
G01 X-28.33248 Y6.03786
G01 X-28.40337 Y6.04175
G01 X-28.93035 Y6.04561
G01 X-29.16771 Y6.03507
G01 X-29.54142 Y5.97924
G01 X-29.99318 Y5.84446
G01 X-30.03474 Y5.82851
G01 X-30.33987 Y5.69392
G01 X-30.64500 Y5.52440
G01 X-30.87845 Y5.37375
G01 X-31.31797 Y4.86316
G01 X-31.85719 Y4.24774
G01 X-32.14873 Y3.89781
G01 X-32.48185 Y3.45636
G01 X-32.92130 Y2.81297
G01 X-33.36074 Y2.09288
G01 X-33.80019 Y1.29606
G01 X-34.23963 Y0.42250
G01 X-34.65579 Y0.00000
G01 X-0.00000 Y0.00000
G01 X-0.00000 Y27.41993
G01 X-45.72000 Y27.41993
G01 X-45.72000 Y0.00000
G01 X-34.65579 Y0.00000
G01 X-34.23963 Y0.42250
G01 X-33.80798 Y0.57551
G01 X-28.89522 Y2.14523
G01 X-28.67520 Y2.22082
G01 X-28.34018 Y2.34668
G01 X-28.26321 Y2.36550
G01 X-27.19779 Y2.36652
G01 X-26.73261 Y2.38460
G01 X-26.72850 Y1.75382
G01 X-26.73203 Y1.22309
G01 X-26.71945 Y1.07000
G01 X-26.67457 Y0.87384
G01 X-26.66456 Y0.78806
G01 X-26.66479 Y0.60848
G01 X-26.68138 Y0.50112
G01 X-26.66883 Y0.43619
G01 X-26.66502 Y0.33058
G01 X-26.70269 Y0.25011
G01 X-26.76873 Y0.05413
G01 X-26.78194 Y0.00000
G01 X-26.76873 Y0.05413
G01 X-26.70269 Y0.25011
G01 X-26.66502 Y0.33058
G01 X-26.66883 Y0.43619
G01 X-26.68138 Y0.50112
G01 X-26.66479 Y0.60848
G01 X-26.66456 Y0.78806
G01 X-26.67457 Y0.87384
G01 X-26.71945 Y1.07000
G01 X-26.73203 Y1.22309
G01 X-26.72850 Y1.75382
G01 X-26.73261 Y2.38460
G01 X-26.31173 Y2.49880
G01 X-26.39837 Y2.76733
G01 X-26.53551 Y3.14762
G01 X-26.67234 Y3.44891
G01 X-26.86472 Y3.83428
G01 X-26.85793 Y3.99298
G01 X-26.84904 Y4.03941
G01 X-26.81252 Y4.14515
G01 X-26.80190 Y4.18775
G01 X-26.79776 Y4.23332
G01 X-26.79776 Y4.49976
G01 X-26.79469 Y4.53885
G01 X-26.78392 Y4.58483
G01 X-26.74645 Y4.69359
G01 X-26.73510 Y4.75831
G01 X-26.73099 Y4.89141
G01 X-26.73317 Y5.43123
G01 X-26.72779 Y6.03829
G01 X-26.53129 Y6.04563
G01 X-26.16281 Y6.04368
G01 X-25.83919 Y4.91058
G01 X-25.81702 Y4.82102
G01 X-25.80020 Y4.69064
G01 X-25.80071 Y4.56933
G01 X-25.89916 Y4.36161
G01 X-26.02738 Y4.10713
G01 X-26.04813 Y4.04627
G01 X-26.06213 Y3.96037
G01 X-26.06705 Y3.67157
G01 X-26.06182 Y2.95895
G01 X-26.06357 Y2.49987
G01 X-26.12822 Y2.49177
G01 X-26.13261 Y1.54978
G01 X-26.12944 Y1.36276
G01 X-26.13162 Y0.75598
G01 X-26.13805 Y0.70678
G01 X-26.15090 Y0.66457
G01 X-26.17414 Y0.61544
G01 X-26.19774 Y0.57826
G01 X-26.19723 Y0.28781
G01 X-26.17084 Y0.24689
G01 X-26.10203 Y0.10714
G01 X-26.08125 Y0.04628
G01 X-26.07226 Y0.00000
G01 X-25.39086 Y0.00000
G01 X-25.37496 Y0.06878
G01 X-25.34575 Y0.13988
G01 X-25.28209 Y0.26241
G01 X-25.22959 Y0.33254
G01 X-25.31669 Y0.54257
G01 X-25.32845 Y0.58778
G01 X-25.33233 Y0.62804
G01 X-25.33172 Y2.48834
G01 X-25.07485 Y2.51026
G01 X-24.13201 Y1.56700
G01 X-24.13201 Y1.45379
G01 X-24.29246 Y1.16944
G01 X-24.38905 Y0.98646
G01 X-24.64008 Y0.48118
G01 X-24.59845 Y0.43294
G01 X-24.45802 Y0.29248
G01 X-24.40800 Y0.23261
G01 X-24.36896 Y0.17231
G01 X-24.34321 Y0.12085
G01 X-24.30074 Y0.00000
G01 X-23.73300 Y0.00000
G01 X-23.73102 Y0.26426
G01 X-23.72017 Y0.35563
G01 X-23.81237 Y0.44813
G01 X-23.87026 Y0.52093
G01 X-23.91547 Y0.60086
G01 X-23.98972 Y0.77724
G01 X-24.03251 Y0.91846
G01 X-24.09248 Y1.26009
G01 X-24.13201 Y1.45379
G01 X-24.13201 Y1.56700
G01 X-23.93556 Y1.55844
G01 X-23.46554 Y1.50774
G01 X-23.34283 Y1.50012
G01 X-23.13054 Y1.49781
G01 X-22.93249 Y1.47785
G01 X-22.93275 Y0.73957
G01 X-22.95126 Y0.66383
G01 X-22.97486 Y0.61455
G01 X-23.02076 Y0.54821
G01 X-23.07181 Y0.49304
G01 X-22.96513 Y0.23360
G01 X-22.89546 Y0.08760
G01 X-22.87331 Y0.00000
G01 X-21.93722 Y0.00000
G01 X-21.95949 Y0.13927
G01 X-21.98256 Y0.21318
G01 X-22.11418 Y0.53383
G01 X-22.12939 Y0.59149
G01 X-22.13242 Y0.64539
G01 X-22.12624 Y0.69070
G01 X-22.11387 Y0.73223
G01 X-22.08306 Y0.80007
G01 X-22.00018 Y0.96741
G01 X-21.79417 Y1.35014
G01 X-21.64103 Y0.89830
G01 X-21.58083 Y0.75405
G01 X-21.53823 Y0.67147
G01 X-21.51393 Y0.63284
G01 X-21.44834 Y0.55027
G01 X-21.23257 Y0.33391
G01 X-21.17380 Y0.26515
G01 X-21.11667 Y0.17640
G01 X-21.06590 Y0.06490
G01 X-21.06709 Y0.00000
G01 X-20.46648 Y0.00000
G01 X-20.46625 Y0.09990
G01 X-20.46064 Y0.16817
G01 X-20.45144 Y0.20848
G01 X-20.40946 Y0.33551
G01 X-20.43781 Y0.43360
G01 X-20.49732 Y0.57841
G01 X-20.47710 Y0.61328
G01 X-20.43466 Y0.70546
G01 X-20.41124 Y0.78735
G01 X-20.40181 Y0.85113
G01 X-20.39955 Y1.47023
G01 X-20.60067 Y1.51468
G01 X-20.59953 Y1.88633
G01 X-20.60237 Y1.96035
G01 X-20.60865 Y2.00978
G01 X-20.61639 Y2.04625
G01 X-20.63712 Y2.10713
G01 X-20.70595 Y2.24701
G01 X-20.73229 Y2.28791
G01 X-20.73280 Y2.57818
G01 X-20.70928 Y2.61531
G01 X-20.68599 Y2.66446
G01 X-20.67311 Y2.70670
G01 X-20.66668 Y2.75598
G01 X-20.66643 Y4.36598
G01 X-20.66206 Y4.41325
G01 X-20.65228 Y4.45226
G01 X-20.63389 Y4.49976
G01 X-20.69879 Y4.63309
G01 X-20.75404 Y4.76646
G01 X-20.89071 Y5.16748
G01 X-21.04365 Y5.54373
G01 X-21.17260 Y5.89011
G01 X-21.18934 Y6.05655
G01 X-21.17260 Y5.89011
G01 X-21.29511 Y5.37840
G01 X-21.39978 Y4.96463
G01 X-21.40298 Y4.77045
G01 X-21.41733 Y4.68249
G01 X-21.44806 Y4.60200
G01 X-21.50270 Y4.49468
G01 X-21.53293 Y4.44571
G01 X-21.53270 Y3.39623
G01 X-21.59015 Y3.35229
G01 X-21.53427 Y2.83606
G01 X-21.59777 Y2.77048
G01 X-21.70791 Y2.64401
G01 X-21.78578 Y2.52542
G01 X-21.80689 Y2.48376
G01 X-21.83775 Y2.40665
G01 X-21.85883 Y2.31910
G01 X-21.86981 Y2.17180
G01 X-21.90542 Y2.00622
G01 X-21.92538 Y1.88895
G01 X-21.93252 Y1.76662
G01 X-21.93242 Y1.45519
G01 X-21.79544 Y1.36860
G01 X-21.79417 Y1.35014
G01 X-21.79544 Y1.36860
G01 X-21.60834 Y1.42999
G01 X-21.46836 Y1.46957
G01 X-21.26699 Y1.51481
G01 X-21.26442 Y2.13693
G01 X-21.25284 Y2.20243
G01 X-21.20930 Y2.33515
G01 X-21.23524 Y2.42674
G01 X-21.28695 Y2.53843
G01 X-21.36856 Y2.65801
G01 X-21.45426 Y2.75549
G01 X-21.53427 Y2.83606
G01 X-21.59015 Y3.35229
G01 X-21.76579 Y3.39989
G01 X-22.19848 Y3.54429
G01 X-22.19896 Y3.78186
G01 X-22.18713 Y3.93273
G01 X-22.15500 Y4.07919
G01 X-22.10902 Y4.25821
G01 X-22.06648 Y4.36883
G01 X-22.06559 Y6.09168
G01 X-22.34486 Y6.11127
G01 X-22.67179 Y6.09831
G01 X-23.00006 Y6.04487
G01 X-23.33216 Y6.04568
G01 X-23.53186 Y6.03855
G01 X-23.73279 Y6.04538
G01 X-24.26475 Y6.04197
G01 X-24.45144 Y6.02757
G01 X-24.66043 Y5.09623
G01 X-24.76467 Y4.76494
G01 X-24.77480 Y4.72044
G01 X-24.79738 Y4.52458
G01 X-24.79850 Y2.87322
G01 X-24.13213 Y3.27269
G01 X-24.01837 Y3.31932
G01 X-23.86543 Y3.38943
G01 X-23.53323 Y3.49976
G01 X-23.53371 Y3.93014
G01 X-23.53800 Y3.98463
G01 X-23.54776 Y4.03951
G01 X-23.59342 Y4.18130
G01 X-23.59889 Y4.23332
G01 X-23.59889 Y4.49976
G01 X-23.59307 Y4.55364
G01 X-23.54776 Y4.69354
G01 X-23.53455 Y4.78003
G01 X-23.53186 Y6.03855
G01 X-23.33216 Y6.04568
G01 X-23.00006 Y6.04487
G01 X-22.79942 Y5.03273
G01 X-22.79800 Y4.89682
G01 X-22.78924 Y4.77022
G01 X-22.78007 Y4.72064
G01 X-22.76561 Y4.66651
G01 X-22.71022 Y4.49976
G01 X-22.66582 Y4.40223
G01 X-22.66582 Y4.34340
G01 X-22.71017 Y4.23332
G01 X-22.77557 Y4.03233
G01 X-22.79366 Y3.93126
G01 X-22.79876 Y3.84856
G01 X-22.79927 Y1.52179
G01 X-22.93249 Y1.47785
G01 X-22.79927 Y1.52179
G01 X-22.66605 Y1.50754
G01 X-22.54324 Y1.50000
G01 X-22.40006 Y1.50000
G01 X-22.26676 Y1.49240
G01 X-21.93242 Y1.45519
G01 X-21.79544 Y1.36860
G01 X-21.60834 Y1.42999
G01 X-21.46836 Y1.46957
G01 X-21.26699 Y1.51481
G01 X-21.14522 Y1.50277
G01 X-21.06244 Y1.49969
G01 X-20.77517 Y1.50094
G01 X-20.60067 Y1.51468
G01 X-20.39955 Y1.47023
G01 X-20.31947 Y1.48471
G01 X-20.13816 Y1.49939
G01 X-18.81861 Y1.50147
G01 X-18.22922 Y2.33167
G01 X-18.00527 Y2.35501
G01 X-17.80070 Y2.57713
G01 X-17.80141 Y3.07978
G01 X-17.79521 Y3.55940
G01 X-17.79783 Y4.03027
G01 X-17.79567 Y4.13690
G01 X-17.79133 Y4.16923
G01 X-17.82750 Y4.22786
G01 X-17.89793 Y4.36733
G01 X-19.06039 Y4.36994
G01 X-19.06511 Y4.24701
G01 X-19.06402 Y3.43202
G01 X-19.06511 Y4.24701
G01 X-19.06039 Y4.36994
G01 X-19.06549 Y4.50299
G01 X-19.06524 Y4.64680
G01 X-19.05081 Y4.86374
G01 X-18.89790 Y5.94124
G01 X-19.05081 Y4.86374
G01 X-19.06524 Y4.64680
G01 X-19.06549 Y4.50299
G01 X-19.06039 Y4.36994
G01 X-17.89793 Y4.36733
G01 X-17.88066 Y4.40535
G01 X-17.86875 Y4.44909
G01 X-17.86298 Y4.52247
G01 X-17.85536 Y4.56687
G01 X-17.81218 Y4.69372
G01 X-17.80276 Y4.74878
G01 X-17.79882 Y4.80296
G01 X-17.79643 Y5.08721
G01 X-17.79948 Y5.43123
G01 X-17.79410 Y6.03839
G01 X-17.59763 Y6.04576
G01 X-17.33090 Y6.04576
G01 X-17.06740 Y6.03288
G01 X-17.06382 Y5.58574
G01 X-17.06423 Y4.23332
G01 X-17.07446 Y4.16032
G01 X-17.11546 Y4.03949
G01 X-17.12519 Y3.98470
G01 X-17.12948 Y3.93024
G01 X-17.12979 Y3.12484
G01 X-16.79776 Y3.27513
G01 X-16.53184 Y3.34823
G01 X-16.26461 Y3.37276
G01 X-15.93301 Y3.35313
G01 X-15.93116 Y2.84731
G01 X-15.93695 Y2.74853
G01 X-15.94681 Y2.69354
G01 X-15.99141 Y2.55854
G01 X-16.00548 Y2.43675
G01 X-16.01475 Y2.40548
G01 X-16.03212 Y2.36733
G01 X-16.00622 Y2.29845
G01 X-15.99796 Y2.23319
G01 X-15.99656 Y1.83004
G01 X-16.00195 Y1.41374
G01 X-15.83058 Y1.36368
G01 X-15.73149 Y1.37262
G01 X-15.59834 Y1.39141
G01 X-15.50645 Y1.37696
G01 X-15.13022 Y1.49990
G01 X-14.66517 Y1.49972
G01 X-14.56182 Y1.50454
G01 X-14.39883 Y1.52184
G01 X-14.39774 Y1.85638
G01 X-14.38869 Y1.96286
G01 X-14.36507 Y2.06657
G01 X-14.32001 Y2.20269
G01 X-14.30083 Y2.25666
G01 X-14.26525 Y2.32982
G01 X-14.26832 Y2.55361
G01 X-14.27797 Y2.61551
G01 X-14.31757 Y2.78661
G01 X-14.32918 Y2.90279
G01 X-14.33241 Y3.40269
G01 X-14.32918 Y2.90279
G01 X-14.31757 Y2.78661
G01 X-14.27797 Y2.61551
G01 X-14.26832 Y2.55361
G01 X-14.26525 Y2.32982
G01 X-14.30083 Y2.25666
G01 X-14.32001 Y2.20269
G01 X-14.36507 Y2.06657
G01 X-14.38869 Y1.96286
G01 X-14.39774 Y1.85638
G01 X-14.39883 Y1.52184
G01 X-14.05064 Y1.40312
G01 X-13.81973 Y1.28933
G01 X-13.66472 Y1.36746
G01 X-13.47602 Y1.40437
G01 X-13.32860 Y1.42682
G01 X-13.14849 Y1.43180
G01 X-12.86571 Y1.40653
G01 X-12.76546 Y1.36657
G01 X-12.86558 Y0.96462
G01 X-12.86911 Y0.77056
G01 X-12.88336 Y0.68255
G01 X-12.91087 Y0.60940
G01 X-12.96820 Y0.49383
G01 X-12.99815 Y0.44541
G01 X-13.00145 Y0.18915
G01 X-13.01278 Y0.12906
G01 X-13.04950 Y0.00000
G01 X-15.19867 Y0.00000
G01 X-15.19832 Y0.22987
G01 X-15.20464 Y0.29103
G01 X-15.22105 Y0.34394
G01 X-15.28638 Y0.50251
G01 X-15.27155 Y0.55839
G01 X-15.26497 Y0.61730
G01 X-15.26731 Y0.68021
G01 X-15.27571 Y0.72888
G01 X-15.40469 Y1.11516
G01 X-15.50645 Y1.37696
G01 X-15.13022 Y1.49990
G01 X-15.13401 Y1.95306
G01 X-15.14721 Y2.03952
G01 X-15.19253 Y2.17945
G01 X-15.19834 Y2.23330
G01 X-15.19834 Y2.49974
G01 X-15.19288 Y2.55179
G01 X-15.14721 Y2.69354
G01 X-15.13746 Y2.74846
G01 X-15.13317 Y2.80294
G01 X-15.13126 Y3.14058
G01 X-15.13423 Y3.36634
G01 X-15.36807 Y3.36746
G01 X-15.53139 Y3.37988
G01 X-15.52959 Y3.94617
G01 X-15.52438 Y4.00101
G01 X-15.51272 Y4.05473
G01 X-15.47132 Y4.17571
G01 X-15.46553 Y4.24899
G01 X-15.47134 Y4.29108
G01 X-15.48465 Y4.33527
G01 X-15.55410 Y4.50098
G01 X-15.53865 Y4.55869
G01 X-15.53220 Y4.61742
G01 X-15.53464 Y4.68005
G01 X-15.54310 Y4.72844
G01 X-15.56995 Y4.80652
G01 X-15.59745 Y4.86171
G01 X-15.78054 Y5.14607
G01 X-15.95694 Y5.50296
G01 X-16.17624 Y6.03974
G01 X-16.19466 Y6.03842
G01 X-16.20004 Y5.43123
G01 X-16.19700 Y5.08721
G01 X-16.19951 Y4.80289
G01 X-16.20370 Y4.74850
G01 X-16.21333 Y4.69359
G01 X-16.25079 Y4.58483
G01 X-16.26156 Y4.53885
G01 X-16.26464 Y4.49976
G01 X-16.26535 Y3.87414
G01 X-16.26154 Y3.63207
G01 X-16.26461 Y3.37276
G01 X-15.93301 Y3.35313
G01 X-15.93116 Y2.84731
G01 X-15.93695 Y2.74853
G01 X-15.94681 Y2.69354
G01 X-15.99141 Y2.55854
G01 X-16.00281 Y2.44914
G01 X-16.02273 Y2.38570
G01 X-16.03212 Y2.36733
G01 X-16.06342 Y2.36654
G01 X-16.70096 Y2.36654
G01 X-16.97134 Y2.37043
G01 X-17.99107 Y2.36822
G01 X-18.00527 Y2.35501
G01 X-17.88886 Y2.24970
G01 X-17.58259 Y1.95870
G01 X-17.39582 Y1.78966
G01 X-17.19758 Y1.66324
G01 X-17.03207 Y1.56855
G01 X-16.74386 Y1.43322
G01 X-16.66481 Y1.03274
G01 X-16.66339 Y0.89682
G01 X-16.65463 Y0.77023
G01 X-16.64546 Y0.72065
G01 X-16.63101 Y0.66652
G01 X-16.57561 Y0.49977
G01 X-16.53118 Y0.40223
G01 X-16.53118 Y0.34341
G01 X-16.56786 Y0.25446
G01 X-16.59893 Y0.16464
G01 X-16.62483 Y0.08684
G01 X-16.64769 Y0.00000
G01 X-16.11478 Y0.00000
G01 X-16.07861 Y0.12911
G01 X-16.06743 Y0.18928
G01 X-16.06474 Y0.44587
G01 X-16.03459 Y0.49472
G01 X-15.98046 Y0.60137
G01 X-15.94904 Y0.68252
G01 X-15.93479 Y0.77051
G01 X-15.93167 Y0.96464
G01 X-15.83058 Y1.36368
G01 X-16.00195 Y1.41374
G01 X-16.13350 Y1.42677
G01 X-16.27726 Y1.43322
G01 X-16.74386 Y1.43322
G01 X-17.03207 Y1.56855
G01 X-17.19758 Y1.66324
G01 X-17.39582 Y1.78966
G01 X-17.39956 Y1.43175
G01 X-17.39910 Y0.80294
G01 X-17.40339 Y0.74846
G01 X-17.41315 Y0.69355
G01 X-17.45417 Y0.57292
G01 X-17.46349 Y0.51961
G01 X-17.46898 Y0.44910
G01 X-17.48089 Y0.40536
G01 X-17.49814 Y0.36733
G01 X-17.42770 Y0.22812
G01 X-17.39141 Y0.16932
G01 X-17.39727 Y0.09987
G01 X-17.39684 Y0.00000
G01 X-17.39727 Y0.09987
G01 X-17.39141 Y0.16932
G01 X-17.42770 Y0.22812
G01 X-17.49814 Y0.36733
G01 X-18.16705 Y0.36655
G01 X-18.43743 Y0.37043
G01 X-18.87741 Y0.36949
G01 X-18.86986 Y0.24783
G01 X-18.86552 Y0.00000
G01 X-18.86986 Y0.24783
G01 X-18.87741 Y0.36949
G01 X-18.88876 Y0.43327
G01 X-18.86824 Y0.64760
G01 X-18.81861 Y1.50147
G01 X-18.22922 Y2.33167
G01 X-18.00527 Y2.35501
G01 X-17.80070 Y2.57713
G01 X-17.59994 Y2.75925
G01 X-17.37482 Y2.94714
G01 X-17.12979 Y3.12484
G01 X-16.79776 Y3.27513
G01 X-16.53184 Y3.34823
G01 X-16.26461 Y3.37276
G01 X-15.93301 Y3.35313
G01 X-15.53139 Y3.37988
G01 X-15.36807 Y3.36746
G01 X-15.15478 Y3.36588
G01 X-15.13423 Y3.36634
G01 X-15.06553 Y3.38442
G01 X-14.93162 Y3.37274
G01 X-14.78808 Y3.36680
G01 X-14.66517 Y3.37276
G01 X-14.33241 Y3.40269
G01 X-13.99868 Y3.58437
G01 X-13.99868 Y3.91701
G01 X-14.07983 Y4.09994
G01 X-14.11735 Y4.19420
G01 X-14.17927 Y4.42255
G01 X-14.18587 Y4.46410
G01 X-14.19705 Y4.67507
G01 X-14.19489 Y4.71663
G01 X-14.16858 Y4.89979
G01 X-13.91798 Y6.02757
G01 X-14.16858 Y4.89979
G01 X-14.19489 Y4.71663
G01 X-14.19705 Y4.67507
G01 X-14.18587 Y4.46410
G01 X-14.17927 Y4.42255
G01 X-14.11735 Y4.19420
G01 X-14.07983 Y4.09994
G01 X-13.99868 Y3.91701
G01 X-13.99868 Y3.58437
G01 X-13.72885 Y3.45597
G01 X-13.73518 Y3.10063
G01 X-13.73076 Y2.43677
G01 X-13.75606 Y2.41678
G01 X-13.78450 Y2.33957
G01 X-13.79426 Y2.29146
G01 X-13.70307 Y2.10716
G01 X-13.68237 Y2.04643
G01 X-13.67465 Y2.00993
G01 X-13.66799 Y1.95024
G01 X-13.66505 Y1.85552
G01 X-13.66472 Y1.36746
G01 X-13.81973 Y1.28933
G01 X-13.83050 Y1.21755
G01 X-13.90825 Y0.86713
G01 X-13.93147 Y0.64869
G01 X-13.92634 Y0.51745
G01 X-13.90226 Y0.36723
G01 X-13.92293 Y0.24745
G01 X-13.93129 Y0.14181
G01 X-13.93172 Y0.00000
G01 X-12.06574 Y0.00000
G01 X-12.06566 Y0.10521
G01 X-12.05662 Y0.18377
G01 X-12.03490 Y0.25667
G01 X-11.99932 Y0.32982
G01 X-11.99932 Y1.34849
G01 X-12.13228 Y1.38394
G01 X-12.13249 Y1.95489
G01 X-12.13462 Y2.01501
G01 X-12.14166 Y2.07086
G01 X-12.16142 Y2.14757
G01 X-12.18768 Y2.21003
G01 X-12.21727 Y2.25981
G01 X-12.27130 Y2.32667
G01 X-12.29307 Y2.41879
G01 X-12.26944 Y2.52006
G01 X-12.26508 Y2.59611
G01 X-12.26688 Y3.25544
G01 X-12.41120 Y3.30403
G01 X-12.57016 Y3.36601
G01 X-12.47468 Y3.61053
G01 X-12.35349 Y3.96659
G01 X-12.28578 Y4.13090
G01 X-12.27298 Y4.17258
G01 X-12.26589 Y4.23332
G01 X-12.26825 Y4.53400
G01 X-12.27607 Y4.57281
G01 X-12.32009 Y4.70520
G01 X-12.33000 Y4.78297
G01 X-12.33320 Y4.92666
G01 X-12.33289 Y6.03870
G01 X-12.53259 Y6.04584
G01 X-12.79906 Y6.04581
G01 X-13.00089 Y6.03806
G01 X-12.99830 Y4.92651
G01 X-13.00119 Y4.78312
G01 X-13.01059 Y4.70550
G01 X-13.02802 Y4.64434
G01 X-13.05118 Y4.58630
G01 X-13.06436 Y4.52239
G01 X-13.06548 Y4.35597
G01 X-13.05872 Y4.30553
G01 X-13.04773 Y4.26938
G01 X-13.01618 Y4.20393
G01 X-12.99286 Y4.16911
G01 X-12.99865 Y4.09989
G01 X-12.99972 Y3.89273
G01 X-12.99644 Y3.36614
G01 X-12.86584 Y3.33019
G01 X-12.86706 Y3.09408
G01 X-12.86302 Y2.90269
G01 X-12.85146 Y2.78658
G01 X-12.80886 Y2.59941
G01 X-12.79987 Y2.52410
G01 X-12.80190 Y2.44729
G01 X-12.82243 Y2.34229
G01 X-12.86642 Y2.30038
G01 X-12.86571 Y1.40653
G01 X-12.76546 Y1.36657
G01 X-12.38877 Y1.36672
G01 X-12.13228 Y1.38394
G01 X-11.99932 Y1.34849
G01 X-11.69543 Y1.37676
G01 X-11.53282 Y1.40307
G01 X-11.40198 Y1.36728
G01 X-11.39848 Y0.85659
G01 X-11.40033 Y0.36820
G01 X-11.23124 Y0.24054
G01 X-11.20625 Y0.19832
G01 X-11.19998 Y0.09995
G01 X-11.19947 Y0.00000
G01 X-10.44504 Y0.00000
G01 X-10.50402 Y0.08933
G01 X-10.55014 Y0.16871
G01 X-10.64362 Y0.38903
G01 X-10.66236 Y0.45410
G01 X-10.66653 Y0.49977
G01 X-10.66668 Y0.63838
G01 X-10.67051 Y0.67927
G01 X-10.67907 Y0.71389
G01 X-10.69980 Y0.76645
G01 X-10.81159 Y0.99121
G01 X-10.93186 Y1.22113
G01 X-10.97775 Y1.36350
G01 X-10.73280 Y1.46977
G01 X-10.73287 Y1.84130
G01 X-10.72650 Y1.99664
G01 X-10.71174 Y2.06540
G01 X-10.70041 Y2.09807
G01 X-10.65329 Y2.19151
G01 X-10.60646 Y2.30012
G01 X-10.65225 Y2.41381
G01 X-10.66411 Y2.46545
G01 X-10.66952 Y2.53883
G01 X-10.68502 Y2.59799
G01 X-10.76193 Y2.78836
G01 X-10.89005 Y3.17251
G01 X-10.96891 Y3.36741
G01 X-10.73374 Y3.47015
G01 X-10.73193 Y3.94274
G01 X-10.72418 Y4.00977
G01 X-10.71646 Y4.04625
G01 X-10.69579 Y4.10713
G01 X-10.56754 Y4.36192
G01 X-10.46904 Y4.56931
G01 X-10.47095 Y4.72191
G01 X-10.48532 Y4.82102
G01 X-10.50750 Y4.91058
G01 X-10.83114 Y6.04388
G01 X-11.19962 Y6.04584
G01 X-11.39607 Y6.03849
G01 X-11.40148 Y5.43128
G01 X-11.40033 Y4.81005
G01 X-11.41067 Y4.71170
G01 X-11.46200 Y4.54533
G01 X-11.46617 Y4.49976
G01 X-11.46617 Y4.23332
G01 X-11.46924 Y4.19425
G01 X-11.48001 Y4.14820
G01 X-11.51753 Y4.03944
G01 X-11.52642 Y3.99306
G01 X-11.53272 Y3.90075
G01 X-11.53290 Y3.83375
G01 X-11.29812 Y3.36306
G01 X-11.40003 Y3.30693
G01 X-11.39891 Y2.87731
G01 X-11.40325 Y2.76746
G01 X-11.41222 Y2.70632
G01 X-11.42449 Y2.65984
G01 X-11.48768 Y2.50952
G01 X-11.52812 Y2.33053
G01 X-11.53190 Y2.23975
G01 X-11.52561 Y2.18379
G01 X-11.51136 Y2.11099
G01 X-11.52398 Y2.04500
G01 X-11.53196 Y1.93284
G01 X-11.53282 Y1.40307
G01 X-11.40198 Y1.36728
G01 X-10.97775 Y1.36350
G01 X-10.73280 Y1.46977
G01 X-10.39912 Y1.50741
G01 X-10.26678 Y1.52994
G01 X-10.08352 Y1.50350
G01 X-9.98885 Y1.49990
G01 X-8.79018 Y1.50106
G01 X-7.29242 Y1.49609
G01 X-4.33220 Y1.49990
G01 X-3.69580 Y0.89573
G01 X-2.80449 Y0.00000
G01 X-3.69580 Y0.89573
G01 X-4.33220 Y1.49990
G01 X-4.90004 Y2.09997
G01 X-5.69989 Y2.89982
G01 X-6.35010 Y3.49989
G01 X-6.90199 Y4.10192
G01 X-7.50390 Y4.70345
G01 X-7.70326 Y4.91170
G01 X-8.39973 Y5.67868
G01 X-8.26300 Y6.11591
G01 X-8.12627 Y6.48089
G01 X-7.98954 Y6.77362
G01 X-7.85282 Y6.99409
G01 X-7.80077 Y7.06994
G01 X-7.71319 Y7.21573
G01 X-7.65155 Y7.29399
G01 X-7.59043 Y7.34703
G01 X-6.59341 Y8.34517
G01 X-6.56527 Y8.37951
G01 X-6.51726 Y8.45094
G01 X-6.50192 Y8.47829
G01 X-6.49559 Y8.50133
G01 X-6.47705 Y8.59224
G01 X-6.47253 Y8.63691
G01 X-6.47220 Y8.75373
G01 X-6.46196 Y8.82653
G01 X-6.32224 Y8.92739
G01 X-6.22236 Y9.00867
G01 X-6.13834 Y9.11222
G01 X-6.08114 Y9.19394
G01 X-6.06237 Y9.23166
G01 X-6.01856 Y9.33445
G01 X-5.99224 Y9.40920
G01 X-5.97903 Y9.47814
G01 X-5.96501 Y9.58896
G01 X-5.96166 Y9.63991
G01 X-5.96796 Y9.71944
G01 X-5.99067 Y9.86721
G01 X-6.02922 Y9.97214
G01 X-6.08073 Y10.08616
G01 X-6.17207 Y10.21113
G01 X-6.22592 Y10.31410
G01 X-6.25582 Y10.43181
G01 X-6.32620 Y10.45479
G01 X-6.46372 Y10.49015
G01 X-6.57545 Y10.51108
G01 X-6.72935 Y10.52843
G01 X-6.86115 Y10.53272
G01 X-6.98302 Y10.52805
G01 X-7.11568 Y10.51352
G01 X-7.19798 Y10.49868
G01 X-7.26064 Y10.45652
G01 X-7.35002 Y10.38791
G01 X-7.46120 Y10.28906
G01 X-7.53626 Y10.21184
G01 X-7.60288 Y10.13480
G01 X-7.71258 Y9.98446
G01 X-7.73829 Y9.81080
G01 X-7.74532 Y9.70349
G01 X-7.74591 Y9.59543
G01 X-7.73890 Y9.47542
G01 X-7.72663 Y9.37384
G01 X-7.69907 Y9.22853
G01 X-7.62820 Y8.94908
G01 X-7.59760 Y8.77265
G01 X-7.68614 Y8.67420
G01 X-8.12823 Y8.23219
G01 X-8.58586 Y8.04354
G01 X-8.70966 Y8.00781
G01 X-8.80100 Y7.99414
G01 X-8.85876 Y7.99107
G01 X-9.39368 Y7.98894
G01 X-10.67717 Y7.98927
G01 X-10.75957 Y7.99528
G01 X-10.85256 Y8.01251
G01 X-10.92210 Y8.03293
G01 X-11.06835 Y8.09120
G01 X-11.08332 Y8.16625
G01 X-11.11440 Y8.25970
G01 X-11.16627 Y8.33237
G01 X-12.69208 Y9.85840
G01 X-12.73287 Y9.89183
G01 X-12.78534 Y9.89703
G01 X-28.69768 Y9.89739
G01 X-28.82397 Y9.86724
G01 X-28.82468 Y8.24293
G01 X-28.85356 Y8.12175
G01 X-28.88480 Y8.05627
G01 X-28.95168 Y8.05045
G01 X-30.47568 Y8.05045
G01 X-30.54253 Y8.05627
G01 X-30.57378 Y8.12175
G01 X-30.60266 Y8.24293
G01 X-30.60337 Y9.86729
G01 X-30.47568 Y9.89830
G01 X-28.95168 Y9.89828
G01 X-28.82397 Y9.86724
G01 X-28.95168 Y9.89828
G01 X-30.47568 Y9.89830
G01 X-30.60337 Y9.86729
G01 X-30.72966 Y9.89741
G01 X-31.86346 Y9.89744
G01 X-31.95881 Y9.91116
G01 X-32.02236 Y9.92741
G01 X-32.09138 Y9.96925
G01 X-32.15577 Y10.01814
G01 X-33.71766 Y11.57978
G01 X-33.81004 Y11.64069
G01 X-33.93392 Y11.67008
G01 X-33.98667 Y11.67524
G01 X-34.07514 Y11.64834
G01 X-34.18670 Y11.69050
G01 X-34.32325 Y11.73221
G01 X-34.45129 Y11.76162
G01 X-34.59549 Y11.78367
G01 X-34.69719 Y11.79215
G01 X-34.81751 Y11.79462
G01 X-34.95683 Y11.78725
G01 X-35.05853 Y11.77493
G01 X-35.18144 Y11.75228
G01 X-35.30763 Y11.72009
G01 X-35.37864 Y11.69731
G01 X-35.45830 Y11.74689
G01 X-35.54039 Y11.78519
G01 X-35.62248 Y11.79797
G01 X-35.85080 Y11.79797
G01 X-35.90331 Y11.79274
G01 X-35.94407 Y11.75934
G01 X-36.44750 Y11.25591
G01 X-36.49081 Y11.19919
G01 X-36.48517 Y11.14542
G01 X-36.46960 Y11.06208
G01 X-36.45370 Y10.90994
G01 X-36.45941 Y10.83587
G01 X-36.47326 Y10.73513
G01 X-36.48365 Y10.68212
G01 X-36.51143 Y10.60425
G01 X-36.57135 Y10.46991
G01 X-36.60678 Y10.41796
G01 X-36.71090 Y10.28713
G01 X-36.83300 Y10.18926
G01 X-36.90163 Y10.14301
G01 X-37.03317 Y10.08558
G01 X-37.10569 Y10.05931
G01 X-37.20521 Y10.04237
G01 X-37.31471 Y10.03054
G01 X-37.42078 Y10.03709
G01 X-37.56129 Y10.05964
G01 X-37.68278 Y10.10542
G01 X-37.77397 Y10.14707
G01 X-37.85898 Y10.20770
G01 X-37.95606 Y10.28746
G01 X-38.04829 Y10.40127
G01 X-38.10632 Y10.49028
G01 X-38.14958 Y10.58850
G01 X-38.18443 Y10.68200
G01 X-38.21107 Y10.86719
G01 X-38.21387 Y10.90994
G01 X-38.20904 Y10.97349
G01 X-38.18379 Y11.13770
G01 X-38.13701 Y11.26178
G01 X-38.09629 Y11.35045
G01 X-38.02629 Y11.44770
G01 X-37.95801 Y11.53079
G01 X-37.87430 Y11.60031
G01 X-37.78369 Y11.66602
G01 X-37.67513 Y11.71760
G01 X-37.56142 Y11.76066
G01 X-37.42812 Y11.78182
G01 X-37.31649 Y11.78936
G01 X-37.19703 Y11.77628
G01 X-37.04501 Y11.75240
G01 X-36.98766 Y11.79606
G01 X-36.34275 Y12.44084
G01 X-36.26772 Y12.49672
G01 X-36.20912 Y12.53114
G01 X-36.13602 Y12.54978
G01 X-36.05068 Y12.56187
G01 X-35.62248 Y12.56180
G01 X-35.54031 Y12.57455
G01 X-35.45817 Y12.61290
G01 X-35.37930 Y12.66195
G01 X-35.39297 Y12.72248
G01 X-35.42195 Y12.81339
G01 X-35.46470 Y12.88473
G01 X-35.55591 Y13.00985
G01 X-35.61504 Y13.14211
G01 X-35.64443 Y13.22200
G01 X-35.66023 Y13.31453
G01 X-35.67392 Y13.44993
G01 X-35.66023 Y13.58527
G01 X-35.64834 Y13.65750
G01 X-35.62337 Y13.73629
G01 X-35.55624 Y13.89045
G01 X-35.46513 Y14.01473
G01 X-35.42629 Y14.07704
G01 X-35.39922 Y14.15247
G01 X-35.37915 Y14.23767
G01 X-35.39922 Y14.15247
G01 X-35.42629 Y14.07704
G01 X-35.46513 Y14.01473
G01 X-35.55624 Y13.89045
G01 X-35.62337 Y13.73629
G01 X-35.64834 Y13.65750
G01 X-35.66023 Y13.58527
G01 X-35.67392 Y13.44993
G01 X-35.66023 Y13.31453
G01 X-35.64443 Y13.22200
G01 X-35.57770 Y13.05456
G01 X-35.55591 Y13.00985
G01 X-35.46470 Y12.88473
G01 X-35.42195 Y12.81339
G01 X-35.39297 Y12.72248
G01 X-35.37930 Y12.66195
G01 X-35.31906 Y12.64285
G01 X-35.21634 Y12.61534
G01 X-35.11504 Y12.59401
G01 X-35.01598 Y12.57877
G01 X-34.90438 Y12.56822
G01 X-34.81840 Y12.56497
G01 X-34.71017 Y12.56675
G01 X-34.60095 Y12.57526
G01 X-34.49457 Y12.58992
G01 X-34.37885 Y12.56652
G01 X-34.29922 Y12.56093
G01 X-33.75698 Y12.56048
G01 X-33.69391 Y12.55616
G01 X-33.60562 Y12.54133
G01 X-33.53697 Y12.52273
G01 X-33.37301 Y12.45855
G01 X-33.30905 Y12.50125
G01 X-33.22104 Y12.54529
G01 X-33.13303 Y12.55997
G01 X-30.42920 Y12.55997
G01 X-30.33476 Y12.54308
G01 X-30.24033 Y12.49235
G01 X-30.17294 Y12.44412
G01 X-30.07210 Y12.46561
G01 X-29.96974 Y12.48212
G01 X-29.87990 Y12.49205
G01 X-29.71942 Y12.49929
G01 X-29.61891 Y12.49693
G01 X-29.49641 Y12.48692
G01 X-29.40512 Y12.47435
G01 X-29.25450 Y12.44387
G01 X-29.19545 Y12.30333
G01 X-29.14612 Y12.23361
G01 X-29.08247 Y12.17635
G01 X-29.02989 Y12.11349
G01 X-28.94079 Y11.99111
G01 X-28.89496 Y11.89121
G01 X-28.86098 Y11.80358
G01 X-28.85156 Y11.77585
G01 X-28.83936 Y11.70922
G01 X-28.82085 Y11.54491
G01 X-28.83106 Y11.43841
G01 X-28.85178 Y11.31407
G01 X-28.89926 Y11.18847
G01 X-28.94056 Y11.09858
G01 X-29.03713 Y10.96571
G01 X-29.07495 Y10.88972
G01 X-29.10721 Y10.75949
G01 X-29.28358 Y10.70803
G01 X-29.46766 Y10.67303
G01 X-29.64548 Y10.65731
G01 X-29.81256 Y10.65878
G01 X-29.97863 Y10.67575
G01 X-30.07474 Y10.69271
G01 X-30.17975 Y10.71712
G01 X-30.31985 Y10.75969
G01 X-30.33367 Y10.82228
G01 X-30.35943 Y10.90795
G01 X-30.40062 Y10.98024
G01 X-30.48650 Y11.09873
G01 X-30.53464 Y11.20407
G01 X-30.56463 Y11.28144
G01 X-30.57563 Y11.31397
G01 X-30.58874 Y11.38560
G01 X-30.60596 Y11.53881
G01 X-30.59834 Y11.63373
G01 X-30.57563 Y11.77587
G01 X-30.53494 Y11.88499
G01 X-30.48653 Y11.99104
G01 X-30.40108 Y12.10881
G01 X-30.34459 Y12.17625
G01 X-30.26971 Y12.24666
G01 X-30.21950 Y12.32738
G01 X-30.17294 Y12.44412
G01 X-30.07210 Y12.46561
G01 X-29.96974 Y12.48212
G01 X-29.79057 Y12.49774
G01 X-29.61891 Y12.49693
G01 X-29.42529 Y12.47752
G01 X-29.25450 Y12.44387
G01 X-29.18676 Y12.49235
G01 X-29.09232 Y12.54308
G01 X-28.99791 Y12.55997
G01 X-13.92453 Y12.55997
G01 X-13.87203 Y12.55474
G01 X-13.83127 Y12.52134
G01 X-12.28034 Y10.97041
G01 X-12.22405 Y10.88855
G01 X-12.19335 Y10.78111
G01 X-12.17242 Y10.64064
G01 X-10.79066 Y9.25891
G01 X-10.71806 Y9.19333
G01 X-10.60737 Y9.11215
G01 X-10.54260 Y9.07318
G01 X-10.43127 Y9.01812
G01 X-10.40046 Y9.00529
G01 X-10.34644 Y9.00524
G01 X-10.23191 Y8.94657
G01 X-10.06777 Y8.87682
G01 X-9.91235 Y8.82472
G01 X-9.79048 Y8.79338
G01 X-9.61824 Y8.76330
G01 X-9.44016 Y8.75060
G01 X-9.25474 Y8.75645
G01 X-9.12162 Y8.77184
G01 X-9.03991 Y8.78629
G01 X-8.92170 Y8.87230
G01 X-8.86153 Y8.92178
G01 X-8.74123 Y9.03567
G01 X-8.63130 Y9.16109
G01 X-8.53973 Y9.28642
G01 X-8.52515 Y9.37075
G01 X-8.50941 Y9.50943
G01 X-8.50476 Y9.66358
G01 X-8.50864 Y9.75970
G01 X-8.51759 Y9.85500
G01 X-8.54337 Y10.01131
G01 X-8.60811 Y10.26785
G01 X-8.62764 Y10.36582
G01 X-8.74824 Y10.41390
G01 X-8.84192 Y10.44537
G01 X-9.02132 Y10.49190
G01 X-9.19325 Y10.51954
G01 X-9.35352 Y10.53026
G01 X-9.47537 Y10.52883
G01 X-9.56394 Y10.52269
G01 X-9.65363 Y10.51171
G01 X-9.79734 Y10.48507
G01 X-9.99185 Y10.43038
G01 X-10.25787 Y10.32688
G01 X-10.33325 Y10.36950
G01 X-10.43714 Y10.44123
G01 X-10.50120 Y10.49520
G01 X-11.02533 Y11.01773
G01 X-11.16533 Y11.03846
G01 X-11.27305 Y11.06917
G01 X-11.35512 Y11.12553
G01 X-13.20886 Y12.97943
G01 X-13.26078 Y13.05215
G01 X-13.29187 Y13.14567
G01 X-13.30678 Y13.22060
G01 X-13.24333 Y13.26302
G01 X-13.15517 Y13.30724
G01 X-13.06698 Y13.32197
G01 X-12.61293 Y13.31976
G01 X-12.53043 Y13.27648
G01 X-12.38537 Y13.21943
G01 X-12.28606 Y13.20251
G01 X-12.18766 Y13.19329
G01 X-12.08423 Y13.20302
G01 X-11.98961 Y13.21905
G01 X-11.88484 Y13.25870
G01 X-11.80508 Y13.29530
G01 X-11.74661 Y13.33630
G01 X-11.64646 Y13.41702
G01 X-11.58751 Y13.48839
G01 X-11.52510 Y13.57546
G01 X-11.47905 Y13.67757
G01 X-11.44857 Y13.75974
G01 X-11.42533 Y13.90292
G01 X-11.39932 Y13.97792
G01 X-11.34908 Y14.06253
G01 X-11.24737 Y14.18770
G01 X-11.34908 Y14.06253
G01 X-11.39932 Y13.97792
G01 X-11.42533 Y13.90292
G01 X-11.44857 Y13.75974
G01 X-11.50308 Y13.62146
G01 X-11.52510 Y13.57546
G01 X-11.54519 Y13.54572
G01 X-11.64646 Y13.41702
G01 X-11.74661 Y13.33630
G01 X-11.80508 Y13.29530
G01 X-11.88484 Y13.25870
G01 X-11.98961 Y13.21905
G01 X-12.08423 Y13.20302
G01 X-12.18766 Y13.19329
G01 X-12.28606 Y13.20251
G01 X-12.38537 Y13.21943
G01 X-12.53043 Y13.27648
G01 X-12.61293 Y13.31976
G01 X-12.64717 Y13.32197
G01 X-13.06698 Y13.32197
G01 X-13.15517 Y13.30724
G01 X-13.24333 Y13.26302
G01 X-13.30678 Y13.22060
G01 X-13.43904 Y13.27404
G01 X-13.53142 Y13.30142
G01 X-13.63744 Y13.31915
G01 X-13.71166 Y13.32293
G01 X-32.81378 Y13.32484
G01 X-32.92015 Y13.33967
G01 X-33.04355 Y13.37526
G01 X-33.63036 Y13.61745
G01 X-33.70410 Y13.75341
G01 X-33.75322 Y13.83375
G01 X-33.82325 Y13.93678
G01 X-33.90306 Y14.04059
G01 X-34.00913 Y14.16098
G01 X-34.12706 Y14.20919
G01 X-34.21860 Y14.24132
G01 X-34.36089 Y14.28186
G01 X-34.47270 Y14.30569
G01 X-34.56424 Y14.31994
G01 X-34.67392 Y14.33076
G01 X-34.78505 Y14.33482
G01 X-34.94044 Y14.32877
G01 X-35.09843 Y14.30861
G01 X-35.26203 Y14.27287
G01 X-35.37915 Y14.23767
G01 X-35.45848 Y14.28699
G01 X-35.54047 Y14.32522
G01 X-35.62248 Y14.33797
G01 X-35.85080 Y14.33797
G01 X-35.90331 Y14.33274
G01 X-35.94407 Y14.29934
G01 X-36.44750 Y13.79591
G01 X-36.49083 Y13.73914
G01 X-36.46632 Y13.58021
G01 X-36.45324 Y13.44993
G01 X-36.46465 Y13.33218
G01 X-36.48316 Y13.22200
G01 X-36.53297 Y13.09177
G01 X-36.57384 Y13.00521
G01 X-36.62251 Y12.93650
G01 X-36.71128 Y12.82748
G01 X-36.80424 Y12.75072
G01 X-36.89332 Y12.68735
G01 X-37.04267 Y12.62195
G01 X-37.10587 Y12.59997
G01 X-37.17265 Y12.58725
G01 X-37.33366 Y12.56977
G01 X-37.47699 Y12.58453
G01 X-37.56124 Y12.59985
G01 X-37.60871 Y12.61603
G01 X-37.71809 Y12.66083
G01 X-37.77366 Y12.68760
G01 X-37.79881 Y12.70409
G01 X-37.89368 Y12.77473
G01 X-37.95601 Y12.82751
G01 X-38.04067 Y12.93109
G01 X-38.09609 Y13.00975
G01 X-38.14925 Y13.12774
G01 X-38.18418 Y13.22207
G01 X-38.20505 Y13.35077
G01 X-38.21448 Y13.44993
G01 X-38.20323 Y13.56360
G01 X-38.18402 Y13.67775
G01 X-38.15839 Y13.74920
G01 X-38.09573 Y13.89012
G01 X-38.01334 Y14.00432
G01 X-37.95161 Y14.07686
G01 X-37.86914 Y14.14437
G01 X-37.77389 Y14.21262
G01 X-37.66411 Y14.26215
G01 X-37.56134 Y14.30035
G01 X-37.43429 Y14.32108
G01 X-37.33366 Y14.33017
G01 X-37.19703 Y14.31628
G01 X-37.04501 Y14.29240
G01 X-36.98766 Y14.33606
G01 X-36.34275 Y14.98084
G01 X-36.27849 Y15.02961
G01 X-36.20930 Y15.07155
G01 X-36.13856 Y15.08917
G01 X-36.05068 Y15.10187
G01 X-35.62248 Y15.10187
G01 X-35.54039 Y15.11465
G01 X-35.45830 Y15.15295
G01 X-35.37961 Y15.20193
G01 X-35.18507 Y15.14828
G01 X-35.09843 Y15.13124
G01 X-34.94174 Y15.11117
G01 X-34.77318 Y15.10508
G01 X-34.62873 Y15.11267
G01 X-34.55505 Y15.12105
G01 X-34.44903 Y15.13870
G01 X-34.32701 Y15.16670
G01 X-34.22170 Y15.19743
G01 X-34.04141 Y15.26492
G01 X-33.85292 Y15.35493
G01 X-33.72267 Y15.35359
G01 X-33.62533 Y15.34551
G01 X-33.55109 Y15.33428
G01 X-33.44024 Y15.31003
G01 X-33.31284 Y15.19946
G01 X-32.48503 Y14.37188
G01 X-32.05155 Y14.19235
G01 X-31.98134 Y14.16723
G01 X-31.85671 Y14.13678
G01 X-31.78645 Y14.12773
G01 X-31.72396 Y14.12453
G01 X-14.18209 Y14.12517
G01 X-14.11178 Y14.13076
G01 X-14.03591 Y14.14348
G01 X-13.90457 Y14.18140
G01 X-13.21547 Y14.46576
G01 X-13.13937 Y14.56588
G01 X-13.06667 Y14.65194
G01 X-12.99314 Y14.73073
G01 X-12.90985 Y14.81155
G01 X-12.76904 Y14.85801
G01 X-12.66810 Y14.88521
G01 X-12.56939 Y14.90678
G01 X-12.41133 Y14.93106
G01 X-12.30236 Y14.94036
G01 X-12.20462 Y14.94368
G01 X-12.07567 Y14.94056
G01 X-11.96784 Y14.93134
G01 X-11.81468 Y14.83804
G01 X-11.69101 Y14.74732
G01 X-11.60130 Y14.67096
G01 X-11.49462 Y14.56601
G01 X-11.41722 Y14.47795
G01 X-11.32505 Y14.35646
G01 X-11.25563 Y14.24968
G01 X-11.24737 Y14.18770
G01 X-11.16119 Y14.09560
G01 X-11.07450 Y13.97216
G01 X-11.04562 Y13.84872
G01 X-11.04562 Y11.43091
G01 X-11.03729 Y11.36617
G01 X-11.01517 Y11.25858
G01 X-11.01075 Y11.20285
G01 X-11.01308 Y11.11987
G01 X-11.02533 Y11.01773
G01 X-10.50120 Y10.49520
G01 X-10.38619 Y10.40407
G01 X-10.25787 Y10.32688
G01 X-10.06297 Y10.40503
G01 X-9.86846 Y10.46754
G01 X-9.77547 Y10.48974
G01 X-9.65363 Y10.51171
G01 X-9.47537 Y10.52883
G01 X-9.33275 Y10.52967
G01 X-9.21088 Y10.52131
G01 X-9.03689 Y10.49510
G01 X-8.93285 Y10.47123
G01 X-8.84192 Y10.44537
G01 X-8.74824 Y10.41390
G01 X-8.62764 Y10.36582
G01 X-8.60811 Y10.26785
G01 X-8.54337 Y10.01131
G01 X-8.51759 Y9.85500
G01 X-8.50864 Y9.75970
G01 X-8.50476 Y9.66358
G01 X-8.50941 Y9.50943
G01 X-8.52515 Y9.37075
G01 X-8.53973 Y9.28642
G01 X-8.63130 Y9.16109
G01 X-8.74123 Y9.03567
G01 X-8.86153 Y8.92178
G01 X-8.92170 Y8.87230
G01 X-9.03991 Y8.78629
G01 X-9.12162 Y8.77184
G01 X-9.25474 Y8.75645
G01 X-9.44016 Y8.75060
G01 X-9.61824 Y8.76330
G01 X-9.76323 Y8.78749
G01 X-9.91235 Y8.82472
G01 X-10.06777 Y8.87682
G01 X-10.23191 Y8.94657
G01 X-10.34644 Y9.00524
G01 X-10.40046 Y9.00529
G01 X-10.54260 Y9.07318
G01 X-10.65934 Y9.14766
G01 X-10.71806 Y9.19333
G01 X-10.79066 Y9.25891
G01 X-12.17242 Y10.64064
G01 X-12.27422 Y10.62843
G01 X-12.36109 Y10.62609
G01 X-12.42906 Y10.63300
G01 X-12.53073 Y10.65423
G01 X-12.58552 Y10.66051
G01 X-28.86659 Y10.66086
G01 X-28.94861 Y10.67364
G01 X-29.03065 Y10.71189
G01 X-29.10721 Y10.75949
G01 X-29.26664 Y10.71220
G01 X-29.37093 Y10.68906
G01 X-29.46766 Y10.67303
G01 X-29.64548 Y10.65731
G01 X-29.81256 Y10.65878
G01 X-29.97863 Y10.67575
G01 X-30.16245 Y10.71268
G01 X-30.31985 Y10.75969
G01 X-30.39671 Y10.71192
G01 X-30.47873 Y10.67366
G01 X-30.56075 Y10.66091
G01 X-31.66364 Y10.66094
G01 X-31.71612 Y10.66617
G01 X-31.75688 Y10.69955
G01 X-33.27509 Y12.21740
G01 X-33.32711 Y12.29027
G01 X-33.35823 Y12.38405
G01 X-33.37301 Y12.45855
G01 X-33.53697 Y12.52273
G01 X-33.60562 Y12.54133
G01 X-33.69391 Y12.55616
G01 X-33.75698 Y12.56048
G01 X-34.29922 Y12.56093
G01 X-34.37885 Y12.56652
G01 X-34.49457 Y12.58992
G01 X-34.60095 Y12.57526
G01 X-34.71017 Y12.56675
G01 X-34.81840 Y12.56497
G01 X-34.90438 Y12.56822
G01 X-35.01598 Y12.57877
G01 X-35.11504 Y12.59401
G01 X-35.21634 Y12.61534
G01 X-35.37930 Y12.66195
G01 X-35.39297 Y12.72248
G01 X-35.42195 Y12.81339
G01 X-35.46470 Y12.88473
G01 X-35.55591 Y13.00985
G01 X-35.61504 Y13.14211
G01 X-35.64443 Y13.22200
G01 X-35.66996 Y13.39532
G01 X-35.67392 Y13.44993
G01 X-35.67125 Y13.49063
G01 X-35.65850 Y13.59726
G01 X-35.64423 Y13.67780
G01 X-35.59637 Y13.80335
G01 X-35.55624 Y13.89045
G01 X-35.46513 Y14.01473
G01 X-35.42629 Y14.07704
G01 X-35.39922 Y14.15247
G01 X-35.37915 Y14.23767
G01 X-35.45848 Y14.28699
G01 X-35.54047 Y14.32522
G01 X-35.62248 Y14.33797
G01 X-35.85080 Y14.33797
G01 X-35.90331 Y14.33274
G01 X-35.94407 Y14.29934
G01 X-36.44750 Y13.79591
G01 X-36.49083 Y13.73914
G01 X-36.46632 Y13.58021
G01 X-36.45324 Y13.44993
G01 X-36.46637 Y13.31943
G01 X-36.48316 Y13.22200
G01 X-36.53297 Y13.09177
G01 X-36.57079 Y13.00963
G01 X-36.68151 Y12.86157
G01 X-36.71128 Y12.82748
G01 X-36.74852 Y12.79507
G01 X-36.89332 Y12.68735
G01 X-37.05812 Y12.61615
G01 X-37.10587 Y12.59997
G01 X-37.26340 Y12.57524
G01 X-37.33366 Y12.56977
G01 X-37.38613 Y12.57343
G01 X-37.47699 Y12.58453
G01 X-37.56124 Y12.59985
G01 X-37.70300 Y12.65418
G01 X-37.77366 Y12.68760
G01 X-37.89368 Y12.77473
G01 X-37.95601 Y12.82751
G01 X-38.04067 Y12.93109
G01 X-38.09609 Y13.00975
G01 X-38.14925 Y13.12774
G01 X-38.18418 Y13.22207
G01 X-38.20505 Y13.35077
G01 X-38.21448 Y13.44993
G01 X-38.20323 Y13.56360
G01 X-38.18824 Y13.65786
G01 X-38.15839 Y13.74920
G01 X-38.09573 Y13.89012
G01 X-38.01334 Y14.00432
G01 X-37.95631 Y14.07257
G01 X-37.86914 Y14.14437
G01 X-37.77389 Y14.21262
G01 X-37.66411 Y14.26215
G01 X-37.56134 Y14.30035
G01 X-37.41717 Y14.32311
G01 X-37.33366 Y14.33017
G01 X-37.29807 Y14.32791
G01 X-37.04501 Y14.29240
G01 X-36.98766 Y14.33606
G01 X-36.34275 Y14.98084
G01 X-36.27849 Y15.02961
G01 X-36.20930 Y15.07155
G01 X-36.13856 Y15.08917
G01 X-36.05068 Y15.10187
G01 X-35.62248 Y15.10187
G01 X-35.54039 Y15.11465
G01 X-35.45830 Y15.15295
G01 X-35.37961 Y15.20193
G01 X-35.41179 Y15.32791
G01 X-35.44435 Y15.39591
G01 X-35.55616 Y15.54970
G01 X-35.61870 Y15.69143
G01 X-35.64425 Y15.76205
G01 X-35.66180 Y15.86545
G01 X-35.67392 Y15.98991
G01 X-35.66180 Y16.11437
G01 X-35.64425 Y16.21782
G01 X-35.62165 Y16.28051
G01 X-35.55566 Y16.43007
G01 X-35.44415 Y16.58308
G01 X-35.40989 Y16.65150
G01 X-35.37524 Y16.78170
G01 X-35.24072 Y16.82097
G01 X-35.15256 Y16.84099
G01 X-34.98916 Y16.86651
G01 X-34.82764 Y16.87683
G01 X-34.70559 Y16.87497
G01 X-34.56071 Y16.86184
G01 X-34.38530 Y16.83014
G01 X-34.21263 Y16.78120
G01 X-34.19937 Y16.72252
G01 X-34.17258 Y16.63913
G01 X-34.12587 Y16.55793
G01 X-33.99437 Y16.38168
G01 X-33.92246 Y16.37187
G01 X-33.17164 Y16.37187
G01 X-33.08629 Y16.35978
G01 X-33.01296 Y16.34109
G01 X-32.95244 Y16.30523
G01 X-32.87931 Y16.25087
G01 X-31.59409 Y14.96550
G01 X-31.55330 Y14.93210
G01 X-31.50083 Y14.92687
G01 X-30.72968 Y14.92687
G01 X-30.62287 Y14.94848
G01 X-30.51609 Y15.01333
G01 X-28.91125 Y15.01333
G01 X-28.88099 Y15.05877
G01 X-28.83875 Y15.14335
G01 X-28.82468 Y15.22794
G01 X-28.82397 Y16.85216
G01 X-28.95168 Y16.88323
G01 X-30.47568 Y16.88325
G01 X-30.60337 Y16.85219
G01 X-30.60266 Y15.22794
G01 X-30.58858 Y15.14335
G01 X-30.54634 Y15.05877
G01 X-30.51609 Y15.01333
G01 X-28.91125 Y15.01333
G01 X-28.80446 Y14.94848
G01 X-28.69768 Y14.92687
G01 X-14.42644 Y14.92687
G01 X-14.37394 Y14.93210
G01 X-14.33314 Y14.96550
G01 X-13.49296 Y15.80581
G01 X-13.43055 Y15.85308
G01 X-13.35923 Y15.89651
G01 X-13.28844 Y15.91417
G01 X-13.20056 Y15.92687
G01 X-12.05382 Y15.92613
G01 X-11.96508 Y15.94091
G01 X-11.87630 Y15.98536
G01 X-11.81379 Y16.02712
G04 P0 ( dwell for no time -- G64 should not smooth over this point )
G00 Z10.00000 ( retract )

G00 X-23.03234 Y4.27469 ( rapid move to begin. )
G01 F30.00000
( Mill infeed pass 1/1 )
G01 Z-0.10000
G04 P0 ( dwell for no time -- G64 should not smooth over this point )
G01 F360.00000
G01 X-23.03234 Y4.27469
G01 X-23.10712 Y4.19989
G01 X-23.29078 Y4.19989
G01 X-23.36559 Y4.27469
G01 X-23.36559 Y4.45836
G01 X-23.29078 Y4.53314
G01 X-23.10712 Y4.53314
G01 X-23.03234 Y4.45836
G01 X-23.03234 Y4.27469
G04 P0 ( dwell for no time -- G64 should not smooth over this point )
G00 Z10.00000 ( retract )

G00 X-26.27267 Y4.23324 ( rapid move to begin. )
G01 F30.00000
( Mill infeed pass 1/1 )
G01 Z-0.10000
G04 P0 ( dwell for no time -- G64 should not smooth over this point )
G01 F360.00000
G01 X-26.27267 Y4.23324
G01 X-26.30592 Y4.26644
G01 X-26.56444 Y4.26644
G01 X-26.56444 Y4.19989
G01 X-26.30599 Y4.19989
G01 X-26.27267 Y4.23324
G04 P0 ( dwell for no time -- G64 should not smooth over this point )
G00 Z10.00000 ( retract )

G00 X-27.83883 Y4.46634 ( rapid move to begin. )
G01 F30.00000
( Mill infeed pass 1/1 )
G01 Z-0.10000
G04 P0 ( dwell for no time -- G64 should not smooth over this point )
G01 F360.00000
G01 X-27.83883 Y4.46634
G01 X-27.90551 Y4.53314
G01 X-28.08935 Y4.53314
G01 X-28.15615 Y4.46634
G01 X-27.83883 Y4.46634
G04 P0 ( dwell for no time -- G64 should not smooth over this point )
G00 Z10.00000 ( retract )

G00 X-27.03106 Y0.67452 ( rapid move to begin. )
G01 F30.00000
( Mill infeed pass 1/1 )
G01 Z-0.10000
G04 P0 ( dwell for no time -- G64 should not smooth over this point )
G01 F360.00000
G01 X-27.03106 Y0.67452
G01 X-27.10584 Y0.59969
G01 X-27.28951 Y0.59969
G01 X-27.36431 Y0.67452
G01 X-27.36431 Y0.72507
G01 X-27.28951 Y0.79985
G01 X-27.10584 Y0.79985
G01 X-27.03106 Y0.72507
G01 X-27.03106 Y0.67452
G04 P0 ( dwell for no time -- G64 should not smooth over this point )
G00 Z10.00000 ( retract )

G00 X-27.03106 Y0.27470 ( rapid move to begin. )
G01 F30.00000
( Mill infeed pass 1/1 )
G01 Z-0.10000
G04 P0 ( dwell for no time -- G64 should not smooth over this point )
G01 F360.00000
G01 X-27.03106 Y0.27470
G01 X-27.10584 Y0.19990
G01 X-27.28951 Y0.19990
G01 X-27.36431 Y0.27470
G01 X-27.36431 Y0.32520
G01 X-27.28956 Y0.39980
G01 X-27.10579 Y0.39980
G01 X-27.03106 Y0.32520
G01 X-27.03106 Y0.27470
G04 P0 ( dwell for no time -- G64 should not smooth over this point )
G00 Z10.00000 ( retract )

G00 X-25.56495 Y0.27465 ( rapid move to begin. )
G01 F30.00000
( Mill infeed pass 1/1 )
G01 Z-0.10000
G04 P0 ( dwell for no time -- G64 should not smooth over this point )
G01 F360.00000
G01 X-25.56495 Y0.27465
G01 X-25.63955 Y0.19990
G01 X-25.82342 Y0.19990
G01 X-25.89820 Y0.27470
G01 X-25.89820 Y0.72507
G01 X-25.82342 Y0.79985
G01 X-25.63955 Y0.79985
G01 X-25.56495 Y0.72512
G01 X-25.56495 Y0.27465
G04 P0 ( dwell for no time -- G64 should not smooth over this point )
G00 Z10.00000 ( retract )

G00 X-22.36584 Y0.27470 ( rapid move to begin. )
G01 F30.00000
( Mill infeed pass 1/1 )
G01 Z-0.10000
G04 P0 ( dwell for no time -- G64 should not smooth over this point )
G01 F360.00000
G01 X-22.36584 Y0.27470
G01 X-22.44062 Y0.19990
G01 X-22.62447 Y0.19990
G01 X-22.69909 Y0.27465
G01 X-22.69909 Y0.72512
G01 X-22.62447 Y0.79985
G01 X-22.44062 Y0.79985
G01 X-22.36584 Y0.72507
G01 X-22.36584 Y0.27470
G04 P0 ( dwell for no time -- G64 should not smooth over this point )
G00 Z10.00000 ( retract )

G00 X-23.03234 Y2.27470 ( rapid move to begin. )
G01 F30.00000
( Mill infeed pass 1/1 )
G01 Z-0.10000
G04 P0 ( dwell for no time -- G64 should not smooth over this point )
G01 F360.00000
G01 X-23.03234 Y2.27470
G01 X-23.10712 Y2.19989
G01 X-23.29078 Y2.19989
G01 X-23.36559 Y2.27470
G01 X-23.36559 Y2.72506
G01 X-23.29078 Y2.79984
G01 X-23.10712 Y2.79984
G01 X-23.03234 Y2.72506
G01 X-23.03234 Y2.27470
G04 P0 ( dwell for no time -- G64 should not smooth over this point )
G00 Z10.00000 ( retract )

G00 X-22.23249 Y2.27470 ( rapid move to begin. )
G01 F30.00000
( Mill infeed pass 1/1 )
G01 Z-0.10000
G04 P0 ( dwell for no time -- G64 should not smooth over this point )
G01 F360.00000
G01 X-22.23249 Y2.27470
G01 X-22.30727 Y2.19989
G01 X-22.49119 Y2.19989
G01 X-22.56600 Y2.27470
G01 X-22.56600 Y2.72506
G01 X-22.49119 Y2.79984
G01 X-22.30727 Y2.79984
G01 X-22.23249 Y2.72506
G01 X-22.23249 Y2.27470
G04 P0 ( dwell for no time -- G64 should not smooth over this point )
G00 Z10.00000 ( retract )

G00 X-20.09991 Y2.27470 ( rapid move to begin. )
G01 F30.00000
( Mill infeed pass 1/1 )
G01 Z-0.10000
G04 P0 ( dwell for no time -- G64 should not smooth over this point )
G01 F360.00000
G01 X-20.09991 Y2.27470
G01 X-20.17469 Y2.19989
G01 X-20.35835 Y2.19989
G01 X-20.43316 Y2.27470
G01 X-20.43316 Y2.72506
G01 X-20.35835 Y2.79984
G01 X-20.17469 Y2.79984
G01 X-20.09991 Y2.72506
G01 X-20.09991 Y2.27470
G04 P0 ( dwell for no time -- G64 should not smooth over this point )
G00 Z10.00000 ( retract )

G00 X-20.89975 Y4.27469 ( rapid move to begin. )
G01 F30.00000
( Mill infeed pass 1/1 )
G01 Z-0.10000
G04 P0 ( dwell for no time -- G64 should not smooth over this point )
G01 F360.00000
G01 X-20.89975 Y4.27469
G01 X-20.97453 Y4.19989
G01 X-21.15820 Y4.19989
G01 X-21.23300 Y4.27469
G01 X-21.23300 Y4.45836
G01 X-21.15820 Y4.53314
G01 X-20.97453 Y4.53314
G01 X-20.89975 Y4.45836
G01 X-20.89975 Y4.27469
G04 P0 ( dwell for no time -- G64 should not smooth over this point )
G00 Z10.00000 ( retract )

G00 X-20.09991 Y4.19989 ( rapid move to begin. )
G01 F30.00000
( Mill infeed pass 1/1 )
G01 Z-0.10000
G04 P0 ( dwell for no time -- G64 should not smooth over this point )
G01 F360.00000
G01 X-20.09991 Y4.19989
G01 X-20.35835 Y4.19989
G01 X-20.43316 Y4.27469
G01 X-20.43316 Y4.32501
G01 X-20.35835 Y4.39979
G01 X-20.09991 Y4.39979
G01 X-20.09991 Y4.19989
G04 P0 ( dwell for no time -- G64 should not smooth over this point )
G00 Z10.00000 ( retract )

G00 X-20.09991 Y4.59969 ( rapid move to begin. )
G01 F30.00000
( Mill infeed pass 1/1 )
G01 Z-0.10000
G04 P0 ( dwell for no time -- G64 should not smooth over this point )
G01 F360.00000
G01 X-20.09991 Y4.59969
G01 X-20.35835 Y4.59969
G01 X-20.43316 Y4.67449
G01 X-20.43316 Y4.72506
G01 X-20.35835 Y4.79984
G01 X-20.09991 Y4.79984
G01 X-20.09991 Y4.59969
G04 P0 ( dwell for no time -- G64 should not smooth over this point )
G00 Z10.00000 ( retract )

G00 X-17.30550 Y4.46634 ( rapid move to begin. )
G01 F30.00000
( Mill infeed pass 1/1 )
G01 Z-0.10000
G04 P0 ( dwell for no time -- G64 should not smooth over this point )
G01 F360.00000
G01 X-17.30550 Y4.46634
G01 X-17.37230 Y4.53314
G01 X-17.55615 Y4.53314
G01 X-17.62282 Y4.46634
G01 X-17.30550 Y4.46634
G04 P0 ( dwell for no time -- G64 should not smooth over this point )
G00 Z10.00000 ( retract )

G00 X-15.73954 Y4.23324 ( rapid move to begin. )
G01 F30.00000
( Mill infeed pass 1/1 )
G01 Z-0.10000
G04 P0 ( dwell for no time -- G64 should not smooth over this point )
G01 F360.00000
G01 X-15.73954 Y4.23324
G01 X-15.77282 Y4.26644
G01 X-16.03134 Y4.26644
G01 X-16.03134 Y4.19989
G01 X-15.77287 Y4.19989
G01 X-15.73954 Y4.23324
G04 P0 ( dwell for no time -- G64 should not smooth over this point )
G00 Z10.00000 ( retract )

G00 X-16.90596 Y0.46660 ( rapid move to begin. )
G01 F30.00000
( Mill infeed pass 1/1 )
G01 Z-0.10000
G04 P0 ( dwell for no time -- G64 should not smooth over this point )
G01 F360.00000
G01 X-16.90596 Y0.46660
G01 X-17.22272 Y0.46660
G01 X-17.15618 Y0.53315
G01 X-16.97251 Y0.53315
G01 X-16.90596 Y0.46660
G04 P0 ( dwell for no time -- G64 should not smooth over this point )
G00 Z10.00000 ( retract )

G00 X-15.47302 Y0.23330 ( rapid move to begin. )
G01 F30.00000
( Mill infeed pass 1/1 )
G01 Z-0.10000
G04 P0 ( dwell for no time -- G64 should not smooth over this point )
G01 F360.00000
G01 X-15.47302 Y0.23330
G01 X-15.50642 Y0.19990
G01 X-15.76489 Y0.19990
G01 X-15.76489 Y0.26670
G01 X-15.50642 Y0.26670
G01 X-15.47302 Y0.23330
G04 P0 ( dwell for no time -- G64 should not smooth over this point )
G00 Z10.00000 ( retract )

G00 X-14.63180 Y0.19990 ( rapid move to begin. )
G01 F30.00000
( Mill infeed pass 1/1 )
G01 Z-0.10000
G04 P0 ( dwell for no time -- G64 should not smooth over this point )
G01 F360.00000
G01 X-14.63180 Y0.19990
G01 X-14.63180 Y0.79985
G01 X-14.89024 Y0.79985
G01 X-14.96504 Y0.72507
G01 X-14.96504 Y0.27470
G01 X-14.89024 Y0.19990
G01 X-14.63180 Y0.19990
G04 P0 ( dwell for no time -- G64 should not smooth over this point )
G00 Z10.00000 ( retract )

G00 X-14.63180 Y2.27470 ( rapid move to begin. )
G01 F30.00000
( Mill infeed pass 1/1 )
G01 Z-0.10000
G04 P0 ( dwell for no time -- G64 should not smooth over this point )
G01 F360.00000
G01 X-14.63180 Y2.27470
G01 X-14.70657 Y2.19989
G01 X-14.89024 Y2.19989
G01 X-14.96504 Y2.27470
G01 X-14.96504 Y2.45836
G01 X-14.89024 Y2.53314
G01 X-14.70657 Y2.53314
G01 X-14.63180 Y2.45836
G01 X-14.63180 Y2.27470
G04 P0 ( dwell for no time -- G64 should not smooth over this point )
G00 Z10.00000 ( retract )

G00 X-10.09993 Y0.46660 ( rapid move to begin. )
G01 F30.00000
( Mill infeed pass 1/1 )
G01 Z-0.10000
G04 P0 ( dwell for no time -- G64 should not smooth over this point )
G01 F360.00000
G01 X-10.09993 Y0.46660
G01 X-10.35842 Y0.46660
G01 X-10.43318 Y0.54125
G01 X-10.43318 Y0.72507
G01 X-10.35837 Y0.79985
G01 X-10.09993 Y0.79985
G01 X-10.09993 Y0.46660
G04 P0 ( dwell for no time -- G64 should not smooth over this point )
G00 Z10.00000 ( retract )

G00 X-10.90795 Y2.46659 ( rapid move to begin. )
G01 F30.00000
( Mill infeed pass 1/1 )
G01 Z-0.10000
G04 P0 ( dwell for no time -- G64 should not smooth over this point )
G01 F360.00000
G01 X-10.90795 Y2.46659
G01 X-11.22477 Y2.46659
G01 X-11.15822 Y2.53314
G01 X-10.97437 Y2.53314
G01 X-10.90795 Y2.46659
G04 P0 ( dwell for no time -- G64 should not smooth over this point )
G00 Z10.00000 ( retract )

G00 X-10.09993 Y2.46659 ( rapid move to begin. )
G01 F30.00000
( Mill infeed pass 1/1 )
G01 Z-0.10000
G04 P0 ( dwell for no time -- G64 should not smooth over this point )
G01 F360.00000
G01 X-10.09993 Y2.46659
G01 X-10.35842 Y2.46659
G01 X-10.43318 Y2.54122
G01 X-10.43318 Y2.72506
G01 X-10.35837 Y2.79984
G01 X-10.09993 Y2.79984
G01 X-10.09993 Y2.46659
G04 P0 ( dwell for no time -- G64 should not smooth over this point )
G00 Z10.00000 ( retract )

G00 X-10.94110 Y4.23324 ( rapid move to begin. )
G01 F30.00000
( Mill infeed pass 1/1 )
G01 Z-0.10000
G04 P0 ( dwell for no time -- G64 should not smooth over this point )
G01 F360.00000
G01 X-10.94110 Y4.23324
G01 X-10.97437 Y4.19989
G01 X-11.23302 Y4.19989
G01 X-11.23302 Y4.26644
G01 X-10.97430 Y4.26644
G01 X-10.94110 Y4.23324
G04 P0 ( dwell for no time -- G64 should not smooth over this point )
G00 Z10.00000 ( retract )

G00 X-12.50719 Y4.46634 ( rapid move to begin. )
G01 F30.00000
( Mill infeed pass 1/1 )
G01 Z-0.10000
G04 P0 ( dwell for no time -- G64 should not smooth over this point )
G01 F360.00000
G01 X-12.50719 Y4.46634
G01 X-12.82446 Y4.46634
G01 X-12.75766 Y4.53314
G01 X-12.57399 Y4.53314
G01 X-12.50719 Y4.46634
G04 P0 ( dwell for no time -- G64 should not smooth over this point )
G00 Z10.00000 ( retract )

G00 X-28.82468 Y22.21293 ( rapid move to begin. )
G01 F30.00000
( Mill infeed pass 1/1 )
G01 Z-0.10000
G04 P0 ( dwell for no time -- G64 should not smooth over this point )
G01 F360.00000
G01 X-28.82468 Y22.21293
G01 X-28.82468 Y23.73691
G01 X-28.84645 Y23.84214
G01 X-28.95168 Y23.86391
G01 X-30.47568 Y23.86391
G01 X-30.58089 Y23.84214
G01 X-30.60266 Y23.73691
G01 X-30.60266 Y23.25510
G01 X-30.60662 Y23.21037
G01 X-30.60266 Y23.12581
G01 X-30.60266 Y22.21293
G01 X-30.58089 Y22.10770
G01 X-30.47568 Y22.08593
G01 X-28.95168 Y22.08593
G01 X-28.84645 Y22.10770
G01 X-28.82468 Y22.21293
G04 P0 ( dwell for no time -- G64 should not smooth over this point )
G00 Z10.00000 ( retract )

G00 X-28.82085 Y25.51491 ( rapid move to begin. )
G01 F30.00000
( Mill infeed pass 1/1 )
G01 Z-0.10000
G04 P0 ( dwell for no time -- G64 should not smooth over this point )
G01 F360.00000
G01 X-28.82085 Y25.51491
G01 X-28.83106 Y25.40841
G01 X-28.85178 Y25.28407
G01 X-28.89926 Y25.15847
G01 X-28.94056 Y25.06861
G01 X-29.02989 Y24.94633
G01 X-29.08257 Y24.88377
G01 X-29.16603 Y24.81461
G01 X-29.26730 Y24.74209
G01 X-29.37002 Y24.69502
G01 X-29.48244 Y24.65286
G01 X-29.56316 Y24.63848
G01 X-29.71366 Y24.62228
G01 X-29.81213 Y24.63142
G01 X-29.94462 Y24.65294
G01 X-30.06194 Y24.69705
G01 X-30.15988 Y24.74191
G01 X-30.27528 Y24.82566
G01 X-30.34482 Y24.88354
G01 X-30.40891 Y24.96099
G01 X-30.48653 Y25.06881
G01 X-30.53464 Y25.17407
G01 X-30.57563 Y25.28397
G01 X-30.59834 Y25.42609
G01 X-30.60642 Y25.51494
G01 X-30.59834 Y25.60373
G01 X-30.57563 Y25.74587
G01 X-30.53494 Y25.85499
G01 X-30.48653 Y25.96104
G01 X-30.40108 Y26.07881
G01 X-30.34467 Y26.14618
G01 X-30.26593 Y26.21150
G01 X-30.15973 Y26.28768
G01 X-30.05176 Y26.33703
G01 X-29.94462 Y26.37714
G01 X-29.79956 Y26.40000
G01 X-29.71366 Y26.40777
G01 X-29.60924 Y26.39776
G01 X-29.48252 Y26.37688
G01 X-29.37005 Y26.33480
G01 X-29.26728 Y26.28781
G01 X-29.14802 Y26.20107
G01 X-29.08239 Y26.14628
G01 X-29.02201 Y26.07353
G01 X-28.94079 Y25.96111
G01 X-28.89011 Y25.84950
G01 X-28.85156 Y25.74585
G01 X-28.82837 Y25.59870
G01 X-28.82085 Y25.51491
G04 P0 ( dwell for no time -- G64 should not smooth over this point )
G00 Z10.00000 ( retract )

G00 X-30.86557 Y23.31733 ( rapid move to begin. )
G01 F30.00000
( Mill infeed pass 1/1 )
G01 Z-0.10000
G04 P0 ( dwell for no time -- G64 should not smooth over this point )
G01 F360.00000
G01 X-30.86557 Y23.31733
G01 X-30.87954 Y23.42248
G01 X-30.96895 Y23.63864
G01 X-31.11144 Y23.82456
G01 X-31.29712 Y23.96681
G01 X-31.51353 Y24.05647
G01 X-31.61868 Y24.07044
G01 X-31.61868 Y23.81247
G01 X-31.52635 Y23.78624
G01 X-31.44296 Y23.74852
G01 X-31.36588 Y23.69922
G01 X-31.29666 Y23.63932
G01 X-31.23677 Y23.57011
G01 X-31.18747 Y23.49302
G01 X-31.14975 Y23.40963
G01 X-31.12351 Y23.31733
G01 X-30.86557 Y23.31733
G04 P0 ( dwell for no time -- G64 should not smooth over this point )
G00 Z10.00000 ( retract )

G00 X-30.86557 Y23.06333 ( rapid move to begin. )
G01 F30.00000
( Mill infeed pass 1/1 )
G01 Z-0.10000
G04 P0 ( dwell for no time -- G64 should not smooth over this point )
G01 F360.00000
G01 X-30.86557 Y23.06333
G01 X-30.87954 Y22.95842
G01 X-30.96895 Y22.74202
G01 X-31.11144 Y22.55634
G01 X-31.29712 Y22.41385
G01 X-31.51353 Y22.32419
G01 X-31.61868 Y22.31047
G01 X-31.61868 Y22.56815
G01 X-31.52635 Y22.59439
G01 X-31.44296 Y22.63211
G01 X-31.36588 Y22.68141
G01 X-31.29666 Y22.74131
G01 X-31.23677 Y22.81052
G01 X-31.18747 Y22.88761
G01 X-31.14975 Y22.97100
G01 X-31.12351 Y23.06333
G01 X-30.86557 Y23.06333
G04 P0 ( dwell for no time -- G64 should not smooth over this point )
G00 Z10.00000 ( retract )

G00 X-31.87268 Y22.31047 ( rapid move to begin. )
G01 F30.00000
( Mill infeed pass 1/1 )
G01 Z-0.10000
G04 P0 ( dwell for no time -- G64 should not smooth over this point )
G01 F360.00000
G01 X-31.87268 Y22.31047
G01 X-31.97758 Y22.32419
G01 X-32.19399 Y22.41385
G01 X-32.37967 Y22.55634
G01 X-32.52216 Y22.74202
G01 X-32.61182 Y22.95842
G01 X-32.62554 Y23.06333
G01 X-32.36783 Y23.06333
G01 X-32.34159 Y22.97100
G01 X-32.30387 Y22.88761
G01 X-32.25457 Y22.81052
G01 X-32.19468 Y22.74131
G01 X-32.12546 Y22.68141
G01 X-32.04837 Y22.63211
G01 X-31.96499 Y22.59439
G01 X-31.87268 Y22.56815
G01 X-31.87268 Y22.31047
G04 P0 ( dwell for no time -- G64 should not smooth over this point )
G00 Z10.00000 ( retract )

G00 X-33.91291 Y21.06991 ( rapid move to begin. )
G01 F30.00000
( Mill infeed pass 1/1 )
G01 Z-0.10000
G04 P0 ( dwell for no time -- G64 should not smooth over this point )
G01 F360.00000
G01 X-33.91291 Y21.06991
G01 X-33.92175 Y21.16503
G01 X-33.94324 Y21.29785
G01 X-33.98335 Y21.40529
G01 X-34.03117 Y21.51029
G01 X-34.11073 Y21.62040
G01 X-34.17070 Y21.69264
G01 X-34.24550 Y21.75464
G01 X-34.35342 Y21.83227
G01 X-34.46003 Y21.88098
G01 X-34.56574 Y21.92038
G01 X-34.70148 Y21.94220
G01 X-34.79366 Y21.95071
G01 X-34.89173 Y21.94146
G01 X-35.02134 Y21.92035
G01 X-35.13275 Y21.87867
G01 X-35.23376 Y21.83242
G01 X-35.34573 Y21.75147
G01 X-35.41646 Y21.69272
G01 X-35.47283 Y21.62503
G01 X-35.55609 Y21.51032
G01 X-35.60587 Y21.40059
G01 X-35.64407 Y21.29777
G01 X-35.66617 Y21.15995
G01 X-35.67448 Y21.06991
G01 X-35.66627 Y20.98073
G01 X-35.64418 Y20.84207
G01 X-35.60122 Y20.72808
G01 X-35.55604 Y20.62978
G01 X-35.47331 Y20.51553
G01 X-35.41644 Y20.44708
G01 X-35.34573 Y20.38835
G01 X-35.23376 Y20.30743
G01 X-35.13275 Y20.26117
G01 X-35.02134 Y20.21947
G01 X-34.89173 Y20.19836
G01 X-34.79366 Y20.18909
G01 X-34.70148 Y20.19762
G01 X-34.56579 Y20.21959
G01 X-34.46015 Y20.25881
G01 X-34.35332 Y20.30745
G01 X-34.23686 Y20.39201
G01 X-34.17072 Y20.44718
G01 X-34.11078 Y20.51944
G01 X-34.03128 Y20.62985
G01 X-33.98375 Y20.73354
G01 X-33.94321 Y20.84202
G01 X-33.92175 Y20.97479
G01 X-33.91291 Y21.06991
G04 P0 ( dwell for no time -- G64 should not smooth over this point )
G00 Z10.00000 ( retract )

G00 X-36.45291 Y21.06991 ( rapid move to begin. )
G01 F30.00000
( Mill infeed pass 1/1 )
G01 Z-0.10000
G04 P0 ( dwell for no time -- G64 should not smooth over this point )
G01 F360.00000
G01 X-36.45291 Y21.06991
G01 X-36.46175 Y21.16503
G01 X-36.48324 Y21.29785
G01 X-36.52335 Y21.40529
G01 X-36.57115 Y21.51024
G01 X-36.65078 Y21.62038
G01 X-36.71090 Y21.69269
G01 X-36.78552 Y21.75462
G01 X-36.89345 Y21.83227
G01 X-37.00003 Y21.88098
G01 X-37.10574 Y21.92038
G01 X-37.24148 Y21.94220
G01 X-37.33366 Y21.95071
G01 X-37.43173 Y21.94146
G01 X-37.56134 Y21.92035
G01 X-37.67275 Y21.87867
G01 X-37.77376 Y21.83242
G01 X-37.88573 Y21.75147
G01 X-37.95646 Y21.69272
G01 X-38.01283 Y21.62503
G01 X-38.09609 Y21.51032
G01 X-38.14587 Y21.40059
G01 X-38.18407 Y21.29777
G01 X-38.20617 Y21.15995
G01 X-38.21448 Y21.06991
G01 X-38.20627 Y20.98073
G01 X-38.18418 Y20.84207
G01 X-38.14122 Y20.72808
G01 X-38.09604 Y20.62978
G01 X-38.01331 Y20.51553
G01 X-37.95644 Y20.44708
G01 X-37.88573 Y20.38835
G01 X-37.77376 Y20.30743
G01 X-37.67275 Y20.26117
G01 X-37.56134 Y20.21947
G01 X-37.43173 Y20.19836
G01 X-37.33366 Y20.18909
G01 X-37.24148 Y20.19762
G01 X-37.10579 Y20.21959
G01 X-37.00015 Y20.25881
G01 X-36.89335 Y20.30743
G01 X-36.77691 Y20.39206
G01 X-36.71090 Y20.44710
G01 X-36.65083 Y20.51947
G01 X-36.57125 Y20.62991
G01 X-36.52375 Y20.73354
G01 X-36.48321 Y20.84202
G01 X-36.46175 Y20.97479
G01 X-36.45291 Y21.06991
G04 P0 ( dwell for no time -- G64 should not smooth over this point )
G00 Z10.00000 ( retract )

G00 X-31.87268 Y23.81247 ( rapid move to begin. )
G01 F30.00000
( Mill infeed pass 1/1 )
G01 Z-0.10000
G04 P0 ( dwell for no time -- G64 should not smooth over this point )
G01 F360.00000
G01 X-31.87268 Y23.81247
G01 X-31.87268 Y24.07044
G01 X-31.97758 Y24.05647
G01 X-32.19399 Y23.96681
G01 X-32.37967 Y23.82456
G01 X-32.52216 Y23.63864
G01 X-32.61182 Y23.42248
G01 X-32.62554 Y23.31733
G01 X-32.36783 Y23.31733
G01 X-32.34159 Y23.40963
G01 X-32.30387 Y23.49302
G01 X-32.25457 Y23.57011
G01 X-32.19468 Y23.63932
G01 X-32.12546 Y23.69922
G01 X-32.04837 Y23.74852
G01 X-31.96499 Y23.78624
G01 X-31.87268 Y23.81247
G04 P0 ( dwell for no time -- G64 should not smooth over this point )
G00 Z10.00000 ( retract )

G00 X-33.91662 Y25.39987 ( rapid move to begin. )
G01 F30.00000
( Mill infeed pass 1/1 )
G01 Z-0.10000
G04 P0 ( dwell for no time -- G64 should not smooth over this point )
G01 F360.00000
G01 X-33.91662 Y25.39987
G01 X-33.91662 Y26.90000
G01 X-33.93839 Y27.00520
G01 X-34.04362 Y27.02700
G01 X-35.54374 Y27.02700
G01 X-35.64877 Y27.00528
G01 X-35.67062 Y26.90000
G01 X-35.67062 Y25.39987
G01 X-35.64877 Y25.29456
G01 X-35.54374 Y25.27285
G01 X-34.04362 Y25.27285
G01 X-33.93839 Y25.29464
G01 X-33.91662 Y25.39987
G04 P0 ( dwell for no time -- G64 should not smooth over this point )
G00 Z10.00000 ( retract )

G00 X-36.33775 Y23.48294 ( rapid move to begin. )
G01 F30.00000
( Mill infeed pass 1/1 )
G01 Z-0.10000
G04 P0 ( dwell for no time -- G64 should not smooth over this point )
G01 F360.00000
G01 X-36.33775 Y23.48294
G01 X-36.35553 Y23.34781
G01 X-36.45662 Y23.10371
G01 X-36.61766 Y22.89391
G01 X-36.82721 Y22.73287
G01 X-37.07155 Y22.63178
G01 X-37.20668 Y22.61400
G01 X-37.20668 Y22.87069
G01 X-37.09126 Y22.90011
G01 X-36.98839 Y22.94405
G01 X-36.88502 Y23.00884
G01 X-36.80061 Y23.08225
G01 X-36.72804 Y23.16739
G01 X-36.66899 Y23.26239
G01 X-36.62469 Y23.36510
G01 X-36.59444 Y23.48294
G01 X-36.33775 Y23.48294
G04 P0 ( dwell for no time -- G64 should not smooth over this point )
G00 Z10.00000 ( retract )

G00 X-36.33775 Y23.73693 ( rapid move to begin. )
G01 F30.00000
( Mill infeed pass 1/1 )
G01 Z-0.10000
G04 P0 ( dwell for no time -- G64 should not smooth over this point )
G01 F360.00000
G01 X-36.33775 Y23.73693
G01 X-36.35553 Y23.87206
G01 X-36.45662 Y24.11616
G01 X-36.61766 Y24.32596
G01 X-36.82721 Y24.48700
G01 X-37.07155 Y24.58809
G01 X-37.20668 Y24.60587
G01 X-37.20668 Y24.34915
G01 X-37.09126 Y24.31974
G01 X-36.98839 Y24.27580
G01 X-36.88502 Y24.21100
G01 X-36.80061 Y24.13759
G01 X-36.72804 Y24.05245
G01 X-36.66899 Y23.95746
G01 X-36.62469 Y23.85474
G01 X-36.59444 Y23.73693
G01 X-36.33775 Y23.73693
G04 P0 ( dwell for no time -- G64 should not smooth over this point )
G00 Z10.00000 ( retract )

G00 X-37.46068 Y22.61400 ( rapid move to begin. )
G01 F30.00000
( Mill infeed pass 1/1 )
G01 Z-0.10000
G04 P0 ( dwell for no time -- G64 should not smooth over this point )
G01 F360.00000
G01 X-37.46068 Y22.61400
G01 X-37.46068 Y22.87069
G01 X-37.57125 Y22.89848
G01 X-37.67442 Y22.94174
G01 X-37.77823 Y23.00582
G01 X-37.86314 Y23.07864
G01 X-37.93627 Y23.16330
G01 X-38.00071 Y23.26691
G01 X-38.04430 Y23.36993
G01 X-38.07287 Y23.48294
G01 X-38.32962 Y23.48294
G01 X-38.31184 Y23.34781
G01 X-38.21049 Y23.10371
G01 X-38.04971 Y22.89391
G01 X-37.83990 Y22.73287
G01 X-37.59556 Y22.63178
G01 X-37.46068 Y22.61400
G04 P0 ( dwell for no time -- G64 should not smooth over this point )
G00 Z10.00000 ( retract )

G00 X-38.73957 Y21.53933 ( rapid move to begin. )
G01 F30.00000
( Mill infeed pass 1/1 )
G01 Z-0.10000
G04 P0 ( dwell for no time -- G64 should not smooth over this point )
G01 F360.00000
G01 X-38.73957 Y21.53933
G01 X-38.75354 Y21.64448
G01 X-38.84295 Y21.86064
G01 X-38.98544 Y22.04657
G01 X-39.17137 Y22.18880
G01 X-39.38753 Y22.27847
G01 X-39.49268 Y22.29244
G01 X-39.49268 Y22.03447
G01 X-39.40035 Y22.00824
G01 X-39.31696 Y21.97052
G01 X-39.23988 Y21.92122
G01 X-39.17066 Y21.86132
G01 X-39.11077 Y21.79211
G01 X-39.06147 Y21.71502
G01 X-39.02375 Y21.63163
G01 X-38.99751 Y21.53933
G01 X-38.73957 Y21.53933
G04 P0 ( dwell for no time -- G64 should not smooth over this point )
G00 Z10.00000 ( retract )

G00 X-38.73957 Y21.28533 ( rapid move to begin. )
G01 F30.00000
( Mill infeed pass 1/1 )
G01 Z-0.10000
G04 P0 ( dwell for no time -- G64 should not smooth over this point )
G01 F360.00000
G01 X-38.73957 Y21.28533
G01 X-38.75354 Y21.18042
G01 X-38.84295 Y20.96402
G01 X-38.98544 Y20.77834
G01 X-39.17137 Y20.63585
G01 X-39.38753 Y20.54619
G01 X-39.49268 Y20.53247
G01 X-39.49268 Y20.79015
G01 X-39.40035 Y20.81639
G01 X-39.31696 Y20.85411
G01 X-39.23988 Y20.90341
G01 X-39.17066 Y20.96331
G01 X-39.11077 Y21.03252
G01 X-39.06147 Y21.10961
G01 X-39.02375 Y21.19300
G01 X-38.99751 Y21.28533
G01 X-38.73957 Y21.28533
G04 P0 ( dwell for no time -- G64 should not smooth over this point )
G00 Z10.00000 ( retract )

G00 X-39.74668 Y20.53247 ( rapid move to begin. )
G01 F30.00000
( Mill infeed pass 1/1 )
G01 Z-0.10000
G04 P0 ( dwell for no time -- G64 should not smooth over this point )
G01 F360.00000
G01 X-39.74668 Y20.53247
G01 X-39.74668 Y20.79015
G01 X-39.83899 Y20.81639
G01 X-39.92237 Y20.85411
G01 X-39.99946 Y20.90341
G01 X-40.06868 Y20.96331
G01 X-40.12857 Y21.03252
G01 X-40.17787 Y21.10961
G01 X-40.21559 Y21.19300
G01 X-40.24183 Y21.28533
G01 X-40.49954 Y21.28533
G01 X-40.48557 Y21.18042
G01 X-40.39616 Y20.96402
G01 X-40.25367 Y20.77834
G01 X-40.06799 Y20.63585
G01 X-39.85158 Y20.54619
G01 X-39.74668 Y20.53247
G04 P0 ( dwell for no time -- G64 should not smooth over this point )
G00 Z10.00000 ( retract )

G00 X-39.74668 Y22.03447 ( rapid move to begin. )
G01 F30.00000
( Mill infeed pass 1/1 )
G01 Z-0.10000
G04 P0 ( dwell for no time -- G64 should not smooth over this point )
G01 F360.00000
G01 X-39.74668 Y22.03447
G01 X-39.74668 Y22.29244
G01 X-39.85158 Y22.27847
G01 X-40.06799 Y22.18880
G01 X-40.25367 Y22.04657
G01 X-40.39616 Y21.86064
G01 X-40.48557 Y21.64448
G01 X-40.49954 Y21.53933
G01 X-40.24183 Y21.53933
G01 X-40.21559 Y21.63163
G01 X-40.17787 Y21.71502
G01 X-40.12857 Y21.79211
G01 X-40.06868 Y21.86132
G01 X-39.99946 Y21.92122
G01 X-39.92237 Y21.97052
G01 X-39.83899 Y22.00824
G01 X-39.74668 Y22.03447
G04 P0 ( dwell for no time -- G64 should not smooth over this point )
G00 Z10.00000 ( retract )

G00 X-37.46068 Y24.34915 ( rapid move to begin. )
G01 F30.00000
( Mill infeed pass 1/1 )
G01 Z-0.10000
G04 P0 ( dwell for no time -- G64 should not smooth over this point )
G01 F360.00000
G01 X-37.46068 Y24.34915
G01 X-37.46068 Y24.60587
G01 X-37.59556 Y24.58809
G01 X-37.83990 Y24.48700
G01 X-38.04971 Y24.32596
G01 X-38.21049 Y24.11616
G01 X-38.31184 Y23.87206
G01 X-38.32962 Y23.73693
G01 X-38.07287 Y23.73693
G01 X-38.04430 Y23.84991
G01 X-38.00071 Y23.95294
G01 X-37.93627 Y24.05654
G01 X-37.86314 Y24.14120
G01 X-37.77823 Y24.21402
G01 X-37.67442 Y24.27811
G01 X-37.57125 Y24.32136
G01 X-37.46068 Y24.34915
G04 P0 ( dwell for no time -- G64 should not smooth over this point )
G00 Z10.00000 ( retract )

G00 X-36.45291 Y26.14993 ( rapid move to begin. )
G01 F30.00000
( Mill infeed pass 1/1 )
G01 Z-0.10000
G04 P0 ( dwell for no time -- G64 should not smooth over this point )
G01 F360.00000
G01 X-36.45291 Y26.14993
G01 X-36.46175 Y26.24503
G01 X-36.48324 Y26.37785
G01 X-36.52335 Y26.48529
G01 X-36.57115 Y26.59024
G01 X-36.65078 Y26.70038
G01 X-36.71090 Y26.77269
G01 X-36.78552 Y26.83462
G01 X-36.89345 Y26.91227
G01 X-37.00003 Y26.96098
G01 X-37.10574 Y27.00038
G01 X-37.24148 Y27.02220
G01 X-37.33366 Y27.03071
G01 X-37.43173 Y27.02146
G01 X-37.56134 Y27.00035
G01 X-37.67275 Y26.95867
G01 X-37.77376 Y26.91242
G01 X-37.88573 Y26.83147
G01 X-37.95646 Y26.77272
G01 X-38.01283 Y26.70503
G01 X-38.09609 Y26.59032
G01 X-38.14587 Y26.48059
G01 X-38.18407 Y26.37777
G01 X-38.20617 Y26.23995
G01 X-38.21448 Y26.14993
G01 X-38.20627 Y26.06073
G01 X-38.18418 Y25.92207
G01 X-38.14122 Y25.80808
G01 X-38.09604 Y25.70978
G01 X-38.01331 Y25.59553
G01 X-37.95644 Y25.52708
G01 X-37.88573 Y25.46835
G01 X-37.77376 Y25.38743
G01 X-37.67275 Y25.34117
G01 X-37.56134 Y25.29947
G01 X-37.43173 Y25.27836
G01 X-37.33366 Y25.26911
G01 X-37.24148 Y25.27765
G01 X-37.10579 Y25.29962
G01 X-37.00015 Y25.33881
G01 X-36.89335 Y25.38743
G01 X-36.77691 Y25.47206
G01 X-36.71090 Y25.52710
G01 X-36.65083 Y25.59947
G01 X-36.57125 Y25.70991
G01 X-36.52375 Y25.81354
G01 X-36.48321 Y25.92202
G01 X-36.46175 Y26.05479
G01 X-36.45291 Y26.14993
G04 P0 ( dwell for no time -- G64 should not smooth over this point )
G00 Z10.00000 ( retract )

G00 X-39.93167 Y25.84003 ( rapid move to begin. )
G01 F30.00000
( Mill infeed pass 1/1 )
G01 Z-0.10000
G04 P0 ( dwell for no time -- G64 should not smooth over this point )
G01 F360.00000
G01 X-39.93167 Y25.84003
G01 X-39.94628 Y25.68661
G01 X-39.97396 Y25.52116
G01 X-40.03865 Y25.34981
G01 X-40.09652 Y25.22380
G01 X-40.16743 Y25.12311
G01 X-40.29240 Y24.96894
G01 X-40.41120 Y24.87079
G01 X-40.54775 Y24.77325
G01 X-40.71422 Y24.69820
G01 X-40.84477 Y24.65001
G01 X-40.95549 Y24.63035
G01 X-41.16349 Y24.60810
G01 X-41.31691 Y24.62271
G01 X-41.48234 Y24.65040
G01 X-41.65374 Y24.71511
G01 X-41.77965 Y24.77290
G01 X-41.88043 Y24.84394
G01 X-42.03459 Y24.96894
G01 X-42.13273 Y25.08773
G01 X-42.23022 Y25.22413
G01 X-42.30535 Y25.39075
G01 X-42.35346 Y25.52111
G01 X-42.37317 Y25.63205
G01 X-42.39539 Y25.84003
G01 X-42.38079 Y25.99347
G01 X-42.35315 Y26.15865
G01 X-42.28836 Y26.33027
G01 X-42.23067 Y26.45600
G01 X-42.15953 Y26.55697
G01 X-42.03456 Y26.71112
G01 X-41.91577 Y26.80927
G01 X-41.77949 Y26.90660
G01 X-41.61269 Y26.98181
G01 X-41.48247 Y27.02989
G01 X-41.37144 Y27.04960
G01 X-41.16349 Y27.07183
G01 X-41.01005 Y27.05722
G01 X-40.84485 Y27.02959
G01 X-40.67327 Y26.96479
G01 X-40.54744 Y26.90706
G01 X-40.44658 Y26.83604
G01 X-40.29240 Y26.71112
G01 X-40.19426 Y26.59228
G01 X-40.09687 Y26.45585
G01 X-40.02174 Y26.28923
G01 X-39.97361 Y26.15877
