( pcb2gcode 2.5.0 )
( Software-independent Gcode )

G94 ( Inches per minute feed rate. )
G20 ( Units == INCHES. )

G90 ( Absolute coordinates. )
G00 S12000 ( RPM spindle speed. )
G64 P0.00040 ( set maximum deviation from commanded toolpath )
G01 F360.00000 ( Feedrate. )


G00 Z1.00000 (Retract to tool change height)
T1
M5      (Spindle stop.)
G04 P1.00000 (Wait for spindle to stop)
(MSG, Change tool bit to mill diameter 0.00787in)
M6      (Tool change.)
M0      (Temporary machine stop.)
M3 ( Spindle on clockwise. )
G04 P1.00000 (Wait for spindle to get up to speed)
( Piece #1, position [0;0] )

G04 P0 ( dwell for no time -- G64 should not smooth over this point )
G00 Z0.08000 ( retract )

G00 X-7.15082 Y-2.55036 ( rapid move to begin. )
G01 F180.00000
( Mill infeed pass 1/1 )
G01 Z-0.04000
G04 P0 ( dwell for no time -- G64 should not smooth over this point )
G01 F360.00000
G01 X-7.15082 Y-2.55036
G01 X-7.15101 Y-2.54566
G01 X-7.15168 Y-2.54095
G01 X-7.15271 Y-2.53674
G01 X-7.15412 Y-2.53263
G01 X-7.15609 Y-2.52830
G01 X-7.15826 Y-2.52454
G01 X-7.16076 Y-2.52100
G01 X-7.16388 Y-2.51738
G01 X-7.16736 Y-2.51410
G01 X-7.17080 Y-2.51142
G01 X-7.17482 Y-2.50887
G01 X-7.17871 Y-2.50691
G01 X-7.18315 Y-2.50518
G01 X-7.18734 Y-2.50400
G01 X-7.19203 Y-2.50316
G01 X-7.19631 Y-2.50281
G01 X-7.20003 Y-2.50282
G01 X-7.20354 Y-2.50310
G01 X-7.20702 Y-2.50364
G01 X-7.21033 Y-2.50441
G01 X-7.21411 Y-2.50560
G01 X-7.21748 Y-2.50697
G01 X-7.22280 Y-2.50981
G01 X-7.22860 Y-2.51401
G01 X-7.23170 Y-2.51689
G01 X-7.23397 Y-2.51937
G01 X-7.23608 Y-2.52204
G01 X-7.23889 Y-2.52637
G01 X-7.23869 Y-2.52679
G01 X-7.23889 Y-2.52637
G01 X-7.55716 Y-2.52637
G01 X-7.55740 Y-2.52682
G01 X-7.55716 Y-2.52637
G01 X-7.55929 Y-2.52302
G01 X-7.56195 Y-2.51954
G01 X-7.56519 Y-2.51608
G01 X-7.56846 Y-2.51318
G01 X-7.57199 Y-2.51061
G01 X-7.57608 Y-2.50819
G01 X-7.58003 Y-2.50634
G01 X-7.58452 Y-2.50475
G01 X-7.58875 Y-2.50370
G01 X-7.59346 Y-2.50300
G01 X-7.59743 Y-2.50279
G01 X-7.60213 Y-2.50295
G01 X-7.60684 Y-2.50360
G01 X-7.61051 Y-2.50447
G01 X-7.61066 Y-2.50495
G01 X-7.61051 Y-2.50447
G01 X-7.72863 Y-2.38637
G01 X-7.73200 Y-2.38377
G01 X-7.73563 Y-2.38188
G01 X-7.74022 Y-2.38053
G01 X-7.74453 Y-2.38012
G01 X-8.10153 Y-2.38012
G01 X-8.10532 Y-2.38043
G01 X-8.10840 Y-2.38116
G01 X-8.11178 Y-2.38249
G01 X-8.11494 Y-2.38435
G01 X-8.11777 Y-2.38669
G01 X-8.23556 Y-2.50447
G01 X-8.23540 Y-2.50495
G01 X-8.23556 Y-2.50447
G01 X-8.23922 Y-2.50360
G01 X-8.24394 Y-2.50295
G01 X-8.24863 Y-2.50279
G01 X-8.25261 Y-2.50300
G01 X-8.25731 Y-2.50370
G01 X-8.26154 Y-2.50475
G01 X-8.26603 Y-2.50634
G01 X-8.26998 Y-2.50819
G01 X-8.27408 Y-2.51061
G01 X-8.27760 Y-2.51318
G01 X-8.28088 Y-2.51608
G01 X-8.28412 Y-2.51954
G01 X-8.28678 Y-2.52302
G01 X-8.28890 Y-2.52637
G01 X-8.28867 Y-2.52682
G01 X-8.28890 Y-2.52637
G01 X-8.60717 Y-2.52637
G01 X-8.60737 Y-2.52679
G01 X-8.60717 Y-2.52637
G01 X-8.60998 Y-2.52204
G01 X-8.61209 Y-2.51937
G01 X-8.61436 Y-2.51689
G01 X-8.61746 Y-2.51401
G01 X-8.62326 Y-2.50981
G01 X-8.62858 Y-2.50697
G01 X-8.63196 Y-2.50560
G01 X-8.63573 Y-2.50441
G01 X-8.63904 Y-2.50364
G01 X-8.64252 Y-2.50310
G01 X-8.64603 Y-2.50282
G01 X-8.64975 Y-2.50281
G01 X-8.65404 Y-2.50316
G01 X-8.65872 Y-2.50400
G01 X-8.66292 Y-2.50518
G01 X-8.66735 Y-2.50691
G01 X-8.67124 Y-2.50887
G01 X-8.67526 Y-2.51142
G01 X-8.67871 Y-2.51410
G01 X-8.68218 Y-2.51738
G01 X-8.68530 Y-2.52100
G01 X-8.68781 Y-2.52454
G01 X-8.68997 Y-2.52830
G01 X-8.69195 Y-2.53263
G01 X-8.69335 Y-2.53674
G01 X-8.69438 Y-2.54095
G01 X-8.69506 Y-2.54566
G01 X-8.69526 Y-2.55000
G01 X-8.69506 Y-2.55434
G01 X-8.69438 Y-2.55905
G01 X-8.69335 Y-2.56326
G01 X-8.69195 Y-2.56737
G01 X-8.68997 Y-2.57170
G01 X-8.68781 Y-2.57546
G01 X-8.68531 Y-2.57898
G01 X-8.68251 Y-2.58227
G01 X-8.67942 Y-2.58529
G01 X-8.67604 Y-2.58802
G01 X-8.67207 Y-2.59064
G01 X-8.66822 Y-2.59269
G01 X-8.66382 Y-2.59450
G01 X-8.65967 Y-2.59577
G01 X-8.65544 Y-2.59664
G01 X-8.65117 Y-2.59712
G01 X-8.64763 Y-2.59722
G01 X-8.64423 Y-2.59707
G01 X-8.64046 Y-2.59661
G01 X-8.63713 Y-2.59594
G01 X-8.63347 Y-2.59492
G01 X-8.63028 Y-2.59375
G01 X-8.62628 Y-2.59191
G01 X-8.62336 Y-2.59026
G01 X-8.62052 Y-2.58838
G01 X-8.61774 Y-2.58623
G01 X-8.61470 Y-2.58345
G01 X-8.61238 Y-2.58096
G01 X-8.61000 Y-2.57799
G01 X-8.60718 Y-2.57362
G01 X-8.60743 Y-2.57315
G01 X-8.60718 Y-2.57362
G01 X-8.28891 Y-2.57362
G01 X-8.28871 Y-2.57321
G01 X-8.28891 Y-2.57362
G01 X-8.28881 Y-2.57381
G01 X-8.28560 Y-2.57860
G01 X-8.28219 Y-2.58261
G01 X-8.27798 Y-2.58650
G01 X-8.27408 Y-2.58939
G01 X-8.26911 Y-2.59226
G01 X-8.26382 Y-2.59450
G01 X-8.25874 Y-2.59599
G01 X-8.25354 Y-2.59690
G01 X-8.24827 Y-2.59722
G01 X-8.24298 Y-2.59695
G01 X-8.23779 Y-2.59609
G01 X-8.23224 Y-2.59450
G01 X-8.22739 Y-2.59246
G01 X-8.22236 Y-2.58963
G01 X-8.22203 Y-2.58941
G01 X-8.22203 Y-2.58894
G01 X-8.22203 Y-2.58941
G01 X-8.02481 Y-2.68803
G01 X-8.02422 Y-2.68766
G01 X-8.02481 Y-2.68803
G01 X-8.02479 Y-2.81341
G01 X-8.02463 Y-2.81464
G01 X-8.02412 Y-2.81620
G01 X-8.02330 Y-2.81763
G01 X-8.02220 Y-2.81885
G01 X-8.02087 Y-2.81982
G01 X-8.01975 Y-2.82035
G01 X-8.01816 Y-2.82078
G01 X-8.01693 Y-2.82087
G01 X-7.87913 Y-2.82087
G01 X-7.87790 Y-2.82078
G01 X-7.87631 Y-2.82035
G01 X-7.87484 Y-2.81960
G01 X-7.87356 Y-2.81857
G01 X-7.87253 Y-2.81729
G01 X-7.87178 Y-2.81582
G01 X-7.87135 Y-2.81423
G01 X-7.87126 Y-2.81300
G01 X-7.87126 Y-2.67520
G01 X-7.87143 Y-2.67356
G01 X-7.87231 Y-2.67126
G01 X-7.87301 Y-2.67024
G01 X-7.87418 Y-2.66908
G01 X-7.87631 Y-2.66785
G01 X-7.87872 Y-2.66734
G01 X-7.96055 Y-2.66732
G01 X-7.96058 Y-2.66743
G01 X-7.96055 Y-2.66732
G01 X-8.20090 Y-2.54715
G01 X-8.20129 Y-2.54744
G01 X-8.20090 Y-2.54715
G01 X-8.20143 Y-2.54235
G01 X-8.20249 Y-2.53752
G01 X-8.20296 Y-2.53737
G01 X-8.20249 Y-2.53752
G01 X-8.09185 Y-2.42687
G01 X-8.09197 Y-2.42657
G01 X-8.09185 Y-2.42687
G01 X-7.75421 Y-2.42687
G01 X-7.75409 Y-2.42657
G01 X-7.75421 Y-2.42687
G01 X-7.64357 Y-2.53751
G01 X-7.64312 Y-2.53737
G01 X-7.64361 Y-2.53765
G01 X-7.64463 Y-2.54239
G01 X-7.64522 Y-2.54808
G01 X-7.64513 Y-2.55338
G01 X-7.64428 Y-2.55950
G01 X-7.64308 Y-2.56418
G01 X-7.64102 Y-2.56952
G01 X-7.63858 Y-2.57419
G01 X-7.63589 Y-2.57822
G01 X-7.63280 Y-2.58194
G01 X-7.62835 Y-2.58619
G01 X-7.62449 Y-2.58911
G01 X-7.61996 Y-2.59182
G01 X-7.61470 Y-2.59417
G01 X-7.60969 Y-2.59576
G01 X-7.60455 Y-2.59677
G01 X-7.60067 Y-2.59715
G01 X-7.59683 Y-2.59721
G01 X-7.59300 Y-2.59695
G01 X-7.58952 Y-2.59644
G01 X-7.58546 Y-2.59552
G01 X-7.58211 Y-2.59445
G01 X-7.57797 Y-2.59274
G01 X-7.57484 Y-2.59113
G01 X-7.57157 Y-2.58911
G01 X-7.56848 Y-2.58684
G01 X-7.56559 Y-2.58431
G01 X-7.56290 Y-2.58156
G01 X-7.56046 Y-2.57861
G01 X-7.55826 Y-2.57546
G01 X-7.55718 Y-2.57362
G01 X-7.55743 Y-2.57315
G01 X-7.55718 Y-2.57362
G01 X-7.23888 Y-2.57362
G01 X-7.23866 Y-2.57319
G01 X-7.23888 Y-2.57362
G01 X-7.23606 Y-2.57799
G01 X-7.23368 Y-2.58096
G01 X-7.23094 Y-2.58387
G01 X-7.22832 Y-2.58623
G01 X-7.22528 Y-2.58857
G01 X-7.22206 Y-2.59065
G01 X-7.21896 Y-2.59233
G01 X-7.21586 Y-2.59372
G01 X-7.21271 Y-2.59488
G01 X-7.20905 Y-2.59591
G01 X-7.20572 Y-2.59659
G01 X-7.20131 Y-2.59710
G01 X-7.19779 Y-2.59722
G01 X-7.19394 Y-2.59705
G01 X-7.18967 Y-2.59648
G01 X-7.18546 Y-2.59552
G01 X-7.18135 Y-2.59418
G01 X-7.17737 Y-2.59246
G01 X-7.17320 Y-2.59017
G01 X-7.16962 Y-2.58772
G01 X-7.16629 Y-2.58496
G01 X-7.16323 Y-2.58192
G01 X-7.16046 Y-2.57861
G01 X-7.15799 Y-2.57504
G01 X-7.15567 Y-2.57088
G01 X-7.15393 Y-2.56690
G01 X-7.15258 Y-2.56280
G01 X-7.15160 Y-2.55859
G01 X-7.15100 Y-2.55431
G01 X-7.15082 Y-2.55036
G01 X-7.15475 Y-2.55018
G01 X-7.15495 Y-2.55413
G01 X-7.15550 Y-2.55805
G01 X-7.15632 Y-2.56156
G01 X-7.15755 Y-2.56532
G01 X-7.15912 Y-2.56896
G01 X-7.16124 Y-2.57279
G01 X-7.16348 Y-2.57607
G01 X-7.16601 Y-2.57912
G01 X-7.16881 Y-2.58193
G01 X-7.17184 Y-2.58446
G01 X-7.17510 Y-2.58671
G01 X-7.17927 Y-2.58901
G01 X-7.18291 Y-2.59056
G01 X-7.18668 Y-2.59177
G01 X-7.19055 Y-2.59263
G01 X-7.19412 Y-2.59310
G01 X-7.19765 Y-2.59328
G01 X-7.20117 Y-2.59317
G01 X-7.20467 Y-2.59277
G01 X-7.20771 Y-2.59219
G01 X-7.21109 Y-2.59127
G01 X-7.21401 Y-2.59023
G01 X-7.21683 Y-2.58899
G01 X-7.21992 Y-2.58734
G01 X-7.22288 Y-2.58544
G01 X-7.22567 Y-2.58331
G01 X-7.22829 Y-2.58095
G01 X-7.23043 Y-2.57871
G01 X-7.23264 Y-2.57599
G01 X-7.23441 Y-2.57345
G01 X-7.23656 Y-2.56969
G01 X-7.55950 Y-2.56969
G01 X-7.56166 Y-2.57347
G01 X-7.56369 Y-2.57634
G01 X-7.56594 Y-2.57905
G01 X-7.56841 Y-2.58156
G01 X-7.57107 Y-2.58386
G01 X-7.57391 Y-2.58594
G01 X-7.57691 Y-2.58778
G01 X-7.58005 Y-2.58937
G01 X-7.58331 Y-2.59070
G01 X-7.58666 Y-2.59176
G01 X-7.59009 Y-2.59255
G01 X-7.59326 Y-2.59302
G01 X-7.59677 Y-2.59327
G01 X-7.60029 Y-2.59322
G01 X-7.60379 Y-2.59290
G01 X-7.60893 Y-2.59188
G01 X-7.61350 Y-2.59042
G01 X-7.61793 Y-2.58843
G01 X-7.62246 Y-2.58573
G01 X-7.62630 Y-2.58277
G01 X-7.62978 Y-2.57942
G01 X-7.63286 Y-2.57569
G01 X-7.63551 Y-2.57164
G01 X-7.63752 Y-2.56772
G01 X-7.63925 Y-2.56321
G01 X-7.64046 Y-2.55852
G01 X-7.64118 Y-2.55332
G01 X-7.64127 Y-2.54802
G01 X-7.64078 Y-2.54321
G01 X-7.63987 Y-2.53890
G01 X-7.63907 Y-2.53645
G01 X-7.75258 Y-2.42294
G01 X-8.09348 Y-2.42294
G01 X-8.20698 Y-2.53644
G01 X-8.20631 Y-2.53848
G01 X-8.20536 Y-2.54277
G01 X-8.20482 Y-2.54758
G01 X-8.20480 Y-2.54961
G01 X-7.96148 Y-2.67126
G01 X-7.87913 Y-2.67126
G01 X-7.87791 Y-2.67145
G01 X-7.87682 Y-2.67201
G01 X-7.87595 Y-2.67288
G01 X-7.87528 Y-2.67438
G01 X-7.87519 Y-2.81300
G01 X-7.87539 Y-2.81422
G01 X-7.87621 Y-2.81563
G01 X-7.87753 Y-2.81660
G01 X-7.87913 Y-2.81694
G01 X-8.01693 Y-2.81694
G01 X-8.01853 Y-2.81660
G01 X-8.01986 Y-2.81563
G01 X-8.02053 Y-2.81460
G01 X-8.02087 Y-2.81300
G01 X-8.02087 Y-2.68559
G01 X-8.22243 Y-2.58481
G01 X-8.22470 Y-2.58645
G01 X-8.22893 Y-2.58884
G01 X-8.23378 Y-2.59087
G01 X-8.23845 Y-2.59221
G01 X-8.24364 Y-2.59306
G01 X-8.24847 Y-2.59328
G01 X-8.25330 Y-2.59296
G01 X-8.25806 Y-2.59210
G01 X-8.26271 Y-2.59071
G01 X-8.26756 Y-2.58862
G01 X-8.27172 Y-2.58622
G01 X-8.27563 Y-2.58334
G01 X-8.27918 Y-2.58006
G01 X-8.28259 Y-2.57606
G01 X-8.28529 Y-2.57202
G01 X-8.28651 Y-2.56969
G01 X-8.60950 Y-2.56969
G01 X-8.61165 Y-2.57345
G01 X-8.61342 Y-2.57599
G01 X-8.61563 Y-2.57871
G01 X-8.61777 Y-2.58095
G01 X-8.62039 Y-2.58331
G01 X-8.62292 Y-2.58526
G01 X-8.62575 Y-2.58711
G01 X-8.62846 Y-2.58861
G01 X-8.63165 Y-2.59006
G01 X-8.63456 Y-2.59113
G01 X-8.63792 Y-2.59209
G01 X-8.64096 Y-2.59270
G01 X-8.64443 Y-2.59314
G01 X-8.64753 Y-2.59328
G01 X-8.65107 Y-2.59318
G01 X-8.65500 Y-2.59272
G01 X-8.65853 Y-2.59199
G01 X-8.66232 Y-2.59086
G01 X-8.66637 Y-2.58920
G01 X-8.67022 Y-2.58716
G01 X-8.67387 Y-2.58473
G01 X-8.67693 Y-2.58222
G01 X-8.67975 Y-2.57945
G01 X-8.68209 Y-2.57671
G01 X-8.68458 Y-2.57318
G01 X-8.68656 Y-2.56973
G01 X-8.68821 Y-2.56609
G01 X-8.68952 Y-2.56233
G01 X-8.69055 Y-2.55811
G01 X-8.69115 Y-2.55377
G01 X-8.69131 Y-2.55018
G01 X-8.69115 Y-2.54622
G01 X-8.69055 Y-2.54189
G01 X-8.68952 Y-2.53767
G01 X-8.68821 Y-2.53391
G01 X-8.68638 Y-2.52994
G01 X-8.68439 Y-2.52651
G01 X-8.68208 Y-2.52328
G01 X-8.67919 Y-2.51996
G01 X-8.67600 Y-2.51696
G01 X-8.67284 Y-2.51453
G01 X-8.66946 Y-2.51240
G01 X-8.66592 Y-2.51059
G01 X-8.66149 Y-2.50886
G01 X-8.65765 Y-2.50780
G01 X-8.65372 Y-2.50709
G01 X-8.64943 Y-2.50674
G01 X-8.64633 Y-2.50675
G01 X-8.64282 Y-2.50703
G01 X-8.63966 Y-2.50753
G01 X-8.63664 Y-2.50824
G01 X-8.63370 Y-2.50915
G01 X-8.63045 Y-2.51045
G01 X-8.62512 Y-2.51328
G01 X-8.61981 Y-2.51718
G01 X-8.61746 Y-2.51936
G01 X-8.61534 Y-2.52162
G01 X-8.61341 Y-2.52402
G01 X-8.61142 Y-2.52690
G01 X-8.60950 Y-2.53031
G01 X-8.28653 Y-2.53031
G01 X-8.28575 Y-2.52877
G01 X-8.28364 Y-2.52540
G01 X-8.28098 Y-2.52193
G01 X-8.27826 Y-2.51902
G01 X-8.27527 Y-2.51636
G01 X-8.27207 Y-2.51400
G01 X-8.26831 Y-2.51176
G01 X-8.26471 Y-2.51006
G01 X-8.26059 Y-2.50858
G01 X-8.25673 Y-2.50760
G01 X-8.25240 Y-2.50694
G01 X-8.24843 Y-2.50672
G01 X-8.24410 Y-2.50690
G01 X-8.24013 Y-2.50744
G01 X-8.23626 Y-2.50835
G01 X-8.23446 Y-2.50894
G01 X-8.11498 Y-2.38947
G01 X-8.11279 Y-2.38767
G01 X-8.11017 Y-2.38610
G01 X-8.10680 Y-2.38480
G01 X-8.10426 Y-2.38426
G01 X-8.10153 Y-2.38406
G01 X-7.74453 Y-2.38406
G01 X-7.74096 Y-2.38439
G01 X-7.73712 Y-2.38553
G01 X-7.73394 Y-2.38720
G01 X-7.73108 Y-2.38947
G01 X-7.61160 Y-2.50894
G01 X-7.60980 Y-2.50835
G01 X-7.60593 Y-2.50744
G01 X-7.60197 Y-2.50690
G01 X-7.59763 Y-2.50672
G01 X-7.59366 Y-2.50694
G01 X-7.58933 Y-2.50760
G01 X-7.58547 Y-2.50858
G01 X-7.58135 Y-2.51006
G01 X-7.57775 Y-2.51176
G01 X-7.57399 Y-2.51400
G01 X-7.57079 Y-2.51636
G01 X-7.56780 Y-2.51902
G01 X-7.56509 Y-2.52193
G01 X-7.56242 Y-2.52540
G01 X-7.56031 Y-2.52877
G01 X-7.55953 Y-2.53031
G01 X-7.23656 Y-2.53031
G01 X-7.23464 Y-2.52690
G01 X-7.23265 Y-2.52402
G01 X-7.23072 Y-2.52162
G01 X-7.22860 Y-2.51936
G01 X-7.22625 Y-2.51718
G01 X-7.22094 Y-2.51328
G01 X-7.21561 Y-2.51045
G01 X-7.21236 Y-2.50915
G01 X-7.20942 Y-2.50824
G01 X-7.20640 Y-2.50753
G01 X-7.20292 Y-2.50699
G01 X-7.19943 Y-2.50674
G01 X-7.19631 Y-2.50675
G01 X-7.19235 Y-2.50709
G01 X-7.18804 Y-2.50788
G01 X-7.18422 Y-2.50898
G01 X-7.18014 Y-2.51059
G01 X-7.17660 Y-2.51240
G01 X-7.17291 Y-2.51475
G01 X-7.16978 Y-2.51721
G01 X-7.16660 Y-2.52025
G01 X-7.16375 Y-2.52358
G01 X-7.16148 Y-2.52682
G01 X-7.15951 Y-2.53027
G01 X-7.15771 Y-2.53427
G01 X-7.15644 Y-2.53802
G01 X-7.15552 Y-2.54189
G01 X-7.15491 Y-2.54622
G01 X-7.15475 Y-2.55018
G04 P0 ( dwell for no time -- G64 should not smooth over this point )
G00 Z0.08000 ( retract )

G00 X-7.15081 Y-2.95012 ( rapid move to begin. )
G01 F180.00000
( Mill infeed pass 1/1 )
G01 Z-0.04000
G04 P0 ( dwell for no time -- G64 should not smooth over this point )
G01 F360.00000
G01 X-7.15081 Y-2.95012
G01 X-7.15110 Y-2.95525
G01 X-7.15187 Y-2.95993
G01 X-7.15298 Y-2.96416
G01 X-7.15434 Y-2.96790
G01 X-7.15673 Y-2.97288
G01 X-7.15879 Y-2.97628
G01 X-7.16140 Y-2.97979
G01 X-7.16455 Y-2.98331
G01 X-7.16775 Y-2.98624
G01 X-7.17124 Y-2.98888
G01 X-7.17466 Y-2.99101
G01 X-7.17507 Y-2.99081
G01 X-7.17466 Y-2.99101
G01 X-7.17474 Y-3.18183
G01 X-7.17487 Y-3.18327
G01 X-7.17564 Y-3.18685
G01 X-7.17676 Y-3.18991
G01 X-7.17858 Y-3.19317
G01 X-7.18122 Y-3.19645
G01 X-7.25129 Y-3.26653
G01 X-7.25425 Y-3.26903
G01 X-7.25763 Y-3.27102
G01 X-7.26177 Y-3.27258
G01 X-7.26659 Y-3.27334
G01 X-7.29976 Y-3.27337
G01 X-7.29986 Y-3.27310
G01 X-7.29976 Y-3.27337
G01 X-7.30178 Y-3.27549
G01 X-7.30493 Y-3.27820
G01 X-7.30802 Y-3.28031
G01 X-7.31095 Y-3.28189
G01 X-7.31479 Y-3.28348
G01 X-7.31798 Y-3.28441
G01 X-7.32255 Y-3.28521
G01 X-7.32638 Y-3.28543
G01 X-7.36980 Y-3.28543
G01 X-7.37315 Y-3.28525
G01 X-7.37952 Y-3.28402
G01 X-7.38425 Y-3.28230
G01 X-7.38883 Y-3.27981
G01 X-7.39288 Y-3.27678
G01 X-7.39645 Y-3.27319
G01 X-7.40032 Y-3.26776
G01 X-7.40256 Y-3.26322
G01 X-7.40411 Y-3.25840
G01 X-7.40499 Y-3.25301
G01 X-7.40504 Y-3.24795
G01 X-7.40403 Y-3.24135
G01 X-7.40246 Y-3.23654
G01 X-7.40021 Y-3.23201
G01 X-7.39724 Y-3.22773
G01 X-7.39379 Y-3.22406
G01 X-7.38892 Y-3.22024
G01 X-7.38525 Y-3.21817
G01 X-7.38102 Y-3.21643
G01 X-7.37682 Y-3.21529
G01 X-7.37242 Y-3.21467
G01 X-7.32398 Y-3.21465
G01 X-7.31993 Y-3.21516
G01 X-7.31602 Y-3.21611
G01 X-7.31224 Y-3.21751
G01 X-7.30903 Y-3.21911
G01 X-7.30527 Y-3.22154
G01 X-7.30251 Y-3.22382
G01 X-7.29977 Y-3.22662
G01 X-7.29987 Y-3.22690
G01 X-7.29977 Y-3.22662
G01 X-7.27750 Y-3.22662
G01 X-7.27738 Y-3.22693
G01 X-7.27750 Y-3.22662
G01 X-7.22141 Y-3.17053
G01 X-7.22111 Y-3.17065
G01 X-7.22141 Y-3.17053
G01 X-7.22141 Y-2.99101
G01 X-7.22095 Y-2.99078
G01 X-7.22141 Y-2.99101
G01 X-7.22482 Y-2.98888
G01 X-7.22831 Y-2.98624
G01 X-7.23176 Y-2.98305
G01 X-7.23442 Y-2.98009
G01 X-7.23727 Y-2.97628
G01 X-7.23952 Y-2.97255
G01 X-7.24158 Y-2.96826
G01 X-7.24308 Y-2.96416
G01 X-7.24428 Y-2.95956
G01 X-7.24496 Y-2.95525
G01 X-7.24524 Y-2.95088
G01 X-7.24510 Y-2.94614
G01 X-7.24447 Y-2.94141
G01 X-7.24355 Y-2.93753
G01 X-7.24307 Y-2.93738
G01 X-7.24355 Y-2.93753
G01 X-7.30771 Y-2.87337
G01 X-7.30759 Y-2.87307
G01 X-7.30771 Y-2.87337
G01 X-7.31457 Y-2.87337
G01 X-7.31561 Y-2.87228
G01 X-7.31457 Y-2.87337
G01 X-7.31466 Y-2.87682
G01 X-7.31542 Y-2.87916
G01 X-7.31659 Y-2.88086
G01 X-7.31815 Y-2.88219
G01 X-7.32001 Y-2.88308
G01 X-7.32162 Y-2.88342
G01 X-7.37403 Y-2.88345
G01 X-7.37644 Y-2.88294
G01 X-7.37791 Y-2.88219
G01 X-7.37889 Y-2.88144
G01 X-7.37999 Y-2.88022
G01 X-7.38081 Y-2.87879
G01 X-7.38132 Y-2.87723
G01 X-7.38150 Y-2.87559
G01 X-7.38148 Y-2.82400
G01 X-7.38111 Y-2.82198
G01 X-7.37999 Y-2.81978
G01 X-7.37889 Y-2.81856
G01 X-7.37720 Y-2.81739
G01 X-7.37566 Y-2.81680
G01 X-7.37403 Y-2.81655
G01 X-7.32162 Y-2.81658
G01 X-7.32001 Y-2.81692
G01 X-7.31815 Y-2.81780
G01 X-7.31659 Y-2.81914
G01 X-7.31542 Y-2.82083
G01 X-7.31466 Y-2.82318
G01 X-7.31457 Y-2.82665
G01 X-7.31561 Y-2.82773
G01 X-7.31457 Y-2.82665
G01 X-7.29595 Y-2.82672
G01 X-7.29198 Y-2.82744
G01 X-7.28896 Y-2.82846
G01 X-7.28646 Y-2.82969
G01 X-7.28382 Y-2.83147
G01 X-7.28271 Y-2.83238
G01 X-7.21051 Y-2.90447
G01 X-7.21066 Y-2.90500
G01 X-7.21051 Y-2.90447
G01 X-7.20678 Y-2.90360
G01 X-7.20127 Y-2.90289
G01 X-7.19729 Y-2.90278
G01 X-7.19292 Y-2.90306
G01 X-7.18779 Y-2.90390
G01 X-7.18283 Y-2.90530
G01 X-7.17911 Y-2.90673
G01 X-7.17519 Y-2.90868
G01 X-7.17080 Y-2.91142
G01 X-7.16736 Y-2.91410
G01 X-7.16388 Y-2.91738
G01 X-7.16076 Y-2.92100
G01 X-7.15826 Y-2.92454
G01 X-7.15592 Y-2.92864
G01 X-7.15412 Y-2.93263
G01 X-7.15282 Y-2.93639
G01 X-7.15168 Y-2.94101
G01 X-7.15096 Y-2.94614
G01 X-7.15081 Y-2.95012
G01 X-7.15475 Y-2.95026
G01 X-7.15491 Y-2.94628
G01 X-7.15551 Y-2.94193
G01 X-7.15654 Y-2.93767
G01 X-7.15785 Y-2.93391
G01 X-7.15951 Y-2.93027
G01 X-7.16148 Y-2.92682
G01 X-7.16398 Y-2.92328
G01 X-7.16687 Y-2.91996
G01 X-7.17007 Y-2.91696
G01 X-7.17322 Y-2.91453
G01 X-7.17660 Y-2.91240
G01 X-7.18053 Y-2.91041
G01 X-7.18460 Y-2.90885
G01 X-7.18884 Y-2.90770
G01 X-7.19318 Y-2.90699
G01 X-7.19717 Y-2.90673
G01 X-7.20115 Y-2.90683
G01 X-7.20589 Y-2.90744
G01 X-7.20978 Y-2.90834
G01 X-7.21160 Y-2.90895
G01 X-7.28549 Y-2.83517
G01 X-7.28854 Y-2.83304
G01 X-7.29088 Y-2.83194
G01 X-7.29320 Y-2.83118
G01 X-7.29607 Y-2.83066
G01 X-7.31850 Y-2.83058
G01 X-7.31850 Y-2.82441
G01 X-7.31870 Y-2.82319
G01 X-7.31903 Y-2.82244
G01 X-7.31981 Y-2.82148
G01 X-7.32084 Y-2.82081
G01 X-7.32203 Y-2.82049
G01 X-7.37362 Y-2.82047
G01 X-7.37444 Y-2.82056
G01 X-7.37559 Y-2.82100
G01 X-7.37681 Y-2.82210
G01 X-7.37737 Y-2.82319
G01 X-7.37756 Y-2.82441
G01 X-7.37756 Y-2.87559
G01 X-7.37722 Y-2.87719
G01 X-7.37626 Y-2.87852
G01 X-7.37522 Y-2.87919
G01 X-7.37362 Y-2.87953
G01 X-7.32203 Y-2.87950
G01 X-7.32084 Y-2.87919
G01 X-7.31981 Y-2.87852
G01 X-7.31903 Y-2.87756
G01 X-7.31870 Y-2.87681
G01 X-7.31850 Y-2.87559
G01 X-7.31850 Y-2.86944
G01 X-7.30608 Y-2.86944
G01 X-7.23909 Y-2.93643
G01 X-7.23963 Y-2.93804
G01 X-7.24063 Y-2.94232
G01 X-7.24119 Y-2.94666
G01 X-7.24131 Y-2.95064
G01 X-7.24106 Y-2.95463
G01 X-7.24046 Y-2.95856
G01 X-7.23938 Y-2.96281
G01 X-7.23803 Y-2.96655
G01 X-7.23615 Y-2.97051
G01 X-7.23410 Y-2.97392
G01 X-7.23150 Y-2.97744
G01 X-7.22884 Y-2.98040
G01 X-7.22593 Y-2.98309
G01 X-7.22245 Y-2.98574
G01 X-7.21906 Y-2.98783
G01 X-7.21747 Y-2.98863
G01 X-7.21747 Y-3.17216
G01 X-7.27587 Y-3.23056
G01 X-7.30164 Y-3.23056
G01 X-7.30254 Y-3.22942
G01 X-7.30503 Y-3.22685
G01 X-7.30780 Y-3.22457
G01 X-7.31081 Y-3.22263
G01 X-7.31402 Y-3.22104
G01 X-7.31739 Y-3.21982
G01 X-7.32087 Y-3.21899
G01 X-7.32398 Y-3.21860
G01 X-7.37224 Y-3.21861
G01 X-7.37579 Y-3.21911
G01 X-7.37952 Y-3.22008
G01 X-7.38330 Y-3.22160
G01 X-7.38666 Y-3.22348
G01 X-7.39094 Y-3.22677
G01 X-7.39425 Y-3.23031
G01 X-7.39687 Y-3.23411
G01 X-7.39899 Y-3.23848
G01 X-7.40027 Y-3.24254
G01 X-7.40106 Y-3.24733
G01 X-7.40109 Y-3.25219
G01 X-7.40024 Y-3.25759
G01 X-7.39871 Y-3.26220
G01 X-7.39680 Y-3.26600
G01 X-7.39363 Y-3.27044
G01 X-7.39020 Y-3.27388
G01 X-7.38630 Y-3.27675
G01 X-7.38221 Y-3.27889
G01 X-7.37820 Y-3.28031
G01 X-7.37293 Y-3.28132
G01 X-7.36980 Y-3.28150
G01 X-7.32638 Y-3.28150
G01 X-7.32279 Y-3.28128
G01 X-7.31947 Y-3.28072
G01 X-7.31627 Y-3.27983
G01 X-7.31318 Y-3.27859
G01 X-7.31024 Y-3.27704
G01 X-7.30748 Y-3.27519
G01 X-7.30493 Y-3.27306
G01 X-7.30262 Y-3.27067
G01 X-7.30165 Y-3.26944
G01 X-7.26700 Y-3.26941
G01 X-7.26279 Y-3.26877
G01 X-7.25937 Y-3.26749
G01 X-7.25639 Y-3.26572
G01 X-7.25407 Y-3.26374
G01 X-7.18400 Y-3.19367
G01 X-7.18174 Y-3.19082
G01 X-7.18041 Y-3.18839
G01 X-7.17935 Y-3.18554
G01 X-7.17868 Y-3.18183
G01 X-7.17860 Y-2.98863
G01 X-7.17700 Y-2.98783
G01 X-7.17393 Y-2.98595
G01 X-7.17013 Y-2.98309
G01 X-7.16722 Y-2.98040
G01 X-7.16480 Y-2.97774
G01 X-7.16196 Y-2.97392
G01 X-7.15991 Y-2.97051
G01 X-7.15818 Y-2.96690
G01 X-7.15669 Y-2.96281
G01 X-7.15568 Y-2.95894
G01 X-7.15504 Y-2.95501
G01 X-7.15475 Y-2.95026
G04 P0 ( dwell for no time -- G64 should not smooth over this point )
G00 Z0.08000 ( retract )

G00 X-7.29491 Y-3.17001 ( rapid move to begin. )
G01 F180.00000
( Mill infeed pass 1/1 )
G01 Z-0.04000
G04 P0 ( dwell for no time -- G64 should not smooth over this point )
G01 F360.00000
G01 X-7.29491 Y-3.17001
G01 X-7.29526 Y-3.16645
G01 X-7.29600 Y-3.16294
G01 X-7.29731 Y-3.15914
G01 X-7.29888 Y-3.15591
G01 X-7.30080 Y-3.15289
G01 X-7.30275 Y-3.15044
G01 X-7.30527 Y-3.14789
G01 X-7.30843 Y-3.14539
G01 X-7.31149 Y-3.14351
G01 X-7.31453 Y-3.14208
G01 X-7.31837 Y-3.14080
G01 X-7.32188 Y-3.14009
G01 X-7.32537 Y-3.13978
G01 X-7.36991 Y-3.13976
G01 X-7.37524 Y-3.14026
G01 X-7.37808 Y-3.14091
G01 X-7.38101 Y-3.14187
G01 X-7.38382 Y-3.14312
G01 X-7.38649 Y-3.14463
G01 X-7.38900 Y-3.14639
G01 X-7.39133 Y-3.14839
G01 X-7.39423 Y-3.15157
G01 X-7.98268 Y-3.15157
G01 X-8.22835 Y-2.90591
G01 X-8.22844 Y-2.84805
G01 X-8.22882 Y-2.84573
G01 X-8.22938 Y-2.84373
G01 X-8.23115 Y-2.83987
G01 X-8.23358 Y-2.83663
G01 X-8.23656 Y-2.83400
G01 X-8.23905 Y-2.83249
G01 X-8.24185 Y-2.83132
G01 X-8.24480 Y-2.83059
G01 X-8.24763 Y-2.83032
G01 X-8.37765 Y-2.83031
G01 X-8.37870 Y-2.82916
G01 X-8.38147 Y-2.82671
G01 X-8.38410 Y-2.82488
G01 X-8.38697 Y-2.82332
G01 X-8.39082 Y-2.82181
G01 X-8.39399 Y-2.82102
G01 X-8.39763 Y-2.82054
G01 X-8.40095 Y-2.82051
G01 X-8.40493 Y-2.82097
G01 X-8.40998 Y-2.82237
G01 X-8.41416 Y-2.82432
G01 X-8.41751 Y-2.82653
G01 X-8.42137 Y-2.83006
G01 X-8.42387 Y-2.83319
G01 X-8.42620 Y-2.83718
G01 X-8.42802 Y-2.84199
G01 X-8.42872 Y-2.84512
G01 X-8.42905 Y-2.84790
G01 X-8.42912 Y-2.85071
G01 X-8.42880 Y-2.85436
G01 X-8.42815 Y-2.85753
G01 X-8.42715 Y-2.86061
G01 X-8.42583 Y-2.86356
G01 X-8.42419 Y-2.86635
G01 X-8.42252 Y-2.86861
G01 X-8.42035 Y-2.87101
G01 X-8.41826 Y-2.87288
G01 X-8.41567 Y-2.87477
G01 X-8.41286 Y-2.87638
G01 X-8.40989 Y-2.87767
G01 X-8.40680 Y-2.87863
G01 X-8.40363 Y-2.87925
G01 X-8.39991 Y-2.87952
G01 X-8.39579 Y-2.87927
G01 X-8.39213 Y-2.87855
G01 X-8.38821 Y-2.87723
G01 X-8.38487 Y-2.87558
G01 X-8.38145 Y-2.87328
G01 X-8.37903 Y-2.87117
G01 X-8.37767 Y-2.86969
G01 X-8.26772 Y-2.86969
G01 X-8.26772 Y-2.91154
G01 X-8.27065 Y-2.91310
G01 X-8.27532 Y-2.91640
G01 X-8.27949 Y-2.92028
G01 X-8.28289 Y-2.92434
G01 X-8.28595 Y-2.92914
G01 X-8.28821 Y-2.93391
G01 X-8.28987 Y-2.93894
G01 X-8.29096 Y-2.94449
G01 X-8.29130 Y-2.94890
G01 X-8.29119 Y-2.95330
G01 X-8.29063 Y-2.95768
G01 X-8.28963 Y-2.96196
G01 X-8.28820 Y-2.96612
G01 X-8.28616 Y-2.97049
G01 X-8.28387 Y-2.97427
G01 X-8.28122 Y-2.97778
G01 X-8.27762 Y-2.98158
G01 X-8.27390 Y-2.98470
G01 X-8.26950 Y-2.98758
G01 X-8.26476 Y-2.98991
G01 X-8.26019 Y-2.99154
G01 X-8.25506 Y-2.99270
G01 X-8.24933 Y-2.99326
G01 X-8.24408 Y-2.99310
G01 X-8.23927 Y-2.99238
G01 X-8.23418 Y-2.99100
G01 X-8.22929 Y-2.98901
G01 X-8.22470 Y-2.98645
G01 X-8.22076 Y-2.98361
G01 X-8.21687 Y-2.98004
G01 X-8.21365 Y-2.97629
G01 X-8.00476 Y-3.18518
G01 X-8.00265 Y-3.18700
G01 X-8.00090 Y-3.18817
G01 X-7.99860 Y-3.18934
G01 X-7.99618 Y-3.19020
G01 X-7.99361 Y-3.19074
G01 X-7.99084 Y-3.19095
G01 X-7.39423 Y-3.19095
G01 X-7.39124 Y-3.19422
G01 X-7.38890 Y-3.19621
G01 X-7.38638 Y-3.19796
G01 X-7.38370 Y-3.19946
G01 X-7.38089 Y-3.20069
G01 X-7.37834 Y-3.20154
G01 X-7.37535 Y-3.20224
G01 X-7.37002 Y-3.20275
G01 X-7.32615 Y-3.20275
G01 X-7.32127 Y-3.20234
G01 X-7.31603 Y-3.20100
G01 X-7.31184 Y-3.19920
G01 X-7.30778 Y-3.19666
G01 X-7.30408 Y-3.19349
G01 X-7.30043 Y-3.18909
G01 X-7.29811 Y-3.18516
G01 X-7.29634 Y-3.18071
G01 X-7.29536 Y-3.17670
G01 X-7.29497 Y-3.17359
G01 X-7.29491 Y-3.17001
G01 X-7.29097 Y-3.17005
G01 X-7.29098 Y-3.16960
G01 X-7.29140 Y-3.16560
G01 X-7.29216 Y-3.16209
G01 X-7.29376 Y-3.15744
G01 X-7.29531 Y-3.15421
G01 X-7.29745 Y-3.15080
G01 X-7.29996 Y-3.14764
G01 X-7.30249 Y-3.14510
G01 X-7.30635 Y-3.14204
G01 X-7.30941 Y-3.14015
G01 X-7.31329 Y-3.13833
G01 X-7.31756 Y-3.13695
G01 X-7.32107 Y-3.13623
G01 X-7.32500 Y-3.13585
G01 X-7.36991 Y-3.13583
G01 X-7.37577 Y-3.13635
G01 X-7.37934 Y-3.13717
G01 X-7.38227 Y-3.13814
G01 X-7.38611 Y-3.13987
G01 X-7.38877 Y-3.14141
G01 X-7.39159 Y-3.14341
G01 X-7.39447 Y-3.14595
G01 X-7.39607 Y-3.14763
G01 X-7.39596 Y-3.14791
G01 X-7.39607 Y-3.14763
G01 X-7.98105 Y-3.14763
G01 X-7.98117 Y-3.14793
G01 X-7.98105 Y-3.14763
G01 X-8.22441 Y-2.90427
G01 X-8.22471 Y-2.90440
G01 X-8.22441 Y-2.90427
G01 X-8.22454 Y-2.84750
G01 X-8.22503 Y-2.84462
G01 X-8.22572 Y-2.84224
G01 X-8.22778 Y-2.83784
G01 X-8.23069 Y-2.83395
G01 X-8.23440 Y-2.83071
G01 X-8.23714 Y-2.82904
G01 X-8.24046 Y-2.82762
G01 X-8.24400 Y-2.82672
G01 X-8.24722 Y-2.82639
G01 X-8.37591 Y-2.82638
G01 X-8.37599 Y-2.82659
G01 X-8.37591 Y-2.82638
G01 X-8.37923 Y-2.82347
G01 X-8.38225 Y-2.82139
G01 X-8.38596 Y-2.81946
G01 X-8.38939 Y-2.81813
G01 X-8.39299 Y-2.81719
G01 X-8.39709 Y-2.81663
G01 X-8.40140 Y-2.81660
G01 X-8.40619 Y-2.81719
G01 X-8.41045 Y-2.81836
G01 X-8.41525 Y-2.82044
G01 X-8.42001 Y-2.82348
G01 X-8.42418 Y-2.82729
G01 X-8.42764 Y-2.83175
G01 X-8.42981 Y-2.83560
G01 X-8.43155 Y-2.84010
G01 X-8.43263 Y-2.84463
G01 X-8.43297 Y-2.84741
G01 X-8.43305 Y-2.85105
G01 X-8.43267 Y-2.85513
G01 X-8.43202 Y-2.85830
G01 X-8.43092 Y-2.86180
G01 X-8.42944 Y-2.86516
G01 X-8.42783 Y-2.86796
G01 X-8.42514 Y-2.87161
G01 X-8.42296 Y-2.87396
G01 X-8.42056 Y-2.87609
G01 X-8.41761 Y-2.87821
G01 X-8.41479 Y-2.87981
G01 X-8.41063 Y-2.88159
G01 X-8.40756 Y-2.88251
G01 X-8.40438 Y-2.88312
G01 X-8.40006 Y-2.88346
G01 X-8.39576 Y-2.88324
G01 X-8.39157 Y-2.88248
G01 X-8.38747 Y-2.88117
G01 X-8.38330 Y-2.87922
G01 X-8.37969 Y-2.87688
G01 X-8.37608 Y-2.87380
G01 X-8.37591 Y-2.87362
G01 X-8.37598 Y-2.87342
G01 X-8.37591 Y-2.87362
G01 X-8.27166 Y-2.87362
G01 X-8.27050 Y-2.87247
G01 X-8.27166 Y-2.87362
G01 X-8.27166 Y-2.90915
G01 X-8.27120 Y-2.90939
G01 X-8.27166 Y-2.90915
G01 X-8.27232 Y-2.90950
G01 X-8.27772 Y-2.91327
G01 X-8.28216 Y-2.91737
G01 X-8.28619 Y-2.92220
G01 X-8.28927 Y-2.92700
G01 X-8.29177 Y-2.93221
G01 X-8.29362 Y-2.93768
G01 X-8.29483 Y-2.94372
G01 X-8.29523 Y-2.94858
G01 X-8.29510 Y-2.95382
G01 X-8.29447 Y-2.95859
G01 X-8.29335 Y-2.96326
G01 X-8.29177 Y-2.96781
G01 X-8.28952 Y-2.97255
G01 X-8.28701 Y-2.97666
G01 X-8.28408 Y-2.98051
G01 X-8.28014 Y-2.98463
G01 X-8.27604 Y-2.98802
G01 X-8.27123 Y-2.99113
G01 X-8.26649 Y-2.99345
G01 X-8.26104 Y-2.99539
G01 X-8.25591 Y-2.99655
G01 X-8.24923 Y-2.99720
G01 X-8.24397 Y-2.99705
G01 X-8.23871 Y-2.99629
G01 X-8.23316 Y-2.99482
G01 X-8.22782 Y-2.99268
G01 X-8.22279 Y-2.98991
G01 X-8.21846 Y-2.98682
G01 X-8.21456 Y-2.98330
G01 X-8.21343 Y-2.98207
G01 X-8.21340 Y-2.98054
G01 X-8.21343 Y-2.98207
G01 X-8.00754 Y-3.18796
G01 X-8.00526 Y-3.18997
G01 X-8.00313 Y-3.19143
G01 X-8.00044 Y-3.19284
G01 X-7.99754 Y-3.19391
G01 X-7.99429 Y-3.19463
G01 X-7.99084 Y-3.19488
G01 X-7.39607 Y-3.19488
G01 X-7.39596 Y-3.19461
G01 X-7.39607 Y-3.19488
G01 X-7.39381 Y-3.19720
G01 X-7.39148 Y-3.19920
G01 X-7.38832 Y-3.20139
G01 X-7.38565 Y-3.20289
G01 X-7.38249 Y-3.20430
G01 X-7.37921 Y-3.20539
G01 X-7.37572 Y-3.20617
G01 X-7.37002 Y-3.20669
G01 X-7.32615 Y-3.20669
G01 X-7.32083 Y-3.20625
G01 X-7.31527 Y-3.20491
G01 X-7.30983 Y-3.20259
G01 X-7.30500 Y-3.19952
G01 X-7.30089 Y-3.19587
G01 X-7.29726 Y-3.19145
G01 X-7.29449 Y-3.18670
G01 X-7.29245 Y-3.18147
G01 X-7.29145 Y-3.17719
G01 X-7.29102 Y-3.17363
G01 X-7.29097 Y-3.17005
G01 X-7.41697 Y-2.85140
G01 X-7.41700 Y-2.84810
G01 X-7.41755 Y-2.84401
G01 X-7.41837 Y-2.84091
G01 X-7.41972 Y-2.83747
G01 X-7.42174 Y-2.83387
G01 X-7.42396 Y-2.83088
G01 X-7.42685 Y-2.82793
G01 X-7.42979 Y-2.82563
G01 X-7.43297 Y-2.82374
G01 X-7.43636 Y-2.82226
G01 X-7.43990 Y-2.82122
G01 X-7.44398 Y-2.82058
G01 X-7.44824 Y-2.82053
G01 X-7.45233 Y-2.82107
G01 X-7.45590 Y-2.82203
G01 X-7.45935 Y-2.82344
G01 X-7.46249 Y-2.82522
G01 X-7.46623 Y-2.82808
G01 X-7.46912 Y-2.83108
G01 X-7.47125 Y-2.83398
G01 X-7.47349 Y-2.83813
G01 X-7.47473 Y-2.84152
G01 X-7.47564 Y-2.84558
G01 X-7.47597 Y-2.84972
G01 X-7.47586 Y-2.85192
G01 X-7.55451 Y-2.93056
G01 X-7.55938 Y-2.93056
G01 X-7.56167 Y-2.92652
G01 X-7.56375 Y-2.92358
G01 X-7.56624 Y-2.92063
G01 X-7.56875 Y-2.91813
G01 X-7.57150 Y-2.91580
G01 X-7.57473 Y-2.91352
G01 X-7.57779 Y-2.91174
G01 X-7.58256 Y-2.90958
G01 X-7.58759 Y-2.90800
G01 X-7.59278 Y-2.90704
G01 X-7.59757 Y-2.90672
G01 X-7.60411 Y-2.90714
G01 X-7.60726 Y-2.90771
G01 X-7.61026 Y-2.90848
G01 X-7.61358 Y-2.90960
G01 X-7.61643 Y-2.91082
G01 X-7.62168 Y-2.91376
G01 X-7.62465 Y-2.91587
G01 X-7.62702 Y-2.91786
G01 X-7.63119 Y-2.92219
G01 X-7.63480 Y-2.92718
G01 X-7.63669 Y-2.93056
G01 X-7.93578 Y-2.93056
G01 X-8.09118 Y-2.77516
G01 X-8.09330 Y-2.77334
G01 X-8.09548 Y-2.77193
G01 X-8.09820 Y-2.77068
G01 X-8.10058 Y-2.76997
G01 X-8.10264 Y-2.76961
G01 X-8.10492 Y-2.76947
G01 X-8.59909 Y-2.76953
G01 X-8.60223 Y-2.77000
G01 X-8.60518 Y-2.77096
G01 X-8.60830 Y-2.77261
G01 X-8.61117 Y-2.77488
G01 X-8.73662 Y-2.90033
G01 X-8.73890 Y-2.90306
G01 X-8.74064 Y-2.90617
G01 X-8.74168 Y-2.90919
G01 X-8.74230 Y-2.91326
G01 X-8.74231 Y-2.98633
G01 X-8.74211 Y-2.98871
G01 X-8.74145 Y-2.99164
G01 X-8.74028 Y-2.99457
G01 X-8.73888 Y-2.99696
G01 X-8.73662 Y-2.99967
G01 X-8.55070 Y-3.18556
G01 X-8.54811 Y-3.18757
G01 X-8.54470 Y-3.18932
G01 X-8.54178 Y-3.19022
G01 X-8.53877 Y-3.19065
G01 X-8.49442 Y-3.19069
G01 X-8.49123 Y-3.19423
G01 X-8.48869 Y-3.19637
G01 X-8.48593 Y-3.19824
G01 X-8.48299 Y-3.19980
G01 X-8.47991 Y-3.20104
G01 X-8.47671 Y-3.20196
G01 X-8.47340 Y-3.20253
G01 X-8.46979 Y-3.20275
G01 X-8.42503 Y-3.20272
G01 X-8.42032 Y-3.20216
G01 X-8.41587 Y-3.20094
G01 X-8.41144 Y-3.19898
G01 X-8.40755 Y-3.19649
G01 X-8.40390 Y-3.19331
G01 X-8.40078 Y-3.18959
G01 X-8.39837 Y-3.18565
G01 X-8.39631 Y-3.18060
G01 X-8.39523 Y-3.17587
G01 X-8.39489 Y-3.17104
G01 X-8.39526 Y-3.16643
G01 X-8.39638 Y-3.16170
G01 X-8.39794 Y-3.15775
G01 X-8.40035 Y-3.15354
G01 X-8.40323 Y-3.14992
G01 X-8.40677 Y-3.14662
G01 X-8.41038 Y-3.14414
G01 X-8.41449 Y-3.14210
G01 X-8.41887 Y-3.14068
G01 X-8.42317 Y-3.13994
G01 X-8.42638 Y-3.13976
G01 X-8.47103 Y-3.13980
G01 X-8.47480 Y-3.14019
G01 X-8.47831 Y-3.14097
G01 X-8.48169 Y-3.14215
G01 X-8.48492 Y-3.14370
G01 X-8.48795 Y-3.14561
G01 X-8.49074 Y-3.14785
G01 X-8.49327 Y-3.15039
G01 X-8.49441 Y-3.15182
G01 X-8.52950 Y-3.15182
G01 X-8.70344 Y-2.97788
G01 X-8.70344 Y-2.92212
G01 X-8.58967 Y-2.80835
G01 X-8.11297 Y-2.80835
G01 X-7.95758 Y-2.96374
G01 X-7.95586 Y-2.96526
G01 X-7.95390 Y-2.96663
G01 X-7.95034 Y-2.96831
G01 X-7.94690 Y-2.96919
G01 X-7.94383 Y-2.96944
G01 X-7.63661 Y-2.96944
G01 X-7.63503 Y-2.97245
G01 X-7.63147 Y-2.97747
G01 X-7.62724 Y-2.98194
G01 X-7.62241 Y-2.98576
G01 X-7.61709 Y-2.98885
G01 X-7.61139 Y-2.99116
G01 X-7.60541 Y-2.99264
G01 X-7.59943 Y-2.99326
G01 X-7.59633 Y-2.99325
G01 X-7.59282 Y-2.99297
G01 X-7.58966 Y-2.99247
G01 X-7.58664 Y-2.99176
G01 X-7.58370 Y-2.99084
G01 X-7.58045 Y-2.98955
G01 X-7.57512 Y-2.98672
G01 X-7.57212 Y-2.98467
G01 X-7.56970 Y-2.98272
G01 X-7.56745 Y-2.98063
G01 X-7.56507 Y-2.97806
G01 X-7.56315 Y-2.97563
G01 X-7.56119 Y-2.97272
G01 X-7.55937 Y-2.96944
G01 X-7.54646 Y-2.96944
G01 X-7.54366 Y-2.96923
G01 X-7.54168 Y-2.96883
G01 X-7.53926 Y-2.96805
G01 X-7.53696 Y-2.96695
G01 X-7.53483 Y-2.96557
G01 X-7.53271 Y-2.96374
G01 X-7.44839 Y-2.87942
G01 X-7.44401 Y-2.87942
G01 X-7.44039 Y-2.87889
G01 X-7.43723 Y-2.87804
G01 X-7.43422 Y-2.87687
G01 X-7.43135 Y-2.87536
G01 X-7.42832 Y-2.87329
G01 X-7.42586 Y-2.87115
G01 X-7.42394 Y-2.86910
G01 X-7.42177 Y-2.86619
G01 X-7.42014 Y-2.86339
G01 X-7.41899 Y-2.86083
G01 X-7.41809 Y-2.85817
G01 X-7.41737 Y-2.85505
G01 X-7.41697 Y-2.85140
G01 X-7.41303 Y-2.85140
G01 X-7.41305 Y-2.84810
G01 X-7.41354 Y-2.84403
G01 X-7.41487 Y-2.83897
G01 X-7.41636 Y-2.83536
G01 X-7.41869 Y-2.83133
G01 X-7.42128 Y-2.82796
G01 X-7.42485 Y-2.82446
G01 X-7.42821 Y-2.82196
G01 X-7.43142 Y-2.82010
G01 X-7.43481 Y-2.81864
G01 X-7.43916 Y-2.81734
G01 X-7.44342 Y-2.81669
G01 X-7.44871 Y-2.81663
G01 X-7.45298 Y-2.81718
G01 X-7.45690 Y-2.81820
G01 X-7.46066 Y-2.81970
G01 X-7.46442 Y-2.82179
G01 X-7.46904 Y-2.82533
G01 X-7.47206 Y-2.82845
G01 X-7.47442 Y-2.83165
G01 X-7.47704 Y-2.83643
G01 X-7.47865 Y-2.84086
G01 X-7.47956 Y-2.84511
G01 X-7.47992 Y-2.84981
G01 X-7.47991 Y-2.85040
G01 X-7.47967 Y-2.85051
G01 X-7.47991 Y-2.85040
G01 X-7.55614 Y-2.92663
G01 X-7.55601 Y-2.92693
G01 X-7.55614 Y-2.92663
G01 X-7.55703 Y-2.92663
G01 X-7.55728 Y-2.92709
G01 X-7.55703 Y-2.92663
G01 X-7.55827 Y-2.92453
G01 X-7.56053 Y-2.92130
G01 X-7.56323 Y-2.91808
G01 X-7.56571 Y-2.91558
G01 X-7.56924 Y-2.91257
G01 X-7.57305 Y-2.90993
G01 X-7.57615 Y-2.90815
G01 X-7.58050 Y-2.90616
G01 X-7.58593 Y-2.90436
G01 X-7.59205 Y-2.90316
G01 X-7.59766 Y-2.90278
G01 X-7.60437 Y-2.90320
G01 X-7.60796 Y-2.90384
G01 X-7.61125 Y-2.90467
G01 X-7.61486 Y-2.90588
G01 X-7.61799 Y-2.90720
G01 X-7.62361 Y-2.91032
G01 X-7.62695 Y-2.91267
G01 X-7.62956 Y-2.91485
G01 X-7.63429 Y-2.91975
G01 X-7.63824 Y-2.92524
G01 X-7.63904 Y-2.92663
G01 X-7.63880 Y-2.92707
G01 X-7.63904 Y-2.92663
G01 X-7.93415 Y-2.92663
G01 X-7.93427 Y-2.92693
G01 X-7.93415 Y-2.92663
G01 X-8.08839 Y-2.77238
G01 X-8.09083 Y-2.77026
G01 X-8.09344 Y-2.76855
G01 X-8.09632 Y-2.76718
G01 X-8.09941 Y-2.76619
G01 X-8.10192 Y-2.76573
G01 X-8.10492 Y-2.76553
G01 X-8.59966 Y-2.76564
G01 X-8.60334 Y-2.76622
G01 X-8.60691 Y-2.76742
G01 X-8.61065 Y-2.76944
G01 X-8.61396 Y-2.77210
G01 X-8.73941 Y-2.89754
G01 X-8.74214 Y-2.90083
G01 X-8.74423 Y-2.90456
G01 X-8.74541 Y-2.90792
G01 X-8.74575 Y-2.90932
G01 X-8.74622 Y-2.91288
G01 X-8.74625 Y-2.98633
G01 X-8.74603 Y-2.98907
G01 X-8.74518 Y-2.99292
G01 X-8.74387 Y-2.99621
G01 X-8.74198 Y-2.99939
G01 X-8.73941 Y-3.00246
G01 X-8.55349 Y-3.18835
G01 X-8.55042 Y-3.19077
G01 X-8.54591 Y-3.19307
G01 X-8.54280 Y-3.19403
G01 X-8.53918 Y-3.19457
G01 X-8.49630 Y-3.19463
G01 X-8.49619 Y-3.19435
G01 X-8.49630 Y-3.19463
G01 X-8.49379 Y-3.19722
G01 X-8.49125 Y-3.19937
G01 X-8.48780 Y-3.20170
G01 X-8.48487 Y-3.20327
G01 X-8.48141 Y-3.20470
G01 X-8.47782 Y-3.20575
G01 X-8.47411 Y-3.20642
G01 X-8.46979 Y-3.20669
G01 X-8.42404 Y-3.20660
G01 X-8.41905 Y-3.20593
G01 X-8.41404 Y-3.20447
G01 X-8.40911 Y-3.20220
G01 X-8.40476 Y-3.19933
G01 X-8.40070 Y-3.19568
G01 X-8.39727 Y-3.19146
G01 X-8.39462 Y-3.18697
G01 X-8.39258 Y-3.18190
G01 X-8.39135 Y-3.17658
G01 X-8.39095 Y-3.17115
G01 X-8.39135 Y-3.16595
G01 X-8.39258 Y-3.16064
G01 X-8.39461 Y-3.15557
G01 X-8.39717 Y-3.15121
G01 X-8.40042 Y-3.14714
G01 X-8.40441 Y-3.14346
G01 X-8.40849 Y-3.14067
G01 X-8.41312 Y-3.13840
G01 X-8.41805 Y-3.13682
G01 X-8.42298 Y-3.13599
G01 X-8.42638 Y-3.13583
G01 X-8.47146 Y-3.13587
G01 X-8.47569 Y-3.13634
G01 X-8.47963 Y-3.13725
G01 X-8.48343 Y-3.13860
G01 X-8.48665 Y-3.14016
G01 X-8.49044 Y-3.14254
G01 X-8.49323 Y-3.14479
G01 X-8.49631 Y-3.14788
G01 X-8.49621 Y-3.14815
G01 X-8.49631 Y-3.14788
G01 X-8.52787 Y-3.14788
G01 X-8.52799 Y-3.14818
G01 X-8.52787 Y-3.14788
G01 X-8.69951 Y-2.97625
G01 X-8.69981 Y-2.97637
G01 X-8.69951 Y-2.97625
G01 X-8.69951 Y-2.92375
G01 X-8.69981 Y-2.92363
G01 X-8.69951 Y-2.92375
G01 X-8.58804 Y-2.81228
G01 X-8.58816 Y-2.81198
G01 X-8.58804 Y-2.81228
G01 X-8.11460 Y-2.81228
G01 X-8.11448 Y-2.81198
G01 X-8.11460 Y-2.81228
G01 X-7.96036 Y-2.96653
G01 X-7.95810 Y-2.96851
G01 X-7.95604 Y-2.96993
G01 X-7.95168 Y-2.97201
G01 X-7.94776 Y-2.97304
G01 X-7.94383 Y-2.97337
G01 X-7.63902 Y-2.97337
G01 X-7.63878 Y-2.97292
G01 X-7.63902 Y-2.97337
G01 X-7.63846 Y-2.97440
G01 X-7.63460 Y-2.97988
G01 X-7.62999 Y-2.98477
G01 X-7.62473 Y-2.98895
G01 X-7.61894 Y-2.99234
G01 X-7.61272 Y-2.99488
G01 X-7.60657 Y-2.99644
G01 X-7.59985 Y-2.99719
G01 X-7.59603 Y-2.99718
G01 X-7.59252 Y-2.99690
G01 X-7.58904 Y-2.99635
G01 X-7.58573 Y-2.99559
G01 X-7.58196 Y-2.99440
G01 X-7.57858 Y-2.99303
G01 X-7.57326 Y-2.99018
G01 X-7.56940 Y-2.98755
G01 X-7.56680 Y-2.98542
G01 X-7.56433 Y-2.98307
G01 X-7.56178 Y-2.98026
G01 X-7.55970 Y-2.97757
G01 X-7.55703 Y-2.97337
G01 X-7.55728 Y-2.97292
G01 X-7.55703 Y-2.97337
G01 X-7.54646 Y-2.97337
G01 X-7.54290 Y-2.97309
G01 X-7.54041 Y-2.97258
G01 X-7.53735 Y-2.97153
G01 X-7.53462 Y-2.97015
G01 X-7.53223 Y-2.96854
G01 X-7.52993 Y-2.96653
G01 X-7.44686 Y-2.88346
G01 X-7.44696 Y-2.88324
G01 X-7.44686 Y-2.88346
G01 X-7.44296 Y-2.88327
G01 X-7.43933 Y-2.88270
G01 X-7.43536 Y-2.88156
G01 X-7.43236 Y-2.88035
G01 X-7.42910 Y-2.87861
G01 X-7.42570 Y-2.87625
G01 X-7.42295 Y-2.87382
G01 X-7.42078 Y-2.87146
G01 X-7.41860 Y-2.86855
G01 X-7.41674 Y-2.86539
G01 X-7.41540 Y-2.86244
G01 X-7.41423 Y-2.85903
G01 X-7.41353 Y-2.85590
G01 X-7.41303 Y-2.85140
G04 P0 ( dwell for no time -- G64 should not smooth over this point )
G00 Z0.08000 ( retract )

G00 X-7.87364 Y-2.54502 ( rapid move to begin. )
G01 F180.00000
( Mill infeed pass 1/1 )
G01 Z-0.04000
G04 P0 ( dwell for no time -- G64 should not smooth over this point )
G01 F360.00000
G01 X-7.87364 Y-2.54502
G01 X-7.87126 Y-2.55083
G01 X-7.83981 Y-2.58228
G01 X-7.83951 Y-2.58216
G01 X-7.83981 Y-2.58228
G01 X-7.83979 Y-2.69531
G01 X-7.83928 Y-2.69772
G01 X-7.83830 Y-2.69953
G01 X-7.83656 Y-2.70127
G01 X-7.83436 Y-2.70239
G01 X-7.83193 Y-2.70277
G01 X-7.69413 Y-2.70277
G01 X-7.69170 Y-2.70239
G01 X-7.68950 Y-2.70127
G01 X-7.68776 Y-2.69953
G01 X-7.68678 Y-2.69772
G01 X-7.68627 Y-2.69531
G01 X-7.68626 Y-2.64937
G01 X-7.68741 Y-2.64822
G01 X-7.68626 Y-2.64937
G01 X-7.67281 Y-2.64937
G01 X-7.67269 Y-2.64907
G01 X-7.67281 Y-2.64937
G01 X-7.53751 Y-2.78468
G01 X-7.53521 Y-2.78669
G01 X-7.53267 Y-2.78839
G01 X-7.52993 Y-2.78974
G01 X-7.52703 Y-2.79073
G01 X-7.52403 Y-2.79132
G01 X-7.52098 Y-2.79152
G01 X-7.16842 Y-2.79152
G01 X-7.16830 Y-2.79122
G01 X-7.16842 Y-2.79152
G01 X-7.13955 Y-2.82039
G01 X-7.13925 Y-2.82027
G01 X-7.13955 Y-2.82039
G01 X-7.13955 Y-3.20794
G01 X-7.13925 Y-3.20806
G01 X-7.13955 Y-3.20794
G01 X-7.30704 Y-3.37542
G01 X-7.30691 Y-3.37572
G01 X-7.30704 Y-3.37542
G01 X-7.75992 Y-3.37542
G01 X-7.76004 Y-3.37572
G01 X-7.75992 Y-3.37542
G01 X-7.77466 Y-3.36069
G01 X-7.77496 Y-3.36081
G01 X-7.77466 Y-3.36069
G01 X-7.77466 Y-3.34724
G01 X-7.77578 Y-3.34615
G01 X-7.77466 Y-3.34724
G01 X-7.76063 Y-3.34724
G01 X-7.75859 Y-3.34698
G01 X-7.75669 Y-3.34619
G01 X-7.75478 Y-3.34464
G01 X-7.75361 Y-3.34294
G01 X-7.75285 Y-3.34060
G01 X-7.75280 Y-3.25981
G01 X-7.75314 Y-3.25820
G01 X-7.75361 Y-3.25705
G01 X-7.75426 Y-3.25600
G01 X-7.75536 Y-3.25478
G01 X-7.75669 Y-3.25381
G01 X-7.75781 Y-3.25328
G01 X-7.76022 Y-3.25277
G01 X-7.83543 Y-3.25276
G01 X-7.83787 Y-3.25314
G01 X-7.83972 Y-3.25403
G01 X-7.84128 Y-3.25536
G01 X-7.84245 Y-3.25705
G01 X-7.84321 Y-3.25940
G01 X-7.84331 Y-3.27663
G01 X-7.84219 Y-3.27776
G01 X-7.84331 Y-3.27663
G01 X-7.95276 Y-3.27663
G01 X-7.95387 Y-3.27776
G01 X-7.95276 Y-3.27663
G01 X-7.95276 Y-3.26063
G01 X-7.95293 Y-3.25899
G01 X-7.95361 Y-3.25705
G01 X-7.95478 Y-3.25536
G01 X-7.95634 Y-3.25403
G01 X-7.95859 Y-3.25302
G01 X-7.96063 Y-3.25276
G01 X-8.03543 Y-3.25276
G01 X-8.03786 Y-3.25314
G01 X-8.03972 Y-3.25403
G01 X-8.04155 Y-3.25567
G01 X-8.04278 Y-3.25781
G01 X-8.04330 Y-3.26022
G01 X-8.04331 Y-3.33937
G01 X-8.04304 Y-3.34141
G01 X-8.04204 Y-3.34366
G01 X-8.04070 Y-3.34522
G01 X-8.03937 Y-3.34619
G01 X-8.03747 Y-3.34698
G01 X-8.03584 Y-3.34723
G01 X-7.95981 Y-3.34720
G01 X-7.95743 Y-3.34656
G01 X-7.95536 Y-3.34522
G01 X-7.95381 Y-3.34331
G01 X-7.95293 Y-3.34101
G01 X-7.95276 Y-3.33937
G01 X-7.95276 Y-3.32337
G01 X-7.95387 Y-3.32224
G01 X-7.95276 Y-3.32337
G01 X-7.84331 Y-3.32337
G01 X-7.84216 Y-3.32222
G01 X-7.84331 Y-3.32337
G01 X-7.84330 Y-3.33978
G01 X-7.84278 Y-3.34219
G01 X-7.84204 Y-3.34366
G01 X-7.84128 Y-3.34464
G01 X-7.84006 Y-3.34574
G01 X-7.83864 Y-3.34656
G01 X-7.83707 Y-3.34707
G01 X-7.83584 Y-3.34723
G01 X-7.82140 Y-3.34724
G01 X-7.82026 Y-3.34610
G01 X-7.82140 Y-3.34724
G01 X-7.82137 Y-3.37165
G01 X-7.82098 Y-3.37480
G01 X-7.82021 Y-3.37776
G01 X-7.81905 Y-3.38059
G01 X-7.81742 Y-3.38341
G01 X-7.81456 Y-3.38690
G01 X-7.78516 Y-3.41624
G01 X-7.78250 Y-3.41829
G01 X-7.77930 Y-3.42007
G01 X-7.77585 Y-3.42132
G01 X-7.77218 Y-3.42203
G01 X-7.29736 Y-3.42217
G01 X-7.29390 Y-3.42191
G01 X-7.29030 Y-3.42108
G01 X-7.28645 Y-3.41947
G01 X-7.28363 Y-3.41770
G01 X-7.28083 Y-3.41533
G01 X-7.09965 Y-3.23415
G01 X-7.09734 Y-3.23143
G01 X-7.09585 Y-3.22916
G01 X-7.09461 Y-3.22661
G01 X-7.09374 Y-3.22416
G01 X-7.09311 Y-3.22128
G01 X-7.09281 Y-3.21762
G01 X-7.09674 Y-3.21762
G01 X-7.09696 Y-3.22046
G01 X-7.09747 Y-3.22284
G01 X-7.09815 Y-3.22487
G01 X-7.09948 Y-3.22756
G01 X-7.10092 Y-3.22965
G01 X-7.10244 Y-3.23137
G01 X-7.28361 Y-3.41254
G01 X-7.28578 Y-3.41440
G01 X-7.28811 Y-3.41589
G01 X-7.29133 Y-3.41728
G01 X-7.29432 Y-3.41800
G01 X-7.29736 Y-3.41824
G01 X-7.77158 Y-3.41813
G01 X-7.77433 Y-3.41764
G01 X-7.77722 Y-3.41667
G01 X-7.77992 Y-3.41526
G01 X-7.78237 Y-3.41344
G01 X-7.81177 Y-3.38411
G01 X-7.81429 Y-3.38102
G01 X-7.81546 Y-3.37897
G01 X-7.81643 Y-3.37662
G01 X-7.81709 Y-3.37416
G01 X-7.81742 Y-3.37164
G01 X-7.81747 Y-3.34331
G01 X-7.83584 Y-3.34328
G01 X-7.83740 Y-3.34278
G01 X-7.83836 Y-3.34200
G01 X-7.83903 Y-3.34097
G01 X-7.83937 Y-3.33937
G01 X-7.83937 Y-3.31944
G01 X-7.95669 Y-3.31944
G01 X-7.95671 Y-3.33978
G01 X-7.95703 Y-3.34097
G01 X-7.95770 Y-3.34200
G01 X-7.95832 Y-3.34255
G01 X-7.95941 Y-3.34311
G01 X-7.96063 Y-3.34331
G01 X-8.03543 Y-3.34331
G01 X-8.03703 Y-3.34297
G01 X-8.03775 Y-3.34255
G01 X-8.03862 Y-3.34168
G01 X-8.03918 Y-3.34059
G01 X-8.03937 Y-3.33937
G01 X-8.03937 Y-3.26063
G01 X-8.03918 Y-3.25941
G01 X-8.03862 Y-3.25832
G01 X-8.03775 Y-3.25744
G01 X-8.03665 Y-3.25689
G01 X-8.03543 Y-3.25669
G01 X-7.96063 Y-3.25669
G01 X-7.95941 Y-3.25689
G01 X-7.95832 Y-3.25744
G01 X-7.95770 Y-3.25800
G01 X-7.95703 Y-3.25903
G01 X-7.95671 Y-3.26022
G01 X-7.95669 Y-3.28056
G01 X-7.83937 Y-3.28056
G01 X-7.83935 Y-3.26022
G01 X-7.83903 Y-3.25903
G01 X-7.83836 Y-3.25800
G01 X-7.83775 Y-3.25744
G01 X-7.83665 Y-3.25689
G01 X-7.83543 Y-3.25669
G01 X-7.76063 Y-3.25669
G01 X-7.75903 Y-3.25703
G01 X-7.75770 Y-3.25800
G01 X-7.75703 Y-3.25903
G01 X-7.75669 Y-3.26063
G01 X-7.75678 Y-3.34019
G01 X-7.75722 Y-3.34134
G01 X-7.75800 Y-3.34230
G01 X-7.75903 Y-3.34297
G01 X-7.76022 Y-3.34328
G01 X-7.77859 Y-3.34331
G01 X-7.77859 Y-3.36232
G01 X-7.76155 Y-3.37936
G01 X-7.30541 Y-3.37936
G01 X-7.13562 Y-3.20957
G01 X-7.13562 Y-2.81876
G01 X-7.16679 Y-2.78759
G01 X-7.52098 Y-2.78759
G01 X-7.52377 Y-2.78738
G01 X-7.52626 Y-2.78685
G01 X-7.52865 Y-2.78600
G01 X-7.53092 Y-2.78484
G01 X-7.53301 Y-2.78341
G01 X-7.53472 Y-2.78189
G01 X-7.67118 Y-2.64544
G01 X-7.69019 Y-2.64544
G01 X-7.69019 Y-2.69490
G01 X-7.69039 Y-2.69612
G01 X-7.69095 Y-2.69721
G01 X-7.69182 Y-2.69808
G01 X-7.69291 Y-2.69864
G01 X-7.69413 Y-2.69884
G01 X-7.83193 Y-2.69884
G01 X-7.83353 Y-2.69850
G01 X-7.83425 Y-2.69808
G01 X-7.83512 Y-2.69721
G01 X-7.83568 Y-2.69612
G01 X-7.83587 Y-2.69490
G01 X-7.83587 Y-2.58065
G01 X-7.87519 Y-2.54133
G01 X-7.87522 Y-2.57721
G01 X-7.87553 Y-2.57840
G01 X-7.87621 Y-2.57943
G01 X-7.87716 Y-2.58021
G01 X-7.87831 Y-2.58065
G01 X-8.01693 Y-2.58074
G01 X-8.01815 Y-2.58054
G01 X-8.01890 Y-2.58021
G01 X-8.02012 Y-2.57911
G01 X-8.02068 Y-2.57802
G01 X-8.02087 Y-2.57680
G01 X-8.02087 Y-2.43900
G01 X-8.02053 Y-2.43740
G01 X-8.01986 Y-2.43636
G01 X-8.01890 Y-2.43559
G01 X-8.01734 Y-2.43508
G01 X-7.87913 Y-2.43506
G01 X-7.87791 Y-2.43526
G01 X-7.87716 Y-2.43559
G01 X-7.87621 Y-2.43636
G01 X-7.87572 Y-2.43703
G01 X-7.87539 Y-2.43778
G01 X-7.87519 Y-2.43900
G01 X-7.87519 Y-2.48941
G01 X-7.87249 Y-2.49050
G01 X-7.87038 Y-2.49172
G01 X-7.86768 Y-2.49387
G01 X-7.80838 Y-2.55316
G01 X-7.69413 Y-2.55316
G01 X-7.69291 Y-2.55335
G01 X-7.69182 Y-2.55391
G01 X-7.69095 Y-2.55478
G01 X-7.69053 Y-2.55550
G01 X-7.69019 Y-2.55710
G01 X-7.69019 Y-2.60657
G01 X-7.66130 Y-2.60666
G01 X-7.65890 Y-2.60704
G01 X-7.65598 Y-2.60793
G01 X-7.65324 Y-2.60928
G01 X-7.65084 Y-2.61094
G01 X-7.51293 Y-2.74871
G01 X-7.15874 Y-2.74871
G01 X-7.15590 Y-2.74893
G01 X-7.15352 Y-2.74944
G01 X-7.15107 Y-2.75029
G01 X-7.14842 Y-2.75169
G01 X-7.14597 Y-2.75351
G01 X-7.10226 Y-2.79715
G01 X-7.10058 Y-2.79913
G01 X-7.09909 Y-2.80146
G01 X-7.09770 Y-2.80468
G01 X-7.09695 Y-2.80798
G01 X-7.09674 Y-2.81071
G01 X-7.09674 Y-3.21762
G01 X-7.09281 Y-3.21762
G01 X-7.09281 Y-2.81071
G01 X-7.09306 Y-2.80726
G01 X-7.09390 Y-2.80365
G01 X-7.09551 Y-2.79980
G01 X-7.09749 Y-2.79667
G01 X-7.09930 Y-2.79456
G01 X-7.14318 Y-2.75071
G01 X-7.14619 Y-2.74844
G01 X-7.14971 Y-2.74660
G01 X-7.15234 Y-2.74567
G01 X-7.15508 Y-2.74508
G01 X-7.15874 Y-2.74477
G01 X-7.51130 Y-2.74477
G01 X-7.51142 Y-2.74507
G01 X-7.51130 Y-2.74477
G01 X-7.64848 Y-2.60779
G01 X-7.65113 Y-2.60595
G01 X-7.65438 Y-2.60433
G01 X-7.65747 Y-2.60332
G01 X-7.66109 Y-2.60272
G01 X-7.68626 Y-2.60264
G01 X-7.68740 Y-2.60378
G01 X-7.68626 Y-2.60264
G01 X-7.68627 Y-2.55669
G01 X-7.68664 Y-2.55467
G01 X-7.68731 Y-2.55316
G01 X-7.68828 Y-2.55183
G01 X-7.68984 Y-2.55050
G01 X-7.69170 Y-2.54961
G01 X-7.69413 Y-2.54922
G01 X-7.80675 Y-2.54922
G01 X-7.80687 Y-2.54953
G01 X-7.80675 Y-2.54922
G01 X-7.86489 Y-2.49109
G01 X-7.86841 Y-2.48831
G01 X-7.87126 Y-2.48672
G01 X-7.87171 Y-2.48695
G01 X-7.87126 Y-2.48672
G01 X-7.87127 Y-2.43859
G01 X-7.87164 Y-2.43657
G01 X-7.87231 Y-2.43506
G01 X-7.87356 Y-2.43343
G01 X-7.87519 Y-2.43218
G01 X-7.87709 Y-2.43139
G01 X-7.87913 Y-2.43113
G01 X-8.01693 Y-2.43113
G01 X-8.01857 Y-2.43130
G01 X-8.02013 Y-2.43181
G01 X-8.02189 Y-2.43288
G01 X-8.02305 Y-2.43404
G01 X-8.02428 Y-2.43618
G01 X-8.02471 Y-2.43777
G01 X-8.02481 Y-2.43900
G01 X-8.02481 Y-2.57680
G01 X-8.02463 Y-2.57844
G01 X-8.02412 Y-2.58000
G01 X-8.02305 Y-2.58175
G01 X-8.02189 Y-2.58292
G01 X-8.01975 Y-2.58415
G01 X-8.01816 Y-2.58458
G01 X-8.01693 Y-2.58467
G01 X-7.87913 Y-2.58467
G01 X-7.87749 Y-2.58450
G01 X-7.87519 Y-2.58362
G01 X-7.87328 Y-2.58207
G01 X-7.87194 Y-2.58000
G01 X-7.87135 Y-2.57803
G01 X-7.87126 Y-2.55083
G04 P0 ( dwell for no time -- G64 should not smooth over this point )
G00 Z0.08000 ( retract )

G00 X-8.34388 Y-3.04130 ( rapid move to begin. )
G01 F180.00000
( Mill infeed pass 1/1 )
G01 Z-0.04000
G04 P0 ( dwell for no time -- G64 should not smooth over this point )
G01 F360.00000
G01 X-8.34388 Y-3.04130
G01 X-8.34420 Y-3.03779
G01 X-8.34501 Y-3.03477
G01 X-8.34671 Y-3.03121
G01 X-8.34806 Y-3.02928
G01 X-8.34957 Y-3.02756
G01 X-8.47859 Y-2.89854
G01 X-8.47859 Y-2.87953
G01 X-8.47244 Y-2.87953
G01 X-8.47122 Y-2.87933
G01 X-8.47047 Y-2.87900
G01 X-8.46951 Y-2.87822
G01 X-8.46884 Y-2.87719
G01 X-8.46853 Y-2.87600
G01 X-8.46850 Y-2.82441
G01 X-8.46870 Y-2.82319
G01 X-8.46926 Y-2.82210
G01 X-8.47013 Y-2.82122
G01 X-8.47122 Y-2.82066
G01 X-8.47244 Y-2.82047
G01 X-8.52403 Y-2.82049
G01 X-8.52522 Y-2.82081
G01 X-8.52626 Y-2.82148
G01 X-8.52703 Y-2.82244
G01 X-8.52737 Y-2.82319
G01 X-8.52756 Y-2.82441
G01 X-8.52756 Y-2.83058
G01 X-8.54999 Y-2.83066
G01 X-8.55287 Y-2.83118
G01 X-8.55518 Y-2.83194
G01 X-8.55752 Y-2.83304
G01 X-8.56057 Y-2.83517
G01 X-8.63450 Y-2.90898
G01 X-8.63804 Y-2.90789
G01 X-8.64316 Y-2.90700
G01 X-8.64929 Y-2.90674
G01 X-8.65553 Y-2.90738
G01 X-8.66148 Y-2.90887
G01 X-8.66679 Y-2.91100
G01 X-8.67133 Y-2.91353
G01 X-8.67593 Y-2.91691
G01 X-8.68062 Y-2.92152
G01 X-8.68282 Y-2.92424
G01 X-8.68599 Y-2.92919
G01 X-8.68754 Y-2.93233
G01 X-8.68871 Y-2.93520
G01 X-8.68977 Y-2.93854
G01 X-8.69048 Y-2.94155
G01 X-8.69103 Y-2.94501
G01 X-8.69129 Y-2.94852
G01 X-8.69129 Y-2.95162
G01 X-8.69106 Y-2.95469
G01 X-8.69054 Y-2.95815
G01 X-8.68985 Y-2.96117
G01 X-8.68868 Y-2.96487
G01 X-8.68676 Y-2.96931
G01 X-8.68438 Y-2.97350
G01 X-8.68179 Y-2.97708
G01 X-8.67856 Y-2.98068
G01 X-8.67529 Y-2.98362
G01 X-8.67136 Y-2.98645
G01 X-8.66715 Y-2.98883
G01 X-8.66228 Y-2.99087
G01 X-8.65806 Y-2.99210
G01 X-8.65372 Y-2.99291
G01 X-8.64847 Y-2.99328
G01 X-8.64408 Y-2.99310
G01 X-8.63929 Y-2.99239
G01 X-8.63420 Y-2.99101
G01 X-8.63011 Y-2.98940
G01 X-8.62582 Y-2.98715
G01 X-8.62249 Y-2.98494
G01 X-8.61972 Y-2.98274
G01 X-8.61686 Y-2.98003
G01 X-8.61424 Y-2.97705
G01 X-8.61191 Y-2.97385
G01 X-8.60993 Y-2.97054
G01 X-8.60838 Y-2.96736
G01 X-8.60708 Y-2.96400
G01 X-8.60597 Y-2.96020
G01 X-8.60521 Y-2.95632
G01 X-8.60481 Y-2.95238
G01 X-8.60476 Y-2.94884
G01 X-8.60504 Y-2.94499
G01 X-8.60568 Y-2.94108
G01 X-8.60696 Y-2.93642
G01 X-8.53998 Y-2.86944
G01 X-8.52756 Y-2.86944
G01 X-8.52754 Y-2.87600
G01 X-8.52703 Y-2.87756
G01 X-8.52626 Y-2.87852
G01 X-8.52522 Y-2.87919
G01 X-8.52403 Y-2.87950
G01 X-8.51746 Y-2.87953
G01 X-8.51737 Y-2.90842
G01 X-8.51685 Y-2.91142
G01 X-8.51588 Y-2.91426
G01 X-8.51470 Y-2.91657
G01 X-8.51310 Y-2.91886
G01 X-8.38276 Y-3.04935
G01 X-8.38276 Y-3.23056
G01 X-8.40164 Y-3.23056
G01 X-8.40483 Y-3.22703
G01 X-8.40738 Y-3.22489
G01 X-8.41013 Y-3.22302
G01 X-8.41308 Y-3.22145
G01 X-8.41639 Y-3.22013
G01 X-8.41960 Y-3.21925
G01 X-8.42290 Y-3.21870
G01 X-8.42627 Y-3.21850
G01 X-8.47015 Y-3.21851
G01 X-8.47347 Y-3.21874
G01 X-8.47674 Y-3.21931
G01 X-8.47994 Y-3.22023
G01 X-8.48302 Y-3.22147
G01 X-8.48597 Y-3.22305
G01 X-8.48857 Y-3.22480
G01 X-8.49131 Y-3.22711
G01 X-8.49388 Y-3.22985
G01 X-8.49588 Y-3.23252
G01 X-8.49749 Y-3.23522
G01 X-8.49905 Y-3.23863
G01 X-8.50009 Y-3.24181
G01 X-8.50075 Y-3.24487
G01 X-8.50112 Y-3.24819
G01 X-8.50112 Y-3.25193
G01 X-8.50080 Y-3.25483
G01 X-8.50012 Y-3.25808
G01 X-8.49901 Y-3.26147
G01 X-8.49705 Y-3.26557
G01 X-8.49449 Y-3.26939
G01 X-8.49117 Y-3.27302
G01 X-8.48758 Y-3.27591
G01 X-8.48361 Y-3.27824
G01 X-8.47935 Y-3.27997
G01 X-8.47489 Y-3.28105
G01 X-8.47069 Y-3.28148
G01 X-8.42638 Y-3.28150
G01 X-8.42279 Y-3.28128
G01 X-8.41947 Y-3.28072
G01 X-8.41627 Y-3.27983
G01 X-8.41318 Y-3.27859
G01 X-8.41024 Y-3.27704
G01 X-8.40748 Y-3.27519
G01 X-8.40493 Y-3.27306
G01 X-8.40262 Y-3.27067
G01 X-8.40165 Y-3.26944
G01 X-8.36741 Y-3.26943
G01 X-8.36397 Y-3.26904
G01 X-8.36130 Y-3.26831
G01 X-8.35842 Y-3.26700
G01 X-8.35583 Y-3.26529
G01 X-8.34824 Y-3.25777
G01 X-8.34634 Y-3.25494
G01 X-8.34507 Y-3.25217
G01 X-8.34425 Y-3.24923
G01 X-8.34390 Y-3.24631
G01 X-8.34388 Y-3.04130
G01 X-8.33994 Y-3.04130
G01 X-8.34029 Y-3.03731
G01 X-8.34110 Y-3.03409
G01 X-8.34160 Y-3.03274
G01 X-8.34342 Y-3.02903
G01 X-8.34512 Y-3.02663
G01 X-8.34679 Y-3.02477
G01 X-8.47466 Y-2.89691
G01 X-8.47496 Y-2.89703
G01 X-8.47466 Y-2.89691
G01 X-8.47466 Y-2.88346
G01 X-8.47575 Y-2.88242
G01 X-8.47466 Y-2.88346
G01 X-8.47121 Y-2.88337
G01 X-8.46887 Y-2.88261
G01 X-8.46717 Y-2.88144
G01 X-8.46584 Y-2.87988
G01 X-8.46495 Y-2.87802
G01 X-8.46461 Y-2.87641
G01 X-8.46457 Y-2.82441
G01 X-8.46483 Y-2.82237
G01 X-8.46584 Y-2.82012
G01 X-8.46717 Y-2.81856
G01 X-8.46850 Y-2.81759
G01 X-8.47040 Y-2.81680
G01 X-8.47203 Y-2.81655
G01 X-8.52444 Y-2.81658
G01 X-8.52605 Y-2.81692
G01 X-8.52791 Y-2.81780
G01 X-8.52947 Y-2.81914
G01 X-8.53064 Y-2.82083
G01 X-8.53140 Y-2.82318
G01 X-8.53150 Y-2.82665
G01 X-8.53042 Y-2.82774
G01 X-8.53150 Y-2.82665
G01 X-8.55011 Y-2.82672
G01 X-8.55408 Y-2.82744
G01 X-8.55675 Y-2.82832
G01 X-8.55926 Y-2.82951
G01 X-8.56225 Y-2.83147
G01 X-8.56335 Y-2.83238
G01 X-8.63558 Y-2.90450
G01 X-8.63543 Y-2.90499
G01 X-8.63558 Y-2.90450
G01 X-8.63666 Y-2.90417
G01 X-8.64284 Y-2.90306
G01 X-8.64987 Y-2.90281
G01 X-8.65576 Y-2.90341
G01 X-8.66190 Y-2.90488
G01 X-8.66870 Y-2.90756
G01 X-8.67384 Y-2.91045
G01 X-8.67828 Y-2.91376
G01 X-8.68368 Y-2.91904
G01 X-8.68570 Y-2.92152
G01 X-8.68765 Y-2.92431
G01 X-8.68966 Y-2.92772
G01 X-8.69132 Y-2.93114
G01 X-8.69256 Y-2.93430
G01 X-8.69352 Y-2.93735
G01 X-8.69432 Y-2.94066
G01 X-8.69496 Y-2.94473
G01 X-8.69522 Y-2.94824
G01 X-8.69522 Y-2.95164
G01 X-8.69499 Y-2.95499
G01 X-8.69443 Y-2.95875
G01 X-8.69368 Y-2.96207
G01 X-8.69256 Y-2.96570
G01 X-8.69040 Y-2.97086
G01 X-8.68758 Y-2.97579
G01 X-8.68500 Y-2.97938
G01 X-8.68181 Y-2.98299
G01 X-8.67792 Y-2.98655
G01 X-8.67329 Y-2.98990
G01 X-8.66827 Y-2.99265
G01 X-8.66339 Y-2.99465
G01 X-8.65876 Y-2.99599
G01 X-8.65400 Y-2.99684
G01 X-8.64875 Y-2.99722
G01 X-8.64304 Y-2.99695
G01 X-8.63826 Y-2.99620
G01 X-8.63359 Y-2.99495
G01 X-8.62866 Y-2.99306
G01 X-8.62363 Y-2.99043
G01 X-8.62002 Y-2.98802
G01 X-8.61699 Y-2.98559
G01 X-8.61388 Y-2.98262
G01 X-8.61105 Y-2.97936
G01 X-8.60853 Y-2.97588
G01 X-8.60655 Y-2.97256
G01 X-8.60484 Y-2.96910
G01 X-8.60328 Y-2.96509
G01 X-8.60209 Y-2.96094
G01 X-8.60128 Y-2.95670
G01 X-8.60087 Y-2.95242
G01 X-8.60083 Y-2.94856
G01 X-8.60115 Y-2.94437
G01 X-8.60178 Y-2.94046
G01 X-8.60252 Y-2.93754
G01 X-8.60302 Y-2.93739
G01 X-8.60252 Y-2.93754
G01 X-8.53835 Y-2.87337
G01 X-8.53847 Y-2.87307
G01 X-8.53835 Y-2.87337
G01 X-8.53150 Y-2.87337
G01 X-8.53054 Y-2.87233
G01 X-8.53150 Y-2.87337
G01 X-8.53140 Y-2.87682
G01 X-8.53064 Y-2.87916
G01 X-8.52919 Y-2.88116
G01 X-8.52720 Y-2.88261
G01 X-8.52485 Y-2.88337
G01 X-8.52139 Y-2.88346
G01 X-8.52034 Y-2.88247
G01 X-8.52139 Y-2.88346
G01 X-8.52131 Y-2.90863
G01 X-8.52071 Y-2.91225
G01 X-8.51971 Y-2.91531
G01 X-8.51834 Y-2.91816
G01 X-8.51628 Y-2.92119
G01 X-8.38669 Y-3.05098
G01 X-8.38639 Y-3.05086
G01 X-8.38669 Y-3.05098
G01 X-8.38669 Y-3.22662
G01 X-8.38554 Y-3.22778
G01 X-8.38669 Y-3.22662
G01 X-8.39977 Y-3.22662
G01 X-8.39988 Y-3.22690
G01 X-8.39977 Y-3.22662
G01 X-8.40167 Y-3.22461
G01 X-8.40481 Y-3.22188
G01 X-8.40790 Y-3.21977
G01 X-8.41082 Y-3.21818
G01 X-8.41532 Y-3.21635
G01 X-8.41852 Y-3.21545
G01 X-8.42266 Y-3.21477
G01 X-8.42627 Y-3.21457
G01 X-8.46991 Y-3.21457
G01 X-8.47329 Y-3.21476
G01 X-8.47740 Y-3.21542
G01 X-8.48100 Y-3.21642
G01 X-8.48448 Y-3.21780
G01 X-8.48781 Y-3.21955
G01 X-8.49148 Y-3.22208
G01 X-8.49419 Y-3.22440
G01 X-8.49648 Y-3.22683
G01 X-8.49903 Y-3.23014
G01 X-8.50127 Y-3.23396
G01 X-8.50264 Y-3.23699
G01 X-8.50371 Y-3.24014
G01 X-8.50468 Y-3.24446
G01 X-8.50508 Y-3.24862
G01 X-8.50506 Y-3.25194
G01 X-8.50472 Y-3.25525
G01 X-8.50387 Y-3.25934
G01 X-8.50257 Y-3.26320
G01 X-8.50022 Y-3.26796
G01 X-8.49729 Y-3.27221
G01 X-8.49395 Y-3.27582
G01 X-8.48993 Y-3.27908
G01 X-8.48548 Y-3.28172
G01 X-8.48068 Y-3.28368
G01 X-8.47568 Y-3.28492
G01 X-8.47070 Y-3.28541
G01 X-8.42638 Y-3.28543
G01 X-8.42210 Y-3.28517
G01 X-8.41879 Y-3.28460
G01 X-8.41440 Y-3.28334
G01 X-8.41132 Y-3.28207
G01 X-8.40802 Y-3.28031
G01 X-8.40493 Y-3.27820
G01 X-8.40238 Y-3.27606
G01 X-8.39977 Y-3.27338
G01 X-8.39987 Y-3.27310
G01 X-8.39976 Y-3.27337
G01 X-8.36741 Y-3.27337
G01 X-8.36376 Y-3.27302
G01 X-8.36018 Y-3.27209
G01 X-8.35637 Y-3.27037
G01 X-8.35303 Y-3.26810
G01 X-8.34537 Y-3.26047
G01 X-8.34318 Y-3.25736
G01 X-8.34157 Y-3.25407
G01 X-8.34061 Y-3.25096
G01 X-8.33997 Y-3.24631
G01 X-8.33994 Y-3.04130
G04 P0 ( dwell for no time -- G64 should not smooth over this point )
G00 Z0.08000 ( retract )

G00 X-8.05670 Y-3.30003 ( rapid move to begin. )
G01 F180.00000
( Mill infeed pass 1/1 )
G01 Z-0.04000
G04 P0 ( dwell for no time -- G64 should not smooth over this point )
G01 F360.00000
G01 X-8.05670 Y-3.30003
G01 X-8.05694 Y-3.29557
G01 X-8.05764 Y-3.29121
G01 X-8.05868 Y-3.28734
G01 X-8.06025 Y-3.28323
G01 X-8.06205 Y-3.27966
G01 X-8.06442 Y-3.27595
G01 X-8.06716 Y-3.27251
G01 X-8.06997 Y-3.26965
G01 X-8.07337 Y-3.26683
G01 X-8.07669 Y-3.26460
G01 X-8.08020 Y-3.26271
G01 X-8.08426 Y-3.26103
G01 X-8.08809 Y-3.25988
G01 X-8.09242 Y-3.25905
G01 X-8.09640 Y-3.25870
G01 X-8.10080 Y-3.25876
G01 X-8.10561 Y-3.25937
G01 X-8.10993 Y-3.26042
G01 X-8.11448 Y-3.26208
G01 X-8.11882 Y-3.26427
G01 X-8.12324 Y-3.26724
G01 X-8.12691 Y-3.27043
G01 X-8.13017 Y-3.27401
G01 X-8.13278 Y-3.27761
G01 X-8.13516 Y-3.28183
G01 X-8.13689 Y-3.28592
G01 X-8.13828 Y-3.29058
G01 X-8.13910 Y-3.29537
G01 X-8.13936 Y-3.29977
G01 X-8.13910 Y-3.30463
G01 X-8.13836 Y-3.30905
G01 X-8.40184 Y-3.30905
G01 X-8.40482 Y-3.30578
G01 X-8.40716 Y-3.30379
G01 X-8.40968 Y-3.30204
G01 X-8.41236 Y-3.30054
G01 X-8.41517 Y-3.29931
G01 X-8.41809 Y-3.29836
G01 X-8.42108 Y-3.29770
G01 X-8.42352 Y-3.29738
G01 X-8.42627 Y-3.29724
G01 X-8.47141 Y-3.29730
G01 X-8.47447 Y-3.29761
G01 X-8.47747 Y-3.29823
G01 X-8.48042 Y-3.29914
G01 X-8.48311 Y-3.30025
G01 X-8.48618 Y-3.30191
G01 X-8.48890 Y-3.30379
G01 X-8.49124 Y-3.30578
G01 X-8.49337 Y-3.30799
G01 X-8.49529 Y-3.31041
G01 X-8.49687 Y-3.31285
G01 X-8.49830 Y-3.31559
G01 X-8.49944 Y-3.31844
G01 X-8.50031 Y-3.32138
G01 X-8.50088 Y-3.32440
G01 X-8.50115 Y-3.32746
G01 X-8.50111 Y-3.33077
G01 X-8.50080 Y-3.33360
G01 X-8.50024 Y-3.33636
G01 X-8.49944 Y-3.33906
G01 X-8.49830 Y-3.34189
G01 X-8.49683 Y-3.34471
G01 X-8.49528 Y-3.34708
G01 X-8.49338 Y-3.34948
G01 X-8.49169 Y-3.35127
G01 X-8.48959 Y-3.35314
G01 X-8.48733 Y-3.35482
G01 X-8.48493 Y-3.35629
G01 X-8.48219 Y-3.35764
G01 X-8.47955 Y-3.35865
G01 X-8.47660 Y-3.35946
G01 X-8.47382 Y-3.35996
G01 X-8.47101 Y-3.36020
G01 X-8.42615 Y-3.36023
G01 X-8.42082 Y-3.35974
G01 X-8.41799 Y-3.35909
G01 X-8.41505 Y-3.35812
G01 X-8.41225 Y-3.35688
G01 X-8.40957 Y-3.35537
G01 X-8.40706 Y-3.35361
G01 X-8.40473 Y-3.35161
G01 X-8.40183 Y-3.34843
G01 X-8.12557 Y-3.34838
G01 X-8.12305 Y-3.34807
G01 X-8.12064 Y-3.34744
G01 X-8.11873 Y-3.34671
G01 X-8.11657 Y-3.34557
G01 X-8.11344 Y-3.34322
G01 X-8.10977 Y-3.33957
G01 X-8.10734 Y-3.34027
G01 X-8.10255 Y-3.34109
G01 X-8.09769 Y-3.34133
G01 X-8.09283 Y-3.34100
G01 X-8.08806 Y-3.34011
G01 X-8.08339 Y-3.33865
G01 X-8.07901 Y-3.33669
G01 X-8.07481 Y-3.33419
G01 X-8.07064 Y-3.33095
G01 X-8.06718 Y-3.32750
G01 X-8.06416 Y-3.32369
G01 X-8.06142 Y-3.31917
G01 X-8.05925 Y-3.31429
G01 X-8.05783 Y-3.30963
G01 X-8.05698 Y-3.30482
G01 X-8.05670 Y-3.30003
G01 X-8.05277 Y-3.30026
G01 X-8.05309 Y-3.30554
G01 X-8.05406 Y-3.31080
G01 X-8.05564 Y-3.31589
G01 X-8.05780 Y-3.32078
G01 X-8.06077 Y-3.32572
G01 X-8.06407 Y-3.32994
G01 X-8.06784 Y-3.33373
G01 X-8.07237 Y-3.33730
G01 X-8.07697 Y-3.34008
G01 X-8.08224 Y-3.34243
G01 X-8.08735 Y-3.34400
G01 X-8.09213 Y-3.34488
G01 X-8.09791 Y-3.34527
G01 X-8.10277 Y-3.34502
G01 X-8.10848 Y-3.34405
G01 X-8.10865 Y-3.34401
G01 X-8.10876 Y-3.34366
G01 X-8.10865 Y-3.34401
G01 X-8.11119 Y-3.34649
G01 X-8.11402 Y-3.34863
G01 X-8.11646 Y-3.34998
G01 X-8.11918 Y-3.35111
G01 X-8.12153 Y-3.35176
G01 X-8.12521 Y-3.35231
G01 X-8.39999 Y-3.35236
G01 X-8.40010 Y-3.35209
G01 X-8.39999 Y-3.35236
G01 X-8.40159 Y-3.35405
G01 X-8.40447 Y-3.35659
G01 X-8.40729 Y-3.35859
G01 X-8.40995 Y-3.36013
G01 X-8.41380 Y-3.36186
G01 X-8.41672 Y-3.36283
G01 X-8.42030 Y-3.36365
G01 X-8.42616 Y-3.36417
G01 X-8.47101 Y-3.36415
G01 X-8.47414 Y-3.36389
G01 X-8.47727 Y-3.36335
G01 X-8.48058 Y-3.36246
G01 X-8.48357 Y-3.36134
G01 X-8.48665 Y-3.35984
G01 X-8.48938 Y-3.35820
G01 X-8.49193 Y-3.35632
G01 X-8.49430 Y-3.35422
G01 X-8.49649 Y-3.35191
G01 X-8.49860 Y-3.34922
G01 X-8.50032 Y-3.34654
G01 X-8.50180 Y-3.34372
G01 X-8.50309 Y-3.34055
G01 X-8.50402 Y-3.33750
G01 X-8.50466 Y-3.33440
G01 X-8.50503 Y-3.33123
G01 X-8.50510 Y-3.32753
G01 X-8.50481 Y-3.32407
G01 X-8.50419 Y-3.32068
G01 X-8.50324 Y-3.31735
G01 X-8.50197 Y-3.31414
G01 X-8.50039 Y-3.31105
G01 X-8.49837 Y-3.30794
G01 X-8.49620 Y-3.30523
G01 X-8.49378 Y-3.30276
G01 X-8.49112 Y-3.30053
G01 X-8.48806 Y-3.29844
G01 X-8.48499 Y-3.29678
G01 X-8.48156 Y-3.29536
G01 X-8.47824 Y-3.29435
G01 X-8.47485 Y-3.29368
G01 X-8.47141 Y-3.29335
G01 X-8.42627 Y-3.29331
G01 X-8.42334 Y-3.29344
G01 X-8.42020 Y-3.29385
G01 X-8.41685 Y-3.29461
G01 X-8.41357 Y-3.29570
G01 X-8.41041 Y-3.29711
G01 X-8.40774 Y-3.29861
G01 X-8.40458 Y-3.30080
G01 X-8.40225 Y-3.30280
G01 X-8.39999 Y-3.30511
G01 X-8.40010 Y-3.30539
G01 X-8.39999 Y-3.30511
G01 X-8.14301 Y-3.30511
G01 X-8.14185 Y-3.30627
G01 X-8.14301 Y-3.30511
G01 X-8.14331 Y-3.29998
G01 X-8.14299 Y-3.29468
G01 X-8.14206 Y-3.28944
G01 X-8.14052 Y-3.28436
G01 X-8.13858 Y-3.27987
G01 X-8.13596 Y-3.27528
G01 X-8.13308 Y-3.27134
G01 X-8.12948 Y-3.26743
G01 X-8.12580 Y-3.26425
G01 X-8.12061 Y-3.26077
G01 X-8.11627 Y-3.25856
G01 X-8.11130 Y-3.25671
G01 X-8.10656 Y-3.25554
G01 X-8.10132 Y-3.25484
G01 X-8.09648 Y-3.25475
G01 X-8.09209 Y-3.25511
G01 X-8.08737 Y-3.25600
G01 X-8.08315 Y-3.25724
G01 X-8.07870 Y-3.25906
G01 X-8.07484 Y-3.26112
G01 X-8.07119 Y-3.26354
G01 X-8.06746 Y-3.26660
G01 X-8.06408 Y-3.27004
G01 X-8.06133 Y-3.27348
G01 X-8.05873 Y-3.27752
G01 X-8.05673 Y-3.28144
G01 X-8.05500 Y-3.28592
G01 X-8.05384 Y-3.29017
G01 X-8.05304 Y-3.29492
G01 X-8.05277 Y-3.30026
G04 P0 ( dwell for no time -- G64 should not smooth over this point )
G00 Z0.08000 ( retract )

G00 X-7.29489 Y-3.32797 ( rapid move to begin. )
G01 F180.00000
( Mill infeed pass 1/1 )
G01 Z-0.04000
G04 P0 ( dwell for no time -- G64 should not smooth over this point )
G01 F360.00000
G01 X-7.29489 Y-3.32797
G01 X-7.29512 Y-3.32491
G01 X-7.29564 Y-3.32188
G01 X-7.29645 Y-3.31892
G01 X-7.29755 Y-3.31606
G01 X-7.29893 Y-3.31331
G01 X-7.30056 Y-3.31071
G01 X-7.30286 Y-3.30780
G01 X-7.30502 Y-3.30560
G01 X-7.30725 Y-3.30372
G01 X-7.30979 Y-3.30197
G01 X-7.31248 Y-3.30048
G01 X-7.31552 Y-3.29918
G01 X-7.31846 Y-3.29826
G01 X-7.32147 Y-3.29763
G01 X-7.32452 Y-3.29730
G01 X-7.36991 Y-3.29725
G01 X-7.37522 Y-3.29774
G01 X-7.37822 Y-3.29842
G01 X-7.38114 Y-3.29941
G01 X-7.38380 Y-3.30059
G01 X-7.38649 Y-3.30211
G01 X-7.38900 Y-3.30387
G01 X-7.39133 Y-3.30587
G01 X-7.39423 Y-3.30905
G01 X-7.61581 Y-3.30905
G01 X-7.65717 Y-3.29396
G01 X-7.65807 Y-3.28945
G01 X-7.65911 Y-3.28607
G01 X-7.66063 Y-3.28241
G01 X-7.66228 Y-3.27925
G01 X-7.66438 Y-3.27600
G01 X-7.66657 Y-3.27319
G01 X-7.66902 Y-3.27055
G01 X-7.67199 Y-3.26790
G01 X-7.67485 Y-3.26578
G01 X-7.67786 Y-3.26392
G01 X-7.68133 Y-3.26219
G01 X-7.68462 Y-3.26090
G01 X-7.68801 Y-3.25990
G01 X-7.69150 Y-3.25918
G01 X-7.69548 Y-3.25874
G01 X-7.69948 Y-3.25869
G01 X-7.70347 Y-3.25902
G01 X-7.70777 Y-3.25983
G01 X-7.71161 Y-3.26096
G01 X-7.71570 Y-3.26263
G01 X-7.71923 Y-3.26452
G01 X-7.72289 Y-3.26697
G01 X-7.72627 Y-3.26982
G01 X-7.72933 Y-3.27301
G01 X-7.73180 Y-3.27616
G01 X-7.73394 Y-3.27952
G01 X-7.73591 Y-3.28345
G01 X-7.73733 Y-3.28719
G01 X-7.73847 Y-3.29144
G01 X-7.73919 Y-3.29621
G01 X-7.73937 Y-3.29981
G01 X-7.73924 Y-3.30324
G01 X-7.73888 Y-3.30632
G01 X-7.73829 Y-3.30936
G01 X-7.73757 Y-3.31206
G01 X-7.73645 Y-3.31526
G01 X-7.73520 Y-3.31810
G01 X-7.73374 Y-3.32083
G01 X-7.73208 Y-3.32344
G01 X-7.73041 Y-3.32569
G01 X-7.72820 Y-3.32826
G01 X-7.72600 Y-3.33044
G01 X-7.72364 Y-3.33245
G01 X-7.72114 Y-3.33427
G01 X-7.71876 Y-3.33576
G01 X-7.71576 Y-3.33734
G01 X-7.71280 Y-3.33860
G01 X-7.70783 Y-3.34015
G01 X-7.70468 Y-3.34080
G01 X-7.70160 Y-3.34118
G01 X-7.69851 Y-3.34133
G01 X-7.69500 Y-3.34122
G01 X-7.68931 Y-3.34040
G01 X-7.68430 Y-3.33898
G01 X-7.68104 Y-3.33768
G01 X-7.67852 Y-3.33644
G01 X-7.67585 Y-3.33488
G01 X-7.67330 Y-3.33312
G01 X-7.67073 Y-3.33092
G01 X-7.62604 Y-3.34723
G01 X-7.62392 Y-3.34787
G01 X-7.62106 Y-3.34834
G01 X-7.39423 Y-3.34843
G01 X-7.39124 Y-3.35170
G01 X-7.38890 Y-3.35369
G01 X-7.38638 Y-3.35544
G01 X-7.38370 Y-3.35694
G01 X-7.38089 Y-3.35817
G01 X-7.37797 Y-3.35912
G01 X-7.37500 Y-3.35978
G01 X-7.37245 Y-3.36011
G01 X-7.36979 Y-3.36023
G01 X-7.32526 Y-3.36021
G01 X-7.32247 Y-3.35999
G01 X-7.31969 Y-3.35952
G01 X-7.31697 Y-3.35880
G01 X-7.31410 Y-3.35774
G01 X-7.31155 Y-3.35652
G01 X-7.30913 Y-3.35509
G01 X-7.30684 Y-3.35344
G01 X-7.30454 Y-3.35143
G01 X-7.30244 Y-3.34920
G01 X-7.30070 Y-3.34697
G01 X-7.29917 Y-3.34460
G01 X-7.29772 Y-3.34179
G01 X-7.29666 Y-3.33918
G01 X-7.29594 Y-3.33682
G01 X-7.29530 Y-3.33384
G01 X-7.29497 Y-3.33102
G01 X-7.29489 Y-3.32797
G01 X-7.29096 Y-3.32804
G01 X-7.29123 Y-3.32422
G01 X-7.29184 Y-3.32082
G01 X-7.29278 Y-3.31749
G01 X-7.29388 Y-3.31462
G01 X-7.29560 Y-3.31119
G01 X-7.29724 Y-3.30859
G01 X-7.30003 Y-3.30506
G01 X-7.30219 Y-3.30285
G01 X-7.30503 Y-3.30046
G01 X-7.30790 Y-3.29851
G01 X-7.31094 Y-3.29684
G01 X-7.31436 Y-3.29541
G01 X-7.31768 Y-3.29439
G01 X-7.32107 Y-3.29371
G01 X-7.32452 Y-3.29336
G01 X-7.36990 Y-3.29331
G01 X-7.37558 Y-3.29380
G01 X-7.37908 Y-3.29457
G01 X-7.38200 Y-3.29552
G01 X-7.38611 Y-3.29736
G01 X-7.38877 Y-3.29889
G01 X-7.39159 Y-3.30089
G01 X-7.39447 Y-3.30343
G01 X-7.39607 Y-3.30511
G01 X-7.39596 Y-3.30539
G01 X-7.39607 Y-3.30511
G01 X-7.61512 Y-3.30518
G01 X-7.65368 Y-3.29104
G01 X-7.65404 Y-3.29137
G01 X-7.65368 Y-3.29104
G01 X-7.65440 Y-3.28794
G01 X-7.65547 Y-3.28455
G01 X-7.65730 Y-3.28024
G01 X-7.65896 Y-3.27712
G01 X-7.66106 Y-3.27386
G01 X-7.66345 Y-3.27078
G01 X-7.66668 Y-3.26734
G01 X-7.66965 Y-3.26472
G01 X-7.67279 Y-3.26241
G01 X-7.67610 Y-3.26039
G01 X-7.67956 Y-3.25866
G01 X-7.68317 Y-3.25723
G01 X-7.68688 Y-3.25612
G01 X-7.69069 Y-3.25532
G01 X-7.69503 Y-3.25482
G01 X-7.69983 Y-3.25476
G01 X-7.70419 Y-3.25515
G01 X-7.70850 Y-3.25595
G01 X-7.71312 Y-3.25731
G01 X-7.71758 Y-3.25916
G01 X-7.72145 Y-3.26125
G01 X-7.72544 Y-3.26396
G01 X-7.72882 Y-3.26682
G01 X-7.73246 Y-3.27059
G01 X-7.73514 Y-3.27406
G01 X-7.73747 Y-3.27777
G01 X-7.73944 Y-3.28171
G01 X-7.74115 Y-3.28619
G01 X-7.74228 Y-3.29045
G01 X-7.74312 Y-3.29602
G01 X-7.74331 Y-3.29996
G01 X-7.74320 Y-3.30309
G01 X-7.74284 Y-3.30647
G01 X-7.74223 Y-3.30980
G01 X-7.74137 Y-3.31308
G01 X-7.74027 Y-3.31629
G01 X-7.73893 Y-3.31941
G01 X-7.73736 Y-3.32241
G01 X-7.73558 Y-3.32530
G01 X-7.73358 Y-3.32803
G01 X-7.73138 Y-3.33062
G01 X-7.72899 Y-3.33303
G01 X-7.72643 Y-3.33525
G01 X-7.72371 Y-3.33728
G01 X-7.72034 Y-3.33939
G01 X-7.71733 Y-3.34095
G01 X-7.71437 Y-3.34222
G01 X-7.70900 Y-3.34391
G01 X-7.70544 Y-3.34466
G01 X-7.70208 Y-3.34509
G01 X-7.69869 Y-3.34527
G01 X-7.69446 Y-3.34512
G01 X-7.68859 Y-3.34428
G01 X-7.68283 Y-3.34265
G01 X-7.67984 Y-3.34145
G01 X-7.67678 Y-3.33997
G01 X-7.67335 Y-3.33795
G01 X-7.66990 Y-3.33541
G01 X-7.66996 Y-3.33494
G01 X-7.66990 Y-3.33541
G01 X-7.62739 Y-3.35093
G01 X-7.62434 Y-3.35182
G01 X-7.62086 Y-3.35231
G01 X-7.39607 Y-3.35236
G01 X-7.39596 Y-3.35209
G01 X-7.39607 Y-3.35236
G01 X-7.39381 Y-3.35468
G01 X-7.39148 Y-3.35668
G01 X-7.38832 Y-3.35887
G01 X-7.38565 Y-3.36037
G01 X-7.38249 Y-3.36178
G01 X-7.37921 Y-3.36287
G01 X-7.37588 Y-3.36363
G01 X-7.37298 Y-3.36402
G01 X-7.36979 Y-3.36417
G01 X-7.32459 Y-3.36412
G01 X-7.32178 Y-3.36387
G01 X-7.31866 Y-3.36332
G01 X-7.31559 Y-3.36249
G01 X-7.31238 Y-3.36129
G01 X-7.30952 Y-3.35991
G01 X-7.30680 Y-3.35828
G01 X-7.30423 Y-3.35640
G01 X-7.30139 Y-3.35385
G01 X-7.29931 Y-3.35161
G01 X-7.29717 Y-3.34879
G01 X-7.29550 Y-3.34611
G01 X-7.29421 Y-3.34360
G01 X-7.29314 Y-3.34100
G01 X-7.29208 Y-3.33763
G01 X-7.29138 Y-3.33428
G01 X-7.29102 Y-3.33110
G01 X-7.29096 Y-3.32804
( Piece #2, position [1;0] )

G04 P0 ( dwell for no time -- G64 should not smooth over this point )
G00 Z0.08000 ( retract )

G00 X-5.17680 Y-2.55036 ( rapid move to begin. )
G01 F180.00000
( Mill infeed pass 1/1 )
G01 Z-0.04000
G04 P0 ( dwell for no time -- G64 should not smooth over this point )
G01 F360.00000
G01 X-5.17680 Y-2.55036
G01 X-5.17699 Y-2.54566
G01 X-5.17767 Y-2.54095
G01 X-5.17869 Y-2.53674
G01 X-5.18010 Y-2.53263
G01 X-5.18207 Y-2.52830
G01 X-5.18424 Y-2.52454
G01 X-5.18675 Y-2.52100
G01 X-5.18987 Y-2.51738
G01 X-5.19334 Y-2.51410
G01 X-5.19678 Y-2.51142
G01 X-5.20080 Y-2.50887
G01 X-5.20469 Y-2.50691
G01 X-5.20913 Y-2.50518
G01 X-5.21333 Y-2.50400
G01 X-5.21801 Y-2.50316
G01 X-5.22229 Y-2.50281
G01 X-5.22601 Y-2.50282
G01 X-5.22952 Y-2.50310
G01 X-5.23300 Y-2.50364
G01 X-5.23631 Y-2.50441
G01 X-5.24009 Y-2.50560
G01 X-5.24346 Y-2.50697
G01 X-5.24879 Y-2.50981
G01 X-5.25458 Y-2.51401
G01 X-5.25769 Y-2.51689
G01 X-5.25996 Y-2.51937
G01 X-5.26206 Y-2.52204
G01 X-5.26488 Y-2.52637
G01 X-5.26467 Y-2.52679
G01 X-5.26488 Y-2.52637
G01 X-5.58315 Y-2.52637
G01 X-5.58338 Y-2.52682
G01 X-5.58315 Y-2.52637
G01 X-5.58527 Y-2.52302
G01 X-5.58793 Y-2.51954
G01 X-5.59117 Y-2.51608
G01 X-5.59445 Y-2.51318
G01 X-5.59797 Y-2.51061
G01 X-5.60207 Y-2.50819
G01 X-5.60602 Y-2.50634
G01 X-5.61050 Y-2.50475
G01 X-5.61473 Y-2.50370
G01 X-5.61944 Y-2.50300
G01 X-5.62341 Y-2.50279
G01 X-5.62811 Y-2.50295
G01 X-5.63283 Y-2.50360
G01 X-5.63649 Y-2.50447
G01 X-5.63664 Y-2.50495
G01 X-5.63649 Y-2.50447
G01 X-5.75462 Y-2.38637
G01 X-5.75799 Y-2.38377
G01 X-5.76162 Y-2.38188
G01 X-5.76620 Y-2.38053
G01 X-5.77052 Y-2.38012
G01 X-6.12751 Y-2.38012
G01 X-6.13131 Y-2.38043
G01 X-6.13438 Y-2.38116
G01 X-6.13776 Y-2.38249
G01 X-6.14092 Y-2.38435
G01 X-6.14375 Y-2.38669
G01 X-6.26154 Y-2.50447
G01 X-6.26139 Y-2.50495
G01 X-6.26154 Y-2.50447
G01 X-6.26520 Y-2.50360
G01 X-6.26992 Y-2.50295
G01 X-6.27462 Y-2.50279
G01 X-6.27859 Y-2.50300
G01 X-6.28330 Y-2.50370
G01 X-6.28753 Y-2.50475
G01 X-6.29201 Y-2.50634
G01 X-6.29596 Y-2.50819
G01 X-6.30006 Y-2.51061
G01 X-6.30358 Y-2.51318
G01 X-6.30686 Y-2.51608
G01 X-6.31010 Y-2.51954
G01 X-6.31276 Y-2.52302
G01 X-6.31488 Y-2.52637
G01 X-6.31465 Y-2.52682
G01 X-6.31488 Y-2.52637
G01 X-6.63315 Y-2.52637
G01 X-6.63336 Y-2.52679
G01 X-6.63315 Y-2.52637
G01 X-6.63597 Y-2.52204
G01 X-6.63807 Y-2.51937
G01 X-6.64034 Y-2.51689
G01 X-6.64345 Y-2.51401
G01 X-6.64924 Y-2.50981
G01 X-6.65457 Y-2.50697
G01 X-6.65794 Y-2.50560
G01 X-6.66172 Y-2.50441
G01 X-6.66503 Y-2.50364
G01 X-6.66851 Y-2.50310
G01 X-6.67202 Y-2.50282
G01 X-6.67574 Y-2.50281
G01 X-6.68002 Y-2.50316
G01 X-6.68470 Y-2.50400
G01 X-6.68890 Y-2.50518
G01 X-6.69334 Y-2.50691
G01 X-6.69723 Y-2.50887
G01 X-6.70125 Y-2.51142
G01 X-6.70469 Y-2.51410
G01 X-6.70816 Y-2.51738
G01 X-6.71128 Y-2.52100
G01 X-6.71379 Y-2.52454
G01 X-6.71596 Y-2.52830
G01 X-6.71793 Y-2.53263
G01 X-6.71934 Y-2.53674
G01 X-6.72036 Y-2.54095
G01 X-6.72104 Y-2.54566
G01 X-6.72124 Y-2.55000
G01 X-6.72104 Y-2.55434
G01 X-6.72036 Y-2.55905
G01 X-6.71934 Y-2.56326
G01 X-6.71793 Y-2.56737
G01 X-6.71596 Y-2.57170
G01 X-6.71379 Y-2.57546
G01 X-6.71130 Y-2.57898
G01 X-6.70849 Y-2.58227
G01 X-6.70540 Y-2.58529
G01 X-6.70203 Y-2.58802
G01 X-6.69806 Y-2.59064
G01 X-6.69421 Y-2.59269
G01 X-6.68981 Y-2.59450
G01 X-6.68566 Y-2.59577
G01 X-6.68143 Y-2.59664
G01 X-6.67715 Y-2.59712
G01 X-6.67362 Y-2.59722
G01 X-6.67022 Y-2.59707
G01 X-6.66645 Y-2.59661
G01 X-6.66311 Y-2.59594
G01 X-6.65945 Y-2.59492
G01 X-6.65626 Y-2.59375
G01 X-6.65226 Y-2.59191
G01 X-6.64934 Y-2.59026
G01 X-6.64651 Y-2.58838
G01 X-6.64372 Y-2.58623
G01 X-6.64068 Y-2.58345
G01 X-6.63836 Y-2.58096
G01 X-6.63599 Y-2.57799
G01 X-6.63316 Y-2.57362
G01 X-6.63342 Y-2.57315
G01 X-6.63316 Y-2.57362
G01 X-6.31490 Y-2.57362
G01 X-6.31469 Y-2.57321
G01 X-6.31490 Y-2.57362
G01 X-6.31480 Y-2.57381
G01 X-6.31158 Y-2.57860
G01 X-6.30818 Y-2.58261
G01 X-6.30396 Y-2.58650
G01 X-6.30006 Y-2.58939
G01 X-6.29509 Y-2.59226
G01 X-6.28981 Y-2.59450
G01 X-6.28472 Y-2.59599
G01 X-6.27952 Y-2.59690
G01 X-6.27426 Y-2.59722
G01 X-6.26896 Y-2.59695
G01 X-6.26378 Y-2.59609
G01 X-6.25822 Y-2.59450
G01 X-6.25338 Y-2.59246
G01 X-6.24834 Y-2.58963
G01 X-6.24802 Y-2.58941
G01 X-6.24802 Y-2.58894
G01 X-6.24802 Y-2.58941
G01 X-6.05079 Y-2.68803
G01 X-6.05020 Y-2.68766
G01 X-6.05079 Y-2.68803
G01 X-6.05078 Y-2.81341
G01 X-6.05062 Y-2.81464
G01 X-6.05011 Y-2.81620
G01 X-6.04928 Y-2.81763
G01 X-6.04818 Y-2.81885
G01 X-6.04685 Y-2.81982
G01 X-6.04574 Y-2.82035
G01 X-6.04415 Y-2.82078
G01 X-6.04292 Y-2.82087
G01 X-5.90512 Y-2.82087
G01 X-5.90388 Y-2.82078
G01 X-5.90229 Y-2.82035
G01 X-5.90083 Y-2.81960
G01 X-5.89955 Y-2.81857
G01 X-5.89851 Y-2.81729
G01 X-5.89776 Y-2.81582
G01 X-5.89734 Y-2.81423
G01 X-5.89724 Y-2.81300
G01 X-5.89724 Y-2.67520
G01 X-5.89741 Y-2.67356
G01 X-5.89830 Y-2.67126
G01 X-5.89900 Y-2.67024
G01 X-5.90016 Y-2.66908
G01 X-5.90229 Y-2.66785
G01 X-5.90470 Y-2.66734
G01 X-5.98654 Y-2.66732
G01 X-5.98656 Y-2.66743
G01 X-5.98654 Y-2.66732
G01 X-6.22689 Y-2.54715
G01 X-6.22728 Y-2.54744
G01 X-6.22689 Y-2.54715
G01 X-6.22741 Y-2.54235
G01 X-6.22848 Y-2.53752
G01 X-6.22894 Y-2.53737
G01 X-6.22848 Y-2.53752
G01 X-6.11783 Y-2.42687
G01 X-6.11796 Y-2.42657
G01 X-6.11783 Y-2.42687
G01 X-5.78020 Y-2.42687
G01 X-5.78007 Y-2.42657
G01 X-5.78020 Y-2.42687
G01 X-5.66955 Y-2.53751
G01 X-5.66910 Y-2.53737
G01 X-5.66960 Y-2.53765
G01 X-5.67061 Y-2.54239
G01 X-5.67120 Y-2.54808
G01 X-5.67112 Y-2.55338
G01 X-5.67026 Y-2.55950
G01 X-5.66906 Y-2.56418
G01 X-5.66701 Y-2.56952
G01 X-5.66456 Y-2.57419
G01 X-5.66188 Y-2.57822
G01 X-5.65878 Y-2.58194
G01 X-5.65433 Y-2.58619
G01 X-5.65048 Y-2.58911
G01 X-5.64594 Y-2.59182
G01 X-5.64069 Y-2.59417
G01 X-5.63568 Y-2.59576
G01 X-5.63054 Y-2.59677
G01 X-5.62665 Y-2.59715
G01 X-5.62281 Y-2.59721
G01 X-5.61898 Y-2.59695
G01 X-5.61550 Y-2.59644
G01 X-5.61145 Y-2.59552
G01 X-5.60809 Y-2.59445
G01 X-5.60395 Y-2.59274
G01 X-5.60082 Y-2.59113
G01 X-5.59755 Y-2.58911
G01 X-5.59446 Y-2.58684
G01 X-5.59157 Y-2.58431
G01 X-5.58889 Y-2.58156
G01 X-5.58644 Y-2.57861
G01 X-5.58424 Y-2.57546
G01 X-5.58316 Y-2.57362
G01 X-5.58342 Y-2.57315
G01 X-5.58316 Y-2.57362
G01 X-5.26487 Y-2.57362
G01 X-5.26465 Y-2.57319
G01 X-5.26487 Y-2.57362
G01 X-5.26204 Y-2.57799
G01 X-5.25967 Y-2.58096
G01 X-5.25692 Y-2.58387
G01 X-5.25431 Y-2.58623
G01 X-5.25127 Y-2.58857
G01 X-5.24804 Y-2.59065
G01 X-5.24494 Y-2.59233
G01 X-5.24184 Y-2.59372
G01 X-5.23869 Y-2.59488
G01 X-5.23503 Y-2.59591
G01 X-5.23170 Y-2.59659
G01 X-5.22729 Y-2.59710
G01 X-5.22377 Y-2.59722
G01 X-5.21992 Y-2.59705
G01 X-5.21566 Y-2.59648
G01 X-5.21145 Y-2.59552
G01 X-5.20734 Y-2.59418
G01 X-5.20335 Y-2.59246
G01 X-5.19918 Y-2.59017
G01 X-5.19560 Y-2.58772
G01 X-5.19227 Y-2.58496
G01 X-5.18921 Y-2.58192
G01 X-5.18644 Y-2.57861
G01 X-5.18397 Y-2.57504
G01 X-5.18166 Y-2.57088
G01 X-5.17992 Y-2.56690
G01 X-5.17856 Y-2.56280
G01 X-5.17758 Y-2.55859
G01 X-5.17699 Y-2.55431
G01 X-5.17680 Y-2.55036
G01 X-5.18073 Y-2.55018
G01 X-5.18093 Y-2.55413
G01 X-5.18149 Y-2.55805
G01 X-5.18230 Y-2.56156
G01 X-5.18353 Y-2.56532
G01 X-5.18510 Y-2.56896
G01 X-5.18722 Y-2.57279
G01 X-5.18947 Y-2.57607
G01 X-5.19199 Y-2.57912
G01 X-5.19479 Y-2.58193
G01 X-5.19783 Y-2.58446
G01 X-5.20109 Y-2.58671
G01 X-5.20526 Y-2.58901
G01 X-5.20890 Y-2.59056
G01 X-5.21267 Y-2.59177
G01 X-5.21653 Y-2.59263
G01 X-5.22010 Y-2.59310
G01 X-5.22363 Y-2.59328
G01 X-5.22715 Y-2.59317
G01 X-5.23065 Y-2.59277
G01 X-5.23369 Y-2.59219
G01 X-5.23707 Y-2.59127
G01 X-5.23999 Y-2.59023
G01 X-5.24281 Y-2.58899
G01 X-5.24590 Y-2.58734
G01 X-5.24886 Y-2.58544
G01 X-5.25166 Y-2.58331
G01 X-5.25427 Y-2.58095
G01 X-5.25641 Y-2.57871
G01 X-5.25862 Y-2.57599
G01 X-5.26040 Y-2.57345
G01 X-5.26255 Y-2.56969
G01 X-5.58548 Y-2.56969
G01 X-5.58765 Y-2.57347
G01 X-5.58967 Y-2.57634
G01 X-5.59193 Y-2.57905
G01 X-5.59439 Y-2.58156
G01 X-5.59705 Y-2.58386
G01 X-5.59989 Y-2.58594
G01 X-5.60289 Y-2.58778
G01 X-5.60603 Y-2.58937
G01 X-5.60929 Y-2.59070
G01 X-5.61265 Y-2.59176
G01 X-5.61608 Y-2.59255
G01 X-5.61924 Y-2.59302
G01 X-5.62275 Y-2.59327
G01 X-5.62627 Y-2.59322
G01 X-5.62978 Y-2.59290
G01 X-5.63492 Y-2.59188
G01 X-5.63949 Y-2.59042
G01 X-5.64392 Y-2.58843
G01 X-5.64845 Y-2.58573
G01 X-5.65228 Y-2.58277
G01 X-5.65576 Y-2.57942
G01 X-5.65885 Y-2.57569
G01 X-5.66150 Y-2.57164
G01 X-5.66350 Y-2.56772
G01 X-5.66523 Y-2.56321
G01 X-5.66645 Y-2.55852
G01 X-5.66717 Y-2.55332
G01 X-5.66725 Y-2.54802
G01 X-5.66676 Y-2.54321
G01 X-5.66585 Y-2.53890
G01 X-5.66506 Y-2.53645
G01 X-5.77857 Y-2.42294
G01 X-6.11946 Y-2.42294
G01 X-6.23296 Y-2.53644
G01 X-6.23229 Y-2.53848
G01 X-6.23134 Y-2.54277
G01 X-6.23080 Y-2.54758
G01 X-6.23078 Y-2.54961
G01 X-5.98747 Y-2.67126
G01 X-5.90512 Y-2.67126
G01 X-5.90390 Y-2.67145
G01 X-5.90280 Y-2.67201
G01 X-5.90193 Y-2.67288
G01 X-5.90126 Y-2.67438
G01 X-5.90118 Y-2.81300
G01 X-5.90137 Y-2.81422
G01 X-5.90219 Y-2.81563
G01 X-5.90351 Y-2.81660
G01 X-5.90512 Y-2.81694
G01 X-6.04292 Y-2.81694
G01 X-6.04452 Y-2.81660
G01 X-6.04584 Y-2.81563
G01 X-6.04651 Y-2.81460
G01 X-6.04685 Y-2.81300
G01 X-6.04685 Y-2.68559
G01 X-6.24841 Y-2.58481
G01 X-6.25068 Y-2.58645
G01 X-6.25492 Y-2.58884
G01 X-6.25976 Y-2.59087
G01 X-6.26443 Y-2.59221
G01 X-6.26962 Y-2.59306
G01 X-6.27446 Y-2.59328
G01 X-6.27928 Y-2.59296
G01 X-6.28404 Y-2.59210
G01 X-6.28870 Y-2.59071
G01 X-6.29354 Y-2.58862
G01 X-6.29770 Y-2.58622
G01 X-6.30161 Y-2.58334
G01 X-6.30516 Y-2.58006
G01 X-6.30857 Y-2.57606
G01 X-6.31128 Y-2.57202
G01 X-6.31249 Y-2.56969
G01 X-6.63548 Y-2.56969
G01 X-6.63763 Y-2.57345
G01 X-6.63941 Y-2.57599
G01 X-6.64162 Y-2.57871
G01 X-6.64376 Y-2.58095
G01 X-6.64637 Y-2.58331
G01 X-6.64891 Y-2.58526
G01 X-6.65173 Y-2.58711
G01 X-6.65445 Y-2.58861
G01 X-6.65763 Y-2.59006
G01 X-6.66054 Y-2.59113
G01 X-6.66391 Y-2.59209
G01 X-6.66695 Y-2.59270
G01 X-6.67042 Y-2.59314
G01 X-6.67351 Y-2.59328
G01 X-6.67705 Y-2.59318
G01 X-6.68099 Y-2.59272
G01 X-6.68451 Y-2.59199
G01 X-6.68830 Y-2.59086
G01 X-6.69236 Y-2.58920
G01 X-6.69621 Y-2.58716
G01 X-6.69985 Y-2.58473
G01 X-6.70291 Y-2.58222
G01 X-6.70574 Y-2.57945
G01 X-6.70807 Y-2.57671
G01 X-6.71057 Y-2.57318
G01 X-6.71254 Y-2.56973
G01 X-6.71420 Y-2.56609
G01 X-6.71551 Y-2.56233
G01 X-6.71653 Y-2.55811
G01 X-6.71713 Y-2.55377
G01 X-6.71730 Y-2.55018
G01 X-6.71713 Y-2.54622
G01 X-6.71653 Y-2.54189
G01 X-6.71551 Y-2.53767
G01 X-6.71420 Y-2.53391
G01 X-6.71237 Y-2.52994
G01 X-6.71037 Y-2.52651
G01 X-6.70806 Y-2.52328
G01 X-6.70517 Y-2.51996
G01 X-6.70198 Y-2.51696
G01 X-6.69883 Y-2.51453
G01 X-6.69545 Y-2.51240
G01 X-6.69190 Y-2.51059
G01 X-6.68747 Y-2.50886
G01 X-6.68364 Y-2.50780
G01 X-6.67970 Y-2.50709
G01 X-6.67541 Y-2.50674
G01 X-6.67232 Y-2.50675
G01 X-6.66881 Y-2.50703
G01 X-6.66565 Y-2.50753
G01 X-6.66263 Y-2.50824
G01 X-6.65969 Y-2.50915
G01 X-6.65644 Y-2.51045
G01 X-6.65111 Y-2.51328
G01 X-6.64579 Y-2.51718
G01 X-6.64344 Y-2.51936
G01 X-6.64133 Y-2.52162
G01 X-6.63939 Y-2.52402
G01 X-6.63741 Y-2.52690
G01 X-6.63548 Y-2.53031
G01 X-6.31252 Y-2.53031
G01 X-6.31174 Y-2.52877
G01 X-6.30963 Y-2.52540
G01 X-6.30696 Y-2.52193
G01 X-6.30424 Y-2.51902
G01 X-6.30126 Y-2.51636
G01 X-6.29805 Y-2.51400
G01 X-6.29429 Y-2.51176
G01 X-6.29069 Y-2.51006
G01 X-6.28657 Y-2.50858
G01 X-6.28272 Y-2.50760
G01 X-6.27839 Y-2.50694
G01 X-6.27442 Y-2.50672
G01 X-6.27008 Y-2.50690
G01 X-6.26612 Y-2.50744
G01 X-6.26224 Y-2.50835
G01 X-6.26045 Y-2.50894
G01 X-6.14097 Y-2.38947
G01 X-6.13877 Y-2.38767
G01 X-6.13616 Y-2.38610
G01 X-6.13278 Y-2.38480
G01 X-6.13025 Y-2.38426
G01 X-6.12751 Y-2.38406
G01 X-5.77052 Y-2.38406
G01 X-5.76695 Y-2.38439
G01 X-5.76310 Y-2.38553
G01 X-5.75993 Y-2.38720
G01 X-5.75706 Y-2.38947
G01 X-5.63758 Y-2.50894
G01 X-5.63579 Y-2.50835
G01 X-5.63191 Y-2.50744
G01 X-5.62795 Y-2.50690
G01 X-5.62361 Y-2.50672
G01 X-5.61964 Y-2.50694
G01 X-5.61531 Y-2.50760
G01 X-5.61146 Y-2.50858
G01 X-5.60734 Y-2.51006
G01 X-5.60374 Y-2.51176
G01 X-5.59998 Y-2.51400
G01 X-5.59677 Y-2.51636
G01 X-5.59379 Y-2.51902
G01 X-5.59107 Y-2.52193
G01 X-5.58840 Y-2.52540
G01 X-5.58629 Y-2.52877
G01 X-5.58551 Y-2.53031
G01 X-5.26255 Y-2.53031
G01 X-5.26062 Y-2.52690
G01 X-5.25864 Y-2.52402
G01 X-5.25670 Y-2.52162
G01 X-5.25459 Y-2.51936
G01 X-5.25224 Y-2.51718
G01 X-5.24692 Y-2.51328
G01 X-5.24159 Y-2.51045
G01 X-5.23834 Y-2.50915
G01 X-5.23540 Y-2.50824
G01 X-5.23238 Y-2.50753
G01 X-5.22891 Y-2.50699
G01 X-5.22541 Y-2.50674
G01 X-5.22230 Y-2.50675
G01 X-5.21833 Y-2.50709
G01 X-5.21402 Y-2.50788
G01 X-5.21020 Y-2.50898
G01 X-5.20613 Y-2.51059
G01 X-5.20258 Y-2.51240
G01 X-5.19889 Y-2.51475
G01 X-5.19576 Y-2.51721
G01 X-5.19258 Y-2.52025
G01 X-5.18973 Y-2.52358
G01 X-5.18746 Y-2.52682
G01 X-5.18549 Y-2.53027
G01 X-5.18369 Y-2.53427
G01 X-5.18242 Y-2.53802
G01 X-5.18150 Y-2.54189
G01 X-5.18090 Y-2.54622
G01 X-5.18073 Y-2.55018
G04 P0 ( dwell for no time -- G64 should not smooth over this point )
G00 Z0.08000 ( retract )

G00 X-5.17680 Y-2.95012 ( rapid move to begin. )
G01 F180.00000
( Mill infeed pass 1/1 )
G01 Z-0.04000
G04 P0 ( dwell for no time -- G64 should not smooth over this point )
G01 F360.00000
G01 X-5.17680 Y-2.95012
G01 X-5.17708 Y-2.95525
G01 X-5.17785 Y-2.95993
G01 X-5.17896 Y-2.96416
G01 X-5.18032 Y-2.96790
G01 X-5.18271 Y-2.97288
G01 X-5.18478 Y-2.97628
G01 X-5.18739 Y-2.97979
G01 X-5.19054 Y-2.98331
G01 X-5.19374 Y-2.98624
G01 X-5.19723 Y-2.98888
G01 X-5.20064 Y-2.99101
G01 X-5.20105 Y-2.99081
G01 X-5.20064 Y-2.99101
G01 X-5.20073 Y-3.18183
G01 X-5.20086 Y-3.18327
G01 X-5.20162 Y-3.18685
G01 X-5.20275 Y-3.18991
G01 X-5.20457 Y-3.19317
G01 X-5.20720 Y-3.19645
G01 X-5.27727 Y-3.26653
G01 X-5.28023 Y-3.26903
G01 X-5.28361 Y-3.27102
G01 X-5.28775 Y-3.27258
G01 X-5.29258 Y-3.27334
G01 X-5.32574 Y-3.27337
G01 X-5.32585 Y-3.27310
G01 X-5.32574 Y-3.27337
G01 X-5.32776 Y-3.27549
G01 X-5.33091 Y-3.27820
G01 X-5.33400 Y-3.28031
G01 X-5.33693 Y-3.28189
G01 X-5.34077 Y-3.28348
G01 X-5.34396 Y-3.28441
G01 X-5.34853 Y-3.28521
G01 X-5.35236 Y-3.28543
G01 X-5.39578 Y-3.28543
G01 X-5.39913 Y-3.28525
G01 X-5.40550 Y-3.28402
G01 X-5.41024 Y-3.28230
G01 X-5.41482 Y-3.27981
G01 X-5.41886 Y-3.27678
G01 X-5.42243 Y-3.27319
G01 X-5.42631 Y-3.26776
G01 X-5.42854 Y-3.26322
G01 X-5.43009 Y-3.25840
G01 X-5.43097 Y-3.25301
G01 X-5.43102 Y-3.24795
G01 X-5.43001 Y-3.24135
G01 X-5.42844 Y-3.23654
G01 X-5.42619 Y-3.23201
G01 X-5.42323 Y-3.22773
G01 X-5.41977 Y-3.22406
G01 X-5.41490 Y-3.22024
G01 X-5.41123 Y-3.21817
G01 X-5.40700 Y-3.21643
G01 X-5.40280 Y-3.21529
G01 X-5.39841 Y-3.21467
G01 X-5.34996 Y-3.21465
G01 X-5.34592 Y-3.21516
G01 X-5.34200 Y-3.21611
G01 X-5.33822 Y-3.21751
G01 X-5.33502 Y-3.21911
G01 X-5.33126 Y-3.22154
G01 X-5.32850 Y-3.22382
G01 X-5.32575 Y-3.22662
G01 X-5.32586 Y-3.22690
G01 X-5.32575 Y-3.22662
G01 X-5.30348 Y-3.22662
G01 X-5.30336 Y-3.22693
G01 X-5.30348 Y-3.22662
G01 X-5.24739 Y-3.17053
G01 X-5.24709 Y-3.17065
G01 X-5.24739 Y-3.17053
G01 X-5.24739 Y-2.99101
G01 X-5.24694 Y-2.99078
G01 X-5.24739 Y-2.99101
G01 X-5.25080 Y-2.98888
G01 X-5.25429 Y-2.98624
G01 X-5.25774 Y-2.98305
G01 X-5.26041 Y-2.98009
G01 X-5.26325 Y-2.97628
G01 X-5.26551 Y-2.97255
G01 X-5.26757 Y-2.96826
G01 X-5.26907 Y-2.96416
G01 X-5.27026 Y-2.95956
G01 X-5.27095 Y-2.95525
G01 X-5.27122 Y-2.95088
G01 X-5.27108 Y-2.94614
G01 X-5.27045 Y-2.94141
G01 X-5.26954 Y-2.93753
G01 X-5.26906 Y-2.93738
G01 X-5.26954 Y-2.93753
G01 X-5.33370 Y-2.87337
G01 X-5.33357 Y-2.87307
G01 X-5.33370 Y-2.87337
G01 X-5.34055 Y-2.87337
G01 X-5.34159 Y-2.87228
G01 X-5.34055 Y-2.87337
G01 X-5.34065 Y-2.87682
G01 X-5.34141 Y-2.87916
G01 X-5.34257 Y-2.88086
G01 X-5.34414 Y-2.88219
G01 X-5.34599 Y-2.88308
G01 X-5.34760 Y-2.88342
G01 X-5.40002 Y-2.88345
G01 X-5.40243 Y-2.88294
G01 X-5.40389 Y-2.88219
G01 X-5.40487 Y-2.88144
G01 X-5.40598 Y-2.88022
G01 X-5.40680 Y-2.87879
G01 X-5.40731 Y-2.87723
G01 X-5.40748 Y-2.87559
G01 X-5.40747 Y-2.82400
G01 X-5.40709 Y-2.82198
G01 X-5.40598 Y-2.81978
G01 X-5.40487 Y-2.81856
G01 X-5.40318 Y-2.81739
G01 X-5.40164 Y-2.81680
G01 X-5.40002 Y-2.81655
G01 X-5.34760 Y-2.81658
G01 X-5.34599 Y-2.81692
G01 X-5.34414 Y-2.81780
G01 X-5.34257 Y-2.81914
G01 X-5.34141 Y-2.82083
G01 X-5.34065 Y-2.82318
G01 X-5.34055 Y-2.82665
G01 X-5.34159 Y-2.82773
G01 X-5.34055 Y-2.82665
G01 X-5.32193 Y-2.82672
G01 X-5.31796 Y-2.82744
G01 X-5.31494 Y-2.82846
G01 X-5.31245 Y-2.82969
G01 X-5.30980 Y-2.83147
G01 X-5.30870 Y-2.83238
G01 X-5.23649 Y-2.90447
G01 X-5.23665 Y-2.90500
G01 X-5.23649 Y-2.90447
G01 X-5.23276 Y-2.90360
G01 X-5.22725 Y-2.90289
G01 X-5.22327 Y-2.90278
G01 X-5.21890 Y-2.90306
G01 X-5.21377 Y-2.90390
G01 X-5.20881 Y-2.90530
G01 X-5.20510 Y-2.90673
G01 X-5.20117 Y-2.90868
G01 X-5.19678 Y-2.91142
G01 X-5.19334 Y-2.91410
G01 X-5.18987 Y-2.91738
G01 X-5.18675 Y-2.92100
G01 X-5.18424 Y-2.92454
G01 X-5.18191 Y-2.92864
G01 X-5.18010 Y-2.93263
G01 X-5.17880 Y-2.93639
G01 X-5.17766 Y-2.94101
G01 X-5.17695 Y-2.94614
G01 X-5.17680 Y-2.95012
G01 X-5.18073 Y-2.95026
G01 X-5.18089 Y-2.94628
G01 X-5.18149 Y-2.94193
G01 X-5.18252 Y-2.93767
G01 X-5.18383 Y-2.93391
G01 X-5.18549 Y-2.93027
G01 X-5.18746 Y-2.92682
G01 X-5.18997 Y-2.92328
G01 X-5.19286 Y-2.91996
G01 X-5.19605 Y-2.91696
G01 X-5.19920 Y-2.91453
G01 X-5.20258 Y-2.91240
G01 X-5.20651 Y-2.91041
G01 X-5.21058 Y-2.90885
G01 X-5.21482 Y-2.90770
G01 X-5.21916 Y-2.90699
G01 X-5.22315 Y-2.90673
G01 X-5.22713 Y-2.90683
G01 X-5.23187 Y-2.90744
G01 X-5.23577 Y-2.90834
G01 X-5.23758 Y-2.90895
G01 X-5.31148 Y-2.83517
G01 X-5.31452 Y-2.83304
G01 X-5.31687 Y-2.83194
G01 X-5.31918 Y-2.83118
G01 X-5.32205 Y-2.83066
G01 X-5.34449 Y-2.83058
G01 X-5.34449 Y-2.82441
G01 X-5.34468 Y-2.82319
G01 X-5.34501 Y-2.82244
G01 X-5.34579 Y-2.82148
G01 X-5.34682 Y-2.82081
G01 X-5.34801 Y-2.82049
G01 X-5.39961 Y-2.82047
G01 X-5.40042 Y-2.82056
G01 X-5.40157 Y-2.82100
G01 X-5.40279 Y-2.82210
G01 X-5.40335 Y-2.82319
G01 X-5.40354 Y-2.82441
G01 X-5.40354 Y-2.87559
G01 X-5.40320 Y-2.87719
G01 X-5.40224 Y-2.87852
G01 X-5.40121 Y-2.87919
G01 X-5.39961 Y-2.87953
G01 X-5.34801 Y-2.87950
G01 X-5.34682 Y-2.87919
G01 X-5.34579 Y-2.87852
G01 X-5.34501 Y-2.87756
G01 X-5.34468 Y-2.87681
G01 X-5.34449 Y-2.87559
G01 X-5.34449 Y-2.86944
G01 X-5.33207 Y-2.86944
G01 X-5.26508 Y-2.93643
G01 X-5.26561 Y-2.93804
G01 X-5.26661 Y-2.94232
G01 X-5.26717 Y-2.94666
G01 X-5.26729 Y-2.95064
G01 X-5.26705 Y-2.95463
G01 X-5.26644 Y-2.95856
G01 X-5.26536 Y-2.96281
G01 X-5.26401 Y-2.96655
G01 X-5.26213 Y-2.97051
G01 X-5.26009 Y-2.97392
G01 X-5.25749 Y-2.97744
G01 X-5.25483 Y-2.98040
G01 X-5.25192 Y-2.98309
G01 X-5.24843 Y-2.98574
G01 X-5.24505 Y-2.98783
G01 X-5.24345 Y-2.98863
G01 X-5.24345 Y-3.17216
G01 X-5.30185 Y-3.23056
G01 X-5.32762 Y-3.23056
G01 X-5.32853 Y-3.22942
G01 X-5.33102 Y-3.22685
G01 X-5.33378 Y-3.22457
G01 X-5.33679 Y-3.22263
G01 X-5.34000 Y-3.22104
G01 X-5.34337 Y-3.21982
G01 X-5.34685 Y-3.21899
G01 X-5.34996 Y-3.21860
G01 X-5.39823 Y-3.21861
G01 X-5.40177 Y-3.21911
G01 X-5.40550 Y-3.22008
G01 X-5.40928 Y-3.22160
G01 X-5.41265 Y-3.22348
G01 X-5.41693 Y-3.22677
G01 X-5.42024 Y-3.23031
G01 X-5.42285 Y-3.23411
G01 X-5.42497 Y-3.23848
G01 X-5.42626 Y-3.24254
G01 X-5.42704 Y-3.24733
G01 X-5.42708 Y-3.25219
G01 X-5.42623 Y-3.25759
G01 X-5.42470 Y-3.26220
G01 X-5.42279 Y-3.26600
G01 X-5.41961 Y-3.27044
G01 X-5.41619 Y-3.27388
G01 X-5.41228 Y-3.27675
G01 X-5.40819 Y-3.27889
G01 X-5.40418 Y-3.28031
G01 X-5.39891 Y-3.28132
G01 X-5.39578 Y-3.28150
G01 X-5.35236 Y-3.28150
G01 X-5.34877 Y-3.28128
G01 X-5.34546 Y-3.28072
G01 X-5.34226 Y-3.27983
G01 X-5.33917 Y-3.27859
G01 X-5.33622 Y-3.27704
G01 X-5.33346 Y-3.27519
G01 X-5.33091 Y-3.27306
G01 X-5.32860 Y-3.27067
G01 X-5.32763 Y-3.26944
G01 X-5.29299 Y-3.26941
G01 X-5.28877 Y-3.26877
G01 X-5.28535 Y-3.26749
G01 X-5.28238 Y-3.26572
G01 X-5.28006 Y-3.26374
G01 X-5.20999 Y-3.19367
G01 X-5.20773 Y-3.19082
G01 X-5.20640 Y-3.18839
G01 X-5.20533 Y-3.18554
G01 X-5.20466 Y-3.18183
G01 X-5.20458 Y-2.98863
G01 X-5.20298 Y-2.98783
G01 X-5.19991 Y-2.98595
G01 X-5.19611 Y-2.98309
G01 X-5.19320 Y-2.98040
G01 X-5.19079 Y-2.97774
G01 X-5.18794 Y-2.97392
G01 X-5.18590 Y-2.97051
G01 X-5.18417 Y-2.96690
G01 X-5.18267 Y-2.96281
G01 X-5.18167 Y-2.95894
G01 X-5.18102 Y-2.95501
G01 X-5.18073 Y-2.95026
G04 P0 ( dwell for no time -- G64 should not smooth over this point )
G00 Z0.08000 ( retract )

G00 X-5.32090 Y-3.17001 ( rapid move to begin. )
G01 F180.00000
( Mill infeed pass 1/1 )
G01 Z-0.04000
G04 P0 ( dwell for no time -- G64 should not smooth over this point )
G01 F360.00000
G01 X-5.32090 Y-3.17001
G01 X-5.32124 Y-3.16645
G01 X-5.32199 Y-3.16294
G01 X-5.32330 Y-3.15914
G01 X-5.32486 Y-3.15591
G01 X-5.32678 Y-3.15289
G01 X-5.32874 Y-3.15044
G01 X-5.33125 Y-3.14789
G01 X-5.33441 Y-3.14539
G01 X-5.33748 Y-3.14351
G01 X-5.34052 Y-3.14208
G01 X-5.34436 Y-3.14080
G01 X-5.34787 Y-3.14009
G01 X-5.35135 Y-3.13978
G01 X-5.39589 Y-3.13976
G01 X-5.40122 Y-3.14026
G01 X-5.40406 Y-3.14091
G01 X-5.40699 Y-3.14187
G01 X-5.40980 Y-3.14312
G01 X-5.41247 Y-3.14463
G01 X-5.41499 Y-3.14639
G01 X-5.41732 Y-3.14839
G01 X-5.42021 Y-3.15157
G01 X-6.00866 Y-3.15157
G01 X-6.25433 Y-2.90591
G01 X-6.25443 Y-2.84805
G01 X-6.25480 Y-2.84573
G01 X-6.25536 Y-2.84373
G01 X-6.25714 Y-2.83987
G01 X-6.25957 Y-2.83663
G01 X-6.26255 Y-2.83400
G01 X-6.26504 Y-2.83249
G01 X-6.26784 Y-2.83132
G01 X-6.27079 Y-2.83059
G01 X-6.27361 Y-2.83032
G01 X-6.40363 Y-2.83031
G01 X-6.40469 Y-2.82916
G01 X-6.40746 Y-2.82671
G01 X-6.41009 Y-2.82488
G01 X-6.41296 Y-2.82332
G01 X-6.41680 Y-2.82181
G01 X-6.41997 Y-2.82102
G01 X-6.42361 Y-2.82054
G01 X-6.42694 Y-2.82051
G01 X-6.43092 Y-2.82097
G01 X-6.43596 Y-2.82237
G01 X-6.44015 Y-2.82432
G01 X-6.44349 Y-2.82653
G01 X-6.44735 Y-2.83006
G01 X-6.44985 Y-2.83319
G01 X-6.45218 Y-2.83718
G01 X-6.45401 Y-2.84199
G01 X-6.45471 Y-2.84512
G01 X-6.45504 Y-2.84790
G01 X-6.45510 Y-2.85071
G01 X-6.45479 Y-2.85436
G01 X-6.45414 Y-2.85753
G01 X-6.45314 Y-2.86061
G01 X-6.45181 Y-2.86356
G01 X-6.45017 Y-2.86635
G01 X-6.44851 Y-2.86861
G01 X-6.44633 Y-2.87101
G01 X-6.44424 Y-2.87288
G01 X-6.44165 Y-2.87477
G01 X-6.43884 Y-2.87638
G01 X-6.43588 Y-2.87767
G01 X-6.43279 Y-2.87863
G01 X-6.42961 Y-2.87925
G01 X-6.42589 Y-2.87952
G01 X-6.42177 Y-2.87927
G01 X-6.41811 Y-2.87855
G01 X-6.41420 Y-2.87723
G01 X-6.41086 Y-2.87558
G01 X-6.40743 Y-2.87328
G01 X-6.40501 Y-2.87117
G01 X-6.40365 Y-2.86969
G01 X-6.29370 Y-2.86969
G01 X-6.29370 Y-2.91154
G01 X-6.29663 Y-2.91310
G01 X-6.30130 Y-2.91640
G01 X-6.30548 Y-2.92028
G01 X-6.30887 Y-2.92434
G01 X-6.31194 Y-2.92914
G01 X-6.31420 Y-2.93391
G01 X-6.31586 Y-2.93894
G01 X-6.31695 Y-2.94449
G01 X-6.31728 Y-2.94890
G01 X-6.31717 Y-2.95330
G01 X-6.31661 Y-2.95768
G01 X-6.31561 Y-2.96196
G01 X-6.31418 Y-2.96612
G01 X-6.31214 Y-2.97049
G01 X-6.30985 Y-2.97427
G01 X-6.30721 Y-2.97778
G01 X-6.30361 Y-2.98158
G01 X-6.29988 Y-2.98470
G01 X-6.29548 Y-2.98758
G01 X-6.29075 Y-2.98991
G01 X-6.28617 Y-2.99154
G01 X-6.28104 Y-2.99270
G01 X-6.27531 Y-2.99326
G01 X-6.27006 Y-2.99310
G01 X-6.26526 Y-2.99238
G01 X-6.26016 Y-2.99100
G01 X-6.25527 Y-2.98901
G01 X-6.25068 Y-2.98645
G01 X-6.24675 Y-2.98361
G01 X-6.24286 Y-2.98004
G01 X-6.23963 Y-2.97629
G01 X-6.03074 Y-3.18518
G01 X-6.02864 Y-3.18700
G01 X-6.02688 Y-3.18817
G01 X-6.02459 Y-3.18934
G01 X-6.02216 Y-3.19020
G01 X-6.01959 Y-3.19074
G01 X-6.01682 Y-3.19095
G01 X-5.42021 Y-3.19095
G01 X-5.41722 Y-3.19422
G01 X-5.41489 Y-3.19621
G01 X-5.41237 Y-3.19796
G01 X-5.40969 Y-3.19946
G01 X-5.40687 Y-3.20069
G01 X-5.40432 Y-3.20154
G01 X-5.40133 Y-3.20224
G01 X-5.39600 Y-3.20275
G01 X-5.35214 Y-3.20275
G01 X-5.34726 Y-3.20234
G01 X-5.34202 Y-3.20100
G01 X-5.33782 Y-3.19920
G01 X-5.33376 Y-3.19666
G01 X-5.33006 Y-3.19349
G01 X-5.32641 Y-3.18909
G01 X-5.32410 Y-3.18516
G01 X-5.32233 Y-3.18071
G01 X-5.32135 Y-3.17670
G01 X-5.32096 Y-3.17359
G01 X-5.32090 Y-3.17001
G01 X-5.31696 Y-3.17005
G01 X-5.31697 Y-3.16960
G01 X-5.31738 Y-3.16560
G01 X-5.31814 Y-3.16209
G01 X-5.31975 Y-3.15744
G01 X-5.32130 Y-3.15421
G01 X-5.32344 Y-3.15080
G01 X-5.32595 Y-3.14764
G01 X-5.32847 Y-3.14510
G01 X-5.33233 Y-3.14204
G01 X-5.33539 Y-3.14015
G01 X-5.33927 Y-3.13833
G01 X-5.34355 Y-3.13695
G01 X-5.34705 Y-3.13623
G01 X-5.35098 Y-3.13585
G01 X-5.39589 Y-3.13583
G01 X-5.40175 Y-3.13635
G01 X-5.40532 Y-3.13717
G01 X-5.40825 Y-3.13814
G01 X-5.41210 Y-3.13987
G01 X-5.41476 Y-3.14141
G01 X-5.41758 Y-3.14341
G01 X-5.42045 Y-3.14595
G01 X-5.42205 Y-3.14763
G01 X-5.42194 Y-3.14791
G01 X-5.42205 Y-3.14763
G01 X-6.00703 Y-3.14763
G01 X-6.00716 Y-3.14793
G01 X-6.00703 Y-3.14763
G01 X-6.25040 Y-2.90427
G01 X-6.25069 Y-2.90440
G01 X-6.25040 Y-2.90427
G01 X-6.25052 Y-2.84750
G01 X-6.25101 Y-2.84462
G01 X-6.25170 Y-2.84224
G01 X-6.25376 Y-2.83784
G01 X-6.25668 Y-2.83395
G01 X-6.26038 Y-2.83071
G01 X-6.26312 Y-2.82904
G01 X-6.26645 Y-2.82762
G01 X-6.26998 Y-2.82672
G01 X-6.27320 Y-2.82639
G01 X-6.40190 Y-2.82638
G01 X-6.40197 Y-2.82659
G01 X-6.40190 Y-2.82638
G01 X-6.40521 Y-2.82347
G01 X-6.40823 Y-2.82139
G01 X-6.41195 Y-2.81946
G01 X-6.41537 Y-2.81813
G01 X-6.41898 Y-2.81719
G01 X-6.42307 Y-2.81663
G01 X-6.42738 Y-2.81660
G01 X-6.43218 Y-2.81719
G01 X-6.43643 Y-2.81836
G01 X-6.44124 Y-2.82044
G01 X-6.44600 Y-2.82348
G01 X-6.45017 Y-2.82729
G01 X-6.45362 Y-2.83175
G01 X-6.45580 Y-2.83560
G01 X-6.45754 Y-2.84010
G01 X-6.45861 Y-2.84463
G01 X-6.45895 Y-2.84741
G01 X-6.45904 Y-2.85105
G01 X-6.45865 Y-2.85513
G01 X-6.45801 Y-2.85830
G01 X-6.45690 Y-2.86180
G01 X-6.45542 Y-2.86516
G01 X-6.45381 Y-2.86796
G01 X-6.45113 Y-2.87161
G01 X-6.44895 Y-2.87396
G01 X-6.44655 Y-2.87609
G01 X-6.44359 Y-2.87821
G01 X-6.44078 Y-2.87981
G01 X-6.43661 Y-2.88159
G01 X-6.43354 Y-2.88251
G01 X-6.43036 Y-2.88312
G01 X-6.42604 Y-2.88346
G01 X-6.42174 Y-2.88324
G01 X-6.41755 Y-2.88248
G01 X-6.41346 Y-2.88117
G01 X-6.40929 Y-2.87922
G01 X-6.40568 Y-2.87688
G01 X-6.40206 Y-2.87380
G01 X-6.40190 Y-2.87362
G01 X-6.40197 Y-2.87342
G01 X-6.40190 Y-2.87362
G01 X-6.29764 Y-2.87362
G01 X-6.29649 Y-2.87247
G01 X-6.29764 Y-2.87362
G01 X-6.29764 Y-2.90915
G01 X-6.29719 Y-2.90939
G01 X-6.29764 Y-2.90915
G01 X-6.29830 Y-2.90950
G01 X-6.30370 Y-2.91327
G01 X-6.30815 Y-2.91737
G01 X-6.31218 Y-2.92220
G01 X-6.31526 Y-2.92700
G01 X-6.31776 Y-2.93221
G01 X-6.31960 Y-2.93768
G01 X-6.32082 Y-2.94372
G01 X-6.32122 Y-2.94858
G01 X-6.32108 Y-2.95382
G01 X-6.32045 Y-2.95859
G01 X-6.31934 Y-2.96326
G01 X-6.31775 Y-2.96781
G01 X-6.31551 Y-2.97255
G01 X-6.31299 Y-2.97666
G01 X-6.31006 Y-2.98051
G01 X-6.30613 Y-2.98463
G01 X-6.30203 Y-2.98802
G01 X-6.29721 Y-2.99113
G01 X-6.29247 Y-2.99345
G01 X-6.28703 Y-2.99539
G01 X-6.28190 Y-2.99655
G01 X-6.27521 Y-2.99720
G01 X-6.26996 Y-2.99705
G01 X-6.26469 Y-2.99629
G01 X-6.25915 Y-2.99482
G01 X-6.25380 Y-2.99268
G01 X-6.24878 Y-2.98991
G01 X-6.24445 Y-2.98682
G01 X-6.24055 Y-2.98330
G01 X-6.23941 Y-2.98207
G01 X-6.23939 Y-2.98054
G01 X-6.23941 Y-2.98207
G01 X-6.03352 Y-3.18796
G01 X-6.03124 Y-3.18997
G01 X-6.02912 Y-3.19143
G01 X-6.02643 Y-3.19284
G01 X-6.02353 Y-3.19391
G01 X-6.02028 Y-3.19463
G01 X-6.01682 Y-3.19488
G01 X-5.42206 Y-3.19488
G01 X-5.42195 Y-3.19461
G01 X-5.42206 Y-3.19488
G01 X-5.41979 Y-3.19720
G01 X-5.41746 Y-3.19920
G01 X-5.41431 Y-3.20139
G01 X-5.41163 Y-3.20289
G01 X-5.40848 Y-3.20430
G01 X-5.40520 Y-3.20539
G01 X-5.40170 Y-3.20617
G01 X-5.39600 Y-3.20669
G01 X-5.35214 Y-3.20669
G01 X-5.34682 Y-3.20625
G01 X-5.34126 Y-3.20491
G01 X-5.33582 Y-3.20259
G01 X-5.33099 Y-3.19952
G01 X-5.32687 Y-3.19587
G01 X-5.32324 Y-3.19145
G01 X-5.32047 Y-3.18670
G01 X-5.31843 Y-3.18147
G01 X-5.31744 Y-3.17719
G01 X-5.31701 Y-3.17363
G01 X-5.31696 Y-3.17005
G01 X-5.44295 Y-2.85140
G01 X-5.44298 Y-2.84810
G01 X-5.44353 Y-2.84401
G01 X-5.44435 Y-2.84091
G01 X-5.44571 Y-2.83747
G01 X-5.44772 Y-2.83387
G01 X-5.44995 Y-2.83088
G01 X-5.45284 Y-2.82793
G01 X-5.45578 Y-2.82563
G01 X-5.45895 Y-2.82374
G01 X-5.46234 Y-2.82226
G01 X-5.46589 Y-2.82122
G01 X-5.46997 Y-2.82058
G01 X-5.47422 Y-2.82053
G01 X-5.47831 Y-2.82107
G01 X-5.48188 Y-2.82203
G01 X-5.48533 Y-2.82344
G01 X-5.48848 Y-2.82522
G01 X-5.49222 Y-2.82808
G01 X-5.49510 Y-2.83108
G01 X-5.49724 Y-2.83398
G01 X-5.49947 Y-2.83813
G01 X-5.50071 Y-2.84152
G01 X-5.50163 Y-2.84558
G01 X-5.50196 Y-2.84972
G01 X-5.50185 Y-2.85192
G01 X-5.58049 Y-2.93056
G01 X-5.58537 Y-2.93056
G01 X-5.58766 Y-2.92652
G01 X-5.58973 Y-2.92358
G01 X-5.59222 Y-2.92063
G01 X-5.59473 Y-2.91813
G01 X-5.59748 Y-2.91580
G01 X-5.60072 Y-2.91352
G01 X-5.60377 Y-2.91174
G01 X-5.60854 Y-2.90958
G01 X-5.61358 Y-2.90800
G01 X-5.61877 Y-2.90704
G01 X-5.62355 Y-2.90672
G01 X-5.63010 Y-2.90714
G01 X-5.63324 Y-2.90771
G01 X-5.63625 Y-2.90848
G01 X-5.63956 Y-2.90960
G01 X-5.64241 Y-2.91082
G01 X-5.64766 Y-2.91376
G01 X-5.65063 Y-2.91587
G01 X-5.65300 Y-2.91786
G01 X-5.65718 Y-2.92219
G01 X-5.66079 Y-2.92718
G01 X-5.66268 Y-2.93056
G01 X-5.96176 Y-2.93056
G01 X-6.11716 Y-2.77516
G01 X-6.11928 Y-2.77334
G01 X-6.12146 Y-2.77193
G01 X-6.12418 Y-2.77068
G01 X-6.12657 Y-2.76997
G01 X-6.12862 Y-2.76961
G01 X-6.13090 Y-2.76947
G01 X-6.62508 Y-2.76953
G01 X-6.62821 Y-2.77000
G01 X-6.63116 Y-2.77096
G01 X-6.63429 Y-2.77261
G01 X-6.63716 Y-2.77488
G01 X-6.76261 Y-2.90033
G01 X-6.76488 Y-2.90306
G01 X-6.76662 Y-2.90617
G01 X-6.76766 Y-2.90919
G01 X-6.76828 Y-2.91326
G01 X-6.76830 Y-2.98633
G01 X-6.76809 Y-2.98871
G01 X-6.76743 Y-2.99164
G01 X-6.76626 Y-2.99457
G01 X-6.76487 Y-2.99696
G01 X-6.76261 Y-2.99967
G01 X-6.57669 Y-3.18556
G01 X-6.57410 Y-3.18757
G01 X-6.57068 Y-3.18932
G01 X-6.56777 Y-3.19022
G01 X-6.56475 Y-3.19065
G01 X-6.52041 Y-3.19069
G01 X-6.51721 Y-3.19423
G01 X-6.51467 Y-3.19637
G01 X-6.51191 Y-3.19824
G01 X-6.50898 Y-3.19980
G01 X-6.50589 Y-3.20104
G01 X-6.50270 Y-3.20196
G01 X-6.49939 Y-3.20253
G01 X-6.49578 Y-3.20275
G01 X-6.45102 Y-3.20272
G01 X-6.44630 Y-3.20216
G01 X-6.44185 Y-3.20094
G01 X-6.43742 Y-3.19898
G01 X-6.43353 Y-3.19649
G01 X-6.42988 Y-3.19331
G01 X-6.42676 Y-3.18959
G01 X-6.42435 Y-3.18565
G01 X-6.42229 Y-3.18060
G01 X-6.42121 Y-3.17587
G01 X-6.42088 Y-3.17104
G01 X-6.42125 Y-3.16643
G01 X-6.42236 Y-3.16170
G01 X-6.42392 Y-3.15775
G01 X-6.42634 Y-3.15354
G01 X-6.42921 Y-3.14992
G01 X-6.43276 Y-3.14662
G01 X-6.43636 Y-3.14414
G01 X-6.44047 Y-3.14210
G01 X-6.44485 Y-3.14068
G01 X-6.44915 Y-3.13994
G01 X-6.45236 Y-3.13976
G01 X-6.49701 Y-3.13980
G01 X-6.50078 Y-3.14019
G01 X-6.50429 Y-3.14097
G01 X-6.50768 Y-3.14215
G01 X-6.51090 Y-3.14370
G01 X-6.51393 Y-3.14561
G01 X-6.51673 Y-3.14785
G01 X-6.51925 Y-3.15039
G01 X-6.52039 Y-3.15182
G01 X-6.55548 Y-3.15182
G01 X-6.72943 Y-2.97788
G01 X-6.72943 Y-2.92212
G01 X-6.61565 Y-2.80835
G01 X-6.13895 Y-2.80835
G01 X-5.98356 Y-2.96374
G01 X-5.98185 Y-2.96526
G01 X-5.97988 Y-2.96663
G01 X-5.97633 Y-2.96831
G01 X-5.97288 Y-2.96919
G01 X-5.96982 Y-2.96944
G01 X-5.66259 Y-2.96944
G01 X-5.66102 Y-2.97245
G01 X-5.65746 Y-2.97747
G01 X-5.65322 Y-2.98194
G01 X-5.64840 Y-2.98576
G01 X-5.64308 Y-2.98885
G01 X-5.63737 Y-2.99116
G01 X-5.63140 Y-2.99264
G01 X-5.62541 Y-2.99326
G01 X-5.62232 Y-2.99325
G01 X-5.61881 Y-2.99297
G01 X-5.61565 Y-2.99247
G01 X-5.61263 Y-2.99176
G01 X-5.60969 Y-2.99084
G01 X-5.60644 Y-2.98955
G01 X-5.60111 Y-2.98672
G01 X-5.59810 Y-2.98467
G01 X-5.59568 Y-2.98272
G01 X-5.59343 Y-2.98063
G01 X-5.59106 Y-2.97806
G01 X-5.58913 Y-2.97563
G01 X-5.58718 Y-2.97272
G01 X-5.58535 Y-2.96944
G01 X-5.57244 Y-2.96944
G01 X-5.56965 Y-2.96923
G01 X-5.56766 Y-2.96883
G01 X-5.56524 Y-2.96805
G01 X-5.56295 Y-2.96695
G01 X-5.56082 Y-2.96557
G01 X-5.55870 Y-2.96374
G01 X-5.47438 Y-2.87942
G01 X-5.47000 Y-2.87942
G01 X-5.46637 Y-2.87889
G01 X-5.46321 Y-2.87804
G01 X-5.46020 Y-2.87687
G01 X-5.45733 Y-2.87536
G01 X-5.45431 Y-2.87329
G01 X-5.45184 Y-2.87115
G01 X-5.44993 Y-2.86910
G01 X-5.44775 Y-2.86619
G01 X-5.44613 Y-2.86339
G01 X-5.44498 Y-2.86083
G01 X-5.44407 Y-2.85817
G01 X-5.44335 Y-2.85505
G01 X-5.44295 Y-2.85140
G01 X-5.43901 Y-2.85140
G01 X-5.43903 Y-2.84810
G01 X-5.43953 Y-2.84403
G01 X-5.44086 Y-2.83897
G01 X-5.44235 Y-2.83536
G01 X-5.44467 Y-2.83133
G01 X-5.44726 Y-2.82796
G01 X-5.45084 Y-2.82446
G01 X-5.45420 Y-2.82196
G01 X-5.45740 Y-2.82010
G01 X-5.46080 Y-2.81864
G01 X-5.46515 Y-2.81734
G01 X-5.46940 Y-2.81669
G01 X-5.47470 Y-2.81663
G01 X-5.47897 Y-2.81718
G01 X-5.48288 Y-2.81820
G01 X-5.48664 Y-2.81970
G01 X-5.49041 Y-2.82179
G01 X-5.49503 Y-2.82533
G01 X-5.49804 Y-2.82845
G01 X-5.50041 Y-2.83165
G01 X-5.50303 Y-2.83643
G01 X-5.50463 Y-2.84086
G01 X-5.50554 Y-2.84511
G01 X-5.50590 Y-2.84981
G01 X-5.50589 Y-2.85040
G01 X-5.50565 Y-2.85051
G01 X-5.50589 Y-2.85040
G01 X-5.58212 Y-2.92663
G01 X-5.58200 Y-2.92693
G01 X-5.58212 Y-2.92663
G01 X-5.58302 Y-2.92663
G01 X-5.58327 Y-2.92709
G01 X-5.58302 Y-2.92663
G01 X-5.58425 Y-2.92453
G01 X-5.58652 Y-2.92130
G01 X-5.58921 Y-2.91808
G01 X-5.59169 Y-2.91558
G01 X-5.59522 Y-2.91257
G01 X-5.59903 Y-2.90993
G01 X-5.60214 Y-2.90815
G01 X-5.60648 Y-2.90616
G01 X-5.61191 Y-2.90436
G01 X-5.61803 Y-2.90316
G01 X-5.62364 Y-2.90278
G01 X-5.63036 Y-2.90320
G01 X-5.63394 Y-2.90384
G01 X-5.63724 Y-2.90467
G01 X-5.64084 Y-2.90588
G01 X-5.64397 Y-2.90720
G01 X-5.64960 Y-2.91032
G01 X-5.65293 Y-2.91267
G01 X-5.65555 Y-2.91485
G01 X-5.66027 Y-2.91975
G01 X-5.66422 Y-2.92524
G01 X-5.66502 Y-2.92663
G01 X-5.66479 Y-2.92707
G01 X-5.66502 Y-2.92663
G01 X-5.96013 Y-2.92663
G01 X-5.96026 Y-2.92693
G01 X-5.96013 Y-2.92663
G01 X-6.11438 Y-2.77238
G01 X-6.11681 Y-2.77026
G01 X-6.11943 Y-2.76855
G01 X-6.12230 Y-2.76718
G01 X-6.12540 Y-2.76619
G01 X-6.12790 Y-2.76573
G01 X-6.13090 Y-2.76553
G01 X-6.62564 Y-2.76564
G01 X-6.62933 Y-2.76622
G01 X-6.63290 Y-2.76742
G01 X-6.63663 Y-2.76944
G01 X-6.63994 Y-2.77210
G01 X-6.76539 Y-2.89754
G01 X-6.76813 Y-2.90083
G01 X-6.77022 Y-2.90456
G01 X-6.77139 Y-2.90792
G01 X-6.77173 Y-2.90932
G01 X-6.77221 Y-2.91288
G01 X-6.77223 Y-2.98633
G01 X-6.77202 Y-2.98907
G01 X-6.77117 Y-2.99292
G01 X-6.76986 Y-2.99621
G01 X-6.76797 Y-2.99939
G01 X-6.76539 Y-3.00246
G01 X-6.57947 Y-3.18835
G01 X-6.57641 Y-3.19077
G01 X-6.57190 Y-3.19307
G01 X-6.56879 Y-3.19403
G01 X-6.56517 Y-3.19457
