( pcb2gcode 3.0.2 )
( Software-independent Gcode )

G94 ( Inches per minute feed rate. )
G20 ( Units == INCHES. )

G90 ( Absolute coordinates. )
G00 S12000 ( RPM spindle speed. )
G64 P0.00040 ( set maximum deviation from commanded toolpath )
G01 F360.00000 ( Feedrate. )


G00 Z1.00000 (Retract to tool change height)
T1
M5      (Spindle stop.)
G04 P1.00000 (Wait for spindle to stop)
(MSG, Change tool bit to mill diameter 0.00000in)
M6      (Tool change.)
M0      (Temporary machine stop.)
M3 ( Spindle on clockwise. )
G04 P1.00000 (Wait for spindle to get up to speed)
G04 P0 ( dwell for no time -- G64 should not smooth over this point )
G00 Z0.08000 ( retract )

G00 X0.05000 Y-0.00490 ( rapid move to begin. )
G01 F180.00000
( Mill infeed pass 1/1 )
G01 Z-0.04000
G04 P0 ( dwell for no time -- G64 should not smooth over this point )
G01 F360.00000
G01 X0.05000 Y-0.00490
G01 X0.00492 Y-0.00492
G01 X0.00490 Y-0.05041
G01 X0.00477 Y-0.05121
G01 X0.00433 Y-0.05234
G01 X0.00333 Y-0.05362
G01 X0.00198 Y-0.05451
G01 X0.00081 Y-0.05485
G01 X-0.00000 Y-0.05492
G01 X-0.00081 Y-0.05485
G01 X-0.00198 Y-0.05451
G01 X-0.00333 Y-0.05362
G01 X-0.00433 Y-0.05234
G01 X-0.00477 Y-0.05121
G01 X-0.00490 Y-0.05041
G01 X-0.00492 Y-0.00492
G01 X-0.05041 Y-0.00490
G01 X-0.05121 Y-0.00477
G01 X-0.05234 Y-0.00433
G01 X-0.05302 Y-0.00388
G01 X-0.05388 Y-0.00302
G01 X-0.05433 Y-0.00234
G01 X-0.05477 Y-0.00121
G01 X-0.05490 Y0.00041
G01 X-0.05477 Y0.00121
G01 X-0.05433 Y0.00234
G01 X-0.05333 Y0.00362
G01 X-0.05198 Y0.00451
G01 X-0.05041 Y0.00490
G01 X-0.00492 Y0.00492
G01 X-0.00490 Y0.05000
G01 X0.00490 Y0.05000
G01 X0.00492 Y0.00492
G01 X0.05000 Y0.00490
G01 X0.05000 Y-0.00490
G01 X-0.16301 Y-0.59286
G01 X-0.16336 Y-0.58765
G01 X-0.16439 Y-0.58254
G01 X-0.16608 Y-0.57761
G01 X-0.16783 Y-0.57399
G01 X-0.17016 Y-0.57024
G01 X-0.17289 Y-0.56677
G01 X-0.17570 Y-0.56390
G01 X-0.17879 Y-0.56134
G01 X-0.18246 Y-0.55890
G01 X-0.18639 Y-0.55688
G01 X-0.19014 Y-0.55544
G01 X-0.19440 Y-0.55430
G01 X-0.19837 Y-0.55369
G01 X-0.20278 Y-0.55349
G01 X-0.20679 Y-0.55373
G01 X-0.21075 Y-0.55439
G01 X-0.21462 Y-0.55544
G01 X-0.21837 Y-0.55688
G01 X-0.22230 Y-0.55890
G01 X-0.22629 Y-0.56158
G01 X-0.22993 Y-0.56473
G01 X-0.35349 Y-0.68829
G01 X-0.35349 Y-0.42619
G01 X-0.35378 Y-0.42138
G01 X-0.35439 Y-0.41782
G01 X-0.35531 Y-0.41433
G01 X-0.35656 Y-0.41094
G01 X-0.35792 Y-0.40803
G01 X-0.35974 Y-0.40490
G01 X-0.36158 Y-0.40228
G01 X-0.36390 Y-0.39951
G01 X-0.36618 Y-0.39724
G01 X-0.36894 Y-0.39491
G01 X-0.37157 Y-0.39307
G01 X-0.37434 Y-0.39144
G01 X-0.37761 Y-0.38989
G01 X-0.38100 Y-0.38865
G01 X-0.38449 Y-0.38772
G01 X-0.38765 Y-0.38716
G01 X-0.39125 Y-0.38685
G01 X-0.39526 Y-0.38689
G01 X-0.39886 Y-0.38728
G01 X-0.40240 Y-0.38799
G01 X-0.40624 Y-0.38916
G01 X-0.40994 Y-0.39072
G01 X-0.41346 Y-0.39264
G01 X-0.41677 Y-0.39491
G01 X-0.41954 Y-0.39724
G01 X-0.42208 Y-0.39981
G01 X-0.42461 Y-0.40292
G01 X-0.42682 Y-0.40627
G01 X-0.42867 Y-0.40984
G01 X-0.43015 Y-0.41357
G01 X-0.43115 Y-0.41704
G01 X-0.43188 Y-0.42098
G01 X-0.43219 Y-0.42458
G01 X-0.43221 Y-0.92739
G01 X-0.43183 Y-0.93179
G01 X-0.43095 Y-0.93612
G01 X-0.42960 Y-0.94032
G01 X-0.42760 Y-0.94470
G01 X-0.42531 Y-0.94848
G01 X-0.42261 Y-0.95197
G01 X-0.41924 Y-0.95541
G01 X-0.41580 Y-0.95818
G01 X-0.41208 Y-0.96055
G01 X-0.40811 Y-0.96249
G01 X-0.40395 Y-0.96396
G01 X-0.39925 Y-0.96504
G01 X-0.39486 Y-0.96551
G01 X-0.39045 Y-0.96549
G01 X-0.38606 Y-0.96497
G01 X-0.38177 Y-0.96396
G01 X-0.37761 Y-0.96249
G01 X-0.37364 Y-0.96055
G01 X-0.36991 Y-0.95818
G01 X-0.36647 Y-0.95541
G01 X-0.36337 Y-0.95227
G01 X-0.36063 Y-0.94881
G01 X-0.35830 Y-0.94506
G01 X-0.35641 Y-0.94107
G01 X-0.35520 Y-0.93767
G01 X-0.35430 Y-0.93417
G01 X-0.35373 Y-0.93060
G01 X-0.35350 Y-0.92699
G01 X-0.35349 Y-0.79964
G01 X-0.34950 Y-0.79565
G01 X-0.23363 Y-0.95013
G01 X-0.23158 Y-0.95260
G01 X-0.22962 Y-0.95461
G01 X-0.22752 Y-0.95649
G01 X-0.22530 Y-0.95820
G01 X-0.22086 Y-0.96095
G01 X-0.21610 Y-0.96309
G01 X-0.21110 Y-0.96458
G01 X-0.20834 Y-0.96510
G01 X-0.20555 Y-0.96543
G01 X-0.20034 Y-0.96551
G01 X-0.19516 Y-0.96489
G01 X-0.19010 Y-0.96360
G01 X-0.18527 Y-0.96164
G01 X-0.18278 Y-0.96033
G01 X-0.18039 Y-0.95885
G01 X-0.17627 Y-0.95566
G01 X-0.17260 Y-0.95194
G01 X-0.16946 Y-0.94778
G01 X-0.16689 Y-0.94324
G01 X-0.16495 Y-0.93840
G01 X-0.16367 Y-0.93334
G01 X-0.16325 Y-0.93056
G01 X-0.16304 Y-0.92776
G01 X-0.16304 Y-0.92455
G01 X-0.16331 Y-0.92135
G01 X-0.16383 Y-0.91818
G01 X-0.16461 Y-0.91506
G01 X-0.16565 Y-0.91202
G01 X-0.16692 Y-0.90907
G01 X-0.16823 Y-0.90659
G01 X-0.16995 Y-0.90387
G01 X-0.29325 Y-0.73941
G01 X-0.17454 Y-0.62069
G01 X-0.17135 Y-0.61709
G01 X-0.16842 Y-0.61277
G01 X-0.16608 Y-0.60811
G01 X-0.16439 Y-0.60318
G01 X-0.16336 Y-0.59806
G01 X-0.16301 Y-0.59286
G04 P0 ( dwell for no time -- G64 should not smooth over this point )
G00 Z0.08000 ( retract )

G00 X-0.56781 Y-0.61484 ( rapid move to begin. )
G01 F180.00000
( Mill infeed pass 1/1 )
G01 Z-0.04000
G04 P0 ( dwell for no time -- G64 should not smooth over this point )
G01 F360.00000
G01 X-0.56781 Y-0.61484
G01 X-0.56792 Y-0.62006
G01 X-0.56863 Y-0.62482
G01 X-0.57004 Y-0.62984
G01 X-0.57193 Y-0.63427
G01 X-0.57456 Y-0.63877
G01 X-0.57751 Y-0.64258
G01 X-0.58089 Y-0.64601
G01 X-0.58500 Y-0.64922
G01 X-0.58915 Y-0.65168
G01 X-0.59393 Y-0.65375
G01 X-0.59700 Y-0.65471
G01 X-0.59974 Y-0.65533
G01 X-0.60291 Y-0.65581
G01 X-0.60612 Y-0.65602
G01 X-0.60933 Y-0.65597
G01 X-0.61253 Y-0.65567
G01 X-0.61569 Y-0.65510
G01 X-0.61879 Y-0.65427
G01 X-0.62145 Y-0.65334
G01 X-0.62439 Y-0.65206
G01 X-0.66405 Y-0.63223
G01 X-0.74071 Y-0.63223
G01 X-0.77430 Y-0.64902
G01 X-0.78907 Y-0.66380
G01 X-0.80587 Y-0.69739
G01 X-0.80587 Y-0.82166
G01 X-0.78907 Y-0.85525
G01 X-0.77430 Y-0.87002
G01 X-0.74070 Y-0.88682
G01 X-0.66405 Y-0.88682
G01 X-0.62439 Y-0.86699
G01 X-0.62107 Y-0.86556
G01 X-0.61764 Y-0.86443
G01 X-0.61451 Y-0.86370
G01 X-0.61093 Y-0.86319
G01 X-0.60773 Y-0.86301
G01 X-0.60411 Y-0.86313
G01 X-0.60093 Y-0.86350
G01 X-0.59739 Y-0.86424
G01 X-0.59393 Y-0.86529
G01 X-0.59095 Y-0.86649
G01 X-0.58738 Y-0.86833
G01 X-0.58369 Y-0.87075
G01 X-0.58030 Y-0.87358
G01 X-0.57725 Y-0.87676
G01 X-0.57479 Y-0.87994
G01 X-0.57248 Y-0.88370
G01 X-0.57061 Y-0.88770
G01 X-0.56920 Y-0.89188
G01 X-0.56826 Y-0.89620
G01 X-0.56783 Y-0.90019
G01 X-0.56783 Y-0.90460
G01 X-0.56833 Y-0.90899
G01 X-0.56932 Y-0.91329
G01 X-0.57062 Y-0.91709
G01 X-0.57250 Y-0.92109
G01 X-0.57481 Y-0.92485
G01 X-0.57753 Y-0.92833
G01 X-0.58092 Y-0.93175
G01 X-0.58470 Y-0.93473
G01 X-0.58882 Y-0.93723
G01 X-0.63899 Y-0.96226
G01 X-0.64240 Y-0.96357
G01 X-0.64591 Y-0.96455
G01 X-0.64950 Y-0.96521
G01 X-0.65314 Y-0.96553
G01 X-0.75040 Y-0.96556
G01 X-0.75405 Y-0.96535
G01 X-0.75726 Y-0.96488
G01 X-0.76236 Y-0.96357
G01 X-0.76688 Y-0.96176
G01 X-0.81558 Y-0.93741
G01 X-0.81999 Y-0.93477
G01 X-0.82252 Y-0.93287
G01 X-0.82489 Y-0.93077
G01 X-0.84927 Y-0.90641
G01 X-0.85217 Y-0.90317
G01 X-0.85448 Y-0.89996
G01 X-0.85664 Y-0.89618
G01 X-0.88098 Y-0.84746
G01 X-0.88222 Y-0.84446
G01 X-0.88320 Y-0.84137
G01 X-0.88393 Y-0.83821
G01 X-0.88440 Y-0.83500
G01 X-0.88461 Y-0.83095
G01 X-0.88461 Y-0.68810
G01 X-0.88450 Y-0.68526
G01 X-0.88420 Y-0.68244
G01 X-0.88369 Y-0.67964
G01 X-0.88286 Y-0.67651
G01 X-0.88193 Y-0.67382
G01 X-0.88081 Y-0.67122
G01 X-0.85646 Y-0.62252
G01 X-0.85382 Y-0.61810
G01 X-0.85192 Y-0.61557
G01 X-0.84982 Y-0.61320
G01 X-0.82546 Y-0.58883
G01 X-0.82252 Y-0.58617
G01 X-0.81900 Y-0.58361
G01 X-0.81522 Y-0.58145
G01 X-0.76651 Y-0.55712
G01 X-0.76351 Y-0.55588
G01 X-0.76042 Y-0.55489
G01 X-0.75726 Y-0.55416
G01 X-0.75405 Y-0.55370
G01 X-0.75000 Y-0.55349
G01 X-0.65476 Y-0.55349
G01 X-0.65071 Y-0.55370
G01 X-0.64710 Y-0.55424
G01 X-0.64240 Y-0.55548
G01 X-0.63788 Y-0.55729
G01 X-0.58918 Y-0.58163
G01 X-0.58672 Y-0.58300
G01 X-0.58437 Y-0.58455
G01 X-0.58183 Y-0.58651
G01 X-0.57974 Y-0.58839
G01 X-0.57650 Y-0.59195
G01 X-0.57350 Y-0.59622
G01 X-0.57125 Y-0.60048
G01 X-0.56955 Y-0.60498
G01 X-0.56833 Y-0.61005
G01 X-0.56781 Y-0.61484
G04 P0 ( dwell for no time -- G64 should not smooth over this point )
G00 Z0.08000 ( retract )

G00 X-1.09889 Y-0.87805 ( rapid move to begin. )
G01 F180.00000
( Mill infeed pass 1/1 )
G01 Z-0.04000
G04 P0 ( dwell for no time -- G64 should not smooth over this point )
G01 F360.00000
G01 X-1.09889 Y-0.87805
G01 X-1.09889 Y-0.77421
G01 X-1.10269 Y-0.77483
G01 X-1.10674 Y-0.77508
G01 X-1.21690 Y-0.77508
G01 X-1.24446 Y-0.78887
G01 X-1.25825 Y-0.81644
G01 X-1.25825 Y-0.84547
G01 X-1.24446 Y-0.87304
G01 X-1.21690 Y-0.88682
G01 X-1.11644 Y-0.88682
G01 X-1.09889 Y-0.87805
G04 P0 ( dwell for no time -- G64 should not smooth over this point )
G00 Z0.08000 ( retract )

G00 X-1.44872 Y-0.83095 ( rapid move to begin. )
G01 F180.00000
( Mill infeed pass 1/1 )
G01 Z-0.04000
G04 P0 ( dwell for no time -- G64 should not smooth over this point )
G01 F360.00000
G01 X-1.44872 Y-0.83095
G01 X-1.44873 Y-0.75871
G01 X-1.44893 Y-0.75547
G01 X-1.44933 Y-0.75266
G01 X-1.45002 Y-0.74949
G01 X-1.45084 Y-0.74678
G01 X-1.45270 Y-0.74228
G01 X-1.47669 Y-0.69430
G01 X-1.47822 Y-0.69152
G01 X-1.47974 Y-0.68921
G01 X-1.48166 Y-0.68669
G01 X-1.48379 Y-0.68434
G01 X-1.50846 Y-0.65969
G01 X-1.51249 Y-0.65630
G01 X-1.51689 Y-0.65352
G01 X-1.50625 Y-0.64277
G01 X-1.50378 Y-0.63968
G01 X-1.50162 Y-0.63636
G01 X-1.47651 Y-0.58629
G01 X-1.47521 Y-0.58332
G01 X-1.47416 Y-0.58025
G01 X-1.47300 Y-0.57511
G01 X-1.47255 Y-0.57026
G01 X-1.47253 Y-0.52143
G01 X-1.47264 Y-0.51859
G01 X-1.47294 Y-0.51577
G01 X-1.47345 Y-0.51297
G01 X-1.47428 Y-0.50984
G01 X-1.47536 Y-0.50678
G01 X-1.47651 Y-0.50418
G01 X-1.50086 Y-0.45550
G01 X-1.50245 Y-0.45276
G01 X-1.50401 Y-0.45047
G01 X-1.50760 Y-0.44625
G01 X-1.53225 Y-0.42161
G01 X-1.53493 Y-0.41926
G01 X-1.53781 Y-0.41716
G01 X-1.54191 Y-0.41479
G01 X-1.58953 Y-0.39098
G01 X-1.59363 Y-0.38921
G01 X-1.59672 Y-0.38822
G01 X-1.59988 Y-0.38749
G01 X-1.60309 Y-0.38703
G01 X-1.60674 Y-0.38682
G01 X-1.77381 Y-0.38682
G01 X-1.77822 Y-0.38707
G01 X-1.78100 Y-0.38748
G01 X-1.78643 Y-0.38890
G01 X-1.79161 Y-0.39107
G01 X-1.79407 Y-0.39243
G01 X-1.79835 Y-0.39541
G01 X-1.80221 Y-0.39892
G01 X-1.80408 Y-0.40102
G01 X-1.80580 Y-0.40324
G01 X-1.80855 Y-0.40768
G01 X-1.80979 Y-0.41020
G01 X-1.81083 Y-0.41281
G01 X-1.81191 Y-0.41626
G01 X-1.81259 Y-0.41940
G01 X-1.81305 Y-0.42298
G01 X-1.81318 Y-0.42619
G01 X-1.81317 Y-0.92699
G01 X-1.81288 Y-0.93100
G01 X-1.81228 Y-0.93456
G01 X-1.81123 Y-0.93843
G01 X-1.80979 Y-0.94218
G01 X-1.80817 Y-0.94541
G01 X-1.80603 Y-0.94881
G01 X-1.80356 Y-0.95197
G01 X-1.80078 Y-0.95487
G01 X-1.79835 Y-0.95697
G01 X-1.79543 Y-0.95909
G01 X-1.79232 Y-0.96093
G01 X-1.78906 Y-0.96249
G01 X-1.78567 Y-0.96373
G01 X-1.78218 Y-0.96466
G01 X-1.77901 Y-0.96521
G01 X-1.77541 Y-0.96553
G01 X-1.58293 Y-0.96556
G01 X-1.58009 Y-0.96543
G01 X-1.57727 Y-0.96509
G01 X-1.57448 Y-0.96455
G01 X-1.57136 Y-0.96369
G01 X-1.56868 Y-0.96273
G01 X-1.56609 Y-0.96158
G01 X-1.51740 Y-0.93723
G01 X-1.51466 Y-0.93565
G01 X-1.51237 Y-0.93409
G01 X-1.50990 Y-0.93211
G01 X-1.50788 Y-0.93022
G01 X-1.48351 Y-0.90584
G01 X-1.48116 Y-0.90317
G01 X-1.47907 Y-0.90029
G01 X-1.47669 Y-0.89618
G01 X-1.45288 Y-0.84856
G01 X-1.45111 Y-0.84446
G01 X-1.45002 Y-0.84098
G01 X-1.44933 Y-0.83781
G01 X-1.44889 Y-0.83460
G01 X-1.44872 Y-0.83095
G04 P0 ( dwell for no time -- G64 should not smooth over this point )
G00 Z0.08000 ( retract )

G00 X-1.52747 Y-0.82166 ( rapid move to begin. )
G01 F180.00000
( Mill infeed pass 1/1 )
G01 Z-0.04000
G04 P0 ( dwell for no time -- G64 should not smooth over this point )
G01 F360.00000
G01 X-1.52747 Y-0.82166
G01 X-1.54426 Y-0.85525
G01 X-1.55903 Y-0.87002
G01 X-1.59263 Y-0.88682
G01 X-1.73444 Y-0.88682
G01 X-1.73444 Y-0.70366
G01 X-1.61353 Y-0.70366
G01 X-1.55698 Y-0.72250
G01 X-1.54426 Y-0.73523
G01 X-1.52747 Y-0.76882
G01 X-1.52747 Y-0.82166
G01 X-1.63820 Y-0.80060
G01 X-1.63857 Y-0.80298
G01 X-1.63941 Y-0.80523
G01 X-1.64068 Y-0.80726
G01 X-1.64235 Y-0.80900
G01 X-1.64433 Y-0.81036
G01 X-1.64616 Y-0.81117
G01 X-1.64850 Y-0.81171
G01 X-1.65090 Y-0.81178
G01 X-1.65327 Y-0.81135
G01 X-1.65514 Y-0.81063
G01 X-1.65718 Y-0.80937
G01 X-1.65893 Y-0.80773
G01 X-1.66011 Y-0.80611
G01 X-1.66114 Y-0.80393
G01 X-1.66170 Y-0.80160
G01 X-1.66180 Y-0.79960
G01 X-1.66148 Y-0.79722
G01 X-1.66068 Y-0.79495
G01 X-1.65944 Y-0.79290
G01 X-1.65780 Y-0.79113
G01 X-1.65585 Y-0.78974
G01 X-1.65403 Y-0.78890
G01 X-1.65170 Y-0.78831
G01 X-1.64930 Y-0.78821
G01 X-1.64732 Y-0.78850
G01 X-1.64504 Y-0.78928
G01 X-1.64298 Y-0.79050
G01 X-1.64120 Y-0.79212
G01 X-1.63979 Y-0.79407
G01 X-1.63893 Y-0.79588
G01 X-1.63833 Y-0.79820
G01 X-1.63820 Y-0.80060
G04 P0 ( dwell for no time -- G64 should not smooth over this point )
G00 Z0.08000 ( retract )

G00 X-1.91660 Y-0.53675 ( rapid move to begin. )
G01 F180.00000
( Mill infeed pass 1/1 )
G01 Z-0.04000
G04 P0 ( dwell for no time -- G64 should not smooth over this point )
G01 F360.00000
G01 X-1.91660 Y-0.53675
G01 X-1.91708 Y-0.53480
G01 X-1.91817 Y-0.53312
G01 X-1.91908 Y-0.53233
G01 X-1.92013 Y-0.53173
G01 X-1.92208 Y-0.53126
G01 X-1.92408 Y-0.53146
G01 X-1.92589 Y-0.53232
G01 X-1.92681 Y-0.53311
G01 X-1.92754 Y-0.53407
G01 X-1.92806 Y-0.53516
G01 X-1.93656 Y-0.55896
G01 X-1.94506 Y-0.53516
G01 X-1.94604 Y-0.53341
G01 X-1.94690 Y-0.53256
G01 X-1.94827 Y-0.53173
G01 X-1.94982 Y-0.53130
G01 X-1.95143 Y-0.53130
G01 X-1.95298 Y-0.53173
G01 X-1.95435 Y-0.53257
G01 X-1.95520 Y-0.53343
G01 X-1.95604 Y-0.53480
G01 X-1.95651 Y-0.53675
G01 X-1.95630 Y-0.53875
G01 X-1.94287 Y-0.57640
G01 X-1.94721 Y-0.58726
G01 X-1.94849 Y-0.58854
G01 X-1.95326 Y-0.59092
G01 X-1.95428 Y-0.59157
G01 X-1.95539 Y-0.59273
G01 X-1.95628 Y-0.59453
G01 X-1.95650 Y-0.59571
G01 X-1.95648 Y-0.59692
G01 X-1.95607 Y-0.59848
G01 X-1.95549 Y-0.59954
G01 X-1.95441 Y-0.60073
G01 X-1.95341 Y-0.60141
G01 X-1.95229 Y-0.60186
G01 X-1.95111 Y-0.60209
G01 X-1.94990 Y-0.60206
G01 X-1.94834 Y-0.60165
G01 X-1.94170 Y-0.59829
G01 X-1.93801 Y-0.59475
G01 X-1.93686 Y-0.59314
G01 X-1.93100 Y-0.57850
G01 X-1.91681 Y-0.53875
G01 X-1.91660 Y-0.53675
G04 P0 ( dwell for no time -- G64 should not smooth over this point )
G00 Z0.08000 ( retract )

G00 X-1.89509 Y-0.50041 ( rapid move to begin. )
G01 F180.00000
( Mill infeed pass 1/1 )
G01 Z-0.04000
G04 P0 ( dwell for no time -- G64 should not smooth over this point )
G01 F360.00000
G01 X-1.89509 Y-0.50041
G01 X-1.89523 Y-0.50121
G01 X-1.89567 Y-0.50234
G01 X-1.89667 Y-0.50362
G01 X-1.89802 Y-0.50451
G01 X-1.89959 Y-0.50490
G01 X-1.95000 Y-0.50492
G01 X-1.95081 Y-0.50485
G01 X-1.95198 Y-0.50451
G01 X-1.95362 Y-0.50333
G01 X-1.95451 Y-0.50198
G01 X-1.95485 Y-0.50081
G01 X-1.95492 Y-0.50000
G01 X-1.95485 Y-0.49919
G01 X-1.95451 Y-0.49802
G01 X-1.95362 Y-0.49667
G01 X-1.95234 Y-0.49567
G01 X-1.95121 Y-0.49523
G01 X-1.95041 Y-0.49510
G01 X-1.90000 Y-0.49508
G01 X-1.89919 Y-0.49515
G01 X-1.89802 Y-0.49549
G01 X-1.89698 Y-0.49612
G01 X-1.89638 Y-0.49667
G01 X-1.89567 Y-0.49766
G01 X-1.89535 Y-0.49840
G01 X-1.89515 Y-0.49919
G01 X-1.89509 Y-0.50041
G04 P0 ( dwell for no time -- G64 should not smooth over this point )
G00 Z0.08000 ( retract )

G00 X-1.84999 Y-0.56548 ( rapid move to begin. )
G01 F180.00000
( Mill infeed pass 1/1 )
G01 Z-0.04000
G04 P0 ( dwell for no time -- G64 should not smooth over this point )
G01 F360.00000
G01 X-1.84999 Y-0.56548
G01 X-1.84976 Y-0.56517
G01 X-1.84915 Y-0.56326
G01 X-1.84911 Y-0.54518
G01 X-1.84915 Y-0.54639
G01 X-1.84976 Y-0.54830
G01 X-1.85097 Y-0.54990
G01 X-1.85265 Y-0.55100
G01 X-1.85460 Y-0.55148
G01 X-1.90000 Y-0.55149
G01 X-1.90120 Y-0.55136
G01 X-1.90235 Y-0.55100
G01 X-1.90403 Y-0.54990
G01 X-1.90482 Y-0.54899
G01 X-1.90542 Y-0.54794
G01 X-1.90578 Y-0.54678
G01 X-1.90590 Y-0.54558
G01 X-1.90556 Y-0.54361
G01 X-1.90458 Y-0.54186
G01 X-1.90307 Y-0.54054
G01 X-1.90198 Y-0.54002
G01 X-1.90080 Y-0.53973
G01 X-1.85501 Y-0.53968
G01 X-1.85380 Y-0.53980
G01 X-1.85265 Y-0.54017
G01 X-1.85160 Y-0.54076
G01 X-1.85042 Y-0.54186
G01 X-1.84976 Y-0.54287
G01 X-1.84932 Y-0.54399
G01 X-1.84911 Y-0.54518
G01 X-1.84911 Y-0.56205
G01 X-1.84999 Y-0.56548
G01 X-1.85097 Y-0.56677
G01 X-1.85265 Y-0.56787
G01 X-1.85460 Y-0.56835
G01 X-1.90000 Y-0.56836
G01 X-1.90120 Y-0.56824
G01 X-1.90235 Y-0.56787
G01 X-1.90341 Y-0.56728
G01 X-1.90431 Y-0.56649
G01 X-1.90542 Y-0.56481
G01 X-1.90578 Y-0.56366
G01 X-1.90590 Y-0.56246
G01 X-1.90556 Y-0.56048
G01 X-1.90458 Y-0.55873
G01 X-1.90307 Y-0.55741
G01 X-1.90198 Y-0.55689
G01 X-1.90080 Y-0.55661
G01 X-1.85501 Y-0.55655
G01 X-1.85380 Y-0.55668
G01 X-1.85265 Y-0.55704
G01 X-1.85160 Y-0.55763
G01 X-1.85042 Y-0.55873
G01 X-1.84976 Y-0.55974
G01 X-1.84932 Y-0.56086
G01 X-1.84911 Y-0.56205
G01 X-1.87863 Y-0.67691
G01 X-1.87868 Y-0.63674
G01 X-1.87897 Y-0.63556
G01 X-1.87949 Y-0.63447
G01 X-1.88081 Y-0.63296
G01 X-1.88255 Y-0.63198
G01 X-1.88453 Y-0.63164
G01 X-1.88573 Y-0.63176
G01 X-1.88688 Y-0.63213
G01 X-1.88794 Y-0.63272
G01 X-1.88885 Y-0.63351
G01 X-1.88995 Y-0.63519
G01 X-1.89031 Y-0.63634
G01 X-1.89044 Y-0.63754
G01 X-1.89038 Y-0.67772
G01 X-1.88995 Y-0.67926
G01 X-1.88885 Y-0.68094
G01 X-1.88725 Y-0.68215
G01 X-1.88534 Y-0.68276
G01 X-1.88413 Y-0.68280
G01 X-1.88294 Y-0.68260
G01 X-1.88182 Y-0.68215
G01 X-1.88081 Y-0.68149
G01 X-1.87971 Y-0.68032
G01 X-1.87912 Y-0.67926
G01 X-1.87875 Y-0.67811
G01 X-1.87585 Y-0.62127
G01 X-1.87623 Y-0.62284
G01 X-1.87702 Y-0.62424
G01 X-1.88066 Y-0.62794
G01 X-1.88166 Y-0.62864
G01 X-1.88279 Y-0.62912
G01 X-1.88399 Y-0.62936
G01 X-1.88521 Y-0.62935
G01 X-1.88670 Y-0.62897
G01 X-1.88810 Y-0.62819
G01 X-1.89205 Y-0.62424
G01 X-1.89268 Y-0.62321
G01 X-1.89316 Y-0.62167
G01 X-1.89325 Y-0.62047
G01 X-1.89308 Y-0.61927
G01 X-1.89268 Y-0.61813
G01 X-1.89205 Y-0.61710
G01 X-1.88826 Y-0.61328
G01 X-1.88743 Y-0.61271
G01 X-1.88632 Y-0.61223
G01 X-1.88514 Y-0.61198
G01 X-1.88393 Y-0.61198
G01 X-1.88255 Y-0.61229
G01 X-1.88113 Y-0.61303
G01 X-1.87727 Y-0.61679
G01 X-1.87657 Y-0.61777
G01 X-1.87609 Y-0.61888
G01 X-1.87585 Y-0.62006
G01 X-1.87585 Y-0.62127
G04 P0 ( dwell for no time -- G64 should not smooth over this point )
G00 Z0.08000 ( retract )

G00 X-1.96021 Y-0.67470 ( rapid move to begin. )
G01 F180.00000
( Mill infeed pass 1/1 )
G01 Z-0.04000
G04 P0 ( dwell for no time -- G64 should not smooth over this point )
G01 F360.00000
G01 X-1.96021 Y-0.67470
G01 X-1.96059 Y-0.67627
G01 X-1.96138 Y-0.67767
G01 X-1.96501 Y-0.68136
G01 X-1.96600 Y-0.68206
G01 X-1.96711 Y-0.68254
G01 X-1.96829 Y-0.68279
G01 X-1.96950 Y-0.68279
G01 X-1.97097 Y-0.68244
G01 X-1.97237 Y-0.68169
G01 X-1.97641 Y-0.67767
G01 X-1.97704 Y-0.67664
G01 X-1.97745 Y-0.67550
G01 X-1.97761 Y-0.67430
G01 X-1.97745 Y-0.67270
G01 X-1.97704 Y-0.67156
G01 X-1.97642 Y-0.67053
G01 X-1.97262 Y-0.66671
G01 X-1.97161 Y-0.66604
G01 X-1.97049 Y-0.66560
G01 X-1.96930 Y-0.66539
G01 X-1.96829 Y-0.66541
G01 X-1.96692 Y-0.66572
G01 X-1.96549 Y-0.66646
G01 X-1.96163 Y-0.67022
G01 X-1.96094 Y-0.67121
G01 X-1.96046 Y-0.67231
G01 X-1.96021 Y-0.67350
G01 X-1.96021 Y-0.67470
G04 P0 ( dwell for no time -- G64 should not smooth over this point )
G00 Z0.08000 ( retract )

G00 X-1.90394 Y-0.65160 ( rapid move to begin. )
G01 F180.00000
( Mill infeed pass 1/1 )
G01 Z-0.04000
G04 P0 ( dwell for no time -- G64 should not smooth over this point )
G01 F360.00000
G01 X-1.90394 Y-0.65160
G01 X-1.90405 Y-0.65044
G01 X-1.90440 Y-0.64932
G01 X-1.90798 Y-0.64237
G01 X-1.91217 Y-0.63827
G01 X-1.91845 Y-0.63507
G01 X-1.91954 Y-0.63465
G01 X-1.92109 Y-0.63445
G01 X-1.93515 Y-0.63445
G01 X-1.93652 Y-0.63461
G01 X-1.93543 Y-0.62376
G01 X-1.91225 Y-0.62375
G01 X-1.91030 Y-0.62327
G01 X-1.90893 Y-0.62244
G01 X-1.90783 Y-0.62126
G01 X-1.90724 Y-0.62021
G01 X-1.90680 Y-0.61866
G01 X-1.90680 Y-0.61705
G01 X-1.90724 Y-0.61550
G01 X-1.90783 Y-0.61445
G01 X-1.90893 Y-0.61328
G01 X-1.90994 Y-0.61261
G01 X-1.91106 Y-0.61217
G01 X-1.91265 Y-0.61195
G01 X-1.94117 Y-0.61196
G01 X-1.94271 Y-0.61228
G01 X-1.94412 Y-0.61299
G01 X-1.94502 Y-0.61375
G01 X-1.94596 Y-0.61502
G01 X-1.94642 Y-0.61611
G01 X-1.94665 Y-0.61727
G01 X-1.94946 Y-0.64539
G01 X-1.94946 Y-0.64660
G01 X-1.94921 Y-0.64778
G01 X-1.94829 Y-0.64955
G01 X-1.94715 Y-0.65069
G01 X-1.94575 Y-0.65147
G01 X-1.94419 Y-0.65185
G01 X-1.94298 Y-0.65185
G01 X-1.94180 Y-0.65160
G01 X-1.94069 Y-0.65112
G01 X-1.93971 Y-0.65043
G01 X-1.93728 Y-0.64802
G01 X-1.93376 Y-0.64626
G01 X-1.92248 Y-0.64626
G01 X-1.91896 Y-0.64802
G01 X-1.91751 Y-0.64948
G01 X-1.91575 Y-0.65300
G01 X-1.91575 Y-0.66427
G01 X-1.91751 Y-0.66779
G01 X-1.91896 Y-0.66925
G01 X-1.92248 Y-0.67101
G01 X-1.93376 Y-0.67101
G01 X-1.93728 Y-0.66925
G01 X-1.94035 Y-0.66635
G01 X-1.94142 Y-0.66579
G01 X-1.94258 Y-0.66547
G01 X-1.94379 Y-0.66538
G01 X-1.94537 Y-0.66566
G01 X-1.94648 Y-0.66614
G01 X-1.94776 Y-0.66711
G01 X-1.94874 Y-0.66839
G01 X-1.94932 Y-0.66989
G01 X-1.94949 Y-0.67149
G01 X-1.94922 Y-0.67307
G01 X-1.94874 Y-0.67418
G01 X-1.94804 Y-0.67517
G01 X-1.94495 Y-0.67827
G01 X-1.94375 Y-0.67920
G01 X-1.93744 Y-0.68236
G01 X-1.93593 Y-0.68276
G01 X-1.92031 Y-0.68276
G01 X-1.91845 Y-0.68219
G01 X-1.91217 Y-0.67900
G01 X-1.90848 Y-0.67546
G01 X-1.90737 Y-0.67393
G01 X-1.90440 Y-0.66795
G01 X-1.90399 Y-0.66644
G01 X-1.90394 Y-0.65160
G04 P0 ( dwell for no time -- G64 should not smooth over this point )
G00 Z0.08000 ( retract )

G00 X-1.82520 Y-0.67691 ( rapid move to begin. )
G01 F180.00000
( Mill infeed pass 1/1 )
G01 Z-0.04000
G04 P0 ( dwell for no time -- G64 should not smooth over this point )
G01 F360.00000
G01 X-1.82520 Y-0.67691
G01 X-1.82542 Y-0.67851
G01 X-1.82606 Y-0.67998
G01 X-1.82707 Y-0.68123
G01 X-1.82838 Y-0.68215
G01 X-1.82990 Y-0.68269
G01 X-1.83150 Y-0.68280
G01 X-1.83308 Y-0.68248
G01 X-1.83451 Y-0.68174
G01 X-1.83568 Y-0.68064
G01 X-1.83634 Y-0.67963
G01 X-1.83679 Y-0.67851
G01 X-1.83701 Y-0.67691
G01 X-1.83701 Y-0.64737
G01 X-1.83831 Y-0.64475
G01 X-1.84093 Y-0.64345
G01 X-1.84658 Y-0.64345
G01 X-1.85010 Y-0.64521
G01 X-1.85051 Y-0.64561
G01 X-1.85051 Y-0.67691
G01 X-1.85085 Y-0.67889
G01 X-1.85159 Y-0.68032
G01 X-1.85238 Y-0.68123
G01 X-1.85334 Y-0.68196
G01 X-1.85482 Y-0.68260
G01 X-1.85641 Y-0.68282
G01 X-1.85800 Y-0.68260
G01 X-1.85948 Y-0.68196
G01 X-1.86044 Y-0.68123
G01 X-1.86123 Y-0.68032
G01 X-1.86183 Y-0.67926
G01 X-1.86219 Y-0.67811
G01 X-1.86232 Y-0.67691
G01 X-1.86232 Y-0.63754
G01 X-1.86210 Y-0.63595
G01 X-1.86146 Y-0.63447
G01 X-1.86073 Y-0.63351
G01 X-1.85982 Y-0.63272
G01 X-1.85876 Y-0.63213
G01 X-1.85722 Y-0.63169
G01 X-1.85601 Y-0.63165
G01 X-1.85482 Y-0.63186
G01 X-1.85369 Y-0.63230
G01 X-1.85244 Y-0.63317
G01 X-1.85026 Y-0.63210
G01 X-1.84875 Y-0.63169
G01 X-1.83915 Y-0.63165
G01 X-1.83725 Y-0.63210
G01 X-1.83055 Y-0.63550
G01 X-1.82959 Y-0.63633
G01 X-1.82883 Y-0.63734
G01 X-1.82566 Y-0.64369
G01 X-1.82525 Y-0.64520
G01 X-1.82520 Y-0.67691
G04 P0 ( dwell for no time -- G64 should not smooth over this point )
G00 Z0.08000 ( retract )

G00 X-1.63820 Y-0.55060 ( rapid move to begin. )
G01 F180.00000
( Mill infeed pass 1/1 )
G01 Z-0.04000
G04 P0 ( dwell for no time -- G64 should not smooth over this point )
G01 F360.00000
G01 X-1.63820 Y-0.55060
G01 X-1.63833 Y-0.54820
G01 X-1.63893 Y-0.54588
G01 X-1.63979 Y-0.54407
G01 X-1.64120 Y-0.54212
G01 X-1.64298 Y-0.54050
G01 X-1.64504 Y-0.53928
G01 X-1.64732 Y-0.53850
G01 X-1.64930 Y-0.53821
G01 X-1.65170 Y-0.53831
G01 X-1.65403 Y-0.53890
G01 X-1.65585 Y-0.53974
G01 X-1.65780 Y-0.54113
G01 X-1.65944 Y-0.54290
G01 X-1.66068 Y-0.54495
G01 X-1.66148 Y-0.54722
G01 X-1.66180 Y-0.54960
G01 X-1.66170 Y-0.55160
G01 X-1.66114 Y-0.55393
G01 X-1.66011 Y-0.55611
G01 X-1.65893 Y-0.55773
G01 X-1.65718 Y-0.55937
G01 X-1.65514 Y-0.56063
G01 X-1.65327 Y-0.56135
G01 X-1.65090 Y-0.56178
G01 X-1.64850 Y-0.56171
G01 X-1.64616 Y-0.56117
G01 X-1.64433 Y-0.56036
G01 X-1.64235 Y-0.55900
G01 X-1.64068 Y-0.55726
G01 X-1.63941 Y-0.55523
G01 X-1.63857 Y-0.55298
G01 X-1.63820 Y-0.55060
G01 X-1.55127 Y-0.55975
G01 X-1.55127 Y-0.53072
G01 X-1.56807 Y-0.49713
G01 X-1.58284 Y-0.48236
G01 X-1.61644 Y-0.46556
G01 X-1.73444 Y-0.46556
G01 X-1.73444 Y-0.62491
G01 X-1.61644 Y-0.62491
G01 X-1.58284 Y-0.60812
G01 X-1.56807 Y-0.59335
G01 X-1.55127 Y-0.55975
G04 P0 ( dwell for no time -- G64 should not smooth over this point )
G00 Z0.08000 ( retract )

G00 X-1.01660 Y0.00462 ( rapid move to begin. )
G01 F180.00000
( Mill infeed pass 1/1 )
G01 Z-0.04000
G04 P0 ( dwell for no time -- G64 should not smooth over this point )
G01 F360.00000
G01 X-1.01660 Y0.00462
G01 X-1.01665 Y0.00341
G01 X-1.01725 Y0.00150
G01 X-1.01847 Y-0.00010
G01 X-1.02014 Y-0.00120
G01 X-1.02209 Y-0.00167
G01 X-1.06749 Y-0.00169
G01 X-1.06869 Y-0.00156
G01 X-1.06984 Y-0.00120
G01 X-1.07152 Y-0.00010
G01 X-1.07231 Y0.00081
G01 X-1.07291 Y0.00186
G01 X-1.07327 Y0.00302
G01 X-1.07340 Y0.00422
G01 X-1.07306 Y0.00619
G01 X-1.07207 Y0.00794
G01 X-1.07056 Y0.00926
G01 X-1.06947 Y0.00978
G01 X-1.06829 Y0.01007
G01 X-1.02250 Y0.01012
G01 X-1.02130 Y0.01000
G01 X-1.02014 Y0.00963
G01 X-1.01909 Y0.00904
G01 X-1.01792 Y0.00794
G01 X-1.01725 Y0.00693
G01 X-1.01681 Y0.00581
G01 X-1.01660 Y0.00462
G01 X-1.01665 Y-0.01346
G01 X-1.01725 Y-0.01537
G01 X-1.01847 Y-0.01697
G01 X-1.02014 Y-0.01807
G01 X-1.02209 Y-0.01854
G01 X-1.06749 Y-0.01856
G01 X-1.06869 Y-0.01843
G01 X-1.06984 Y-0.01807
G01 X-1.07152 Y-0.01697
G01 X-1.07231 Y-0.01606
G01 X-1.07291 Y-0.01501
G01 X-1.07327 Y-0.01385
G01 X-1.07340 Y-0.01265
G01 X-1.07306 Y-0.01068
G01 X-1.07207 Y-0.00893
G01 X-1.07056 Y-0.00761
G01 X-1.06947 Y-0.00709
G01 X-1.06829 Y-0.00680
G01 X-1.02250 Y-0.00675
G01 X-1.02130 Y-0.00687
G01 X-1.02014 Y-0.00724
G01 X-1.01909 Y-0.00783
G01 X-1.01792 Y-0.00893
G01 X-1.01725 Y-0.00994
G01 X-1.01681 Y-0.01106
G01 X-1.01660 Y-0.01225
G01 X-1.02015 Y-0.66429
G01 X-0.99508 Y-0.10000
G01 X-0.99514 Y-0.10081
G01 X-0.99549 Y-0.10198
G01 X-0.99612 Y-0.10302
G01 X-0.99667 Y-0.10362
G01 X-0.99766 Y-0.10433
G01 X-0.99919 Y-0.10485
G01 X-1.00040 Y-0.10490
G01 X-1.00121 Y-0.10477
G01 X-1.00234 Y-0.10433
G01 X-1.00362 Y-0.10333
G01 X-1.00450 Y-0.10198
G01 X-1.00490 Y-0.10041
G01 X-1.00492 Y-0.05000
G01 X-1.00485 Y-0.04919
G01 X-1.00450 Y-0.04802
G01 X-1.00388 Y-0.04698
G01 X-1.00333 Y-0.04638
G01 X-1.00198 Y-0.04549
G01 X-1.00081 Y-0.04514
G01 X-1.00000 Y-0.04508
G01 X-0.99919 Y-0.04514
G01 X-0.99802 Y-0.04549
G01 X-0.99667 Y-0.04638
G01 X-0.99567 Y-0.04766
G01 X-0.99523 Y-0.04879
G01 X-0.99509 Y-0.04959
G01 X-0.99508 Y-0.10000
G01 X-1.02015 Y-0.66429
G01 X-1.08412 Y-0.02601
G01 X-1.08415 Y-0.02762
G01 X-1.08461 Y-0.02916
G01 X-1.08547 Y-0.03052
G01 X-1.08634 Y-0.03136
G01 X-1.08736 Y-0.03200
G01 X-1.08928 Y-0.03258
G01 X-1.09129 Y-0.03247
G01 X-1.09243 Y-0.03209
G01 X-1.09347 Y-0.03148
G01 X-1.09463 Y-0.03036
G01 X-1.10546 Y-0.01659
G01 X-1.11628 Y-0.03036
G01 X-1.11743 Y-0.03148
G01 X-1.11848 Y-0.03209
G01 X-1.11962 Y-0.03247
G01 X-1.12163 Y-0.03258
G01 X-1.12355 Y-0.03200
G01 X-1.12517 Y-0.03082
G01 X-1.12612 Y-0.02952
G01 X-1.12676 Y-0.02762
G01 X-1.12678 Y-0.02601
G01 X-1.12621 Y-0.02409
G01 X-1.12556 Y-0.02307
G01 X-1.11296 Y-0.00703
G01 X-1.12556 Y0.00901
G01 X-1.12621 Y0.01003
G01 X-1.12672 Y0.01155
G01 X-1.12681 Y0.01316
G04 P0 ( dwell for no time -- G64 should not smooth over this point )
G00 Z0.08000 ( retract )

G00 X-1.12681 Y0.01316 ( rapid move to begin. )
G01 F180.00000
( Mill infeed pass 1/1 )
G01 Z-0.04000
G04 P0 ( dwell for no time -- G64 should not smooth over this point )
G01 F360.00000
G01 X-1.12681 Y0.01316
G01 X-1.12645 Y0.01473
G01 X-1.12544 Y0.01646
G01 X-1.12390 Y0.01775
G01 X-1.12280 Y0.01825
G01 X-1.12163 Y0.01852
G01 X-1.12042 Y0.01854
G01 X-1.11923 Y0.01831
G01 X-1.11743 Y0.01742
G01 X-1.11628 Y0.01630
G01 X-1.10546 Y0.00253
G01 X-1.09463 Y0.01630
G01 X-1.09347 Y0.01742
G01 X-1.09168 Y0.01831
G01 X-1.08969 Y0.01855
G01 X-1.08773 Y0.01811
G01 X-1.08634 Y0.01730
G01 X-1.08499 Y0.01581
G01 X-1.08423 Y0.01395
G01 X-1.08412 Y0.01195
G01 X-1.08470 Y0.01003
G01 X-1.08534 Y0.00901
G01 X-1.09794 Y-0.00703
G01 X-1.08534 Y-0.02307
G01 X-1.08470 Y-0.02409
G01 X-1.08412 Y-0.02601
G01 X-1.02015 Y-0.66429
G01 X-1.02016 Y-0.92699
G01 X-1.02032 Y-0.92980
G01 X-1.02067 Y-0.93259
G01 X-1.02133 Y-0.93573
G01 X-1.02210 Y-0.93843
G01 X-1.02307 Y-0.94107
G01 X-1.02423 Y-0.94363
G01 X-1.02577 Y-0.94645
G01 X-1.02730 Y-0.94881
G01 X-1.02977 Y-0.95197
G01 X-1.03284 Y-0.95514
G01 X-1.03625 Y-0.95795
G01 X-1.03995 Y-0.96035
G01 X-1.04353 Y-0.96217
G01 X-1.04766 Y-0.96373
G01 X-1.05194 Y-0.96482
G01 X-1.05631 Y-0.96543
G01 X-1.05992 Y-0.96556
G01 X-1.06313 Y-0.96539
G01 X-1.06671 Y-0.96490
G01 X-1.07023 Y-0.96408
G01 X-1.07366 Y-0.96293
G01 X-1.07661 Y-0.96166
G01 X-1.07978 Y-0.95995
G01 X-1.08272 Y-0.95800
G01 X-1.09063 Y-0.96193
G01 X-1.09478 Y-0.96357
G01 X-1.09988 Y-0.96488
G01 X-1.10511 Y-0.96551
G01 X-1.22619 Y-0.96556
G01 X-1.22903 Y-0.96546
G01 X-1.23305 Y-0.96496
G01 X-1.23661 Y-0.96415
G01 X-1.24008 Y-0.96303
G01 X-1.24343 Y-0.96158
G01 X-1.29249 Y-0.93704
G01 X-1.29525 Y-0.93540
G01 X-1.29756 Y-0.93378
G01 X-1.30004 Y-0.93174
G01 X-1.30235 Y-0.92950
G01 X-1.30569 Y-0.92548
G01 X-1.30847 Y-0.92106
G01 X-1.33336 Y-0.87127
G01 X-1.33500 Y-0.86712
G01 X-1.33607 Y-0.86321
G01 X-1.33674 Y-0.85921
G01 X-1.33699 Y-0.85517
G01 X-1.33698 Y-0.80633
G01 X-1.33658 Y-0.80148
G01 X-1.33569 Y-0.79711
G01 X-1.33446 Y-0.79325
G01 X-1.33283 Y-0.78953
G01 X-1.30884 Y-0.74156
G01 X-1.30704 Y-0.73842
G01 X-1.30472 Y-0.73514
G01 X-1.30207 Y-0.73211
G01 X-1.29913 Y-0.72937
G01 X-1.29592 Y-0.72695
G01 X-1.29249 Y-0.72486
G01 X-1.24307 Y-0.70014
G01 X-1.23894 Y-0.69846
G01 X-1.23425 Y-0.69718
G01 X-1.23064 Y-0.69660
G01 X-1.22660 Y-0.69635
G01 X-1.11644 Y-0.69634
G01 X-1.09889 Y-0.68757
G01 X-1.09889 Y-0.67358
G01 X-1.11268 Y-0.64601
G01 X-1.14024 Y-0.63223
G01 X-1.21690 Y-0.63223
G01 X-1.25656 Y-0.65206
G01 X-1.25950 Y-0.65334
G01 X-1.26254 Y-0.65439
G01 X-1.26565 Y-0.65518
G01 X-1.26882 Y-0.65572
G01 X-1.27202 Y-0.65599
G01 X-1.27523 Y-0.65601
G01 X-1.27843 Y-0.65576
G01 X-1.28161 Y-0.65526
G01 X-1.28472 Y-0.65449
G01 X-1.28777 Y-0.65348
G01 X-1.29216 Y-0.65150
G01 X-1.29595 Y-0.64922
G01 X-1.29945 Y-0.64654
G01 X-1.30264 Y-0.64348
G01 X-1.30546 Y-0.64008
G01 X-1.30788 Y-0.63639
G01 X-1.30987 Y-0.63245
G01 X-1.31141 Y-0.62832
G01 X-1.31256 Y-0.62364
G01 X-1.31309 Y-0.61926
G01 X-1.31314 Y-0.61484
G01 X-1.31269 Y-0.61045
G01 X-1.31174 Y-0.60613
G01 X-1.31033 Y-0.60195
G01 X-1.30845 Y-0.59796
G01 X-1.30614 Y-0.59420
G01 X-1.30315 Y-0.59042
G01 X-1.29973 Y-0.58703
G01 X-1.29592 Y-0.58409
G01 X-1.29213 Y-0.58182
G01 X-1.24196 Y-0.55678
G01 X-1.23855 Y-0.55548
G01 X-1.23504 Y-0.55449
G01 X-1.23145 Y-0.55384
G01 X-1.22781 Y-0.55352
G01 X-1.13055 Y-0.55349
G01 X-1.12690 Y-0.55370
G01 X-1.12369 Y-0.55416
G01 X-1.11898 Y-0.55535
G01 X-1.11407 Y-0.55729
G01 X-1.06537 Y-0.58163
G01 X-1.06089 Y-0.58432
G01 X-1.05710 Y-0.58731
G01 X-1.05371 Y-0.59074
G01 X-1.05076 Y-0.59455
G01 X-1.04849 Y-0.59834
G01 X-1.02361 Y-0.64814
G01 X-1.02241 Y-0.65116
G01 X-1.02145 Y-0.65426
G01 X-1.02076 Y-0.65742
G01 X-1.02032 Y-0.66064
G01 X-1.02015 Y-0.66429
G01 X-0.95755 Y-0.02631
G01 X-0.95776 Y-0.02831
G01 X-0.95862 Y-0.03012
G01 X-0.95971 Y-0.03130
G01 X-0.96109 Y-0.03213
G01 X-0.96304 Y-0.03261
G01 X-0.99719 Y-0.03262
G01 X-0.99916 Y-0.03228
G01 X-1.00059 Y-0.03154
G01 X-1.00177 Y-0.03044
G01 X-1.00260 Y-0.02907
G01 X-1.00297 Y-0.02792
G01 X-1.00308 Y-0.02631
G01 X-1.00275 Y-0.02474
G01 X-1.00201 Y-0.02331
G01 X-1.00122 Y-0.02240
G01 X-0.99954 Y-0.02130
G01 X-0.99799 Y-0.02086
G01 X-0.98622 Y-0.02081
G01 X-0.98622 Y0.01527
G01 X-0.98766 Y0.01384
G01 X-0.98859 Y0.01318
G01 X-0.99455 Y0.01018
G01 X-0.99607 Y0.00967
G01 X-0.99767 Y0.00958
G01 X-0.99886 Y0.00980
G01 X-0.99998 Y0.01026
G01 X-1.00098 Y0.01094
G01 X-1.00206 Y0.01213
G01 X-1.00264 Y0.01319
G01 X-1.00305 Y0.01475
G01 X-1.00307 Y0.01595
G01 X-1.00285 Y0.01714
G01 X-1.00219 Y0.01861
G01 X-1.00116 Y0.01984
G01 X-0.99983 Y0.02075
G01 X-0.99506 Y0.02313
G01 X-0.99053 Y0.02766
G01 X-0.98523 Y0.03562
G01 X-0.98415 Y0.03683
G01 X-0.98314 Y0.03752
G01 X-0.98162 Y0.03810
G01 X-0.98000 Y0.03824
G01 X-0.97880 Y0.03805
G01 X-0.97696 Y0.03720
G01 X-0.97576 Y0.03610
G01 X-0.97476 Y0.03434
G01 X-0.97442 Y0.03275
G01 X-0.97441 Y-0.02081
G01 X-0.96304 Y-0.02082
G01 X-0.96109 Y-0.02130
G01 X-0.96004 Y-0.02189
G01 X-0.95913 Y-0.02268
G01 X-0.95803 Y-0.02436
G01 X-0.95755 Y-0.02631
G01 X-0.88820 Y-0.45060
G01 X-0.88857 Y-0.45298
G01 X-0.88941 Y-0.45523
G01 X-0.89068 Y-0.45726
G01 X-0.89235 Y-0.45900
G01 X-0.89433 Y-0.46036
G01 X-0.89616 Y-0.46117
G01 X-0.89850 Y-0.46171
G01 X-0.90090 Y-0.46178
G01 X-0.90327 Y-0.46135
G01 X-0.90514 Y-0.46064
G01 X-0.90718 Y-0.45937
G01 X-0.90893 Y-0.45773
G01 X-0.91011 Y-0.45611
G01 X-0.91114 Y-0.45393
G01 X-0.91170 Y-0.45160
G01 X-0.91180 Y-0.44960
G01 X-0.91148 Y-0.44722
G01 X-0.91068 Y-0.44495
G01 X-0.90944 Y-0.44290
G01 X-0.90780 Y-0.44113
G01 X-0.90585 Y-0.43974
G01 X-0.90403 Y-0.43890
G01 X-0.90170 Y-0.43831
G01 X-0.89930 Y-0.43821
G01 X-0.89731 Y-0.43850
G01 X-0.89504 Y-0.43928
G01 X-0.89298 Y-0.44050
G01 X-0.89120 Y-0.44212
G01 X-0.88979 Y-0.44406
G01 X-0.88893 Y-0.44588
G01 X-0.88854 Y-0.44739
G01 X-0.88820 Y-0.45060
G01 X-0.87879 Y-0.02671
G01 X-0.87885 Y0.00500
G01 X-0.87926 Y0.00650
G01 X-0.88243 Y0.01285
G01 X-0.88319 Y0.01387
G01 X-0.88415 Y0.01469
G01 X-0.89085 Y0.01810
G01 X-0.89275 Y0.01855
G01 X-0.90235 Y0.01851
G01 X-0.90386 Y0.01810
G01 X-0.90604 Y0.01702
G01 X-0.90729 Y0.01790
G01 X-0.90842 Y0.01834
G01 X-0.90961 Y0.01854
G01 X-0.91082 Y0.01850
G01 X-0.91236 Y0.01807
G01 X-0.91342 Y0.01748
G01 X-0.91433 Y0.01668
G01 X-0.91506 Y0.01572
G01 X-0.91570 Y0.01425
G01 X-0.91592 Y0.01265
G01 X-0.91592 Y-0.02671
G01 X-0.91579 Y-0.02792
G01 X-0.91543 Y-0.02907
G01 X-0.91483 Y-0.03012
G01 X-0.91404 Y-0.03103
G01 X-0.91308 Y-0.03176
G01 X-0.91160 Y-0.03240
G01 X-0.91001 Y-0.03262
G01 X-0.90842 Y-0.03240
G01 X-0.90694 Y-0.03176
G01 X-0.90598 Y-0.03103
G01 X-0.90519 Y-0.03012
G01 X-0.90445 Y-0.02869
G01 X-0.90411 Y-0.02671
G01 X-0.90411 Y0.00458
G01 X-0.90370 Y0.00499
G01 X-0.90018 Y0.00675
G01 X-0.89453 Y0.00675
G01 X-0.89192 Y0.00544
G01 X-0.89061 Y0.00282
G01 X-0.89061 Y-0.02671
G01 X-0.89039 Y-0.02831
G01 X-0.88994 Y-0.02943
G01 X-0.88928 Y-0.03044
G01 X-0.88811 Y-0.03154
G01 X-0.88668 Y-0.03228
G01 X-0.88510 Y-0.03261
G01 X-0.88350 Y-0.03250
G01 X-0.88198 Y-0.03196
G01 X-0.88067 Y-0.03103
G01 X-0.87965 Y-0.02978
G01 X-0.87901 Y-0.02831
G01 X-0.87879 Y-0.02671
G01 X-0.88820 Y-0.45060
G01 X-0.88833 Y-0.44820
G01 X-0.88854 Y-0.44739
G01 X-0.93223 Y-0.02671
G01 X-0.93228 Y0.01346
G01 X-0.93257 Y0.01463
G01 X-0.93309 Y0.01572
G01 X-0.93441 Y0.01723
G01 X-0.93615 Y0.01822
G01 X-0.93813 Y0.01856
G01 X-0.93933 Y0.01843
G01 X-0.94048 Y0.01807
G01 X-0.94154 Y0.01748
G01 X-0.94245 Y0.01668
G01 X-0.94355 Y0.01501
G01 X-0.94391 Y0.01385
G01 X-0.94404 Y0.01265
G01 X-0.94398 Y-0.02752
G01 X-0.94355 Y-0.02907
G01 X-0.94245 Y-0.03075
G01 X-0.94085 Y-0.03196
G01 X-0.93894 Y-0.03256
G01 X-0.93773 Y-0.03261
G01 X-0.93654 Y-0.03240
G01 X-0.93541 Y-0.03196
G01 X-0.93441 Y-0.03130
G01 X-0.93331 Y-0.03012
G01 X-0.93271 Y-0.02907
G01 X-0.93235 Y-0.02792
G01 X-0.92942 Y0.02973
G01 X-0.92958 Y0.03093
G01 X-0.92999 Y0.03206
G01 X-0.93061 Y0.03309
G01 X-0.93456 Y0.03704
G01 X-0.93578 Y0.03775
G01 X-0.93713 Y0.03816
G01 X-0.93833 Y0.03824
G01 X-0.93953 Y0.03808
G01 X-0.94048 Y0.03775
G01 X-0.94154 Y0.03716
G01 X-0.94539 Y0.03341
G01 X-0.94609 Y0.03242
G01 X-0.94657 Y0.03131
G01 X-0.94682 Y0.03013
G01 X-0.94676 Y0.02852
G01 X-0.94628 Y0.02699
G01 X-0.94565 Y0.02596
G01 X-0.94170 Y0.02201
G01 X-0.94057 Y0.02134
G01 X-0.93905 Y0.02088
G01 X-0.93787 Y0.02082
G01 X-0.93669 Y0.02099
G01 X-0.93557 Y0.02139
G01 X-0.93455 Y0.02202
G01 X-0.93061 Y0.02596
G01 X-0.92999 Y0.02699
G01 X-0.92950 Y0.02852
G01 X-0.92942 Y0.02973

G04 P0 ( dwell for no time -- G64 should not smooth over this point )
G00 Z1.000000 ( retract )

M5 ( Spindle off. )
G04 P1.000000
M9 ( Coolant off. )
M2 ( Program end. )

