( pcb2gcode 3.0.3 )
( Software-independent Gcode )

G94 ( Millimeters per minute feed rate. )
G21 ( Units == Millimeters. )

G90 ( Absolute coordinates. )
G00 S30000 ( RPM spindle speed. )
G64 P0.01016 ( set maximum deviation from commanded toolpath )
G01 F80.00000 ( Feedrate. )


G00 Z15.00000 (Retract to tool change height)
T1
M5      (Spindle stop.)
G04 P1.00000 (Wait for spindle to stop)
(MSG, Change tool bit to mill diameter 1.25000mm)
M6      (Tool change.)
M0      (Temporary machine stop.)
M3 ( Spindle on clockwise. )
G04 P1.00000 (Wait for spindle to get up to speed)
G04 P0 ( dwell for no time -- G64 should not smooth over this point )
G00 Z1.00000 ( retract )

G00 X39.25877 Y-20.32000 ( rapid move to begin. )
G01 F40.00000
( Mill infeed pass 1/2 )
G01 Z-0.03000
G04 P0 ( dwell for no time -- G64 should not smooth over this point )
G01 F80.00000
G01 X39.25877 Y-20.32000
G01 X37.35786 Y-20.32000
G01 X37.21842 Y-20.13989
G01 X37.06165 Y-19.91246
G01 X36.94511 Y-19.71982
G01 X36.83000 Y-19.50039
G01 X37.01499 Y-17.61998
G01 X37.01979 Y-17.79321
G01 X37.03810 Y-18.02839
G01 X37.06221 Y-18.20073
G01 X37.10120 Y-18.40233
G01 X37.13942 Y-18.56158
G01 X37.18913 Y-18.72833
G01 X37.25347 Y-18.91246
G01 X37.32345 Y-19.08289
G01 X37.42644 Y-19.29536
G01 X37.50493 Y-19.43976
G01 X37.60213 Y-19.59704
G01 X37.71913 Y-19.76572
G01 X37.81783 Y-19.89506
G01 X37.92314 Y-20.01909
G01 X38.12083 Y-20.22676
G01 X38.21496 Y-20.32000
G01 X36.83000 Y-20.32000
G01 X36.83000 Y-13.35768
G01 X36.84115 Y-13.33500
G01 X36.83000 Y-13.35768
G01 X36.83000 Y-13.33500
G01 X38.32273 Y-13.33500
G01 X38.20310 Y-13.49103
G01 X38.08001 Y-13.67739
G01 X37.99426 Y-13.82573
G01 X37.91478 Y-13.98880
G01 X37.83167 Y-14.18552
G01 X37.77023 Y-14.36688
G01 X37.70691 Y-14.61275
G01 X37.67094 Y-14.81107
G01 X37.64689 Y-15.05417
G01 X37.63998 Y-15.24000
G01 X37.64008 Y-17.64063
G01 X37.64996 Y-17.85699
G01 X37.66665 Y-18.01891
G01 X37.68987 Y-18.15945
G01 X37.73769 Y-18.37916
G01 X37.78042 Y-18.52567
G01 X37.84476 Y-18.70893
G01 X37.90810 Y-18.85886
G01 X37.99878 Y-19.04147
G01 X38.07300 Y-19.17255
G01 X38.15499 Y-19.29895
G01 X38.26233 Y-19.44903
G01 X38.36556 Y-19.57586
G01 X38.45537 Y-19.67375
G01 X38.66350 Y-19.88386
G01 X38.79990 Y-20.00471
G01 X38.92837 Y-20.10603
G01 X39.11288 Y-20.23260
G01 X39.25877 Y-20.32000
G01 X47.65787 Y-20.32000
G01 X47.82429 Y-20.26686
G01 X48.02134 Y-20.18642
G01 X48.14349 Y-20.12983
G01 X48.26000 Y-20.06539
G01 X48.14349 Y-20.12983
G01 X48.02134 Y-20.18642
G01 X47.82429 Y-20.26686
G01 X47.65787 Y-20.32000
G01 X48.26000 Y-20.32000
G01 X48.26000 Y-18.29049
G01 X48.18642 Y-18.43893
G01 X48.06752 Y-18.61401
G01 X47.92637 Y-18.76882
G01 X47.85180 Y-18.83514
G01 X47.75553 Y-18.90857
G01 X47.57321 Y-19.01746
G01 X47.37951 Y-19.09826
G01 X47.27456 Y-19.12920
G01 X47.16610 Y-19.15257
G01 X46.97397 Y-19.17332
G01 X46.81070 Y-19.17101
G01 X46.74685 Y-19.16560
G01 X46.59379 Y-19.14068
G01 X46.43415 Y-19.09610
G01 X46.27085 Y-19.02930
G01 X46.14426 Y-18.95991
G01 X46.08137 Y-18.91947
G01 X45.95627 Y-18.82498
G01 X40.67282 Y-18.82320
G01 X40.55278 Y-18.81203
G01 X40.49192 Y-18.80138
G01 X40.35425 Y-18.76341
G01 X40.29413 Y-18.74096
G01 X40.18313 Y-18.68828
G01 X40.12001 Y-18.65084
G01 X40.02049 Y-18.58107
G01 X39.92397 Y-18.49496
G01 X39.79583 Y-18.36255
G01 X39.75105 Y-18.30911
G01 X39.67607 Y-18.20004
G01 X39.61475 Y-18.08208
G01 X39.58689 Y-18.01416
G01 X39.54937 Y-17.89509
G01 X39.52403 Y-17.76230
G01 X39.51567 Y-17.64901
G01 X39.51498 Y-15.24000
G01 X39.52486 Y-15.09580
G01 X39.53619 Y-15.02443
G01 X39.57592 Y-14.87477
G01 X39.63208 Y-14.74163
G01 X39.67137 Y-14.66898
G01 X39.76378 Y-14.53457
G01 X39.84437 Y-14.44462
G01 X40.01234 Y-14.28542
G01 X40.13606 Y-14.19837
G01 X40.26337 Y-14.13241
G01 X40.33131 Y-14.10467
G01 X40.45544 Y-14.06652
G01 X40.58430 Y-14.04338
G01 X40.65875 Y-14.03761
G01 X45.49864 Y-14.03525
G01 X45.53471 Y-13.97130
G01 X45.58340 Y-13.90564
G01 X45.64027 Y-13.84689
G01 X45.69595 Y-13.80195
G01 X45.75640 Y-13.76368
G01 X45.83029 Y-13.72873
G01 X45.90814 Y-13.70371
G01 X45.97842 Y-13.69035
G01 X46.05998 Y-13.68499
G01 X47.77021 Y-13.68506
G01 X47.85169 Y-13.69174
G01 X47.93160 Y-13.70901
G01 X48.01794 Y-13.74069
G01 X48.09866 Y-13.78471
G01 X48.17209 Y-13.84008
G01 X48.23656 Y-13.90564
G01 X48.29073 Y-13.97996
G01 X48.33343 Y-14.06139
G01 X48.36368 Y-14.14823
G01 X48.38090 Y-14.23855
G01 X48.38499 Y-14.30998
G01 X48.38466 Y-16.03045
G01 X48.37298 Y-16.13192
G01 X48.34844 Y-16.22054
G01 X48.31118 Y-16.30462
G01 X48.26000 Y-16.38496
G01 X48.26000 Y-17.10583
G01 X48.26277 Y-17.11231
G01 X48.26000 Y-17.10583
G01 X48.26000 Y-16.38496
G01 X48.18723 Y-16.46616
G01 X48.10722 Y-16.52966
G01 X48.00859 Y-16.58343
G01 X47.90905 Y-16.61693
G01 X47.98903 Y-16.69473
G01 X48.09302 Y-16.81960
G01 X48.17892 Y-16.94805
G01 X48.26277 Y-17.11231
G01 X48.31624 Y-17.25501
G01 X48.35863 Y-17.42242
G01 X48.38037 Y-17.58348
G01 X48.38426 Y-17.74599
G01 X48.37046 Y-17.90634
G01 X48.34184 Y-18.05384
G01 X48.29391 Y-18.20929
G01 X48.26000 Y-18.29049
G01 X48.26000 Y-19.30855
G01 X48.14476 Y-19.39841
G01 X48.06950 Y-19.45018
G01 X47.90458 Y-19.54908
G01 X47.78832 Y-19.60634
G01 X47.58931 Y-19.68706
G01 X47.46287 Y-19.72579
G01 X47.38738 Y-19.74454
G01 X47.27796 Y-19.76747
G01 X47.19764 Y-19.77941
G01 X47.01510 Y-19.79696
G01 X46.90201 Y-19.79930
G01 X46.72046 Y-19.79143
G01 X46.53092 Y-19.76481
G01 X46.42353 Y-19.74253
G01 X46.24895 Y-19.69313
G01 X46.05221 Y-19.61606
G01 X45.95315 Y-19.56897
G01 X45.82094 Y-19.49496
G01 X45.74944 Y-19.44997
G01 X45.75495 Y-19.42912
G01 X45.74944 Y-19.44997
G01 X40.71998 Y-19.44997
G01 X40.63764 Y-19.44726
G01 X40.49619 Y-19.43461
G01 X40.35402 Y-19.41098
G01 X40.17757 Y-19.36298
G01 X40.07195 Y-19.32546
G01 X39.90718 Y-19.24914
G01 X39.79502 Y-19.18510
G01 X39.65359 Y-19.08752
G01 X39.52938 Y-18.98190
G01 X39.35359 Y-18.80443
G01 X39.28720 Y-18.73014
G01 X39.18557 Y-18.59153
G01 X39.12641 Y-18.49826
G01 X39.04775 Y-18.34510
G01 X39.00228 Y-18.23570
G01 X38.94978 Y-18.07345
G01 X38.91415 Y-17.90621
G01 X38.89842 Y-17.78879
G01 X38.88999 Y-17.61998
G01 X38.89037 Y-15.20899
G01 X38.90107 Y-15.05450
G01 X38.91219 Y-14.96220
G01 X38.93012 Y-14.87099
G01 X38.96611 Y-14.73098
G01 X38.99164 Y-14.65240
G01 X39.02230 Y-14.57564
G01 X39.07269 Y-14.46246
G01 X39.12108 Y-14.37122
G01 X39.24490 Y-14.18354
G01 X39.36878 Y-14.03764
G01 X39.55580 Y-13.85425
G01 X39.67483 Y-13.75722
G01 X39.77358 Y-13.68829
G01 X39.84996 Y-13.64178
G01 X39.99250 Y-13.56916
G01 X40.07447 Y-13.53340
G01 X40.22621 Y-13.48179
G01 X40.33644 Y-13.45268
G01 X40.50695 Y-13.42314
G01 X40.63863 Y-13.41290
G01 X45.19211 Y-13.41039
G01 X45.20730 Y-13.45057
G01 X45.19211 Y-13.41039
G01 X45.27776 Y-13.33500
G01 X48.26000 Y-13.33500
G01 X48.26000 Y-13.93502
( Mill infeed pass 2/2 )
G00 Z1.00000 ( retract )
G00 X39.25877 Y-20.32000 ( rapid move to begin. )
G01 Z-0.06000
G04 P0 ( dwell for no time -- G64 should not smooth over this point )
G01 F80.00000
G01 X39.25877 Y-20.32000
G01 X37.35786 Y-20.32000
G01 X37.21842 Y-20.13989
G01 X37.06165 Y-19.91246
G01 X36.94511 Y-19.71982
G01 X36.83000 Y-19.50039
G01 X37.01499 Y-17.61998
G01 X37.01979 Y-17.79321
G01 X37.03810 Y-18.02839
G01 X37.06221 Y-18.20073
G01 X37.10120 Y-18.40233
G01 X37.13942 Y-18.56158
G01 X37.18913 Y-18.72833
G01 X37.25347 Y-18.91246
G01 X37.32345 Y-19.08289
G01 X37.42644 Y-19.29536
G01 X37.50493 Y-19.43976
G01 X37.60213 Y-19.59704
G01 X37.71913 Y-19.76572
G01 X37.81783 Y-19.89506
G01 X37.92314 Y-20.01909
G01 X38.12083 Y-20.22676
G01 X38.21496 Y-20.32000
G01 X36.83000 Y-20.32000
G01 X36.83000 Y-13.35768
G01 X36.84115 Y-13.33500
G01 X36.83000 Y-13.35768
G01 X36.83000 Y-13.33500
G01 X38.32273 Y-13.33500
G01 X38.20310 Y-13.49103
G01 X38.08001 Y-13.67739
G01 X37.99426 Y-13.82573
G01 X37.91478 Y-13.98880
G01 X37.83167 Y-14.18552
G01 X37.77023 Y-14.36688
G01 X37.70691 Y-14.61275
G01 X37.67094 Y-14.81107
G01 X37.64689 Y-15.05417
G01 X37.63998 Y-15.24000
G01 X37.64008 Y-17.64063
G01 X37.64996 Y-17.85699
G01 X37.66665 Y-18.01891
G01 X37.68987 Y-18.15945
G01 X37.73769 Y-18.37916
G01 X37.78042 Y-18.52567
G01 X37.84476 Y-18.70893
G01 X37.90810 Y-18.85886
G01 X37.99878 Y-19.04147
G01 X38.07300 Y-19.17255
G01 X38.15499 Y-19.29895
G01 X38.26233 Y-19.44903
G01 X38.36556 Y-19.57586
G01 X38.45537 Y-19.67375
G01 X38.66350 Y-19.88386
G01 X38.79990 Y-20.00471
G01 X38.92837 Y-20.10603
G01 X39.11288 Y-20.23260
G01 X39.25877 Y-20.32000
G01 X47.65787 Y-20.32000
G01 X47.82429 Y-20.26686
G01 X48.02134 Y-20.18642
G01 X48.14349 Y-20.12983
G01 X48.26000 Y-20.06539
G01 X48.14349 Y-20.12983
G01 X48.02134 Y-20.18642
G01 X47.82429 Y-20.26686
G01 X47.65787 Y-20.32000
G01 X48.26000 Y-20.32000
G01 X48.26000 Y-18.29049
G01 X48.18642 Y-18.43893
G01 X48.06752 Y-18.61401
G01 X47.92637 Y-18.76882
G01 X47.85180 Y-18.83514
G01 X47.75553 Y-18.90857
G01 X47.57321 Y-19.01746
G01 X47.37951 Y-19.09826
G01 X47.27456 Y-19.12920
G01 X47.16610 Y-19.15257
G01 X46.97397 Y-19.17332
G01 X46.81070 Y-19.17101
G01 X46.74685 Y-19.16560
G01 X46.59379 Y-19.14068
G01 X46.43415 Y-19.09610
G01 X46.27085 Y-19.02930
G01 X46.14426 Y-18.95991
G01 X46.08137 Y-18.91947
G01 X45.95627 Y-18.82498
G01 X40.67282 Y-18.82320
G01 X40.55278 Y-18.81203
G01 X40.49192 Y-18.80138
G01 X40.35425 Y-18.76341
G01 X40.29413 Y-18.74096
G01 X40.18313 Y-18.68828
G01 X40.12001 Y-18.65084
G01 X40.02049 Y-18.58107
G01 X39.92397 Y-18.49496
G01 X39.79583 Y-18.36255
G01 X39.75105 Y-18.30911
G01 X39.67607 Y-18.20004
G01 X39.61475 Y-18.08208
G01 X39.58689 Y-18.01416
G01 X39.54937 Y-17.89509
G01 X39.52403 Y-17.76230
G01 X39.51567 Y-17.64901
G01 X39.51498 Y-15.24000
G01 X39.52486 Y-15.09580
G01 X39.53619 Y-15.02443
G01 X39.57592 Y-14.87477
G01 X39.63208 Y-14.74163
G01 X39.67137 Y-14.66898
G01 X39.76378 Y-14.53457
G01 X39.84437 Y-14.44462
G01 X40.01234 Y-14.28542
G01 X40.13606 Y-14.19837
G01 X40.26337 Y-14.13241
G01 X40.33131 Y-14.10467
G01 X40.45544 Y-14.06652
G01 X40.58430 Y-14.04338
G01 X40.65875 Y-14.03761
G01 X45.49864 Y-14.03525
G01 X45.53471 Y-13.97130
G01 X45.58340 Y-13.90564
G01 X45.64027 Y-13.84689
G01 X45.69595 Y-13.80195
G01 X45.75640 Y-13.76368
G01 X45.83029 Y-13.72873
G01 X45.90814 Y-13.70371
G01 X45.97842 Y-13.69035
G01 X46.05998 Y-13.68499
G01 X47.77021 Y-13.68506
G01 X47.85169 Y-13.69174
G01 X47.93160 Y-13.70901
G01 X48.01794 Y-13.74069
G01 X48.09866 Y-13.78471
G01 X48.17209 Y-13.84008
G01 X48.23656 Y-13.90564
G01 X48.29073 Y-13.97996
G01 X48.33343 Y-14.06139
G01 X48.36368 Y-14.14823
G01 X48.38090 Y-14.23855
G01 X48.38499 Y-14.30998
G01 X48.38466 Y-16.03045
G01 X48.37298 Y-16.13192
G01 X48.34844 Y-16.22054
G01 X48.31118 Y-16.30462
G01 X48.26000 Y-16.38496
G01 X48.26000 Y-17.10583
G01 X48.26277 Y-17.11231
G01 X48.26000 Y-17.10583
G01 X48.26000 Y-16.38496
G01 X48.18723 Y-16.46616
G01 X48.10722 Y-16.52966
G01 X48.00859 Y-16.58343
G01 X47.90905 Y-16.61693
G01 X47.98903 Y-16.69473
G01 X48.09302 Y-16.81960
G01 X48.17892 Y-16.94805
G01 X48.26277 Y-17.11231
G01 X48.31624 Y-17.25501
G01 X48.35863 Y-17.42242
G01 X48.38037 Y-17.58348
G01 X48.38426 Y-17.74599
G01 X48.37046 Y-17.90634
G01 X48.34184 Y-18.05384
G01 X48.29391 Y-18.20929
G01 X48.26000 Y-18.29049
G01 X48.26000 Y-19.30855
G01 X48.14476 Y-19.39841
G01 X48.06950 Y-19.45018
G01 X47.90458 Y-19.54908
G01 X47.78832 Y-19.60634
G01 X47.58931 Y-19.68706
G01 X47.46287 Y-19.72579
G01 X47.38738 Y-19.74454
G01 X47.27796 Y-19.76747
G01 X47.19764 Y-19.77941
G01 X47.01510 Y-19.79696
G01 X46.90201 Y-19.79930
G01 X46.72046 Y-19.79143
G01 X46.53092 Y-19.76481
G01 X46.42353 Y-19.74253
G01 X46.24895 Y-19.69313
G01 X46.05221 Y-19.61606
G01 X45.95315 Y-19.56897
G01 X45.82094 Y-19.49496
G01 X45.74944 Y-19.44997
G01 X45.75495 Y-19.42912
G01 X45.74944 Y-19.44997
G01 X40.71998 Y-19.44997
G01 X40.63764 Y-19.44726
G01 X40.49619 Y-19.43461
G01 X40.35402 Y-19.41098
G01 X40.17757 Y-19.36298
G01 X40.07195 Y-19.32546
G01 X39.90718 Y-19.24914
G01 X39.79502 Y-19.18510
G01 X39.65359 Y-19.08752
G01 X39.52938 Y-18.98190
G01 X39.35359 Y-18.80443
G01 X39.28720 Y-18.73014
G01 X39.18557 Y-18.59153
G01 X39.12641 Y-18.49826
G01 X39.04775 Y-18.34510
G01 X39.00228 Y-18.23570
G01 X38.94978 Y-18.07345
G01 X38.91415 Y-17.90621
G01 X38.89842 Y-17.78879
G01 X38.88999 Y-17.61998
G01 X38.89037 Y-15.20899
G01 X38.90107 Y-15.05450
G01 X38.91219 Y-14.96220
G01 X38.93012 Y-14.87099
G01 X38.96611 Y-14.73098
G01 X38.99164 Y-14.65240
G01 X39.02230 Y-14.57564
G01 X39.07269 Y-14.46246
G01 X39.12108 Y-14.37122
G01 X39.24490 Y-14.18354
G01 X39.36878 Y-14.03764
G01 X39.55580 Y-13.85425
G01 X39.67483 Y-13.75722
G01 X39.77358 Y-13.68829
G01 X39.84996 Y-13.64178
G01 X39.99250 Y-13.56916
G01 X40.07447 Y-13.53340
G01 X40.22621 Y-13.48179
G01 X40.33644 Y-13.45268
G01 X40.50695 Y-13.42314
G01 X40.63863 Y-13.41290
G01 X45.19211 Y-13.41039
G01 X45.20730 Y-13.45057
G01 X45.19211 Y-13.41039
G01 X45.27776 Y-13.33500
G01 X48.26000 Y-13.33500
G01 X48.26000 Y-13.93502
G04 P0 ( dwell for no time -- G64 should not smooth over this point )
G00 Z1.00000 ( retract )

G00 X45.27776 Y-13.33500 ( rapid move to begin. )
G01 F40.00000
( Mill infeed pass 1/2 )
G01 Z-0.03000
G04 P0 ( dwell for no time -- G64 should not smooth over this point )
G01 F80.00000
G01 X45.27776 Y-13.33500
G01 X37.55702 Y-13.33500
G01 X37.46876 Y-13.48392
G01 X37.38489 Y-13.64577
G01 X37.28913 Y-13.85981
G01 X37.22301 Y-14.02972
G01 X37.16411 Y-14.21290
G01 X37.10770 Y-14.43007
G01 X37.07224 Y-14.59855
G01 X37.04610 Y-14.76873
G01 X37.02251 Y-15.02319
G01 X37.01514 Y-15.20899
G01 X37.01499 Y-17.61998
G01 X39.51498 Y-17.61998
( Mill infeed pass 2/2 )
G00 Z1.00000 ( retract )
G00 X45.27776 Y-13.33500 ( rapid move to begin. )
G01 Z-0.06000
G04 P0 ( dwell for no time -- G64 should not smooth over this point )
G01 F80.00000
G01 X45.27776 Y-13.33500
G01 X37.55702 Y-13.33500
G01 X37.46876 Y-13.48392
G01 X37.38489 Y-13.64577
G01 X37.28913 Y-13.85981
G01 X37.22301 Y-14.02972
G01 X37.16411 Y-14.21290
G01 X37.10770 Y-14.43007
G01 X37.07224 Y-14.59855
G01 X37.04610 Y-14.76873
G01 X37.02251 Y-15.02319
G01 X37.01514 Y-15.20899
G01 X37.01499 Y-17.61998
G01 X39.51498 Y-17.61998
G04 P0 ( dwell for no time -- G64 should not smooth over this point )
G00 Z1.00000 ( retract )

G00 X41.76499 Y-16.57497 ( rapid move to begin. )
G01 F40.00000
( Mill infeed pass 1/2 )
G01 Z-0.03000
G04 P0 ( dwell for no time -- G64 should not smooth over this point )
G01 F80.00000
G01 X41.76499 Y-16.57497
G01 X45.79275 Y-16.57497
G01 X45.69595 Y-16.51803
G01 X45.61804 Y-16.45194
G01 X45.55195 Y-16.37403
G01 X45.49874 Y-16.28498
G01 X41.76499 Y-16.28498
G01 X41.76499 Y-16.57497
( Mill infeed pass 2/2 )
G01 Z-0.06000
G04 P0 ( dwell for no time -- G64 should not smooth over this point )
G01 F80.00000
G01 X41.76499 Y-16.57497
G01 X45.79275 Y-16.57497
G01 X45.69595 Y-16.51803
G01 X45.61804 Y-16.45194
G01 X45.55195 Y-16.37403
G01 X45.49874 Y-16.28498
G01 X41.76499 Y-16.28498
G01 X41.76499 Y-16.57497
G04 P0 ( dwell for no time -- G64 should not smooth over this point )
G00 Z1.00000 ( retract )

G00 X39.20015 Y-13.33500 ( rapid move to begin. )
G01 F40.00000
( Mill infeed pass 1/2 )
G01 Z-0.03000
G04 P0 ( dwell for no time -- G64 should not smooth over this point )
G01 F80.00000
G01 X39.20015 Y-13.33500
G01 X39.12022 Y-13.40587
G01 X38.95156 Y-13.56970
G01 X38.79423 Y-13.74559
G01 X38.71511 Y-13.84945
G01 X38.62479 Y-13.98537
G01 X38.57120 Y-14.07368
G01 X38.52253 Y-14.16482
G01 X38.44580 Y-14.33411
G01 X38.40394 Y-14.43975
G01 X38.36563 Y-14.55763
G01 X38.32664 Y-14.70754
G01 X38.30272 Y-14.81861
G01 X38.28684 Y-14.92070
G01 X38.27056 Y-15.09547
G01 X38.26543 Y-15.19867
G01 X38.26510 Y-17.64111
G01 X38.27714 Y-17.85821
G01 X38.30102 Y-18.02775
G01 X38.34633 Y-18.23611
G01 X38.41123 Y-18.43898
G01 X38.47584 Y-18.59752
G01 X38.56716 Y-18.77880
G01 X38.65049 Y-18.91617
G01 X38.78222 Y-19.09958
G01 X38.87612 Y-19.20913
G01 X39.04064 Y-19.37939
G01 X39.18339 Y-19.51030
G01 X39.30330 Y-19.60593
G01 X39.47963 Y-19.72511
G01 X39.62961 Y-19.80913
G01 X39.81430 Y-19.89524
G01 X39.96962 Y-19.95277
G01 X40.20607 Y-20.01827
G01 X40.38844 Y-20.05119
G01 X40.58013 Y-20.06976
G01 X40.71998 Y-20.07497
G01 X45.57702 Y-20.07497
G01 X45.58096 Y-20.05833
G01 X45.57702 Y-20.07497
G01 X45.68380 Y-20.13336
G01 X45.77580 Y-20.17740
G01 X45.99269 Y-20.26587
G01 X46.16630 Y-20.32000
( Mill infeed pass 2/2 )
G00 Z1.00000 ( retract )
G00 X39.20015 Y-13.33500 ( rapid move to begin. )
G01 Z-0.06000
G04 P0 ( dwell for no time -- G64 should not smooth over this point )
G01 F80.00000
G01 X39.20015 Y-13.33500
G01 X39.12022 Y-13.40587
G01 X38.95156 Y-13.56970
G01 X38.79423 Y-13.74559
G01 X38.71511 Y-13.84945
G01 X38.62479 Y-13.98537
G01 X38.57120 Y-14.07368
G01 X38.52253 Y-14.16482
G01 X38.44580 Y-14.33411
G01 X38.40394 Y-14.43975
G01 X38.36563 Y-14.55763
G01 X38.32664 Y-14.70754
G01 X38.30272 Y-14.81861
G01 X38.28684 Y-14.92070
G01 X38.27056 Y-15.09547
G01 X38.26543 Y-15.19867
G01 X38.26510 Y-17.64111
G01 X38.27714 Y-17.85821
G01 X38.30102 Y-18.02775
G01 X38.34633 Y-18.23611
G01 X38.41123 Y-18.43898
G01 X38.47584 Y-18.59752
G01 X38.56716 Y-18.77880
G01 X38.65049 Y-18.91617
G01 X38.78222 Y-19.09958
G01 X38.87612 Y-19.20913
G01 X39.04064 Y-19.37939
G01 X39.18339 Y-19.51030
G01 X39.30330 Y-19.60593
G01 X39.47963 Y-19.72511
G01 X39.62961 Y-19.80913
G01 X39.81430 Y-19.89524
G01 X39.96962 Y-19.95277
G01 X40.20607 Y-20.01827
G01 X40.38844 Y-20.05119
G01 X40.58013 Y-20.06976
G01 X40.71998 Y-20.07497
G01 X45.57702 Y-20.07497
G01 X45.58096 Y-20.05833
G01 X45.57702 Y-20.07497
G01 X45.68380 Y-20.13336
G01 X45.77580 Y-20.17740
G01 X45.99269 Y-20.26587
G01 X46.16630 Y-20.32000

G00 Z15.00000 (Retract to tool change height)
T2
M5      (Spindle stop.)
G04 P1.00000 (Wait for spindle to stop)
(MSG, Change tool bit to mill diameter 0.25000mm)
M6      (Tool change.)
M0      (Temporary machine stop.)
M3 ( Spindle on clockwise. )
G04 P1.00000 (Wait for spindle to get up to speed)
G04 P0 ( dwell for no time -- G64 should not smooth over this point )
G00 Z1.00000 ( retract )

G00 X41.35338 Y-16.98658 ( rapid move to begin. )
G01 F40.00000
( Mill infeed pass 1/2 )
G01 Z-0.03000
G04 P0 ( dwell for no time -- G64 should not smooth over this point )
G01 F80.00000
G01 X41.35338 Y-16.98658
G01 X41.38999 Y-16.94998
G01 X41.38999 Y-16.92082
G01 X41.38999 Y-16.94998
G01 X41.41915 Y-16.94998
G01 X41.66382 Y-17.07497
G01 X41.26499 Y-17.07497
G01 X41.26499 Y-15.78498
G01 X41.66370 Y-15.78498
G01 X41.41912 Y-15.90998
G01 X41.38999 Y-15.90998
G01 X41.38999 Y-15.93911
G01 X41.38999 Y-15.90998
G01 X41.35338 Y-15.87337
( Mill infeed pass 2/2 )
G00 Z1.00000 ( retract )
G00 X41.35338 Y-16.98658 ( rapid move to begin. )
G01 Z-0.06000
G04 P0 ( dwell for no time -- G64 should not smooth over this point )
G01 F80.00000
G01 X41.35338 Y-16.98658
G01 X41.38999 Y-16.94998
G01 X41.38999 Y-16.92082
G01 X41.38999 Y-16.94998
G01 X41.41915 Y-16.94998
G01 X41.66382 Y-17.07497
G01 X41.26499 Y-17.07497
G01 X41.26499 Y-15.78498
G01 X41.66370 Y-15.78498
G01 X41.41912 Y-15.90998
G01 X41.38999 Y-15.90998
G01 X41.38999 Y-15.93911
G01 X41.38999 Y-15.90998
G01 X41.35338 Y-15.87337
G04 P0 ( dwell for no time -- G64 should not smooth over this point )
G00 Z1.00000 ( retract )

G00 X45.60009 Y-14.53520 ( rapid move to begin. )
G01 F40.00000
( Mill infeed pass 1/2 )
G01 Z-0.03000
G04 P0 ( dwell for no time -- G64 should not smooth over this point )
G01 F80.00000
G01 X45.60009 Y-14.53520
G01 X45.93499 Y-14.53505
G01 X45.93554 Y-14.29857
G01 X45.82599 Y-14.42649
G01 X45.84466 Y-14.44559
( Mill infeed pass 2/2 )
G00 Z1.00000 ( retract )
G00 X45.60009 Y-14.53520 ( rapid move to begin. )
G01 Z-0.06000
G04 P0 ( dwell for no time -- G64 should not smooth over this point )
G01 F80.00000
G01 X45.60009 Y-14.53520
G01 X45.93499 Y-14.53505
G01 X45.93554 Y-14.29857
G01 X45.82599 Y-14.42649
G01 X45.84466 Y-14.44559
G04 P0 ( dwell for no time -- G64 should not smooth over this point )
G00 Z1.00000 ( retract )

G00 X45.84469 Y-15.87442 ( rapid move to begin. )
G01 F40.00000
( Mill infeed pass 1/2 )
G01 Z-0.03000
G04 P0 ( dwell for no time -- G64 should not smooth over this point )
G01 F80.00000
G01 X45.84469 Y-15.87442
G01 X45.82597 Y-15.89362
G01 X45.59998 Y-15.78498
G01 X45.93499 Y-15.78498
G01 X45.93557 Y-16.02148
G01 X45.89389 Y-17.07497
G01 X46.16450 Y-17.07497
G01 X46.21108 Y-17.02016
G01 X46.30036 Y-16.93939
G01 X46.41243 Y-16.86151
G01 X46.52678 Y-16.80345
G01 X46.63994 Y-16.76336
G01 X46.78152 Y-16.73372
G01 X46.90123 Y-16.72504
G01 X47.02109 Y-16.73159
G01 X47.15045 Y-16.75526
G01 X47.23798 Y-16.78198
G01 X47.33478 Y-16.82257
G01 X47.43585 Y-16.87919
G01 X47.50567 Y-16.92923
G01 X47.54453 Y-16.25999
G01 X46.19404 Y-16.25999
G01 X46.23257 Y-16.83339
G01 X46.35337 Y-16.75127
G01 X46.48274 Y-16.68640
G01 X46.61946 Y-16.63908
G01 X46.76125 Y-16.61013
G01 X46.90560 Y-16.60004
G01 X47.05937 Y-16.61053
G01 X47.16864 Y-16.63088
G01 X47.27448 Y-16.66243
G01 X47.40935 Y-16.72026
G01 X47.45467 Y-16.38498
G01 X46.26620 Y-16.38498
G01 X46.29889 Y-16.63860
G01 X46.43308 Y-16.57165
G01 X46.58533 Y-16.51881
G01 X46.73341 Y-16.48780
G01 X46.88418 Y-16.47546
G01 X47.05408 Y-16.48353
G01 X47.19249 Y-16.50815
G01 X47.32058 Y-16.54594
G01 X47.40031 Y-16.57871
G01 X47.41931 Y-16.47396
( Mill infeed pass 2/2 )
G00 Z1.00000 ( retract )
G00 X45.84469 Y-15.87442 ( rapid move to begin. )
G01 Z-0.06000
G04 P0 ( dwell for no time -- G64 should not smooth over this point )
G01 F80.00000
G01 X45.84469 Y-15.87442
G01 X45.82597 Y-15.89362
G01 X45.59998 Y-15.78498
G01 X45.93499 Y-15.78498
G01 X45.93557 Y-16.02148
G01 X45.89389 Y-17.07497
G01 X46.16450 Y-17.07497
G01 X46.21108 Y-17.02016
G01 X46.30036 Y-16.93939
G01 X46.41243 Y-16.86151
G01 X46.52678 Y-16.80345
G01 X46.63994 Y-16.76336
G01 X46.78152 Y-16.73372
G01 X46.90123 Y-16.72504
G01 X47.02109 Y-16.73159
G01 X47.15045 Y-16.75526
G01 X47.23798 Y-16.78198
G01 X47.33478 Y-16.82257
G01 X47.43585 Y-16.87919
G01 X47.50567 Y-16.92923
G01 X47.54453 Y-16.25999
G01 X46.19404 Y-16.25999
G01 X46.23257 Y-16.83339
G01 X46.35337 Y-16.75127
G01 X46.48274 Y-16.68640
G01 X46.61946 Y-16.63908
G01 X46.76125 Y-16.61013
G01 X46.90560 Y-16.60004
G01 X47.05937 Y-16.61053
G01 X47.16864 Y-16.63088
G01 X47.27448 Y-16.66243
G01 X47.40935 Y-16.72026
G01 X47.45467 Y-16.38498
G01 X46.26620 Y-16.38498
G01 X46.29889 Y-16.63860
G01 X46.43308 Y-16.57165
G01 X46.58533 Y-16.51881
G01 X46.73341 Y-16.48780
G01 X46.88418 Y-16.47546
G01 X47.05408 Y-16.48353
G01 X47.19249 Y-16.50815
G01 X47.32058 Y-16.54594
G01 X47.40031 Y-16.57871
G01 X47.41931 Y-16.47396
G04 P0 ( dwell for no time -- G64 should not smooth over this point )
G00 Z1.00000 ( retract )

G00 X47.41931 Y-16.47396 ( rapid move to begin. )
G01 F40.00000
( Mill infeed pass 1/2 )
G01 Z-0.03000
G04 P0 ( dwell for no time -- G64 should not smooth over this point )
G01 F80.00000
G01 X47.41931 Y-16.47396
G01 X47.26650 Y-16.43027
G01 X46.58685 Y-16.41980
G01 X46.29785 Y-16.50360
G01 X46.05025 Y-16.13459
G01 X47.74174 Y-16.13499
( Mill infeed pass 2/2 )
G00 Z1.00000 ( retract )
G00 X47.41931 Y-16.47396 ( rapid move to begin. )
G01 Z-0.06000
G04 P0 ( dwell for no time -- G64 should not smooth over this point )
G01 F80.00000
G01 X47.41931 Y-16.47396
G01 X47.26650 Y-16.43027
G01 X46.58685 Y-16.41980
G01 X46.29785 Y-16.50360
G01 X46.05025 Y-16.13459
G01 X47.74174 Y-16.13499
G04 P0 ( dwell for no time -- G64 should not smooth over this point )
G00 Z1.00000 ( retract )

G00 X46.05754 Y-18.32498 ( rapid move to begin. )
G01 F40.00000
( Mill infeed pass 1/2 )
G01 Z-0.03000
G04 P0 ( dwell for no time -- G64 should not smooth over this point )
G01 F80.00000
G01 X46.05754 Y-18.32498
G01 X46.16402 Y-18.32498
G01 X46.22213 Y-18.38957
( Mill infeed pass 2/2 )
G00 Z1.00000 ( retract )
G00 X46.05754 Y-18.32498 ( rapid move to begin. )
G01 Z-0.06000
G04 P0 ( dwell for no time -- G64 should not smooth over this point )
G01 F80.00000
G01 X46.05754 Y-18.32498
G01 X46.16402 Y-18.32498
G01 X46.22213 Y-18.38957

G04 P0 ( dwell for no time -- G64 should not smooth over this point )
G00 Z15.000000 ( retract )

M5 ( Spindle off. )
G04 P1.000000
M9 ( Coolant off. )
M2 ( Program end. )

