( pcb2gcode 2.5.0 )
( Software-independent Gcode )

G94 ( Inches per minute feed rate. )
G20 ( Units == INCHES. )

G90 ( Absolute coordinates. )
G00 S30000 ( RPM spindle speed. )
G64 P0.00040 ( set maximum deviation from commanded toolpath )
G01 F6.00000 ( Feedrate. )


G00 Z1.00000 (Retract to tool change height)
T1
M5      (Spindle stop.)
G04 P1.00000 (Wait for spindle to stop)
(MSG, Change tool bit to mill diameter 0.02000in)
M6      (Tool change.)
M0      (Temporary machine stop.)
M3 ( Spindle on clockwise. )
G04 P1.00000 (Wait for spindle to get up to speed)
G04 P0 ( dwell for no time -- G64 should not smooth over this point )
G00 Z0.08000 ( retract )

G00 X0.10396 Y-0.10396 ( rapid move to begin. )
G01 F3.00000
( Mill infeed pass 1/1 )
G01 Z-0.00800
G04 P0 ( dwell for no time -- G64 should not smooth over this point )
G01 F6.00000
G01 X0.10396 Y-0.10396
G01 X0.10250 Y-0.10250
G01 X0.10250 Y10.10250
G01 X0.10396 Y10.10396
G01 X0.10250 Y10.10250
G01 X-10.10250 Y10.10250
G01 X-10.10396 Y10.10396
G01 X-10.10250 Y10.10250
G01 X-10.10250 Y-0.10250
G01 X-10.10396 Y-0.10396
G01 X-10.10250 Y-0.10250
G01 X0.10250 Y-0.10250
G01 X0.09250 Y-0.09250
G01 X0.09250 Y10.09250
G01 X0.09543 Y10.09543
G01 X0.09250 Y10.09250
G01 X-10.09250 Y10.09250
G01 X-10.09543 Y10.09543
G01 X-10.09250 Y10.09250
G01 X-10.09250 Y-0.09250
G01 X-10.09543 Y-0.09543
G01 X-10.09250 Y-0.09250
G01 X0.09250 Y-0.09250
G04 P0 ( dwell for no time -- G64 should not smooth over this point )
G00 Z0.08000 ( retract )

G00 X-1.22581 Y3.80723 ( rapid move to begin. )
G01 F3.00000
( Mill infeed pass 1/1 )
G01 Z-0.00800
G04 P0 ( dwell for no time -- G64 should not smooth over this point )
G01 F6.00000
G01 X-1.22581 Y3.80723
G01 X-1.30268 Y3.87325
G01 X-1.42011 Y3.97319
G01 X-1.53247 Y4.06769
G01 X-1.55665 Y4.08784
G01 X-1.62126 Y4.14122
G01 X-1.69265 Y4.19929
G01 X-1.75327 Y4.24758
G01 X-1.77098 Y4.26147
G01 X-1.82026 Y4.29949
G01 X-1.86356 Y4.33199
G01 X-1.90236 Y4.36023
G01 X-1.93639 Y4.38417
G01 X-1.96782 Y4.40549
G01 X-1.99649 Y4.42417
G01 X-2.01147 Y4.43361
G01 X-2.03764 Y4.44953
G01 X-2.04945 Y4.45647
G01 X-2.07410 Y4.47041
G01 X-2.10905 Y4.48907
G01 X-2.13134 Y4.50142
G01 X-2.15361 Y4.51446
G01 X-2.17451 Y4.52740
G01 X-2.19555 Y4.54115
G01 X-2.21569 Y4.55503
G01 X-2.22621 Y4.56257
G01 X-2.24562 Y4.57707
G01 X-2.26393 Y4.59145
G01 X-2.27263 Y4.59854
G01 X-2.29058 Y4.61371
G01 X-2.30020 Y4.62216
G01 X-2.31707 Y4.63755
G01 X-2.33405 Y4.65382
G01 X-2.35020 Y4.67007
G01 X-2.36612 Y4.68688
G01 X-2.38201 Y4.70452
G01 X-2.39693 Y4.72192
G01 X-2.41187 Y4.74022
G01 X-2.42625 Y4.75873
G01 X-2.44053 Y4.77809
G01 X-2.44742 Y4.78779
G01 X-2.46130 Y4.80811
G01 X-2.47487 Y4.82909
G01 X-2.48793 Y4.85039
G01 X-2.49461 Y4.86175
G01 X-2.50744 Y4.88454
G01 X-2.51988 Y4.90796
G01 X-2.53212 Y4.93245
G01 X-2.53842 Y4.94567
G01 X-2.54412 Y4.95800
G01 X-2.55544 Y4.98374
G01 X-2.56654 Y5.01075
G01 X-2.57269 Y5.02658
G01 X-2.57754 Y5.03951
G01 X-2.58781 Y5.06844
G01 X-2.59792 Y5.09928
G01 X-2.60375 Y5.11829
G01 X-2.60777 Y5.13203
G01 X-2.61326 Y5.15163
G01 X-2.61692 Y5.16538
G01 X-2.62217 Y5.18604
G01 X-2.62551 Y5.19989
G01 X-2.63068 Y5.22254
G01 X-2.63386 Y5.23729
G01 X-2.63815 Y5.25862
G01 X-2.64014 Y5.27725
G01 X-2.64479 Y5.31727
G01 X-2.64946 Y5.35414
G01 X-2.65439 Y5.39050
G01 X-2.66404 Y5.45648
G01 X-2.67295 Y5.51304
G01 X-2.68026 Y5.55741
G01 X-2.69577 Y5.64692
G01 X-2.71066 Y5.72879
G01 X-2.72824 Y5.82196
G01 X-2.74643 Y5.91566
G01 X-2.77979 Y6.08224
G01 X-2.80928 Y6.22598
G01 X-2.85655 Y6.45188
G01 X-2.93257 Y6.80805
G01 X-3.02065 Y7.21517
G01 X-3.07957 Y7.48434
G01 X-3.07773 Y7.48669
G01 X-3.07957 Y7.48434
G01 X-3.09385 Y7.48410
G01 X-3.20760 Y7.48067
G01 X-3.32892 Y7.47412
G01 X-3.33119 Y7.47646
G01 X-3.32892 Y7.47412
G01 X-3.39002 Y6.75335
G01 X-3.42790 Y6.31112
G01 X-3.45126 Y6.04217
G01 X-3.46718 Y5.86152
G01 X-3.48113 Y5.70601
G01 X-3.48502 Y5.65609
G01 X-3.48501 Y5.36491
G01 X-3.48026 Y5.31492
G01 X-3.46468 Y5.18575
G01 X-3.45269 Y5.08138
G01 X-3.44306 Y4.99185
G01 X-3.43374 Y4.89868
G01 X-3.42498 Y4.80375
G01 X-3.41567 Y4.69436
G01 X-3.40505 Y4.55940
G01 X-3.39665 Y4.44592
G01 X-3.39661 Y4.37598
G01 X-3.39804 Y4.29892
G01 X-3.40228 Y4.21955
G01 X-3.40941 Y4.13643
G01 X-3.41934 Y4.05101
G01 X-3.43204 Y3.96318
G01 X-3.44763 Y3.87214
G01 X-3.46604 Y3.77831
G01 X-3.48734 Y3.68137
G01 X-3.51133 Y3.58225
G01 X-3.53822 Y3.48002
G01 X-3.56792 Y3.37499
G01 X-3.60053 Y3.26693
G01 X-3.63587 Y3.15630
G01 X-3.67405 Y3.04286
G01 X-3.71497 Y2.92681
G01 X-3.75882 Y2.80765
G01 X-3.88809 Y2.46330
G01 X-3.89192 Y2.46154
G01 X-3.88809 Y2.46330
G01 X-3.79307 Y2.42876
G01 X-3.68398 Y2.39192
G01 X-3.57489 Y2.35789
G01 X-3.46581 Y2.32668
G01 X-3.35673 Y2.29829
G01 X-3.24766 Y2.27271
G01 X-3.13860 Y2.24994
G01 X-3.02954 Y2.22999
G01 X-2.92049 Y2.21285
G01 X-2.81144 Y2.19853
G01 X-2.70239 Y2.18702
G01 X-2.59335 Y2.17832
G01 X-2.48431 Y2.17243
G01 X-2.37527 Y2.16935
G01 X-2.26623 Y2.16909
G01 X-2.16340 Y2.17150
G01 X-2.16304 Y2.17070
G01 X-2.16340 Y2.17150
G01 X-2.10070 Y2.24010
G01 X-2.03614 Y2.31333
G01 X-1.97395 Y2.38655
G01 X-1.91412 Y2.45977
G01 X-1.85667 Y2.53296
G01 X-1.80158 Y2.60615
G01 X-1.74886 Y2.67933
G01 X-1.69850 Y2.75249
G01 X-1.65052 Y2.82565
G01 X-1.60490 Y2.89879
G01 X-1.56164 Y2.97191
G01 X-1.52075 Y3.04503
G01 X-1.48223 Y3.11813
G01 X-1.44606 Y3.19121
G01 X-1.41226 Y3.26429
G01 X-1.38078 Y3.33744
G01 X-1.36014 Y3.38727
G01 X-1.33855 Y3.44094
G01 X-1.31829 Y3.49453
G01 X-1.29931 Y3.54811
G01 X-1.28163 Y3.60168
G01 X-1.26523 Y3.65525
G01 X-1.25012 Y3.70881
G01 X-1.23630 Y3.76236
G01 X-1.22581 Y3.80723
G01 X-1.21469 Y3.81085
G01 X-1.29619 Y3.88086
G01 X-1.41364 Y3.98082
G01 X-1.52605 Y4.07537
G01 X-1.55027 Y4.09554
G01 X-1.61491 Y4.14894
G01 X-1.68637 Y4.20707
G01 X-1.74707 Y4.25543
G01 X-1.76484 Y4.26936
G01 X-1.81421 Y4.30745
G01 X-1.85762 Y4.34004
G01 X-1.89655 Y4.36837
G01 X-1.93071 Y4.39240
G01 X-1.96229 Y4.41382
G01 X-1.99112 Y4.43260
G01 X-2.00618 Y4.44210
G01 X-2.03253 Y4.45813
G01 X-2.04444 Y4.46512
G01 X-2.06928 Y4.47917
G01 X-2.10420 Y4.49782
G01 X-2.12645 Y4.51014
G01 X-2.14840 Y4.52300
G01 X-2.16919 Y4.53587
G01 X-2.18993 Y4.54942
G01 X-2.20996 Y4.56323
G01 X-2.22023 Y4.57059
G01 X-2.23950 Y4.58498
G01 X-2.25776 Y4.59932
G01 X-2.26622 Y4.60621
G01 X-2.28408 Y4.62131
G01 X-2.29346 Y4.62955
G01 X-2.31033 Y4.64494
G01 X-2.32696 Y4.66087
G01 X-2.34294 Y4.67694
G01 X-2.35881 Y4.69371
G01 X-2.37442 Y4.71103
G01 X-2.38931 Y4.72839
G01 X-2.40413 Y4.74655
G01 X-2.41831 Y4.76482
G01 X-2.43245 Y4.78398
G01 X-2.43919 Y4.79348
G01 X-2.45304 Y4.81375
G01 X-2.46645 Y4.83447
G01 X-2.47937 Y4.85556
G01 X-2.48593 Y4.86671
G01 X-2.49864 Y4.88928
G01 X-2.51102 Y4.91260
G01 X-2.52315 Y4.93686
G01 X-2.52940 Y4.94997
G01 X-2.53496 Y4.96203
G01 X-2.54621 Y4.98760
G01 X-2.55726 Y5.01450
G01 X-2.56333 Y5.03009
G01 X-2.56813 Y5.04290
G01 X-2.57839 Y5.07178
G01 X-2.58840 Y5.10233
G01 X-2.59415 Y5.12110
G01 X-2.59814 Y5.13472
G01 X-2.60363 Y5.15432
G01 X-2.60723 Y5.16784
G01 X-2.61248 Y5.18850
G01 X-2.61579 Y5.20223
G01 X-2.62093 Y5.22476
G01 X-2.62820 Y5.25963
G01 X-2.63020 Y5.27836
G01 X-2.63487 Y5.31849
G01 X-2.63955 Y5.35545
G01 X-2.64449 Y5.39187
G01 X-2.65416 Y5.45800
G01 X-2.66308 Y5.51464
G01 X-2.67040 Y5.55907
G01 X-2.68592 Y5.64868
G01 X-2.70082 Y5.73062
G01 X-2.71842 Y5.82385
G01 X-2.74190 Y5.94431
G01 X-2.76999 Y6.08423
G01 X-2.79949 Y6.22800
G01 X-2.85484 Y6.49212
G01 X-2.92280 Y6.81016
G01 X-3.01088 Y7.21729
G01 X-3.07155 Y7.49447
G01 X-3.07063 Y7.49564
G01 X-3.07155 Y7.49447
G01 X-3.09410 Y7.49410
G01 X-3.20802 Y7.49067
G01 X-3.32193 Y7.48461
G01 X-3.33816 Y7.48353
G01 X-3.33929 Y7.48470
G01 X-3.33816 Y7.48353
G01 X-3.39998 Y6.75419
G01 X-3.43786 Y6.31197
G01 X-3.46072 Y6.04880
G01 X-3.47714 Y5.86240
G01 X-3.49110 Y5.70683
G01 X-3.49502 Y5.65648
G01 X-3.49500 Y5.36445
G01 X-3.49020 Y5.31380
G01 X-3.47461 Y5.18459
G01 X-3.46263 Y5.08029
G01 X-3.45267 Y4.98761
G01 X-3.44369 Y4.89771
G01 X-3.43494 Y4.80286
G01 X-3.42564 Y4.69356
G01 X-3.41502 Y4.55865
G01 X-3.40662 Y4.44519
G01 X-3.40661 Y4.37616
G01 X-3.40803 Y4.29945
G01 X-3.41227 Y4.21992
G01 X-3.41934 Y4.13759
G01 X-3.42924 Y4.05244
G01 X-3.44194 Y3.96461
G01 X-3.45748 Y3.87383
G01 X-3.47585 Y3.78024
G01 X-3.49706 Y3.68373
G01 X-3.52108 Y3.58451
G01 X-3.54789 Y3.48257
G01 X-3.57755 Y3.37772
G01 X-3.61005 Y3.26997
G01 X-3.64533 Y3.15956
G01 X-3.68348 Y3.04619
G01 X-3.72440 Y2.93014
G01 X-3.76817 Y2.81120
G01 X-3.90100 Y2.45735
G01 X-3.90292 Y2.45647
G01 X-3.90100 Y2.45735
G01 X-3.79638 Y2.41932
G01 X-3.68707 Y2.38241
G01 X-3.57775 Y2.34831
G01 X-3.46844 Y2.31704
G01 X-3.35913 Y2.28858
G01 X-3.24982 Y2.26295
G01 X-3.14052 Y2.24013
G01 X-3.03122 Y2.22013
G01 X-2.92191 Y2.20295
G01 X-2.81262 Y2.18860
G01 X-2.70332 Y2.17706
G01 X-2.59402 Y2.16834
G01 X-2.48472 Y2.16244
G01 X-2.37542 Y2.15935
G01 X-2.26613 Y2.15909
G01 X-2.15890 Y2.16160
G01 X-2.15872 Y2.16120
G01 X-2.15890 Y2.16160
G01 X-2.09326 Y2.23342
G01 X-2.02858 Y2.30679
G01 X-1.96626 Y2.38015
G01 X-1.90632 Y2.45351
G01 X-1.84874 Y2.52687
G01 X-1.79353 Y2.60022
G01 X-1.74068 Y2.67357
G01 X-1.69020 Y2.74692
G01 X-1.64210 Y2.82026
G01 X-1.59635 Y2.89359
G01 X-1.55297 Y2.96693
G01 X-1.51197 Y3.04025
G01 X-1.47332 Y3.11358
G01 X-1.43704 Y3.18690
G01 X-1.40313 Y3.26021
G01 X-1.37157 Y3.33355
G01 X-1.35088 Y3.38350
G01 X-1.32924 Y3.43731
G01 X-1.30890 Y3.49109
G01 X-1.28985 Y3.54487
G01 X-1.27210 Y3.59865
G01 X-1.25564 Y3.65243
G01 X-1.24047 Y3.70620
G01 X-1.22659 Y3.75997
G01 X-1.21469 Y3.81085
G01 X-1.21388 Y3.81112
G04 P0 ( dwell for no time -- G64 should not smooth over this point )
G00 Z0.08000 ( retract )

G00 X-0.88633 Y4.98576 ( rapid move to begin. )
G01 F3.00000
( Mill infeed pass 1/1 )
G01 Z-0.00800
G04 P0 ( dwell for no time -- G64 should not smooth over this point )
G01 F6.00000
G01 X-0.88633 Y4.98576
G01 X-0.87633 Y4.98567
G01 X-0.87645 Y5.02795
G01 X-0.87664 Y5.04014
G01 X-0.87779 Y5.08224
G01 X-0.87829 Y5.09483
G01 X-0.88053 Y5.13778
G01 X-0.88133 Y5.15018
G01 X-0.88467 Y5.19355
G01 X-0.88580 Y5.20614
G01 X-0.89022 Y5.24946
G01 X-0.89166 Y5.26205
G01 X-0.89718 Y5.30550
G01 X-0.89897 Y5.31827
G01 X-0.90554 Y5.36147
G01 X-0.90758 Y5.37383
G01 X-0.91532 Y5.41749
G01 X-0.91771 Y5.43007
G01 X-0.92688 Y5.47531
G01 X-0.92960 Y5.48790
G01 X-0.93998 Y5.53330
G01 X-0.94307 Y5.54606
G01 X-0.95465 Y5.59151
G01 X-0.95791 Y5.60369
G01 X-0.97096 Y5.65013
G01 X-0.97471 Y5.66289
G01 X-0.98916 Y5.70986
G01 X-0.99312 Y5.72221
G01 X-1.00917 Y5.77022
G01 X-1.01355 Y5.78280
G01 X-1.03164 Y5.83277
G01 X-1.03643 Y5.84551
G01 X-1.05600 Y5.89567
G01 X-1.06092 Y5.90784
G01 X-1.08249 Y5.95939
G01 X-1.08793 Y5.97196
G01 X-1.11160 Y6.02487
G01 X-1.11722 Y6.03703
G01 X-1.14322 Y6.09151
G01 X-1.14948 Y6.10425
G01 X-1.17826 Y6.16092
G01 X-1.18492 Y6.17365
G01 X-1.21613 Y6.23154
G01 X-1.22287 Y6.24371
G01 X-1.25693 Y6.30335
G01 X-1.26440 Y6.31607
G01 X-1.30214 Y6.37854
G01 X-1.30994 Y6.39110
G01 X-1.35164 Y6.45642
G01 X-1.35988 Y6.46898
G01 X-1.40550 Y6.53666
G01 X-1.41418 Y6.54922
G01 X-1.46348 Y6.61861
G01 X-1.47233 Y6.63076
G01 X-1.52649 Y6.70319
G01 X-1.53611 Y6.71573
G01 X-1.59543 Y6.79116
G01 X-1.60522 Y6.80330
G01 X-1.66949 Y6.88106
G01 X-1.67976 Y6.89320
G01 X-1.75161 Y6.97597
G01 X-1.76289 Y6.98865
G01 X-1.84356 Y7.07707
G01 X-1.89960 Y7.13642
G01 X-1.95715 Y7.19555
G01 X-2.00536 Y7.24402
G01 X-2.05470 Y7.29242
G01 X-2.12088 Y7.35592
G01 X-2.18932 Y7.41970
G01 X-2.24893 Y7.47403
G01 X-2.32380 Y7.54049
G01 X-2.39731 Y7.60420
G01 X-2.39975 Y7.60592
G01 X-2.40248 Y7.60712
G01 X-2.40540 Y7.60776
G01 X-2.40838 Y7.60781
G01 X-2.47209 Y7.60242
G01 X-2.59087 Y7.59035
G01 X-2.60364 Y7.58889
G01 X-2.72056 Y7.57410
G01 X-2.73275 Y7.57241
G01 X-2.85118 Y7.55448
G01 X-2.86394 Y7.55239
G01 X-2.98484 Y7.53103
G01 X-3.06912 Y7.51448
G01 X-3.09467 Y7.51409
G01 X-3.20902 Y7.51064
G01 X-3.32302 Y7.50457
G01 X-3.34222 Y7.50326
G01 X-3.46104 Y7.52012
G01 X-3.58141 Y7.53417
G01 X-3.70141 Y7.54521
G01 X-3.82178 Y7.55330
G01 X-3.94215 Y7.55842
G01 X-4.06289 Y7.56055
G01 X-4.18326 Y7.55969
G01 X-4.30140 Y7.55585
G01 X-4.37569 Y7.57224
G01 X-4.45227 Y7.58778
G01 X-4.52839 Y7.60198
G01 X-4.60498 Y7.61500
G01 X-4.68134 Y7.62672
G01 X-4.75746 Y7.63714
G01 X-4.83382 Y7.64635
G01 X-4.91018 Y7.65429
G01 X-4.98679 Y7.66100
G01 X-5.06291 Y7.66640
G01 X-5.13927 Y7.67057
G01 X-5.21564 Y7.67347
G01 X-5.29225 Y7.67512
G01 X-5.36837 Y7.67550
G01 X-5.44474 Y7.67463
G01 X-5.51984 Y7.67249
G01 X-5.61741 Y7.68639
G01 X-5.71592 Y7.69823
G01 X-5.81476 Y7.70797
G01 X-5.91360 Y7.71554
G01 X-6.01276 Y7.72097
G01 X-6.11128 Y7.72422
G01 X-6.21012 Y7.72532
G01 X-6.30896 Y7.72427
G01 X-6.40813 Y7.72105
G01 X-6.50697 Y7.71568
G01 X-6.60581 Y7.70815
G01 X-6.70465 Y7.69846
G01 X-6.80316 Y7.68666
G01 X-6.90231 Y7.67261
G01 X-7.00082 Y7.65651
G01 X-7.09476 Y7.63911
G01 X-7.09484 Y7.63858
G01 X-7.09476 Y7.63911
G01 X-7.15983 Y7.67110
G01 X-7.22967 Y7.70414
G01 X-7.34279 Y7.75500
G01 X-7.45307 Y7.80130
G01 X-7.56175 Y7.84385
G01 X-7.66757 Y7.88227
G01 X-7.77288 Y7.91763
G01 X-7.87535 Y7.94919
G01 X-7.95270 Y7.97123
G01 X-7.95566 Y7.97176
G01 X-7.95866 Y7.97169
G01 X-7.96159 Y7.97103
G01 X-7.96432 Y7.96979
G01 X-8.06569 Y7.91111
G01 X-8.16909 Y7.84905
G01 X-8.23591 Y7.80772
G01 X-8.30123 Y7.76625
G01 X-8.36466 Y7.72486
G01 X-8.42619 Y7.68358
G01 X-8.53309 Y7.60908
G01 X-8.63034 Y7.53760
G01 X-8.71521 Y7.47200
G01 X-8.79544 Y7.40661
G01 X-8.86019 Y7.35119
G01 X-8.92155 Y7.29599
G01 X-8.97724 Y7.24343
G01 X-9.03050 Y7.19048
G01 X-9.07353 Y7.14558
G01 X-9.11424 Y7.10096
G01 X-9.15289 Y7.05651
G01 X-9.18661 Y7.01568
G01 X-9.21892 Y6.97461
G01 X-9.24697 Y6.93701
G01 X-9.27411 Y6.89878
G01 X-9.29787 Y6.86343
G01 X-9.32087 Y6.82738
G01 X-9.34236 Y6.79162
G01 X-9.37614 Y6.73066
G01 X-9.40501 Y6.67230
G01 X-9.42951 Y6.61640
G01 X-9.45130 Y6.55945
G01 X-9.45267 Y6.55555
G01 X-9.47047 Y6.50054
G01 X-9.48495 Y6.44689
G01 X-9.49640 Y6.39415
G01 X-9.50443 Y6.34633
G01 X-9.51043 Y6.29609
G01 X-9.51397 Y6.24527
G01 X-9.51494 Y6.19184
G01 X-9.51333 Y6.14211
G01 X-9.50957 Y6.09526
G01 X-9.50300 Y6.04406
G01 X-9.49302 Y5.98892
G01 X-9.48081 Y5.93665
G01 X-9.47210 Y5.90529
G01 X-9.47124 Y5.90518
G01 X-9.47210 Y5.90529
G01 X-9.49371 Y5.86925
G01 X-9.51408 Y5.83383
G01 X-9.53411 Y5.79747
G01 X-9.54662 Y5.77389
G01 X-9.56352 Y5.74085
G01 X-9.57465 Y5.71826
G01 X-9.59066 Y5.68446
G01 X-9.60065 Y5.66249
G01 X-9.61401 Y5.63191
G01 X-9.62787 Y5.59853
G01 X-9.63971 Y5.56847
G01 X-9.64883 Y5.54425
G01 X-9.65999 Y5.51290
G01 X-9.66919 Y5.48561
G01 X-9.67938 Y5.45343
G01 X-9.68733 Y5.42666
G01 X-9.69628 Y5.39438
G01 X-9.70298 Y5.36833
G01 X-9.71056 Y5.33643
G01 X-9.71622 Y5.31054
G01 X-9.72238 Y5.27955
G01 X-9.72686 Y5.25471
G01 X-9.73183 Y5.22394
G01 X-9.73540 Y5.19893
G01 X-9.73926 Y5.16770
G01 X-9.74178 Y5.14372
G01 X-9.74443 Y5.11309
G01 X-9.74608 Y5.08887
G01 X-9.74757 Y5.05891
G01 X-9.74834 Y5.03471
G01 X-9.74874 Y5.00391
G01 X-9.74867 Y4.98553
G01 X-9.74838 Y4.96704
G01 X-9.74785 Y4.94865
G01 X-9.74713 Y4.93074
G01 X-9.74616 Y4.91241
G01 X-9.74456 Y4.88865
G01 X-9.74305 Y4.87005
G01 X-9.74131 Y4.85157
G01 X-9.73932 Y4.83290
G01 X-9.73711 Y4.81430
G01 X-9.73467 Y4.79570
G01 X-9.73017 Y4.76534
G01 X-9.72710 Y4.74666
G01 X-9.72374 Y4.72776
G01 X-9.72021 Y4.70915
G01 X-9.71636 Y4.69017
G01 X-9.71236 Y4.67159
G01 X-9.70796 Y4.65229
G01 X-9.70329 Y4.63291
G01 X-9.69832 Y4.61338
G01 X-9.69321 Y4.59426
G01 X-9.68770 Y4.57461
G01 X-9.68204 Y4.55532
G01 X-9.67593 Y4.53541
G01 X-9.66942 Y4.51510
G01 X-9.66284 Y4.49540
G01 X-9.65571 Y4.47488
G01 X-9.64824 Y4.45421
G01 X-9.64044 Y4.43343
G01 X-9.63244 Y4.41289
G01 X-9.62025 Y4.38289
G01 X-9.61125 Y4.36165
G01 X-9.60154 Y4.33951
G01 X-9.58546 Y4.30434
G01 X-9.57444 Y4.28130
G01 X-9.56388 Y4.25986
G01 X-9.54681 Y4.22647
G01 X-9.53471 Y4.20364
G01 X-9.52201 Y4.18037
G01 X-9.50120 Y4.14360
G01 X-9.47998 Y4.10767
G01 X-9.45713 Y4.07054
G01 X-9.43221 Y4.03167
G01 X-9.40657 Y3.99325
G01 X-9.38856 Y3.96711
G01 X-9.37820 Y3.95237
G01 X-9.35825 Y3.92457
G01 X-9.32810 Y3.88386
G01 X-9.31575 Y3.86761
G01 X-9.29382 Y3.83932
G01 X-9.26043 Y3.79752
G01 X-9.23589 Y3.76770
G01 X-9.20974 Y3.73671
G01 X-9.18222 Y3.70489
G01 X-9.15352 Y3.67253
G01 X-9.12318 Y3.63916
G01 X-9.09154 Y3.60521
G01 X-9.05909 Y3.57122
G01 X-9.02456 Y3.53594
G01 X-8.98794 Y3.49943
G01 X-8.94961 Y3.46213
G01 X-8.90911 Y3.42370
G01 X-8.86758 Y3.38523
G01 X-8.83717 Y3.35764
G01 X-8.79092 Y3.31655
G01 X-8.74267 Y3.27474
G01 X-8.72807 Y3.26228
G01 X-8.67684 Y3.21926
G01 X-8.62216 Y3.17447
G01 X-8.57963 Y3.14039
G01 X-8.56389 Y3.12793
G01 X-8.50325 Y3.08069
G01 X-8.43868 Y3.03164
G01 X-8.38650 Y2.99288
G01 X-8.36951 Y2.98043
G01 X-8.31335 Y2.93979
G01 X-8.29592 Y2.92733
G01 X-8.23564 Y2.88484
G01 X-8.21766 Y2.87233
G01 X-8.15427 Y2.82880
G01 X-8.13649 Y2.81674
G01 X-8.06790 Y2.77086
G01 X-8.04896 Y2.75836
G01 X-7.97525 Y2.71035
G01 X-7.95650 Y2.69830
G01 X-7.87748 Y2.64819
G01 X-7.81025 Y2.60642
G01 X-7.75860 Y2.55701
G01 X-7.70458 Y2.50656
G01 X-7.64947 Y2.45622
G01 X-7.59303 Y2.40578
G01 X-7.59061 Y2.40402
G01 X-7.58790 Y2.40278
G01 X-7.58499 Y2.40210
G01 X-7.58200 Y2.40200
G01 X-7.51133 Y2.40687
G01 X-7.44044 Y2.41281
G01 X-7.36956 Y2.41980
G01 X-7.30014 Y2.42773
G01 X-7.18846 Y2.41822
G01 X-7.07529 Y2.41131
G01 X-6.96212 Y2.40707
G01 X-6.85126 Y2.40562
G01 X-6.76888 Y2.38230
G01 X-6.68435 Y2.36008
G01 X-6.59981 Y2.33947
G01 X-6.51527 Y2.32049
G01 X-6.43045 Y2.30307
G01 X-6.34590 Y2.28732
G01 X-6.26134 Y2.27319
G01 X-6.17678 Y2.26068
G01 X-6.09251 Y2.24983
G01 X-6.00766 Y2.24052
G01 X-5.92310 Y2.23287
G01 X-5.83854 Y2.22683
G01 X-5.75426 Y2.22243
G01 X-5.66941 Y2.21963
G01 X-5.58513 Y2.21845
G01 X-5.50057 Y2.21889
G01 X-5.41571 Y2.22095
G01 X-5.33115 Y2.22463
G01 X-5.24687 Y2.22991
G01 X-5.16231 Y2.23683
G01 X-5.07747 Y2.24539
G01 X-4.99319 Y2.25551
G01 X-4.90863 Y2.26728
G01 X-4.82380 Y2.28071
G01 X-4.73925 Y2.29573
G01 X-4.65470 Y2.31236
G01 X-4.57042 Y2.33054
G01 X-4.48588 Y2.35041
G01 X-4.40108 Y2.37195
G01 X-4.31680 Y2.39498
G01 X-4.23201 Y2.41978
G01 X-4.15018 Y2.44527
G01 X-4.15021 Y2.44541
G01 X-4.15018 Y2.44527
G01 X-4.03038 Y2.44083
G01 X-3.91019 Y2.43941
G01 X-3.91016 Y2.43955
G01 X-3.91019 Y2.43941
G01 X-3.80316 Y2.40051
G01 X-3.69341 Y2.36344
G01 X-3.58365 Y2.32920
G01 X-3.47388 Y2.29779
G01 X-3.36376 Y2.26912
G01 X-3.25433 Y2.24346
G01 X-3.14418 Y2.22047
G01 X-3.03438 Y2.20038
G01 X-2.92496 Y2.18319
G01 X-2.81478 Y2.16871
G01 X-2.70497 Y2.15713
G01 X-2.59516 Y2.14837
G01 X-2.48574 Y2.14246
G01 X-2.37554 Y2.13935
G01 X-2.26572 Y2.13909
G01 X-2.15630 Y2.14165
G01 X-2.15330 Y2.14203
G01 X-2.15044 Y2.14299
G01 X-2.14783 Y2.14452
G01 X-2.14558 Y2.14653
G01 X-2.07847 Y2.21997
G01 X-2.01355 Y2.29360
G01 X-1.95081 Y2.36746
G01 X-1.89080 Y2.44090
G01 X-1.83297 Y2.51456
G01 X-1.77733 Y2.58849
G01 X-1.72424 Y2.66219
G01 X-1.67370 Y2.73562
G01 X-1.62516 Y2.80962
G01 X-1.57917 Y2.88336
G01 X-1.53573 Y2.95680
G01 X-1.49448 Y3.03055
G01 X-1.45542 Y3.10465
G01 X-1.41892 Y3.17844
G01 X-1.38495 Y3.25188
G01 X-1.35318 Y3.32568
G01 X-1.33239 Y3.37587
G01 X-1.31055 Y3.43018
G01 X-1.29017 Y3.48406
G01 X-1.27088 Y3.53855
G01 X-1.25299 Y3.59274
G01 X-1.23650 Y3.64662
G01 X-1.22112 Y3.70115
G01 X-1.20721 Y3.75503
G01 X-1.19503 Y3.80740
G01 X-1.17592 Y3.84356
G01 X-1.16968 Y3.85568
G01 X-1.14185 Y3.91128
G01 X-1.13567 Y3.92401
G01 X-1.10995 Y3.97875
G01 X-1.10415 Y3.99149
G01 X-1.08064 Y4.04491
G01 X-1.07530 Y4.05748
G01 X-1.05425 Y4.10870
G01 X-1.04942 Y4.12087
G01 X-1.03033 Y4.17074
G01 X-1.02570 Y4.18331
G01 X-1.00806 Y4.23300
G01 X-1.00378 Y4.24558
G01 X-0.98786 Y4.29425
G01 X-0.98386 Y4.30700
G01 X-0.96975 Y4.35401
G01 X-0.96626 Y4.36619
G01 X-0.95363 Y4.41236
G01 X-0.95040 Y4.42476
G01 X-0.93899 Y4.47087
G01 X-0.93600 Y4.48363
G01 X-0.92596 Y4.52904
G01 X-0.92338 Y4.54144
G01 X-0.91456 Y4.58660
G01 X-0.91226 Y4.59918
G01 X-0.90488 Y4.64264
G01 X-0.90294 Y4.65500
G01 X-0.89679 Y4.69740
G01 X-0.89517 Y4.70958
G01 X-0.89001 Y4.75243
G01 X-0.88863 Y4.76520
G01 X-0.88451 Y4.80829
G01 X-0.88345 Y4.82106
G01 X-0.88047 Y4.86326
G01 X-0.87975 Y4.87545
G01 X-0.87779 Y4.91784
G01 X-0.87736 Y4.93043
G01 X-0.87644 Y4.97309
G01 X-0.87633 Y4.98567
G01 X-0.88633 Y4.98576
G01 X-0.88645 Y5.02780
G01 X-0.88663 Y5.03986
G01 X-0.88778 Y5.08178
G01 X-0.88828 Y5.09424
G01 X-0.89051 Y5.13707
G01 X-0.89131 Y5.14960
G01 X-0.89463 Y5.19260
G01 X-0.89575 Y5.20512
G01 X-0.90015 Y5.24826
G01 X-0.90158 Y5.26079
G01 X-0.90710 Y5.30424
G01 X-0.90885 Y5.31670
G01 X-0.91543 Y5.35996
G01 X-0.91741 Y5.37202
G01 X-0.92517 Y5.41575
G01 X-0.92753 Y5.42821
G01 X-0.93665 Y5.47314
G01 X-0.93933 Y5.48561
G01 X-0.94973 Y5.53107
G01 X-0.95275 Y5.54353
G01 X-0.96434 Y5.58904
G01 X-0.96759 Y5.60116
G01 X-0.98059 Y5.64743
G01 X-0.98427 Y5.65995
G01 X-0.99871 Y5.70692
G01 X-1.00258 Y5.71898
G01 X-1.01868 Y5.76711
G01 X-1.02299 Y5.77951
G01 X-1.04106 Y5.82942
G01 X-1.04573 Y5.84182
G01 X-1.06534 Y5.89209
G01 X-1.07021 Y5.90415
G01 X-1.09174 Y5.95558
G01 X-1.09710 Y5.96799
G01 X-1.12073 Y6.02078
G01 X-1.12630 Y6.03284
G01 X-1.15227 Y6.08726
G01 X-1.15840 Y6.09972
G01 X-1.18718 Y6.15640
G01 X-1.19369 Y6.16885
G01 X-1.22487 Y6.22669
G01 X-1.23156 Y6.23875
G01 X-1.26562 Y6.29839
G01 X-1.27293 Y6.31084
G01 X-1.31070 Y6.37337
G01 X-1.31847 Y6.38588
G01 X-1.36007 Y6.45104
G01 X-1.36824 Y6.46350
G01 X-1.41379 Y6.53108
G01 X-1.42241 Y6.54353
G01 X-1.47163 Y6.61282
G01 X-1.48041 Y6.62487
G01 X-1.53453 Y6.69725
G01 X-1.54404 Y6.70965
G01 X-1.60333 Y6.78502
G01 X-1.61301 Y6.79702
G01 X-1.67723 Y6.87473
G01 X-1.68744 Y6.88678
G01 X-1.75921 Y6.96946
G01 X-1.77024 Y6.98186
G01 X-1.85099 Y7.07038
G01 X-1.90677 Y7.12945
G01 X-1.96422 Y7.18848
G01 X-2.01232 Y7.23684
G01 X-2.06166 Y7.28524
G01 X-2.12771 Y7.34861
G01 X-2.19610 Y7.41235
G01 X-2.25571 Y7.46668
G01 X-2.33043 Y7.53300
G01 X-2.40386 Y7.59664
G01 X-2.40558 Y7.59762
G01 X-2.40755 Y7.59785
G01 X-2.45881 Y7.59356
G01 X-2.47127 Y7.59245
G01 X-2.58986 Y7.58040
G01 X-2.60233 Y7.57898
G01 X-2.71937 Y7.56417
G01 X-2.73143 Y7.56250
G01 X-2.84974 Y7.54458
G01 X-2.86214 Y7.54255
G01 X-2.98317 Y7.52117
G01 X-3.06807 Y7.50451
G01 X-3.09431 Y7.50410
G01 X-3.20837 Y7.50066
G01 X-3.32255 Y7.49459
G01 X-3.34260 Y7.49323
G01 X-3.46208 Y7.51017
G01 X-3.58232 Y7.52421
G01 X-3.70245 Y7.53526
G01 X-3.82245 Y7.54333
G01 X-3.94269 Y7.54843
G01 X-4.06269 Y7.55055
G01 X-4.18294 Y7.54970
G01 X-4.30232 Y7.54586
G01 X-4.37783 Y7.56247
G01 X-4.45403 Y7.57794
G01 X-4.53022 Y7.59215
G01 X-4.60650 Y7.60511
G01 X-4.68262 Y7.61680
G01 X-4.75882 Y7.62724
G01 X-4.83510 Y7.63643
G01 X-4.91122 Y7.64435
G01 X-4.98750 Y7.65102
G01 X-5.06362 Y7.65643
G01 X-5.13990 Y7.66059
G01 X-5.21610 Y7.66348
G01 X-5.29222 Y7.66512
G01 X-5.36850 Y7.66550
G01 X-5.44462 Y7.66463
G01 X-5.52040 Y7.66249
G01 X-5.61860 Y7.67646
G01 X-5.71723 Y7.68832
G01 X-5.81574 Y7.69801
G01 X-5.91436 Y7.70557
G01 X-6.01309 Y7.71098
G01 X-6.11161 Y7.71423
G01 X-6.21023 Y7.71533
G01 X-6.30896 Y7.71427
G01 X-6.40748 Y7.71107
G01 X-6.50610 Y7.70571
G01 X-6.60473 Y7.69820
G01 X-6.70346 Y7.68853
G01 X-6.80197 Y7.67673
G01 X-6.90059 Y7.66276
G01 X-6.99921 Y7.64664
G01 X-7.09620 Y7.62868
G01 X-7.09624 Y7.62841
G01 X-7.09620 Y7.62868
G01 X-7.16431 Y7.66216
G01 X-7.23384 Y7.69505
G01 X-7.34689 Y7.74588
G01 X-7.45682 Y7.79203
G01 X-7.56539 Y7.83454
G01 X-7.67087 Y7.87283
G01 X-7.77606 Y7.90814
G01 X-7.87817 Y7.93960
G01 X-7.95642 Y7.96179
G01 X-7.95742 Y7.96177
G01 X-7.95931 Y7.96113
G01 X-8.06067 Y7.90245
G01 X-8.16388 Y7.84051
G01 X-8.23065 Y7.79922
G01 X-8.29576 Y7.75787
G01 X-8.35909 Y7.71656
G01 X-8.42065 Y7.67526
G01 X-8.52747 Y7.60081
G01 X-8.62431 Y7.52962
G01 X-8.70880 Y7.46432
G01 X-8.78907 Y7.39890
G01 X-8.85350 Y7.34375
G01 X-8.91477 Y7.28864
G01 X-8.97037 Y7.23617
G01 X-9.02323 Y7.18360
G01 X-9.06605 Y7.13893
G01 X-9.10689 Y7.09417
G01 X-9.14510 Y7.05024
G01 X-9.17882 Y7.00941
G01 X-9.21083 Y6.96872
G01 X-9.23888 Y6.93114
G01 X-9.26602 Y6.89290
G01 X-9.28950 Y6.85796
G01 X-9.31231 Y6.82221
G01 X-9.33374 Y6.78657
G01 X-9.36581 Y6.72881
G01 X-9.39440 Y6.67138
G01 X-9.42175 Y6.60895
G01 X-9.44200 Y6.55577
G01 X-9.45993 Y6.50088
G01 X-9.47445 Y6.44771
G01 X-9.48588 Y6.39594
G01 X-9.49453 Y6.34492
G01 X-9.50082 Y6.29147
G01 X-9.50412 Y6.24152
G01 X-9.50495 Y6.19227
G01 X-9.50352 Y6.14587
G01 X-9.49926 Y6.09274
G01 X-9.49260 Y6.04227
G01 X-9.48328 Y5.99118
G01 X-9.47195 Y5.94235
G01 X-9.46130 Y5.90379
G01 X-9.46087 Y5.90373
G01 X-9.46130 Y5.90379
G01 X-9.47029 Y5.88902
G01 X-9.49197 Y5.85238
G01 X-9.51234 Y5.81644
G01 X-9.53123 Y5.78166
G01 X-9.54326 Y5.75867
G01 X-9.56077 Y5.72389
G01 X-9.57595 Y5.69235
G01 X-9.59153 Y5.65837
G01 X-9.60479 Y5.62802
G01 X-9.61861 Y5.59475
G01 X-9.63039 Y5.56483
G01 X-9.64307 Y5.53083
G01 X-9.65310 Y5.50218
G01 X-9.66372 Y5.47002
G01 X-9.67205 Y5.44318
G01 X-9.67771 Y5.42393
G01 X-9.68324 Y5.40429
G01 X-9.69154 Y5.37283
G01 X-9.69793 Y5.34667
G01 X-9.70504 Y5.31505
G01 X-9.70889 Y5.29652
G01 X-9.71256 Y5.27766
G01 X-9.71592 Y5.25926
G01 X-9.71901 Y5.24105
G01 X-9.72287 Y5.21620
G01 X-9.72711 Y5.18511
G01 X-9.72998 Y5.16063
G01 X-9.73183 Y5.14270
G01 X-9.73349 Y5.12441
G01 X-9.73574 Y5.09412
G01 X-9.73677 Y5.07628
G01 X-9.73758 Y5.05856
G01 X-9.73834 Y5.03455
G01 X-9.73865 Y5.01624
G01 X-9.73874 Y4.99802
G01 X-9.73838 Y4.96729
G01 X-9.73786 Y4.94902
G01 X-9.73714 Y4.93126
G01 X-9.73582 Y4.90722
G01 X-9.73459 Y4.88935
G01 X-9.73309 Y4.87099
G01 X-9.73136 Y4.85252
G01 X-9.72939 Y4.83406
G01 X-9.72719 Y4.81552
G01 X-9.72475 Y4.79702
G01 X-9.72216 Y4.77899
G01 X-9.71930 Y4.76074
G01 X-9.71613 Y4.74195
G01 X-9.71272 Y4.72316
G01 X-9.70912 Y4.70467
G01 X-9.70520 Y4.68572
G01 X-9.70110 Y4.66706
G01 X-9.69661 Y4.64777
G01 X-9.68865 Y4.61593
G01 X-9.68357 Y4.59693
G01 X-9.67810 Y4.57742
G01 X-9.67245 Y4.55816
G01 X-9.66637 Y4.53834
G01 X-9.65993 Y4.51826
G01 X-9.65335 Y4.49856
G01 X-9.64339 Y4.47012
G01 X-9.63107 Y4.43694
G01 X-9.62312 Y4.41651
G01 X-9.61465 Y4.39551
G01 X-9.60595 Y4.37468
G01 X-9.59668 Y4.35324
G01 X-9.58107 Y4.31860
G01 X-9.57170 Y4.29865
G01 X-9.56087 Y4.27631
G01 X-9.54337 Y4.24155
G01 X-9.52589 Y4.20835
G01 X-9.50632 Y4.17276
G01 X-9.48570 Y4.13686
G01 X-9.46415 Y4.10086
G01 X-9.44042 Y4.06283
G01 X-9.41590 Y4.02509
G01 X-9.39834 Y3.99893
G01 X-9.38867 Y3.98482
G01 X-9.36122 Y3.94577
G01 X-9.34111 Y3.91807
G01 X-9.32942 Y3.90229
G01 X-9.30783 Y3.87371
G01 X-9.27645 Y3.83344
G01 X-9.25266 Y3.80381
G01 X-9.22817 Y3.77406
G01 X-9.21272 Y3.75566
G01 X-9.18557 Y3.72396
G01 X-9.15714 Y3.69159
G01 X-9.12725 Y3.65841
G01 X-9.09590 Y3.62446
G01 X-9.06345 Y3.59018
G01 X-9.02974 Y3.55543
G01 X-8.99354 Y3.51903
G01 X-8.98098 Y3.50660
G01 X-8.94266 Y3.46933
G01 X-8.90226 Y3.43098
G01 X-8.86081 Y3.39260
G01 X-8.81658 Y3.35263
G01 X-8.78429 Y3.32404
G01 X-8.73621 Y3.28236
G01 X-8.72165 Y3.26994
G01 X-8.67042 Y3.22693
G01 X-8.63116 Y3.19466
G01 X-8.57345 Y3.14825
G01 X-8.51279 Y3.10068
G01 X-8.44917 Y3.05205
G01 X-8.43264 Y3.03961
G01 X-8.36365 Y2.98853
G01 X-8.30746 Y2.94787
G01 X-8.29010 Y2.93547
G01 X-8.22987 Y2.89301
G01 X-8.21203 Y2.88059
G01 X-8.14868 Y2.83709
G01 X-8.13095 Y2.82507
G01 X-8.06233 Y2.77917
G01 X-8.04350 Y2.76674
G01 X-7.96977 Y2.71872
G01 X-7.95110 Y2.70672
G01 X-7.87220 Y2.65669
G01 X-7.80411 Y2.61435
G01 X-7.75181 Y2.56435
G01 X-7.69787 Y2.51398
G01 X-7.64268 Y2.46357
G01 X-7.58636 Y2.41324
G01 X-7.58465 Y2.41224
G01 X-7.58269 Y2.41198
G01 X-7.51195 Y2.41685
G01 X-7.44121 Y2.42278
G01 X-7.37054 Y2.42975
G01 X-7.30029 Y2.43775
G01 X-7.18796 Y2.42821
G01 X-7.07491 Y2.42130
G01 X-6.96209 Y2.41707
G01 X-6.84981 Y2.41556
G01 X-6.76608 Y2.39190
G01 X-6.68181 Y2.36975
G01 X-6.59735 Y2.34917
G01 X-6.51307 Y2.33024
G01 X-6.42862 Y2.31290
G01 X-6.34434 Y2.29720
G01 X-6.25988 Y2.28308
G01 X-6.17551 Y2.27060
G01 X-6.09123 Y2.25974
G01 X-6.00686 Y2.25049
G01 X-5.92239 Y2.24284
G01 X-5.83811 Y2.23683
G01 X-5.75374 Y2.23242
G01 X-5.66936 Y2.22963
G01 X-5.58499 Y2.22845
G01 X-5.50062 Y2.22889
G01 X-5.41615 Y2.23094
G01 X-5.33187 Y2.23461
G01 X-5.24750 Y2.23989
G01 X-5.16303 Y2.24680
G01 X-5.07866 Y2.25532
G01 X-4.99429 Y2.26545
G01 X-4.91001 Y2.27718
G01 X-4.82555 Y2.29056
G01 X-4.74118 Y2.30554
G01 X-4.65681 Y2.32213
G01 X-4.57244 Y2.34034
G01 X-4.48817 Y2.36014
G01 X-4.40380 Y2.38158
G01 X-4.31935 Y2.40465
G01 X-4.23507 Y2.42930
G01 X-4.15154 Y2.45540
G01 X-4.02989 Y2.45082
G01 X-3.90836 Y2.44946
G01 X-3.79974 Y2.40991
G01 X-3.69010 Y2.37288
G01 X-3.58056 Y2.33871
G01 X-3.47102 Y2.30737
G01 X-3.36159 Y2.27889
G01 X-3.25205 Y2.25319
G01 X-3.14238 Y2.23030
G01 X-3.03283 Y2.21026
G01 X-2.92340 Y2.19307
G01 X-2.81386 Y2.17867
G01 X-2.70418 Y2.16709
G01 X-2.59462 Y2.15835
G01 X-2.48520 Y2.15245
G01 X-2.37551 Y2.14935
G01 X-2.26609 Y2.14909
G01 X-2.15653 Y2.15165
G01 X-2.15553 Y2.15178
G01 X-2.15458 Y2.15210
G01 X-2.15371 Y2.15260
G01 X-2.15296 Y2.15328
G01 X-2.08579 Y2.22678
G01 X-2.02105 Y2.30021
G01 X-1.95861 Y2.37372
G01 X-1.89848 Y2.44730
G01 X-1.84084 Y2.52074
G01 X-1.78550 Y2.59425
G01 X-1.73254 Y2.66777
G01 X-1.68194 Y2.74129
G01 X-1.63364 Y2.81492
G01 X-1.58777 Y2.88845
G01 X-1.54434 Y2.96189
G01 X-1.50315 Y3.03554
G01 X-1.46444 Y3.10897
G01 X-1.42799 Y3.18264
G01 X-1.39397 Y3.25620
G01 X-1.36237 Y3.32963
G01 X-1.34163 Y3.37969
G01 X-1.31990 Y3.43372
G01 X-1.29949 Y3.48770
G01 X-1.28037 Y3.54169
G01 X-1.26259 Y3.59557
G01 X-1.24606 Y3.64955
G01 X-1.23083 Y3.70354
G01 X-1.21690 Y3.75753
G01 X-1.20444 Y3.81091
G01 X-1.17857 Y3.86026
G01 X-1.15080 Y3.91575
G01 X-1.14472 Y3.92827
G01 X-1.11897 Y3.98306
G01 X-1.11333 Y3.99546
G01 X-1.08985 Y4.04882
G01 X-1.08455 Y4.06128
G01 X-1.06356 Y4.11233
G01 X-1.05876 Y4.12445
G01 X-1.03967 Y4.17431
G01 X-1.03506 Y4.18683
G01 X-1.01749 Y4.23634
G01 X-1.01322 Y4.24886
G01 X-0.99734 Y4.29741
G01 X-0.99344 Y4.30987
G01 X-0.97937 Y4.35677
G01 X-0.97591 Y4.36883
G01 X-0.96332 Y4.41482
G01 X-0.96008 Y4.42729
G01 X-0.94869 Y4.47333
G01 X-0.94577 Y4.48579
G01 X-0.93575 Y4.53108
G01 X-0.93317 Y4.54348
G01 X-0.92441 Y4.58833
G01 X-0.92212 Y4.60085
G01 X-0.91474 Y4.64432
G01 X-0.91284 Y4.65638
G01 X-0.90668 Y4.69884
G01 X-0.90507 Y4.71096
G01 X-0.89994 Y4.75362
G01 X-0.89858 Y4.76615
G01 X-0.89446 Y4.80931
G01 X-0.89343 Y4.82177
G01 X-0.89044 Y4.86403
G01 X-0.88973 Y4.87609
G01 X-0.88779 Y4.91818
G01 X-0.88736 Y4.93058
G01 X-0.88644 Y4.97330
G01 X-0.88633 Y4.98573
G01 X-0.90633 Y4.98586
G01 X-0.90645 Y5.02759
G01 X-0.90663 Y5.03941
G01 X-0.90777 Y5.08114
G01 X-0.90826 Y5.09336
G01 X-0.91047 Y5.13594
G01 X-0.91126 Y5.14815
G01 X-0.91456 Y5.19097
G01 X-0.91565 Y5.20319
G01 X-0.92003 Y5.24614
G01 X-0.92143 Y5.25836
G01 X-0.92693 Y5.30162
G01 X-0.92864 Y5.31384
G01 X-0.93519 Y5.35686
G01 X-0.93714 Y5.36868
G01 X-0.94484 Y5.41216
G01 X-0.94716 Y5.42438
G01 X-0.95623 Y5.46908
G01 X-0.95886 Y5.48130
G01 X-0.96921 Y5.52652
G01 X-0.97216 Y5.53874
G01 X-0.98370 Y5.58402
G01 X-0.98687 Y5.59584
G01 X-0.99982 Y5.64193
G01 X-1.00341 Y5.65416
G01 X-1.01780 Y5.70096
G01 X-1.02160 Y5.71278
G01 X-1.03760 Y5.76062
G01 X-1.04185 Y5.77285
G01 X-1.05982 Y5.82247
G01 X-1.06441 Y5.83470
G01 X-1.08391 Y5.88468
G01 X-1.08869 Y5.89651
G01 X-1.11013 Y5.94772
G01 X-1.11542 Y5.95996
G01 X-1.13895 Y6.01253
G01 X-1.14442 Y6.02436
G01 X-1.17025 Y6.07851
G01 X-1.17628 Y6.09075
G01 X-1.20497 Y6.14726
G01 X-1.21137 Y6.15950
G01 X-1.24240 Y6.21707
G01 X-1.24897 Y6.22891
G01 X-1.28294 Y6.28839
G01 X-1.29013 Y6.30064
G01 X-1.32777 Y6.36295
G01 X-1.33538 Y6.37520
G01 X-1.37688 Y6.44020
G01 X-1.38491 Y6.45245
G01 X-1.43032 Y6.51982
G01 X-1.43880 Y6.53207
G01 X-1.48788 Y6.60116
G01 X-1.49652 Y6.61301
G01 X-1.55046 Y6.68515
G01 X-1.55986 Y6.69741
G01 X-1.61896 Y6.77254
G01 X-1.62852 Y6.78440
G01 X-1.69255 Y6.86188
G01 X-1.70260 Y6.87374
G01 X-1.77421 Y6.95623
G01 X-1.78512 Y6.96850
G01 X-1.86566 Y7.05679
G01 X-1.92119 Y7.11559
G01 X-1.97845 Y7.17443
G01 X-2.02644 Y7.22267
G01 X-2.08793 Y7.28285
G01 X-2.14143 Y7.33406
G01 X-2.20963 Y7.39762
G01 X-2.26907 Y7.45180
G01 X-2.34357 Y7.51792
G01 X-2.41218 Y7.57739
G01 X-2.41192 Y7.57820
G01 X-2.41218 Y7.57739
G01 X-2.46934 Y7.57254
G01 X-2.58775 Y7.56051
G01 X-2.59997 Y7.55912
G01 X-2.71671 Y7.54435
G01 X-2.72853 Y7.54271
G01 X-2.84659 Y7.52483
G01 X-2.85881 Y7.52283
G01 X-2.97953 Y7.50150
G01 X-3.04961 Y7.48778
G01 X-3.05320 Y7.49014
G01 X-3.04961 Y7.48778
G01 X-2.99133 Y7.22152
G01 X-2.90324 Y6.81436
G01 X-2.83528 Y6.49629
G01 X-2.78698 Y6.26610
G01 X-2.75040 Y6.08825
G01 X-2.72229 Y5.94824
G01 X-2.69878 Y5.82762
G01 X-2.68115 Y5.73425
G01 X-2.66624 Y5.65224
G01 X-2.65392 Y5.58148
G01 X-2.64047 Y5.49986
G01 X-2.63439 Y5.46100
G01 X-2.62689 Y5.41021
G01 X-2.61972 Y5.35809
G01 X-2.61502 Y5.32097
G01 X-2.61032 Y5.28053
G01 X-2.60839 Y5.26239
G01 X-2.60141 Y5.22913
G01 X-2.59632 Y5.20683
G01 X-2.59307 Y5.19333
G01 X-2.58787 Y5.17285
G01 X-2.58434 Y5.15963
G01 X-2.57891 Y5.14020
G01 X-2.57498 Y5.12681
G01 X-2.56932 Y5.10834
G01 X-2.56513 Y5.09523
G01 X-2.55513 Y5.06578
G01 X-2.54464 Y5.03720
G01 X-2.53371 Y5.00957
G01 X-2.52274 Y4.98371
G01 X-2.51676 Y4.97032
G01 X-2.50516 Y4.94560
G01 X-2.49326 Y4.92178
G01 X-2.48108 Y4.89885
G01 X-2.47491 Y4.88774
G01 X-2.46221 Y4.86583
G01 X-2.45594 Y4.85546
G01 X-2.44321 Y4.83523
G01 X-2.42986 Y4.81515
G01 X-2.41623 Y4.79569
G01 X-2.40895 Y4.78569
G01 X-2.40239 Y4.77692
G01 X-2.38846 Y4.75898
G01 X-2.38075 Y4.74942
G01 X-2.36632 Y4.73220
G01 X-2.35129 Y4.71513
G01 X-2.34415 Y4.70731
G01 X-2.32861 Y4.69090
G01 X-2.31298 Y4.67517
G01 X-2.30420 Y4.66667
G01 X-2.28796 Y4.65151
G01 X-2.27099 Y4.63644
G01 X-2.26288 Y4.62949
G01 X-2.24519 Y4.61488
G01 X-2.22732 Y4.60084
G01 X-2.20849 Y4.58679
G01 X-2.19843 Y4.57957
G01 X-2.17875 Y4.56600
G01 X-2.15848 Y4.55276
G01 X-2.13805 Y4.54011
G01 X-2.11658 Y4.52753
G01 X-2.10558 Y4.52135
G01 X-2.05971 Y4.49673
G01 X-2.03433 Y4.48238
G01 X-2.00807 Y4.46675
G01 X-1.99567 Y4.45911
G01 X-1.96806 Y4.44154
G01 X-1.95118 Y4.43045
G01 X-1.93792 Y4.42155
G01 X-1.90600 Y4.39957
G01 X-1.87031 Y4.37412
G01 X-1.83033 Y4.34467
G01 X-1.80207 Y4.32335
G01 X-1.75257 Y4.28516
G01 X-1.69337 Y4.23833
G01 X-1.67385 Y4.22266
G01 X-1.60218 Y4.16437
G01 X-1.51324 Y4.09073
G01 X-1.42764 Y4.01884
G01 X-1.28322 Y3.89608
G01 X-1.21363 Y3.83633
G01 X-1.21248 Y3.83039
G01 X-1.21363 Y3.83633
G01 X-1.19638 Y3.86934
G01 X-1.16872 Y3.92462
G01 X-1.16278 Y3.93686
G01 X-1.13714 Y3.99142
G01 X-1.13157 Y4.00366
G01 X-1.10821 Y4.05673
G01 X-1.10301 Y4.06897
G01 X-1.08210 Y4.11985
G01 X-1.07740 Y4.13168
G01 X-1.05838 Y4.18138
G01 X-1.05387 Y4.19360
G01 X-1.03637 Y4.24294
G01 X-1.03220 Y4.25517
G01 X-1.01640 Y4.30348
G01 X-1.01257 Y4.31571
G01 X-0.99856 Y4.36237
G01 X-0.99517 Y4.37420
G01 X-0.98264 Y4.42001
G01 X-0.97945 Y4.43224
G01 X-0.96814 Y4.47798
G01 X-0.96527 Y4.49020
G01 X-0.95531 Y4.53525
G01 X-0.95277 Y4.54747
G01 X-0.94405 Y4.59207
G01 X-0.94183 Y4.60429
G01 X-0.93447 Y4.64758
G01 X-0.93261 Y4.65940
G01 X-0.92649 Y4.70162
G01 X-0.92492 Y4.71344
G01 X-0.91980 Y4.75592
G01 X-0.91848 Y4.76814
G01 X-0.91438 Y4.81105
G01 X-0.91337 Y4.82327
G01 X-0.91040 Y4.86529
G01 X-0.90971 Y4.87711
G01 X-0.90777 Y4.91895
G01 X-0.90735 Y4.93117
G01 X-0.90644 Y4.97364
G01 X-0.90633 Y4.98586
G01 X-0.89633 Y4.98583
G01 X-0.89644 Y4.97349
G01 X-0.89736 Y4.93089
G01 X-0.89778 Y4.91855
G01 X-0.89972 Y4.87658
G01 X-0.90042 Y4.86464
G01 X-0.90340 Y4.82250
G01 X-0.90442 Y4.81016
G01 X-0.90853 Y4.76713
G01 X-0.90987 Y4.75479
G01 X-0.91500 Y4.71218
G01 X-0.91658 Y4.70024
G01 X-0.92273 Y4.65790
G01 X-0.92460 Y4.64596
G01 X-0.93198 Y4.60256
G01 X-0.93423 Y4.59022
G01 X-0.94296 Y4.54549
G01 X-0.94553 Y4.53315
G01 X-0.95552 Y4.48798
G01 X-0.95842 Y4.47564
G01 X-0.96976 Y4.42978
G01 X-0.97298 Y4.41743
G01 X-0.98555 Y4.37150
G01 X-0.98897 Y4.35955
G01 X-1.00301 Y4.31278
G01 X-1.00687 Y4.30043
G01 X-1.02272 Y4.25200
G01 X-1.02692 Y4.23966
G01 X-1.04447 Y4.19020
G01 X-1.04902 Y4.17786
G01 X-1.06808 Y4.12805
G01 X-1.07282 Y4.11611
G01 X-1.09379 Y4.06511
G01 X-1.09904 Y4.05276
G01 X-1.12245 Y3.99957
G01 X-1.12806 Y3.98723
G01 X-1.15376 Y3.93255
G01 X-1.15975 Y3.92020
G01 X-1.18747 Y3.86482
G01 X-1.21063 Y3.82055
G01 X-1.21005 Y3.81758
G01 X-1.21063 Y3.82055
G01 X-1.28969 Y3.88846
G01 X-1.43407 Y4.01118
G01 X-1.54388 Y4.10323
G01 X-1.60857 Y4.15667
G01 X-1.68009 Y4.21485
G01 X-1.74087 Y4.26327
G01 X-1.75868 Y4.27724
G01 X-1.80818 Y4.31543
G01 X-1.85170 Y4.34810
G01 X-1.89072 Y4.37650
G01 X-1.92501 Y4.40062
G01 X-1.95674 Y4.42214
G01 X-1.98577 Y4.44105
G01 X-2.00091 Y4.45060
G01 X-2.02739 Y4.46671
G01 X-2.03945 Y4.47379
G01 X-2.06448 Y4.48794
G01 X-2.09949 Y4.50664
G01 X-2.12152 Y4.51884
G01 X-2.14321 Y4.53155
G01 X-2.16385 Y4.54432
G01 X-2.18433 Y4.55770
G01 X-2.19471 Y4.56477
G01 X-2.21437 Y4.57870
G01 X-2.22346 Y4.58539
G01 X-2.24205 Y4.59961
G01 X-2.25983 Y4.61391
G01 X-2.26934 Y4.62185
G01 X-2.28684 Y4.63704
G01 X-2.30348 Y4.65223
G01 X-2.31998 Y4.66803
G01 X-2.33579 Y4.68393
G01 X-2.34305 Y4.69151
G01 X-2.35872 Y4.70843
G01 X-2.37391 Y4.72569
G01 X-2.38849 Y4.74309
G01 X-2.40303 Y4.76132
G01 X-2.41699 Y4.77975
G01 X-2.43099 Y4.79919
G01 X-2.44469 Y4.81926
G01 X-2.45800 Y4.83982
G01 X-2.47080 Y4.86071
G01 X-2.48362 Y4.88283
G01 X-2.49615 Y4.90574
G01 X-2.50841 Y4.92955
G01 X-2.51416 Y4.94125
G01 X-2.52587 Y4.96619
G01 X-2.53699 Y4.99148
G01 X-2.54296 Y5.00577
G01 X-2.55398 Y5.03363
G01 X-2.55874 Y5.04633
G01 X-2.56891 Y5.07498
G01 X-2.57887 Y5.10535
G01 X-2.58456 Y5.12394
G01 X-2.58852 Y5.13745
G01 X-2.59399 Y5.15699
G01 X-2.59755 Y5.17033
G01 X-2.60278 Y5.19093
G01 X-2.60606 Y5.20455
G01 X-2.61117 Y5.22696
G01 X-2.61828 Y5.26088
G01 X-2.62026 Y5.27945
G01 X-2.62494 Y5.31972
G01 X-2.62964 Y5.35677
G01 X-2.63459 Y5.39327
G01 X-2.64428 Y5.45953
G01 X-2.65321 Y5.51625
G01 X-2.66054 Y5.56073
G01 X-2.67608 Y5.65046
G01 X-2.69099 Y5.73246
G01 X-2.70860 Y5.82574
G01 X-2.73209 Y5.94627
G01 X-2.76019 Y6.08624
G01 X-2.79677 Y6.26408
G01 X-2.84506 Y6.49420
G01 X-2.90293 Y6.76523
G01 X-3.00110 Y7.21941
G01 X-3.06156 Y7.49562
G01 X-3.06336 Y7.49680
G01 X-3.06156 Y7.49562
G01 X-2.98133 Y7.51134
G01 X-2.86049 Y7.53269
G01 X-2.84815 Y7.53471
G01 X-2.72996 Y7.55260
G01 X-2.71802 Y7.55426
G01 X-2.60116 Y7.56905
G01 X-2.58882 Y7.57046
G01 X-2.47029 Y7.58250
G01 X-2.40882 Y7.58770
G01 X-2.40869 Y7.58811
G01 X-2.40882 Y7.58770
G01 X-2.33699 Y7.52545
G01 X-2.32336 Y7.51347
G01 X-2.26238 Y7.45923
G01 X-2.20287 Y7.40499
G01 X-2.13456 Y7.34133
G01 X-2.08099 Y7.29005
G01 X-2.01939 Y7.22976
G01 X-1.97134 Y7.18146
G01 X-1.91397 Y7.12251
G01 X-1.85831 Y7.06357
G01 X-1.77769 Y6.97519
G01 X-1.76670 Y6.96284
G01 X-1.69501 Y6.88025
G01 X-1.68488 Y6.86829
G01 X-1.62077 Y6.79072
G01 X-1.61113 Y6.77877
G01 X-1.55196 Y6.70354
G01 X-1.54249 Y6.69119
G01 X-1.48847 Y6.61895
G01 X-1.47976 Y6.60700
G01 X-1.43061 Y6.53781
G01 X-1.42206 Y6.52546
G01 X-1.37659 Y6.45798
G01 X-1.36849 Y6.44563
G01 X-1.32692 Y6.38053
G01 X-1.31925 Y6.36818
G01 X-1.28154 Y6.30575
G01 X-1.27429 Y6.29340
G01 X-1.24026 Y6.23381
G01 X-1.23363 Y6.22187
G01 X-1.20254 Y6.16419
G01 X-1.19608 Y6.15184
G01 X-1.16733 Y6.09522
G01 X-1.16125 Y6.08287
G01 X-1.13537 Y6.02862
G01 X-1.12984 Y6.01667
G01 X-1.10627 Y5.96399
G01 X-1.10093 Y5.95164
G01 X-1.07945 Y5.90032
G01 X-1.07462 Y5.88837
G01 X-1.05508 Y5.83828
G01 X-1.05043 Y5.82593
G01 X-1.03243 Y5.77619
G01 X-1.02813 Y5.76385
G01 X-1.01210 Y5.71590
G01 X-1.00826 Y5.70395
G01 X-0.99384 Y5.65704
G01 X-0.99021 Y5.64469
G01 X-0.97722 Y5.59849
G01 X-0.97403 Y5.58655
G01 X-0.96246 Y5.54115
G01 X-0.95947 Y5.52881
G01 X-0.94910 Y5.48347
G01 X-0.94644 Y5.47113
G01 X-0.93735 Y5.42631
G01 X-0.93501 Y5.41397
G01 X-0.92728 Y5.37037
G01 X-0.92531 Y5.35843
G01 X-0.91874 Y5.31529
G01 X-0.91702 Y5.30295
G01 X-0.91150 Y5.25956
G01 X-0.91009 Y5.24721
G01 X-0.90570 Y5.20414
G01 X-0.90459 Y5.19180
G01 X-0.90129 Y5.14886
G01 X-0.90049 Y5.13652
G01 X-0.89827 Y5.09382
G01 X-0.89778 Y5.08148
G01 X-0.89663 Y5.03962
G01 X-0.89645 Y5.02768
G01 X-0.89633 Y4.98583
G04 P0 ( dwell for no time -- G64 should not smooth over this point )
G00 Z0.08000 ( retract )

G00 X-3.34669 Y7.48512 ( rapid move to begin. )
G01 F3.00000
( Mill infeed pass 1/1 )
G01 Z-0.00800
G04 P0 ( dwell for no time -- G64 should not smooth over this point )
G01 F6.00000
G01 X-3.34669 Y7.48512
G01 X-3.34816 Y7.48395
G01 X-3.46342 Y7.50026
G01 X-3.58330 Y7.51426
G01 X-3.70318 Y7.52529
G01 X-3.82306 Y7.53335
G01 X-3.94293 Y7.53843
G01 X-4.06281 Y7.54055
G01 X-4.18269 Y7.53970
G01 X-4.29859 Y7.53601
G01 X-4.29952 Y7.53709
G01 X-4.29859 Y7.53601
G01 X-4.55013 Y6.15117
G01 X-4.56022 Y6.09314
G01 X-4.56919 Y6.03625
G01 X-4.57705 Y5.98046
G01 X-4.58380 Y5.92580
G01 X-4.58944 Y5.87225
G01 X-4.59396 Y5.81982
G01 X-4.59738 Y5.76851
G01 X-4.59968 Y5.71864
G01 X-4.59031 Y5.63117
G01 X-4.58622 Y5.58943
G01 X-4.58324 Y5.55328
G01 X-4.57613 Y5.45668
G01 X-4.56862 Y5.35957
G01 X-4.56173 Y5.27487
G01 X-4.55504 Y5.19722
G01 X-4.54943 Y5.13554
G01 X-4.54466 Y5.08583
G01 X-4.53708 Y5.01057
G01 X-4.52907 Y4.93569
G01 X-4.52466 Y4.89618
G01 X-4.51500 Y4.81273
G01 X-4.50097 Y4.69707
G01 X-4.49504 Y4.63626
G01 X-4.49498 Y4.34331
G01 X-4.49862 Y4.29592
G01 X-4.51045 Y4.16401
G01 X-4.50788 Y4.11307
G01 X-4.50433 Y4.06084
G01 X-4.49979 Y4.00763
G01 X-4.49428 Y3.95344
G01 X-4.48779 Y3.89827
G01 X-4.48032 Y3.84211
G01 X-4.47187 Y3.78497
G01 X-4.46244 Y3.72686
G01 X-4.44064 Y3.60764
G01 X-4.41492 Y3.48451
G01 X-4.38528 Y3.35745
G01 X-4.35171 Y3.22644
G01 X-4.14832 Y2.46521
G01 X-4.14908 Y2.46426
G01 X-4.14832 Y2.46521
G01 X-4.02971 Y2.46082
G01 X-3.91091 Y2.45942
G01 X-3.91028 Y2.45851
G01 X-3.91091 Y2.45942
G01 X-3.77755 Y2.81467
G01 X-3.73382 Y2.93349
G01 X-3.69292 Y3.04948
G01 X-3.65484 Y3.16264
G01 X-3.61959 Y3.27297
G01 X-3.58716 Y3.38048
G01 X-3.55755 Y3.48516
G01 X-3.53076 Y3.58701
G01 X-3.50679 Y3.68603
G01 X-3.48565 Y3.78222
G01 X-3.46733 Y3.87558
G01 X-3.45183 Y3.96611
G01 X-3.43915 Y4.05380
G01 X-3.42929 Y4.13867
G01 X-3.42224 Y4.22070
G01 X-3.41802 Y4.29989
G01 X-3.41661 Y4.37630
G01 X-3.41661 Y4.44464
G01 X-3.42499 Y4.55789
G01 X-3.43045 Y4.62848
G01 X-3.43591 Y4.69646
G01 X-3.44490 Y4.80198
G01 X-3.45365 Y4.89677
G01 X-3.46262 Y4.98659
G01 X-3.47257 Y5.07920
G01 X-3.48454 Y5.18343
G01 X-3.50013 Y5.31266
G01 X-3.50498 Y5.36375
G01 X-3.50502 Y5.65668
G01 X-3.50106 Y5.70768
G01 X-3.48710 Y5.86328
G01 X-3.47118 Y6.04391
G01 X-3.44782 Y6.31283
G01 X-3.40994 Y6.75504
G01 X-3.34816 Y7.48395
G01 X-3.35892 Y7.47537
G01 X-3.41991 Y6.75589
G01 X-3.45779 Y6.31369
G01 X-3.48115 Y6.04479
G01 X-3.49707 Y5.86416
G01 X-3.51102 Y5.70856
G01 X-3.51502 Y5.65669
G01 X-3.51493 Y5.36282
G01 X-3.51008 Y5.31160
G01 X-3.49447 Y5.18226
G01 X-3.48251 Y5.07810
G01 X-3.47257 Y4.98557
G01 X-3.46391 Y4.89901
G01 X-3.45486 Y4.80111
G01 X-3.44588 Y4.69563
G01 X-3.44042 Y4.62770
G01 X-3.43496 Y4.55713
G01 X-3.42660 Y4.44428
G01 X-3.42661 Y4.37639
G01 X-3.42801 Y4.30025
G01 X-3.43222 Y4.22139
G01 X-3.43924 Y4.13967
G01 X-3.44906 Y4.05510
G01 X-3.46171 Y3.96767
G01 X-3.47716 Y3.87738
G01 X-3.49544 Y3.78425
G01 X-3.51654 Y3.68828
G01 X-3.54046 Y3.58946
G01 X-3.56719 Y3.48779
G01 X-3.59676 Y3.38328
G01 X-3.62914 Y3.27594
G01 X-3.66434 Y3.16576
G01 X-3.70237 Y3.05274
G01 X-3.74323 Y2.93688
G01 X-3.78692 Y2.81815
G01 X-3.91780 Y2.46950
G01 X-3.91655 Y2.46767
G01 X-3.91780 Y2.46950
G01 X-4.02946 Y2.47082
G01 X-4.14056 Y2.47493
G01 X-4.14208 Y2.47303
G01 X-4.14056 Y2.47493
G01 X-4.34203 Y3.22897
G01 X-4.37556 Y3.35983
G01 X-4.40515 Y3.48667
G01 X-4.43082 Y3.60957
G01 X-4.45259 Y3.72856
G01 X-4.46199 Y3.78650
G01 X-4.47042 Y3.84350
G01 X-4.47787 Y3.89951
G01 X-4.48434 Y3.95453
G01 X-4.48984 Y4.00856
G01 X-4.49436 Y4.06161
G01 X-4.49790 Y4.11366
G01 X-4.50044 Y4.16381
G01 X-4.48865 Y4.29509
G01 X-4.48498 Y4.34331
G01 X-4.48508 Y4.63723
G01 X-4.49104 Y4.69825
G01 X-4.50507 Y4.81390
G01 X-4.51473 Y4.89731
G01 X-4.51912 Y4.93679
G01 X-4.52713 Y5.01161
G01 X-4.53470 Y5.08679
G01 X-4.53947 Y5.13646
G01 X-4.54508 Y5.19811
G01 X-4.55177 Y5.27569
G01 X-4.55866 Y5.36035
G01 X-4.56616 Y5.45744
G01 X-4.57328 Y5.55410
G01 X-4.57627 Y5.59038
G01 X-4.58036 Y5.63223
G01 X-4.58967 Y5.71894
G01 X-4.58739 Y5.76794
G01 X-4.58399 Y5.81906
G01 X-4.57948 Y5.87130
G01 X-4.57386 Y5.92466
G01 X-4.56714 Y5.97915
G01 X-4.55930 Y6.03477
G01 X-4.55035 Y6.09151
G01 X-4.54029 Y6.14942
G01 X-4.29019 Y7.52627
G01 X-4.29206 Y7.52843
G01 X-4.29019 Y7.52627
G01 X-4.18249 Y7.52970
G01 X-4.06286 Y7.53055
G01 X-3.94323 Y7.52844
G01 X-3.82360 Y7.52336
G01 X-3.70397 Y7.51532
G01 X-3.58434 Y7.50431
G01 X-3.46470 Y7.49034
G01 X-3.35892 Y7.47537
G04 P0 ( dwell for no time -- G64 should not smooth over this point )
G00 Z0.08000 ( retract )

G00 X-7.10148 Y7.62141 ( rapid move to begin. )
G01 F3.00000
( Mill infeed pass 1/1 )
G01 Z-0.00800
G04 P0 ( dwell for no time -- G64 should not smooth over this point )
G01 F6.00000
G01 X-7.10148 Y7.62141
G01 X-7.10285 Y7.62080
G01 X-7.16862 Y7.65314
G01 X-7.24126 Y7.68747
G01 X-7.35093 Y7.73673
G01 X-7.46061 Y7.78278
G01 X-7.56897 Y7.82520
G01 X-7.67419 Y7.86340
G01 X-7.77918 Y7.89864
G01 X-7.88103 Y7.93002
G01 X-7.95614 Y7.95142
G01 X-7.95619 Y7.95185
G01 X-7.95614 Y7.95142
G01 X-8.05563 Y7.89382
G01 X-8.15344 Y7.83517
G01 X-8.22537 Y7.79073
G01 X-8.29032 Y7.74948
G01 X-8.35354 Y7.70824
G01 X-8.41503 Y7.66698
G01 X-8.52160 Y7.59271
G01 X-8.62251 Y7.51845
G01 X-8.70263 Y7.45645
G01 X-8.78259 Y7.39128
G01 X-8.84686 Y7.33628
G01 X-8.90801 Y7.28127
G01 X-8.96346 Y7.22894
G01 X-9.01608 Y7.17661
G01 X-9.05879 Y7.13206
G01 X-9.10225 Y7.08435
G01 X-9.13751 Y7.04373
G01 X-9.17105 Y7.00312
G01 X-9.20293 Y6.96260
G01 X-9.23310 Y6.92208
G01 X-9.25776 Y6.88727
G01 X-9.28320 Y6.84931
G01 X-9.30377 Y6.81700
G01 X-9.32325 Y6.78469
G01 X-9.35698 Y6.72411
G01 X-9.38542 Y6.66698
G01 X-9.41117 Y6.60843
G01 X-9.43258 Y6.55239
G01 X-9.45037 Y6.49797
G01 X-9.46475 Y6.44527
G01 X-9.47610 Y6.39386
G01 X-9.48464 Y6.34344
G01 X-9.49056 Y6.29382
G01 X-9.49399 Y6.24435
G01 X-9.49497 Y6.19547
G01 X-9.49353 Y6.14636
G01 X-9.48964 Y6.09692
G01 X-9.48323 Y6.04707
G01 X-9.47416 Y5.99646
G01 X-9.46225 Y5.94479
G01 X-9.45185 Y5.90713
G01 X-9.45239 Y5.90658
G01 X-9.45185 Y5.90713
G01 X-9.42875 Y5.90103
G01 X-9.39840 Y5.89330
G01 X-9.35665 Y5.88333
G01 X-9.32068 Y5.87537
G01 X-9.28961 Y5.86899
G01 X-9.25377 Y5.86229
G01 X-9.21651 Y5.85611
G01 X-9.19399 Y5.85278
G01 X-9.17941 Y5.85080
G01 X-9.14933 Y5.84716
G01 X-9.11874 Y5.84410
G01 X-9.08549 Y5.84153
G01 X-9.06720 Y5.84048
G01 X-9.04454 Y5.83950
G01 X-9.01562 Y5.83884
G01 X-8.99168 Y5.83878
G01 X-8.97453 Y5.83899
G01 X-8.94196 Y5.84003
G01 X-8.91257 Y5.84167
G01 X-8.88154 Y5.84408
G01 X-8.85773 Y5.84639
G01 X-8.84580 Y5.84771
G01 X-8.81419 Y5.85165
G01 X-8.78168 Y5.85638
G01 X-8.74498 Y5.86251
G01 X-8.70971 Y5.86914
G01 X-8.69565 Y5.87195
G01 X-8.66977 Y5.87743
G01 X-8.62940 Y5.88658
G01 X-8.58468 Y5.89755
G01 X-8.53816 Y5.90982
G01 X-8.50450 Y5.91914
G01 X-8.45226 Y5.93433
G01 X-8.41355 Y5.94607
G01 X-8.37949 Y5.95672
G01 X-8.34789 Y5.96680
G01 X-8.30240 Y5.98171
G01 X-8.25257 Y5.99847
G01 X-8.18857 Y6.02045
G01 X-8.12829 Y6.07255
G01 X-8.06967 Y6.12477
G01 X-8.02320 Y6.16850
G01 X-7.97672 Y6.21445
G01 X-7.92613 Y6.26680
G01 X-7.87869 Y6.31825
G01 X-7.73764 Y6.47421
G01 X-7.56728 Y6.66204
G01 X-7.42930 Y6.81377
G01 X-7.38863 Y6.89947
G01 X-7.26312 Y7.16300
G01 X-7.18691 Y7.32264
G01 X-7.14888 Y7.45481
G01 X-7.10285 Y7.62080
G01 X-7.11470 Y7.61548
G01 X-7.17297 Y7.64413
G01 X-7.24234 Y7.67695
G01 X-7.35492 Y7.72756
G01 X-7.46442 Y7.77353
G01 X-7.57250 Y7.81585
G01 X-7.67755 Y7.85398
G01 X-7.78224 Y7.88912
G01 X-7.88391 Y7.92044
G01 X-7.95479 Y7.94064
G01 X-7.95490 Y7.94149
G01 X-7.95479 Y7.94064
G01 X-8.05055 Y7.88520
G01 X-8.14827 Y7.82661
G01 X-8.22006 Y7.78226
G01 X-8.28491 Y7.74107
G01 X-8.34802 Y7.69990
G01 X-8.40943 Y7.65870
G01 X-8.51577 Y7.58458
G01 X-8.61643 Y7.51051
G01 X-8.69641 Y7.44862
G01 X-8.77613 Y7.38365
G01 X-8.84026 Y7.32876
G01 X-8.90127 Y7.27388
G01 X-8.95650 Y7.22176
G01 X-9.00589 Y7.17272
G01 X-9.05149 Y7.12523
G01 X-9.09474 Y7.07775
G01 X-9.12988 Y7.03727
G01 X-9.16330 Y6.99680
G01 X-9.19499 Y6.95652
G01 X-9.22276 Y6.91930
G01 X-9.24953 Y6.88159
G01 X-9.27480 Y6.84389
G01 X-9.29527 Y6.81173
G01 X-9.31639 Y6.77661
G01 X-9.34819 Y6.71936
G01 X-9.37641 Y6.66264
G01 X-9.40196 Y6.60453
G01 X-9.42319 Y6.54895
G01 X-9.44082 Y6.49499
G01 X-9.45507 Y6.44278
G01 X-9.46630 Y6.39184
G01 X-9.47476 Y6.34191
G01 X-9.48061 Y6.29277
G01 X-9.48401 Y6.24380
G01 X-9.48495 Y6.19258
G01 X-9.48339 Y6.14396
G01 X-9.47939 Y6.09501
G01 X-9.47289 Y6.04565
G01 X-9.46376 Y5.99552
G01 X-9.45254 Y5.94717
G01 X-9.44374 Y5.91531
G01 X-9.44483 Y5.91421
G01 X-9.44374 Y5.91531
G01 X-9.39600 Y5.90301
G01 X-9.35441 Y5.89307
G01 X-9.31860 Y5.88515
G01 X-9.30120 Y5.88152
G01 X-9.27656 Y5.87666
G01 X-9.23855 Y5.86980
G01 X-9.20525 Y5.86451
G01 X-9.17024 Y5.85971
G01 X-9.13831 Y5.85605
G01 X-9.11787 Y5.85406
G01 X-9.10535 Y5.85301
G01 X-9.08483 Y5.85151
G01 X-9.06669 Y5.85047
G01 X-9.03595 Y5.84925
G01 X-9.01550 Y5.84884
G01 X-9.00324 Y5.84875
G01 X-8.97474 Y5.84899
G01 X-8.94239 Y5.85002
G01 X-8.91322 Y5.85165
G01 X-8.90078 Y5.85252
G01 X-8.87970 Y5.85429
G01 X-8.84692 Y5.85765
G01 X-8.81554 Y5.86156
G01 X-8.78323 Y5.86626
G01 X-8.74672 Y5.87236
G01 X-8.71163 Y5.87895
G01 X-8.69765 Y5.88175
G01 X-8.67191 Y5.88720
G01 X-8.63170 Y5.89631
G01 X-8.58714 Y5.90725
G01 X-8.54077 Y5.91947
G01 X-8.50722 Y5.92876
G01 X-8.45511 Y5.94392
G01 X-8.41650 Y5.95562
G01 X-8.38251 Y5.96625
G01 X-8.35096 Y5.97632
G01 X-8.30555 Y5.99120
G01 X-8.25579 Y6.00794
G01 X-8.19371 Y6.02935
G01 X-8.19361 Y6.02918
G01 X-8.19371 Y6.02935
G01 X-8.13488 Y6.08008
G01 X-8.07648 Y6.13209
G01 X-8.03014 Y6.17570
G01 X-7.98380 Y6.22152
G01 X-7.93340 Y6.27367
G01 X-7.88608 Y6.32499
G01 X-7.74873 Y6.47686
G01 X-7.57898 Y6.66403
G01 X-7.43774 Y6.81943
G01 X-7.43765 Y6.81937
G01 X-7.43774 Y6.81943
G01 X-7.39766 Y6.90377
G01 X-7.27215 Y7.16730
G01 X-7.19628 Y7.32619
G01 X-7.15850 Y7.45753
G01 X-7.11470 Y7.61548
G04 P0 ( dwell for no time -- G64 should not smooth over this point )
G00 Z0.08000 ( retract )

G00 X-7.18425 Y7.29686 ( rapid move to begin. )
G01 F3.00000
( Mill infeed pass 1/1 )
G01 Z-0.00800
G04 P0 ( dwell for no time -- G64 should not smooth over this point )
G01 F6.00000
G01 X-7.18425 Y7.29686
G01 X-7.18576 Y7.27866
G01 X-7.24507 Y7.15440
G01 X-7.41008 Y6.80774
G01 X-7.41035 Y6.80780
G01 X-7.41008 Y6.80774
G01 X-7.39116 Y5.82115
G01 X-7.39072 Y5.77323
G01 X-7.39126 Y5.72659
G01 X-7.39277 Y5.68144
G01 X-7.39526 Y5.63710
G01 X-7.39876 Y5.59352
G01 X-7.40318 Y5.55184
G01 X-7.40861 Y5.51092
G01 X-7.41506 Y5.47092
G01 X-7.45847 Y5.22475
G01 X-7.46412 Y5.18821
G01 X-7.46801 Y5.15272
G01 X-7.49329 Y4.85935
G01 X-7.49530 Y4.82504
G01 X-7.49549 Y4.78984
G01 X-7.49386 Y4.75353
G01 X-7.49043 Y4.71610
G01 X-7.48517 Y4.67757
G01 X-7.47808 Y4.63792
G01 X-7.46915 Y4.59716
G01 X-7.45837 Y4.55518
G01 X-7.42431 Y4.43147
G01 X-7.41212 Y4.38501
G01 X-7.40064 Y4.33692
G01 X-7.38989 Y4.28731
G01 X-7.37970 Y4.23531
G01 X-7.37028 Y4.18206
G01 X-7.36149 Y4.12673
G01 X-7.35336 Y4.06959
G01 X-7.34588 Y4.01042
G01 X-7.33909 Y3.94968
G01 X-7.33297 Y3.88712
G01 X-7.32753 Y3.82293
G01 X-7.32272 Y3.75648
G01 X-7.31515 Y3.61869
G01 X-7.31024 Y3.47392
G01 X-7.28569 Y2.45656
G01 X-7.28819 Y2.45421
G01 X-7.28569 Y2.45656
G01 X-7.18645 Y2.44815
G01 X-7.07399 Y2.44128
G01 X-6.96152 Y2.43706
G01 X-6.86027 Y2.43566
G01 X-6.85876 Y2.43360
G01 X-6.86027 Y2.43566
G01 X-6.76586 Y2.75677
G01 X-6.66647 Y4.69668
G01 X-6.66604 Y4.73351
G01 X-6.65604 Y4.73382
G01 X-6.65647 Y4.69637
G01 X-6.75597 Y2.75508
G01 X-6.85282 Y2.42556
G01 X-6.85206 Y2.42453
G01 X-6.85282 Y2.42556
G01 X-6.96178 Y2.42707
G01 X-7.07448 Y2.43129
G01 X-7.18718 Y2.43818
G01 X-7.29547 Y2.44735
G01 X-7.29672 Y2.44618
G01 X-7.29547 Y2.44735
G01 X-7.32024 Y3.47358
G01 X-7.32514 Y3.61835
G01 X-7.33271 Y3.75593
G01 X-7.33749 Y3.82203
G01 X-7.34293 Y3.88627
G01 X-7.34905 Y3.94877
G01 X-7.35582 Y4.00938
G01 X-7.36326 Y4.06818
G01 X-7.37136 Y4.12516
G01 X-7.38013 Y4.18032
G01 X-7.38955 Y4.23357
G01 X-7.39967 Y4.28519
G01 X-7.41043 Y4.33490
G01 X-7.42184 Y4.38269
G01 X-7.43394 Y4.42876
G01 X-7.46803 Y4.55261
G01 X-7.47889 Y4.59485
G01 X-7.48789 Y4.63597
G01 X-7.49505 Y4.67601
G01 X-7.50036 Y4.71497
G01 X-7.50384 Y4.75285
G01 X-7.50549 Y4.78965
G01 X-7.50530 Y4.82536
G01 X-7.50327 Y4.86007
G01 X-7.47797 Y5.15370
G01 X-7.47404 Y5.18952
G01 X-7.46833 Y5.22638
G01 X-7.42491 Y5.47265
G01 X-7.41852 Y5.51224
G01 X-7.41312 Y5.55289
G01 X-7.40869 Y5.59470
G01 X-7.40525 Y5.63754
G01 X-7.40276 Y5.68177
G01 X-7.40126 Y5.72703
G01 X-7.40072 Y5.77334
G01 X-7.40116 Y5.82091
G01 X-7.42012 Y6.80991
G01 X-7.42026 Y6.80994
G01 X-7.42012 Y6.80991
G01 X-7.25409 Y7.15870
G01 X-7.18341 Y7.30679
G01 X-7.18266 Y7.31589
G01 X-7.18341 Y7.30679
G01 X-7.14213 Y7.16262
G01 X-7.10000 Y7.01175
G01 X-7.06065 Y6.86684
G01 X-7.02409 Y6.72791
G01 X-6.99031 Y6.59495
G01 X-6.95931 Y6.46797
G01 X-6.93110 Y6.34695
G01 X-6.90568 Y6.23192
G01 X-6.88303 Y6.12286
G01 X-6.86318 Y6.01977
G01 X-6.84610 Y5.92267
G01 X-6.83181 Y5.83155
G01 X-6.82030 Y5.74641
G01 X-6.81158 Y5.66726
G01 X-6.80563 Y5.59410
G01 X-6.80247 Y5.52689
G01 X-6.79499 Y5.25674
G01 X-6.79387 Y5.23885
G01 X-6.79160 Y5.22169
G01 X-6.78808 Y5.20439
G01 X-6.78330 Y5.18715
G01 X-6.67297 Y4.83721
G01 X-6.66824 Y4.82084
G01 X-6.66428 Y4.80416
G01 X-6.66109 Y4.78712
G01 X-6.65865 Y4.76977
G01 X-6.65604 Y4.73382
G01 X-6.66604 Y4.73351
G01 X-6.66859 Y4.76872
G01 X-6.67096 Y4.78550
G01 X-6.67406 Y4.80208
G01 X-6.67791 Y4.81830
G01 X-6.68254 Y4.83432
G01 X-6.79284 Y5.18414
G01 X-6.79763 Y5.20138
G01 X-6.80134 Y5.21934
G01 X-6.80378 Y5.23754
G01 X-6.80498 Y5.25646
G01 X-6.81246 Y5.52652
G01 X-6.81561 Y5.59346
G01 X-6.82153 Y5.66631
G01 X-6.83023 Y5.74519
G01 X-6.84171 Y5.83010
G01 X-6.85597 Y5.92103
G01 X-6.87301 Y6.01796
G01 X-6.89284 Y6.12089
G01 X-6.91545 Y6.22982
G01 X-6.94085 Y6.34474
G01 X-6.96904 Y6.46564
G01 X-7.00001 Y6.59253
G01 X-7.03377 Y6.72541
G01 X-7.07031 Y6.86426
G01 X-7.10964 Y7.00909
G01 X-7.15175 Y7.15990
G01 X-7.18576 Y7.27866
G04 P0 ( dwell for no time -- G64 should not smooth over this point )
G00 Z0.08000 ( retract )

G00 X-7.43341 Y6.78900 ( rapid move to begin. )
G01 F3.00000
( Mill infeed pass 1/1 )
G01 Z-0.00800
G04 P0 ( dwell for no time -- G64 should not smooth over this point )
G01 F6.00000
G01 X-7.43341 Y6.78900
G01 X-7.43942 Y6.77298
G01 X-7.42116 Y5.82065
G01 X-7.42072 Y5.77342
G01 X-7.42125 Y5.72743
G01 X-7.42275 Y5.68261
G01 X-7.42520 Y5.63897
G01 X-7.42861 Y5.59649
G01 X-7.43299 Y5.55520
G01 X-7.43832 Y5.51508
G01 X-7.44463 Y5.47602
G01 X-7.48804 Y5.22980
G01 X-7.49391 Y5.19181
G01 X-7.49789 Y5.15547
G01 X-7.52320 Y4.86172
G01 X-7.52529 Y4.82560
G01 X-7.52547 Y4.78888
G01 X-7.52377 Y4.75114
G01 X-7.52020 Y4.71237
G01 X-7.51475 Y4.67259
G01 X-7.50744 Y4.63179
G01 X-7.49828 Y4.58996
G01 X-7.48739 Y4.54759
G01 X-7.45326 Y4.42359
G01 X-7.44126 Y4.37788
G01 X-7.42992 Y4.33041
G01 X-7.41925 Y4.28110
G01 X-7.40922 Y4.22995
G01 X-7.39985 Y4.17696
G01 X-7.39113 Y4.12214
G01 X-7.38308 Y4.06548
G01 X-7.37568 Y4.00698
G01 X-7.36893 Y3.94665
G01 X-7.36285 Y3.88449
G01 X-7.35743 Y3.82049
G01 X-7.35267 Y3.75471
G01 X-7.34513 Y3.61751
G01 X-7.34023 Y3.47297
G01 X-7.31569 Y2.45610
G01 X-7.30413 Y2.44603
G01 X-7.30547 Y2.44720
G01 X-7.33023 Y3.47326
G01 X-7.33514 Y3.61796
G01 X-7.34269 Y3.75534
G01 X-7.34746 Y3.82128
G01 X-7.35290 Y3.88540
G01 X-7.35899 Y3.94769
G01 X-7.36575 Y4.00817
G01 X-7.37317 Y4.06681
G01 X-7.38125 Y4.12363
G01 X-7.38999 Y4.17862
G01 X-7.39939 Y4.23178
G01 X-7.40945 Y4.28312
G01 X-7.42017 Y4.33263
G01 X-7.43156 Y4.38031
G01 X-7.44360 Y4.42619
G01 X-7.47771 Y4.55008
G01 X-7.48864 Y4.59262
G01 X-7.49768 Y4.63392
G01 X-7.50491 Y4.67435
G01 X-7.51029 Y4.71373
G01 X-7.51381 Y4.75205
G01 X-7.51548 Y4.78933
G01 X-7.51529 Y4.82581
G01 X-7.51324 Y4.86086
G01 X-7.48792 Y5.15461
G01 X-7.48397 Y5.19072
G01 X-7.47819 Y5.22806
G01 X-7.43476 Y5.47436
G01 X-7.42843 Y5.51362
G01 X-7.42306 Y5.55401
G01 X-7.41866 Y5.59557
G01 X-7.41522 Y5.63828
G01 X-7.41275 Y5.68216
G01 X-7.41125 Y5.72720
G01 X-7.41072 Y5.77341
G01 X-7.41116 Y5.82079
G01 X-7.42990 Y6.79832
G01 X-7.42690 Y6.80633
G01 X-7.42990 Y6.79832
G01 X-7.56417 Y6.65059
G01 X-7.73022 Y6.46750
G01 X-7.87132 Y6.31149
G01 X-7.91890 Y6.25990
G01 X-7.96967 Y6.20736
G01 X-8.01630 Y6.16127
G01 X-8.06284 Y6.11746
G01 X-8.12168 Y6.06505
G01 X-8.18171 Y6.01328
G01 X-8.18188 Y6.01340
G01 X-8.18171 Y6.01328
G01 X-8.20691 Y5.93027
G01 X-8.21983 Y5.88678
G01 X-8.22957 Y5.85332
G01 X-8.24641 Y5.79373
G01 X-8.26084 Y5.74056
G01 X-8.27303 Y5.69352
G01 X-8.27846 Y5.67178
G01 X-8.28824 Y5.63094
G01 X-8.29656 Y5.59404
G01 X-8.30076 Y5.57434
G01 X-8.30390 Y5.55911
G01 X-8.31013 Y5.52691
G01 X-8.31532 Y5.49751
G01 X-8.31982 Y5.46915
G01 X-8.32349 Y5.44269
G01 X-8.32640 Y5.41818
G01 X-8.32797 Y5.40270
G01 X-8.32986 Y5.37996
G01 X-8.33119 Y5.35774
G01 X-8.33292 Y5.30893
G01 X-8.33391 Y5.28889
G01 X-8.33510 Y5.26961
G01 X-8.33653 Y5.25027
G01 X-8.33812 Y5.23178
G01 X-8.33992 Y5.21349
G01 X-8.34196 Y5.19505
G01 X-8.34418 Y5.17696
G01 X-8.34659 Y5.15918
G01 X-8.34911 Y5.14216
G01 X-8.35188 Y5.12491
G01 X-8.35713 Y5.09539
G01 X-8.36438 Y5.05917
G01 X-8.36649 Y5.04666
G01 X-8.36843 Y5.03113
G01 X-8.36974 Y5.01281
G01 X-8.37000 Y4.99804
G01 X-8.36955 Y4.98320
G01 X-8.36833 Y4.96783
G01 X-8.36679 Y4.95542
G01 X-8.36426 Y4.94020
G01 X-8.35772 Y4.90768
G01 X-8.35471 Y4.89144
G01 X-8.35178 Y4.87450
G01 X-8.34902 Y4.85721
G01 X-8.34580 Y4.83514
G01 X-8.34344 Y4.81717
G01 X-8.34131 Y4.79931
G01 X-8.33932 Y4.78064
G01 X-8.33643 Y4.74845
G01 X-8.33463 Y4.72310
G01 X-8.33286 Y4.68956
G01 X-8.33116 Y4.64160
G01 X-8.32985 Y4.61986
G01 X-8.32866 Y4.60487
G01 X-8.32631 Y4.58095
G01 X-8.32328 Y4.55567
G01 X-8.31964 Y4.52968
G01 X-8.31516 Y4.50148
G01 X-8.30992 Y4.47193
G01 X-8.30754 Y4.45939
G01 X-8.30370 Y4.43998
G01 X-8.29717 Y4.40890
G01 X-8.28751 Y4.36592
G01 X-8.28281 Y4.34611
G01 X-8.27214 Y4.30297
G01 X-8.26620 Y4.27984
G01 X-8.25286 Y4.22974
G01 X-8.23733 Y4.17387
G01 X-8.22763 Y4.13999
G01 X-8.20797 Y4.07314
G01 X-8.18424 Y3.99493
G01 X-8.15644 Y3.90586
G01 X-8.14561 Y3.87175
G01 X-8.11195 Y3.76710
G01 X-8.08612 Y3.68543
G01 X-8.07371 Y3.64536
G01 X-8.04423 Y3.54798
G01 X-8.03182 Y3.50607
G01 X-7.99927 Y3.39358
G01 X-7.98726 Y3.35113
G01 X-7.95064 Y3.21854
G01 X-7.93823 Y3.17254
G01 X-7.89649 Y3.01384
G01 X-7.87015 Y2.91074
G01 X-7.82175 Y2.71942
G01 X-7.79656 Y2.62093
G01 X-7.79673 Y2.62083
G01 X-7.79656 Y2.62093
G01 X-7.74493 Y2.57160
G01 X-7.69107 Y2.52131
G01 X-7.63600 Y2.47101
G01 X-7.58127 Y2.42210
G01 X-7.58141 Y2.42169
G01 X-7.58127 Y2.42210
G01 X-7.51274 Y2.42682
G01 X-7.44215 Y2.43274
G01 X-7.37155 Y2.43970
G01 X-7.30547 Y2.44720
G01 X-7.31569 Y2.45610
G01 X-7.37261 Y2.44964
G01 X-7.44306 Y2.44269
G01 X-7.51351 Y2.43679
G01 X-7.57775 Y2.43237
G01 X-7.57803 Y2.43155
G01 X-7.57775 Y2.43237
G01 X-7.62929 Y2.47843
G01 X-7.68428 Y2.52865
G01 X-7.73806 Y2.57887
G01 X-7.78758 Y2.62618
G01 X-7.78793 Y2.62598
G01 X-7.78758 Y2.62618
G01 X-7.81206 Y2.72189
G01 X-7.86046 Y2.91319
G01 X-7.88682 Y3.01638
G01 X-7.92857 Y3.17514
G01 X-7.94100 Y3.22120
G01 X-7.97761 Y3.35377
G01 X-7.98964 Y3.39627
G01 X-8.02224 Y3.50894
G01 X-8.03467 Y3.55091
G01 X-8.06417 Y3.64834
G01 X-8.07657 Y3.68839
G01 X-8.10240 Y3.77008
G01 X-8.13608 Y3.87479
G01 X-8.14690 Y3.90887
G01 X-8.17468 Y3.99787
G01 X-8.19839 Y4.07600
G01 X-8.21802 Y4.14276
G01 X-8.22771 Y4.17660
G01 X-8.24321 Y4.23237
G01 X-8.25652 Y4.28235
G01 X-8.26245 Y4.30543
G01 X-8.27309 Y4.34845
G01 X-8.27777 Y4.36819
G01 X-8.28740 Y4.41101
G01 X-8.29390 Y4.44196
G01 X-8.29773 Y4.46129
G01 X-8.30009 Y4.47375
G01 X-8.30529 Y4.50313
G01 X-8.30975 Y4.53115
G01 X-8.31336 Y4.55695
G01 X-8.31636 Y4.58202
G01 X-8.31869 Y4.60572
G01 X-8.31988 Y4.62060
G01 X-8.32118 Y4.64210
G01 X-8.32286 Y4.68994
G01 X-8.32464 Y4.72366
G01 X-8.32647 Y4.74928
G01 X-8.32936 Y4.78157
G01 X-8.33138 Y4.80047
G01 X-8.33352 Y4.81846
G01 X-8.33654 Y4.84114
G01 X-8.33915 Y4.85881
G01 X-8.34193 Y4.87619
G01 X-8.34486 Y4.89315
G01 X-8.34791 Y4.90963
G01 X-8.35442 Y4.94200
G01 X-8.35688 Y4.95677
G01 X-8.35867 Y4.97174
G01 X-8.35957 Y4.98382
G01 X-8.36000 Y4.99818
G01 X-8.35974 Y5.01246
G01 X-8.35849 Y5.03006
G01 X-8.35661 Y5.04511
G01 X-8.35454 Y5.05739
G01 X-8.34729 Y5.09361
G01 X-8.34427 Y5.11016
G01 X-8.34134 Y5.12735
G01 X-8.33858 Y5.14487
G01 X-8.33607 Y5.16221
G01 X-8.33202 Y5.19394
G01 X-8.32997 Y5.21251
G01 X-8.32817 Y5.23079
G01 X-8.32657 Y5.24939
G01 X-8.32512 Y5.26896
G01 X-8.32393 Y5.28827
G01 X-8.32293 Y5.30855
G01 X-8.32121 Y5.35724
G01 X-8.31989 Y5.37923
G01 X-8.31802 Y5.40175
G01 X-8.31646 Y5.41711
G01 X-8.31357 Y5.44142
G01 X-8.30992 Y5.46769
G01 X-8.30546 Y5.49587
G01 X-8.30030 Y5.52510
G01 X-8.29409 Y5.55714
G01 X-8.29098 Y5.57229
G01 X-8.28678 Y5.59192
G01 X-8.27850 Y5.62868
G01 X-8.26875 Y5.66939
G01 X-8.26334 Y5.69107
G01 X-8.25117 Y5.73799
G01 X-8.23677 Y5.79106
G01 X-8.21996 Y5.85055
G01 X-8.21024 Y5.88396
G01 X-8.19733 Y5.92741
G01 X-8.17299 Y6.00760
G01 X-8.17334 Y6.00783
G01 X-8.17299 Y6.00760
G01 X-8.11503 Y6.05758
G01 X-8.05598 Y6.11018
G01 X-8.00945 Y6.15398
G01 X-7.96264 Y6.20025
G01 X-7.91170 Y6.25296
G01 X-7.86386 Y6.30484
G01 X-7.72281 Y6.46078
G01 X-7.55676 Y6.64387
G01 X-7.43942 Y6.77298
G04 P0 ( dwell for no time -- G64 should not smooth over this point )
G00 Z0.08000 ( retract )

G00 X-8.76099 Y5.30817 ( rapid move to begin. )
G01 F3.00000
( Mill infeed pass 1/1 )
G01 Z-0.00800
G04 P0 ( dwell for no time -- G64 should not smooth over this point )
G01 F6.00000
G01 X-8.76099 Y5.30817
G01 X-8.76791 Y5.31342
G01 X-8.77550 Y5.31890
G01 X-8.78322 Y5.32420
G01 X-8.79106 Y5.32931
G01 X-8.79903 Y5.33423
G01 X-8.80710 Y5.33895
G01 X-8.81564 Y5.34367
G01 X-8.82394 Y5.34800
G01 X-8.83234 Y5.35212
G01 X-8.84084 Y5.35604
G01 X-8.84943 Y5.35976
G01 X-8.85811 Y5.36327
G01 X-8.86686 Y5.36657
G01 X-8.87607 Y5.36979
G01 X-8.88498 Y5.37265
G01 X-8.89396 Y5.37531
G01 X-8.90299 Y5.37774
G01 X-8.91247 Y5.38005
G01 X-8.92161 Y5.38204
G01 X-8.93080 Y5.38381
G01 X-8.94042 Y5.38542
G01 X-8.94969 Y5.38674
G01 X-8.95898 Y5.38784
G01 X-8.96830 Y5.38871
G01 X-8.97764 Y5.38936
G01 X-8.98699 Y5.38978
G01 X-8.99635 Y5.38998
G01 X-9.00571 Y5.38996
G01 X-9.01506 Y5.38971
G01 X-9.02441 Y5.38923
G01 X-9.03414 Y5.38850
G01 X-9.04345 Y5.38757
G01 X-9.05274 Y5.38642
G01 X-9.06199 Y5.38504
G01 X-9.07160 Y5.38337
G01 X-9.08078 Y5.38154
G01 X-9.08991 Y5.37949
G01 X-9.09900 Y5.37723
G01 X-9.10802 Y5.37474
G01 X-9.11698 Y5.37204
G01 X-9.12588 Y5.36913
G01 X-9.13470 Y5.36600
G01 X-9.14381 Y5.36252
G01 X-9.15246 Y5.35896
G01 X-9.16104 Y5.35520
G01 X-9.16951 Y5.35123
G01 X-9.17789 Y5.34706
G01 X-9.18617 Y5.34269
G01 X-9.19434 Y5.33813
G01 X-9.20240 Y5.33337
G01 X-9.21034 Y5.32841
G01 X-9.21849 Y5.32305
G01 X-9.22618 Y5.31772
G01 X-9.23374 Y5.31220
G01 X-9.24116 Y5.30650
G01 X-9.24845 Y5.30062
G01 X-9.25559 Y5.29457
G01 X-9.26287 Y5.28809
G01 X-9.26971 Y5.28170
G01 X-9.27639 Y5.27515
G01 X-9.28292 Y5.26843
G01 X-9.28889 Y5.26199
G01 X-9.02080 Y5.03704
G01 X-9.01696 Y5.03896
G01 X-9.01133 Y5.04094
G01 X-9.00791 Y5.04175
G01 X-9.00349 Y5.04235
G01 X-8.99989 Y5.04249
G01 X-8.99437 Y5.04212
G01 X-8.99004 Y5.04131
G01 X-8.98595 Y5.04008
G01 X-8.76099 Y5.30817
G01 X-8.77543 Y5.30652
G01 X-8.78878 Y5.31589
G01 X-8.79642 Y5.32087
G01 X-8.80418 Y5.32566
G01 X-8.81205 Y5.33026
G01 X-8.82037 Y5.33486
G01 X-8.82845 Y5.33907
G01 X-8.83664 Y5.34309
G01 X-8.84492 Y5.34691
G01 X-8.85329 Y5.35054
G01 X-8.86175 Y5.35396
G01 X-8.87028 Y5.35717
G01 X-8.87925 Y5.36030
G01 X-8.88793 Y5.36310
G01 X-8.89668 Y5.36568
G01 X-8.90548 Y5.36806
G01 X-8.91472 Y5.37031
G01 X-8.92362 Y5.37224
G01 X-8.93257 Y5.37397
G01 X-8.94195 Y5.37554
G01 X-8.95098 Y5.37682
G01 X-8.96003 Y5.37789
G01 X-8.96912 Y5.37874
G01 X-8.97821 Y5.37937
G01 X-8.98732 Y5.37979
G01 X-8.99644 Y5.37998
G01 X-9.00556 Y5.37996
G01 X-9.01468 Y5.37971
G01 X-9.02378 Y5.37925
G01 X-9.03327 Y5.37854
G01 X-9.04233 Y5.37763
G01 X-9.05139 Y5.37651
G01 X-9.06040 Y5.37517
G01 X-9.06977 Y5.37354
G01 X-9.07871 Y5.37176
G01 X-9.08761 Y5.36976
G01 X-9.09646 Y5.36755
G01 X-9.10525 Y5.36513
G01 X-9.11398 Y5.36250
G01 X-9.12265 Y5.35966
G01 X-9.13124 Y5.35661
G01 X-9.14012 Y5.35322
G01 X-9.14855 Y5.34976
G01 X-9.15691 Y5.34609
G01 X-9.16517 Y5.34223
G01 X-9.17333 Y5.33816
G01 X-9.18140 Y5.33391
G01 X-9.18936 Y5.32946
G01 X-9.19721 Y5.32482
G01 X-9.20494 Y5.31999
G01 X-9.21289 Y5.31477
G01 X-9.22038 Y5.30957
G01 X-9.22774 Y5.30419
G01 X-9.23498 Y5.29864
G01 X-9.24208 Y5.29291
G01 X-9.24903 Y5.28702
G01 X-9.25614 Y5.28070
G01 X-9.26280 Y5.27448
G01 X-9.27438 Y5.26287
G01 X-9.01926 Y5.04880
G01 X-9.01240 Y5.05100
G01 X-9.00848 Y5.05180
G01 X-9.00398 Y5.05234
G01 X-9.00118 Y5.05248
G01 X-8.99718 Y5.05241
G01 X-8.99332 Y5.05206
G01 X-8.98949 Y5.05141
G01 X-8.77543 Y5.30652
G01 X-8.79006 Y5.30464
G01 X-8.80178 Y5.31242
G01 X-8.80933 Y5.31709
G01 X-8.81699 Y5.32157
G01 X-8.82510 Y5.32605
G01 X-8.83297 Y5.33015
G01 X-8.84094 Y5.33406
G01 X-8.84900 Y5.33778
G01 X-8.85715 Y5.34131
G01 X-8.86538 Y5.34464
G01 X-8.87369 Y5.34777
G01 X-8.88243 Y5.35082
G01 X-8.89088 Y5.35354
G01 X-8.89940 Y5.35606
G01 X-8.90796 Y5.35837
G01 X-8.91696 Y5.36056
G01 X-8.92563 Y5.36245
G01 X-8.93435 Y5.36413
G01 X-8.94348 Y5.36566
G01 X-8.95227 Y5.36691
G01 X-8.96109 Y5.36794
G01 X-8.96993 Y5.36877
G01 X-8.97879 Y5.36939
G01 X-8.98766 Y5.36979
G01 X-8.99654 Y5.36998
G01 X-9.00542 Y5.36996
G01 X-9.01429 Y5.36972
G01 X-9.02315 Y5.36927
G01 X-9.03239 Y5.36858
G01 X-9.04122 Y5.36769
G01 X-9.05003 Y5.36660
G01 X-9.05881 Y5.36529
G01 X-9.06794 Y5.36371
G01 X-9.07664 Y5.36197
G01 X-9.08530 Y5.36003
G01 X-9.09392 Y5.35788
G01 X-9.10248 Y5.35552
G01 X-9.11098 Y5.35296
G01 X-9.11942 Y5.35020
G01 X-9.12778 Y5.34723
G01 X-9.13644 Y5.34392
G01 X-9.14465 Y5.34055
G01 X-9.15278 Y5.33698
G01 X-9.16082 Y5.33322
G01 X-9.16877 Y5.32926
G01 X-9.17662 Y5.32512
G01 X-9.18437 Y5.32079
G01 X-9.19202 Y5.31627
G01 X-9.19955 Y5.31157
G01 X-9.20729 Y5.30648
G01 X-9.21458 Y5.30142
G01 X-9.22175 Y5.29619
G01 X-9.22879 Y5.29078
G01 X-9.23570 Y5.28520
G01 X-9.24248 Y5.27947
G01 X-9.24940 Y5.27331
G01 X-9.25965 Y5.26356
G01 X-9.01712 Y5.06006
G01 X-9.01219 Y5.06129
G01 X-9.00705 Y5.06209
G01 X-9.00448 Y5.06232
G01 X-8.99928 Y5.06248
G01 X-8.99354 Y5.06214
G01 X-8.79006 Y5.30464
G01 X-8.80490 Y5.30252
G01 X-8.81449 Y5.30852
G01 X-8.82194 Y5.31288
G01 X-8.82983 Y5.31724
G01 X-8.83748 Y5.32123
G01 X-8.84524 Y5.32503
G01 X-8.85308 Y5.32865
G01 X-8.86101 Y5.33209
G01 X-8.86902 Y5.33533
G01 X-8.87710 Y5.33837
G01 X-8.88561 Y5.34134
G01 X-8.89383 Y5.34398
G01 X-8.90212 Y5.34643
G01 X-8.91045 Y5.34868
G01 X-8.91921 Y5.35081
G01 X-8.92764 Y5.35265
G01 X-8.93612 Y5.35428
G01 X-8.94501 Y5.35577
G01 X-8.95356 Y5.35699
G01 X-8.96214 Y5.35800
G01 X-8.97074 Y5.35881
G01 X-8.97936 Y5.35940
G01 X-8.98799 Y5.35980
G01 X-8.99663 Y5.35998
G01 X-9.00527 Y5.35996
G01 X-9.01391 Y5.35973
G01 X-9.02252 Y5.35929
G01 X-9.03152 Y5.35861
G01 X-9.04011 Y5.35776
G01 X-9.04868 Y5.35669
G01 X-9.05722 Y5.35542
G01 X-9.06610 Y5.35388
G01 X-9.07457 Y5.35219
G01 X-9.08300 Y5.35030
G01 X-9.09138 Y5.34821
G01 X-9.09971 Y5.34591
G01 X-9.10798 Y5.34342
G01 X-9.11619 Y5.34073
G01 X-9.12433 Y5.33785
G01 X-9.13275 Y5.33462
G01 X-9.14074 Y5.33135
G01 X-9.14865 Y5.32787
G01 X-9.15647 Y5.32421
G01 X-9.16421 Y5.32036
G01 X-9.17185 Y5.31633
G01 X-9.17939 Y5.31212
G01 X-9.18683 Y5.30772
G01 X-9.19415 Y5.30315
G01 X-9.20169 Y5.29819
G01 X-9.20878 Y5.29327
G01 X-9.21575 Y5.28818
G01 X-9.22261 Y5.28292
G01 X-9.22933 Y5.27750
G01 X-9.23592 Y5.27192
G01 X-9.24467 Y5.26404
G01 X-9.01460 Y5.07100
G01 X-9.01118 Y5.07162
G01 X-9.00497 Y5.07231
G01 X-8.99795 Y5.07245
G01 X-8.80490 Y5.30252
G04 P0 ( dwell for no time -- G64 should not smooth over this point )
G00 Z0.08000 ( retract )

G00 X-9.07099 Y4.98540 ( rapid move to begin. )
G01 F3.00000
( Mill infeed pass 1/1 )
G01 Z-0.00800
G04 P0 ( dwell for no time -- G64 should not smooth over this point )
G01 F6.00000
G01 X-9.07099 Y4.98540
G01 X-9.07168 Y4.98926
G01 X-9.07233 Y4.99523
G01 X-9.07244 Y5.00204
G01 X-9.30252 Y5.19510
G01 X-9.30875 Y5.18512
G01 X-9.31310 Y5.17766
G01 X-9.31727 Y5.17011
G01 X-9.32143 Y5.16211
G01 X-9.32523 Y5.15435
G01 X-9.32884 Y5.14650
G01 X-9.33226 Y5.13857
G01 X-9.33549 Y5.13056
G01 X-9.33853 Y5.12247
G01 X-9.34137 Y5.11431
G01 X-9.34401 Y5.10609
G01 X-9.34656 Y5.09744
G01 X-9.34880 Y5.08911
G01 X-9.35083 Y5.08071
G01 X-9.35267 Y5.07227
G01 X-9.35430 Y5.06378
G01 X-9.35573 Y5.05526
G01 X-9.35695 Y5.04671
G01 X-9.35797 Y5.03813
G01 X-9.35878 Y5.02953
G01 X-9.35939 Y5.02091
G01 X-9.35979 Y5.01228
G01 X-9.35998 Y5.00364
G01 X-9.35996 Y4.99500
G01 X-9.35974 Y4.98637
G01 X-9.35928 Y4.97736
G01 X-9.35864 Y4.96877
G01 X-9.35774 Y4.95979
G01 X-9.35668 Y4.95123
G01 X-9.35540 Y4.94268
G01 X-9.35393 Y4.93417
G01 X-9.35224 Y4.92570
G01 X-9.35036 Y4.91726
G01 X-9.34827 Y4.90888
G01 X-9.34599 Y4.90055
G01 X-9.34350 Y4.89227
G01 X-9.34082 Y4.88407
G01 X-9.33781 Y4.87557
G01 X-9.33473 Y4.86752
G01 X-9.33131 Y4.85917
G01 X-9.32784 Y4.85127
G01 X-9.32417 Y4.84345
G01 X-9.32032 Y4.83571
G01 X-9.31629 Y4.82807
G01 X-9.31207 Y4.82053
G01 X-9.30767 Y4.81309
G01 X-9.30310 Y4.80576
G01 X-9.29835 Y4.79854
G01 X-9.29344 Y4.79145
G01 X-9.28812 Y4.78416
G01 X-9.28286 Y4.77732
G01 X-9.27744 Y4.77060
G01 X-9.27185 Y4.76400
G01 X-9.26404 Y4.75533
G01 X-9.07099 Y4.98540
G01 X-9.06008 Y4.98285
G01 X-9.06136 Y4.98818
G01 X-9.06234 Y4.99572
G01 X-9.06248 Y5.00052
G01 X-9.06214 Y5.00646
G01 X-9.30464 Y5.20993
G01 X-9.31247 Y5.19815
G01 X-9.31733 Y5.19026
G01 X-9.32180 Y5.18260
G01 X-9.32609 Y5.17483
G01 X-9.33036 Y5.16661
G01 X-9.33426 Y5.15864
G01 X-9.33797 Y5.15057
G01 X-9.34149 Y5.14242
G01 X-9.34481 Y5.13418
G01 X-9.34793 Y5.12587
G01 X-9.35085 Y5.11748
G01 X-9.35357 Y5.10904
G01 X-9.35618 Y5.10015
G01 X-9.35848 Y5.09158
G01 X-9.36058 Y5.08295
G01 X-9.36247 Y5.07427
G01 X-9.36414 Y5.06555
G01 X-9.36561 Y5.05680
G01 X-9.36687 Y5.04801
G01 X-9.36792 Y5.03919
G01 X-9.36875 Y5.03035
G01 X-9.36937 Y5.02149
G01 X-9.36978 Y5.01262
G01 X-9.36998 Y5.00374
G01 X-9.36996 Y4.99486
G01 X-9.36973 Y4.98599
G01 X-9.36927 Y4.97674
G01 X-9.36860 Y4.96790
G01 X-9.36768 Y4.95868
G01 X-9.36659 Y4.94987
G01 X-9.36528 Y4.94109
G01 X-9.36376 Y4.93234
G01 X-9.36203 Y4.92363
G01 X-9.36009 Y4.91497
G01 X-9.35795 Y4.90635
G01 X-9.35560 Y4.89778
G01 X-9.35304 Y4.88928
G01 X-9.35029 Y4.88085
G01 X-9.34719 Y4.87211
G01 X-9.34403 Y4.86383
G01 X-9.34051 Y4.85526
G01 X-9.33694 Y4.84714
G01 X-9.33318 Y4.83910
G01 X-9.32922 Y4.83115
G01 X-9.32507 Y4.82329
G01 X-9.32074 Y4.81554
G01 X-9.31622 Y4.80790
G01 X-9.31152 Y4.80037
G01 X-9.30664 Y4.79295
G01 X-9.30159 Y4.78566
G01 X-9.29612 Y4.77817
G01 X-9.29072 Y4.77113
G01 X-9.28514 Y4.76422
G01 X-9.27940 Y4.75745
G01 X-9.27351 Y4.75082
G01 X-9.26356 Y4.74035
G01 X-9.06008 Y4.98285
G01 X-9.04881 Y4.98073
G01 X-9.05005 Y4.98417
G01 X-9.05108 Y4.98791
G01 X-9.05185 Y4.99184
G01 X-9.05235 Y4.99622
G01 X-9.05249 Y5.00021
G01 X-9.05240 Y5.00302
G01 X-9.05202 Y5.00700
G01 X-9.05141 Y5.01050
G01 X-9.30652 Y5.22457
G01 X-9.31594 Y5.21114
G01 X-9.32091 Y5.20350
G01 X-9.32591 Y5.19541
G01 X-9.33050 Y5.18753
G01 X-9.33490 Y5.17955
G01 X-9.33929 Y5.17112
G01 X-9.34330 Y5.16293
G01 X-9.34711 Y5.15464
G01 X-9.35072 Y5.14627
G01 X-9.35413 Y5.13781
G01 X-9.35733 Y5.12927
G01 X-9.36033 Y5.12066
G01 X-9.36312 Y5.11198
G01 X-9.36581 Y5.10286
G01 X-9.36817 Y5.09406
G01 X-9.37032 Y5.08519
G01 X-9.37226 Y5.07628
G01 X-9.37399 Y5.06733
G01 X-9.37549 Y5.05833
G01 X-9.37679 Y5.04930
G01 X-9.37786 Y5.04025
G01 X-9.37872 Y5.03117
G01 X-9.37936 Y5.02207
G01 X-9.37978 Y5.01296
G01 X-9.37998 Y5.00384
G01 X-9.37996 Y4.99472
G01 X-9.37973 Y4.98561
G01 X-9.37925 Y4.97611
G01 X-9.37857 Y4.96703
G01 X-9.37762 Y4.95756
G01 X-9.37650 Y4.94852
G01 X-9.37515 Y4.93950
G01 X-9.37359 Y4.93051
G01 X-9.37182 Y4.92157
G01 X-9.36983 Y4.91267
G01 X-9.36762 Y4.90382
G01 X-9.36521 Y4.89502
G01 X-9.36259 Y4.88629
G01 X-9.35975 Y4.87762
G01 X-9.35658 Y4.86866
G01 X-9.35333 Y4.86015
G01 X-9.34972 Y4.85135
G01 X-9.34605 Y4.84301
G01 X-9.34218 Y4.83475
G01 X-9.33812 Y4.82658
G01 X-9.33386 Y4.81852
G01 X-9.32941 Y4.81056
G01 X-9.32477 Y4.80271
G01 X-9.31994 Y4.79497
G01 X-9.31493 Y4.78735
G01 X-9.30974 Y4.77986
G01 X-9.30413 Y4.77218
G01 X-9.29858 Y4.76495
G01 X-9.29285 Y4.75785
G01 X-9.28696 Y4.75089
G01 X-9.28090 Y4.74408
G01 X-9.27441 Y4.73713
G01 X-9.26287 Y4.72562
G01 X-9.04881 Y4.98073
G01 X-9.03703 Y4.97920
G01 X-9.26199 Y4.71111
G01 X-9.26836 Y4.71701
G01 X-9.27508 Y4.72354
G01 X-9.28163 Y4.73022
G01 X-9.28829 Y4.73734
G01 X-9.29451 Y4.74434
G01 X-9.30056 Y4.75148
G01 X-9.30644 Y4.75876
G01 X-9.31214 Y4.76618
G01 X-9.31789 Y4.77406
G01 X-9.32322 Y4.78176
G01 X-9.32836 Y4.78957
G01 X-9.33332 Y4.79751
G01 X-9.33808 Y4.80557
G01 X-9.34265 Y4.81374
G01 X-9.34702 Y4.82202
G01 X-9.35119 Y4.83040
G01 X-9.35516 Y4.83887
G01 X-9.35892 Y4.84744
G01 X-9.36263 Y4.85647
G01 X-9.36596 Y4.86521
G01 X-9.36922 Y4.87440
G01 X-9.37213 Y4.88330
G01 X-9.37482 Y4.89226
G01 X-9.37730 Y4.90129
G01 X-9.37956 Y4.91037
G01 X-9.38160 Y4.91950
G01 X-9.38342 Y4.92868
G01 X-9.38502 Y4.93791
G01 X-9.38640 Y4.94716
G01 X-9.38756 Y4.95645
G01 X-9.38853 Y4.96616
G01 X-9.38923 Y4.97549
G01 X-9.38972 Y4.98523
G01 X-9.38996 Y4.99458
G01 X-9.38998 Y5.00394
G01 X-9.38977 Y5.01330
G01 X-9.38934 Y5.02265
G01 X-9.38869 Y5.03199
G01 X-9.38781 Y5.04131
G01 X-9.38670 Y5.05060
G01 X-9.38538 Y5.05987
G01 X-9.38383 Y5.06910
G01 X-9.38206 Y5.07829
G01 X-9.38007 Y5.08744
G01 X-9.37786 Y5.09653
G01 X-9.37544 Y5.10557
G01 X-9.37268 Y5.11493
G01 X-9.36982 Y5.12383
G01 X-9.36674 Y5.13267
G01 X-9.36345 Y5.14144
G01 X-9.35995 Y5.15012
G01 X-9.35624 Y5.15871
G01 X-9.35233 Y5.16722
G01 X-9.34822 Y5.17562
G01 X-9.34372 Y5.18428
G01 X-9.33920 Y5.19247
G01 X-9.33448 Y5.20055
G01 X-9.32936 Y5.20885
G01 X-9.32426 Y5.21670
G01 X-9.31896 Y5.22442
G01 X-9.31348 Y5.23201
G01 X-9.30817 Y5.23901
G01 X-9.04009 Y5.01406
G01 X-9.04123 Y5.01027
G01 X-9.04208 Y5.00589
G01 X-9.04241 Y5.00271
G01 X-9.04249 Y4.99991
G01 X-9.04237 Y4.99671
G01 X-9.04180 Y4.99234
G01 X-9.04045 Y4.98697
G01 X-9.03888 Y4.98286
G01 X-9.03703 Y4.97920
G04 P0 ( dwell for no time -- G64 should not smooth over this point )
G00 Z0.08000 ( retract )

G00 X-8.64002 Y4.99655 ( rapid move to begin. )
G01 F3.00000
( Mill infeed pass 1/1 )
G01 Z-0.00800
G04 P0 ( dwell for no time -- G64 should not smooth over this point )
G01 F6.00000
G01 X-8.64002 Y4.99655
G01 X-8.64004 Y5.00518
G01 X-8.64027 Y5.01382
G01 X-8.64070 Y5.02243
G01 X-8.64138 Y5.03143
G01 X-8.64223 Y5.04002
G01 X-8.64330 Y5.04858
G01 X-8.64462 Y5.05750
G01 X-8.64611 Y5.06600
G01 X-8.64779 Y5.07448
G01 X-8.64968 Y5.08291
G01 X-8.65177 Y5.09129
G01 X-8.65406 Y5.09961
G01 X-8.65666 Y5.10825
G01 X-8.65936 Y5.11645
G01 X-8.66225 Y5.12459
G01 X-8.66534 Y5.13266
G01 X-8.66862 Y5.14065
G01 X-8.67209 Y5.14856
G01 X-8.67575 Y5.15639
G01 X-8.67959 Y5.16413
G01 X-8.68362 Y5.17176
G01 X-8.68802 Y5.17963
G01 X-8.69242 Y5.18706
G01 X-8.69700 Y5.19439
G01 X-8.70175 Y5.20160
G01 X-8.70667 Y5.20870
G01 X-8.71177 Y5.21568
G01 X-8.71702 Y5.22254
G01 X-8.72245 Y5.22926
G01 X-8.72802 Y5.23585
G01 X-8.73596 Y5.24467
G01 X-8.92901 Y5.01460
G01 X-8.92832 Y5.01074
G01 X-8.92767 Y5.00477
G01 X-8.92756 Y4.99796
G01 X-8.69748 Y4.80490
G01 X-8.69134 Y4.81472
G01 X-8.68698 Y4.82218
G01 X-8.68281 Y4.82974
G01 X-8.67881 Y4.83740
G01 X-8.67501 Y4.84515
G01 X-8.67123 Y4.85334
G01 X-8.66781 Y4.86126
G01 X-8.66458 Y4.86928
G01 X-8.66154 Y4.87736
G01 X-8.65869 Y4.88552
G01 X-8.65604 Y4.89374
G01 X-8.65359 Y4.90203
G01 X-8.65134 Y4.91037
G01 X-8.64929 Y4.91876
G01 X-8.64744 Y4.92719
G01 X-8.64573 Y4.93605
G01 X-8.64430 Y4.94456
G01 X-8.64307 Y4.95311
G01 X-8.64205 Y4.96169
G01 X-8.64123 Y4.97029
G01 X-8.64062 Y4.97891
G01 X-8.64022 Y4.98753
G01 X-8.64002 Y4.99655
G01 X-8.63002 Y4.99645
G01 X-8.63022 Y4.98719
G01 X-8.63064 Y4.97832
G01 X-8.63126 Y4.96947
G01 X-8.63210 Y4.96063
G01 X-8.63315 Y4.95181
G01 X-8.63442 Y4.94302
G01 X-8.63589 Y4.93427
G01 X-8.63765 Y4.92517
G01 X-8.63955 Y4.91651
G01 X-8.64165 Y4.90788
G01 X-8.64397 Y4.89931
G01 X-8.64649 Y4.89079
G01 X-8.64921 Y4.88234
G01 X-8.65213 Y4.87395
G01 X-8.65526 Y4.86564
G01 X-8.65858 Y4.85741
G01 X-8.66210 Y4.84926
G01 X-8.66598 Y4.84085
G01 X-8.66989 Y4.83289
G01 X-8.67400 Y4.82501
G01 X-8.67829 Y4.81724
G01 X-8.68277 Y4.80957
G01 X-8.68743 Y4.80202
G01 X-8.69536 Y4.79006
G01 X-8.93786 Y4.99354
G01 X-8.93752 Y4.99948
G01 X-8.93766 Y5.00428
G01 X-8.93864 Y5.01182
G01 X-8.93992 Y5.01715
G01 X-8.73644 Y5.25965
G01 X-8.72663 Y5.24933
G01 X-8.72047 Y5.24241
G01 X-8.71474 Y5.23563
G01 X-8.70916 Y5.22872
G01 X-8.70376 Y5.22167
G01 X-8.69852 Y5.21450
G01 X-8.69346 Y5.20721
G01 X-8.68858 Y5.19979
G01 X-8.68387 Y5.19226
G01 X-8.67935 Y5.18462
G01 X-8.67483 Y5.17654
G01 X-8.67069 Y5.16869
G01 X-8.66674 Y5.16074
G01 X-8.66298 Y5.15269
G01 X-8.65941 Y5.14456
G01 X-8.65604 Y5.13635
G01 X-8.65287 Y5.12805
G01 X-8.64989 Y5.11968
G01 X-8.64713 Y5.11125
G01 X-8.64445 Y5.10238
G01 X-8.64210 Y5.09383
G01 X-8.63995 Y5.08521
G01 X-8.63801 Y5.07655
G01 X-8.63627 Y5.06784
G01 X-8.63475 Y5.05910
G01 X-8.63339 Y5.04993
G01 X-8.63229 Y5.04113
G01 X-8.63141 Y5.03230
G01 X-8.63072 Y5.02306
G01 X-8.63027 Y5.01420
G01 X-8.63004 Y5.00532
G01 X-8.63002 Y4.99645
G01 X-8.62002 Y4.99635
G01 X-8.62004 Y5.00547
G01 X-8.62028 Y5.01458
G01 X-8.62074 Y5.02369
G01 X-8.62145 Y5.03317
G01 X-8.62236 Y5.04224
G01 X-8.62348 Y5.05129
G01 X-8.62488 Y5.06069
G01 X-8.62644 Y5.06967
G01 X-8.62822 Y5.07862
G01 X-8.63022 Y5.08752
G01 X-8.63242 Y5.09637
G01 X-8.63484 Y5.10515
G01 X-8.63759 Y5.11426
G01 X-8.64043 Y5.12292
G01 X-8.64348 Y5.13151
G01 X-8.64674 Y5.14003
G01 X-8.65020 Y5.14847
G01 X-8.65387 Y5.15682
G01 X-8.65773 Y5.16508
G01 X-8.66179 Y5.17325
G01 X-8.66605 Y5.18131
G01 X-8.67069 Y5.18961
G01 X-8.67533 Y5.19745
G01 X-8.68016 Y5.20519
G01 X-8.68518 Y5.21281
G01 X-8.69038 Y5.22030
G01 X-8.69575 Y5.22767
G01 X-8.70130 Y5.23490
G01 X-8.70703 Y5.24200
G01 X-8.71292 Y5.24896
G01 X-8.71923 Y5.25607
G01 X-8.72546 Y5.26273
G01 X-8.73713 Y5.27438
G01 X-8.95119 Y5.01927
G01 X-8.94995 Y5.01582
G01 X-8.94892 Y5.01208
G01 X-8.94815 Y5.00816
G01 X-8.94764 Y5.00378
G01 X-8.94751 Y4.99978
G01 X-8.94760 Y4.99698
G01 X-8.94798 Y4.99300
G01 X-8.94859 Y4.98950
G01 X-8.69348 Y4.77543
G01 X-8.68417 Y4.78870
G01 X-8.67898 Y4.79667
G01 X-8.67419 Y4.80442
G01 X-8.66959 Y4.81230
G01 X-8.66518 Y4.82028
G01 X-8.66097 Y4.82837
G01 X-8.65695 Y4.83655
G01 X-8.65297 Y4.84519
G01 X-8.64935 Y4.85356
G01 X-8.64594 Y4.86201
G01 X-8.64273 Y4.87055
G01 X-8.63973 Y4.87916
G01 X-8.63693 Y4.88784
G01 X-8.63434 Y4.89659
G01 X-8.63197 Y4.90539
G01 X-8.62980 Y4.91425
G01 X-8.62785 Y4.92315
G01 X-8.62605 Y4.93249
G01 X-8.62453 Y4.94148
G01 X-8.62324 Y4.95051
G01 X-8.62216 Y4.95956
G01 X-8.62130 Y4.96864
G01 X-8.62065 Y4.97774
G01 X-8.62023 Y4.98684
G01 X-8.62002 Y4.99635
G01 X-8.61002 Y4.99625
G01 X-8.61023 Y4.98650
G01 X-8.61067 Y4.97715
G01 X-8.61133 Y4.96782
G01 X-8.61222 Y4.95850
G01 X-8.61332 Y4.94920
G01 X-8.61465 Y4.93994
G01 X-8.61621 Y4.93071
G01 X-8.61806 Y4.92113
G01 X-8.62006 Y4.91199
G01 X-8.62228 Y4.90290
G01 X-8.62472 Y4.89386
G01 X-8.62738 Y4.88489
G01 X-8.63025 Y4.87598
G01 X-8.63333 Y4.86714
G01 X-8.63662 Y4.85838
G01 X-8.64012 Y4.84970
G01 X-8.64383 Y4.84111
G01 X-8.64792 Y4.83225
G01 X-8.65205 Y4.82385
G01 X-8.65637 Y4.81555
G01 X-8.66090 Y4.80736
G01 X-8.66562 Y4.79928
G01 X-8.67053 Y4.79131
G01 X-8.67585 Y4.78314
G01 X-8.68115 Y4.77542
G01 X-8.68663 Y4.76784
G01 X-8.69183 Y4.76099
G01 X-8.95991 Y4.98594
G01 X-8.95877 Y4.98972
G01 X-8.95791 Y4.99411
G01 X-8.95759 Y4.99729
G01 X-8.95751 Y5.00009
G01 X-8.95763 Y5.00329
G01 X-8.95820 Y5.00766
G01 X-8.95955 Y5.01303
G01 X-8.96112 Y5.01714
G01 X-8.96297 Y5.02080
G01 X-8.73801 Y5.28889
G01 X-8.73150 Y5.28285
G01 X-8.72478 Y5.27632
G01 X-8.71823 Y5.26964
G01 X-8.71184 Y5.26280
G01 X-8.70536 Y5.25551
G01 X-8.69932 Y5.24837
G01 X-8.69344 Y5.24108
G01 X-8.68774 Y5.23366
G01 X-8.68223 Y5.22610
G01 X-8.67689 Y5.21841
G01 X-8.67174 Y5.21059
G01 X-8.66679 Y5.20265
G01 X-8.66202 Y5.19460
G01 X-8.65726 Y5.18608
G01 X-8.65289 Y5.17781
G01 X-8.64872 Y5.16943
G01 X-8.64476 Y5.16095
G01 X-8.64100 Y5.15238
G01 X-8.63745 Y5.14372
G01 X-8.63410 Y5.13497
G01 X-8.63097 Y5.12615
G01 X-8.62805 Y5.11726
G01 X-8.62523 Y5.10792
G01 X-8.62275 Y5.09890
G01 X-8.62048 Y5.08982
G01 X-8.61844 Y5.08069
G01 X-8.61661 Y5.07151
G01 X-8.61501 Y5.06229
G01 X-8.61357 Y5.05264
G01 X-8.61242 Y5.04335
G01 X-8.61149 Y5.03404
G01 X-8.61076 Y5.02431
G01 X-8.61029 Y5.01497
G01 X-8.61004 Y5.00561
G01 X-8.61002 Y4.99625
G04 P0 ( dwell for no time -- G64 should not smooth over this point )
G00 Z0.08000 ( retract )

G00 X-8.71111 Y4.73801 ( rapid move to begin. )
G01 F3.00000
( Mill infeed pass 1/1 )
G01 Z-0.00800
G04 P0 ( dwell for no time -- G64 should not smooth over this point )
G01 F6.00000
G01 X-8.71111 Y4.73801
G01 X-8.71695 Y4.73171
G01 X-8.72347 Y4.72499
G01 X-8.73015 Y4.71844
G01 X-8.73698 Y4.71204
G01 X-8.74426 Y4.70555
G01 X-8.75140 Y4.69950
G01 X-8.75868 Y4.69362
G01 X-8.76611 Y4.68792
G01 X-8.77366 Y4.68240
G01 X-8.78135 Y4.67706
G01 X-8.78916 Y4.67190
G01 X-8.79710 Y4.66694
G01 X-8.80515 Y4.66216
G01 X-8.81366 Y4.65740
G01 X-8.82193 Y4.65303
G01 X-8.83031 Y4.64885
G01 X-8.83879 Y4.64488
G01 X-8.84735 Y4.64111
G01 X-8.85601 Y4.63755
G01 X-8.86475 Y4.63420
G01 X-8.87394 Y4.63094
G01 X-8.88283 Y4.62802
G01 X-8.89179 Y4.62531
G01 X-8.90081 Y4.62282
G01 X-8.90989 Y4.62055
G01 X-8.91941 Y4.61842
G01 X-8.92859 Y4.61659
G01 X-8.93781 Y4.61499
G01 X-8.94707 Y4.61361
G01 X-8.95635 Y4.61245
G01 X-8.96606 Y4.61148
G01 X-8.97539 Y4.61078
G01 X-8.98474 Y4.61030
G01 X-8.99449 Y4.61004
G01 X-9.00385 Y4.61002
G01 X-9.01320 Y4.61022
G01 X-9.02255 Y4.61065
G01 X-9.03189 Y4.61131
G01 X-9.04121 Y4.61218
G01 X-9.05089 Y4.61334
G01 X-9.06016 Y4.61467
G01 X-9.06939 Y4.61622
G01 X-9.07858 Y4.61800
G01 X-9.08772 Y4.61999
G01 X-9.09681 Y4.62221
G01 X-9.10585 Y4.62464
G01 X-9.11483 Y4.62729
G01 X-9.12374 Y4.63015
G01 X-9.13295 Y4.63336
G01 X-9.14171 Y4.63666
G01 X-9.15039 Y4.64016
G01 X-9.15898 Y4.64388
G01 X-9.16748 Y4.64779
G01 X-9.17589 Y4.65191
G01 X-9.18419 Y4.65623
G01 X-9.19238 Y4.66075
G01 X-9.20047 Y4.66547
G01 X-9.20877 Y4.67059
G01 X-9.21662 Y4.67569
G01 X-9.22434 Y4.68098
G01 X-9.23193 Y4.68646
G01 X-9.23901 Y4.69183
G01 X-9.01405 Y4.95992
G01 X-9.00996 Y4.95869
G01 X-9.00563 Y4.95788
G01 X-9.00011 Y4.95751
G01 X-8.99651 Y4.95765
G01 X-8.99208 Y4.95825
G01 X-8.98867 Y4.95906
G01 X-8.98304 Y4.96104
G01 X-8.97920 Y4.96296
G01 X-8.71111 Y4.73801
G01 X-8.72562 Y4.73713
G01 X-8.73707 Y4.72565
G01 X-8.74372 Y4.71943
G01 X-8.75082 Y4.71310
G01 X-8.75778 Y4.70721
G01 X-8.76487 Y4.70148
G01 X-8.77210 Y4.69592
G01 X-8.77947 Y4.69054
G01 X-8.78696 Y4.68534
G01 X-8.79457 Y4.68032
G01 X-8.80230 Y4.67548
G01 X-8.81014 Y4.67083
G01 X-8.81844 Y4.66618
G01 X-8.82650 Y4.66192
G01 X-8.83466 Y4.65786
G01 X-8.84292 Y4.65399
G01 X-8.85127 Y4.65032
G01 X-8.85970 Y4.64685
G01 X-8.86821 Y4.64358
G01 X-8.87717 Y4.64040
G01 X-8.88584 Y4.63756
G01 X-8.89457 Y4.63492
G01 X-8.90336 Y4.63249
G01 X-8.91220 Y4.63028
G01 X-8.92148 Y4.62820
G01 X-8.93042 Y4.62643
G01 X-8.93941 Y4.62486
G01 X-8.94843 Y4.62352
G01 X-8.95747 Y4.62239
G01 X-8.96693 Y4.62144
G01 X-8.97602 Y4.62076
G01 X-8.98513 Y4.62029
G01 X-8.99463 Y4.62004
G01 X-9.00375 Y4.62002
G01 X-9.01286 Y4.62022
G01 X-9.02197 Y4.62064
G01 X-9.03107 Y4.62127
G01 X-9.04015 Y4.62213
G01 X-9.04959 Y4.62325
G01 X-9.05861 Y4.62455
G01 X-9.06761 Y4.62606
G01 X-9.07656 Y4.62779
G01 X-9.08547 Y4.62974
G01 X-9.09433 Y4.63190
G01 X-9.10314 Y4.63427
G01 X-9.11189 Y4.63685
G01 X-9.12056 Y4.63964
G01 X-9.12955 Y4.64276
G01 X-9.13808 Y4.64597
G01 X-9.14653 Y4.64939
G01 X-9.15490 Y4.65301
G01 X-9.16319 Y4.65683
G01 X-9.17137 Y4.66084
G01 X-9.17947 Y4.66505
G01 X-9.18745 Y4.66945
G01 X-9.19533 Y4.67404
G01 X-9.20342 Y4.67903
G01 X-9.21106 Y4.68401
G01 X-9.22457 Y4.69348
G01 X-9.01051 Y4.94858
G01 X-9.00668 Y4.94794
G01 X-9.00282 Y4.94758
G01 X-8.99881 Y4.94752
G01 X-8.99602 Y4.94766
G01 X-8.99152 Y4.94820
G01 X-8.98760 Y4.94899
G01 X-8.98074 Y4.95120
G01 X-8.72562 Y4.73713
G01 X-8.74035 Y4.73644
G01 X-8.75047 Y4.72681
G01 X-8.75738 Y4.72065
G01 X-8.76415 Y4.71491
G01 X-8.77106 Y4.70934
G01 X-8.77810 Y4.70392
G01 X-8.78527 Y4.69869
G01 X-8.79256 Y4.69362
G01 X-8.79998 Y4.68873
G01 X-8.80751 Y4.68402
G01 X-8.81514 Y4.67949
G01 X-8.82322 Y4.67497
G01 X-8.83106 Y4.67082
G01 X-8.83901 Y4.66686
G01 X-8.84705 Y4.66309
G01 X-8.85518 Y4.65952
G01 X-8.86340 Y4.65614
G01 X-8.87168 Y4.65297
G01 X-8.88041 Y4.64986
G01 X-8.88884 Y4.64710
G01 X-8.89734 Y4.64453
G01 X-8.90590 Y4.64217
G01 X-8.91451 Y4.64001
G01 X-8.92355 Y4.63799
G01 X-8.93225 Y4.63626
G01 X-8.94100 Y4.63474
G01 X-8.94978 Y4.63342
G01 X-8.95859 Y4.63233
G01 X-8.96781 Y4.63140
G01 X-8.97665 Y4.63074
G01 X-8.98551 Y4.63028
G01 X-8.99478 Y4.63004
G01 X-9.00365 Y4.63002
G01 X-9.01253 Y4.63021
G01 X-9.02140 Y4.63062
G01 X-9.03026 Y4.63124
G01 X-9.03909 Y4.63207
G01 X-9.04829 Y4.63317
G01 X-9.05707 Y4.63443
G01 X-9.06583 Y4.63591
G01 X-9.07455 Y4.63759
G01 X-9.08322 Y4.63948
G01 X-9.09185 Y4.64158
G01 X-9.10042 Y4.64389
G01 X-9.10894 Y4.64640
G01 X-9.11739 Y4.64912
G01 X-9.12614 Y4.65217
G01 X-9.13444 Y4.65529
G01 X-9.14268 Y4.65862
G01 X-9.15083 Y4.66214
G01 X-9.15889 Y4.66586
G01 X-9.16686 Y4.66977
G01 X-9.17474 Y4.67387
G01 X-9.18252 Y4.67815
G01 X-9.19018 Y4.68262
G01 X-9.19807 Y4.68748
G01 X-9.20993 Y4.69536
G01 X-9.00646 Y4.93786
G01 X-9.00072 Y4.93751
G01 X-8.99552 Y4.93767
G01 X-8.99295 Y4.93791
G01 X-8.98781 Y4.93871
G01 X-8.98288 Y4.93994
G01 X-8.74035 Y4.73644
G01 X-8.75533 Y4.73595
G01 X-8.76394 Y4.72820
G01 X-8.77053 Y4.72262
G01 X-8.77725 Y4.71719
G01 X-8.78410 Y4.71193
G01 X-8.79108 Y4.70683
G01 X-8.79817 Y4.70190
G01 X-8.80538 Y4.69714
G01 X-8.81271 Y4.69256
G01 X-8.82013 Y4.68816
G01 X-8.82800 Y4.68375
G01 X-8.83563 Y4.67972
G01 X-8.84336 Y4.67586
G01 X-8.85119 Y4.67220
G01 X-8.85910 Y4.66872
G01 X-8.86709 Y4.66544
G01 X-8.87515 Y4.66235
G01 X-8.88364 Y4.65932
G01 X-8.89184 Y4.65663
G01 X-8.90011 Y4.65414
G01 X-8.90844 Y4.65184
G01 X-8.91682 Y4.64975
G01 X-8.92562 Y4.64777
G01 X-8.93408 Y4.64609
G01 X-8.94259 Y4.64461
G01 X-8.95114 Y4.64333
G01 X-8.95970 Y4.64227
G01 X-8.96868 Y4.64137
G01 X-8.97728 Y4.64072
G01 X-8.98590 Y4.64028
G01 X-8.99492 Y4.64004
G01 X-9.00355 Y4.64002
G01 X-9.01219 Y4.64021
G01 X-9.02082 Y4.64060
G01 X-9.02944 Y4.64121
G01 X-9.03803 Y4.64202
G01 X-9.04699 Y4.64308
G01 X-9.05553 Y4.64431
G01 X-9.06405 Y4.64575
G01 X-9.07253 Y4.64738
G01 X-9.08097 Y4.64923
G01 X-9.08937 Y4.65127
G01 X-9.09771 Y4.65352
G01 X-9.10600 Y4.65596
G01 X-9.11421 Y4.65860
G01 X-9.12273 Y4.66157
G01 X-9.13081 Y4.66461
G01 X-9.13882 Y4.66784
G01 X-9.14675 Y4.67127
G01 X-9.15460 Y4.67489
G01 X-9.16235 Y4.67869
G01 X-9.17002 Y4.68268
G01 X-9.17759 Y4.68685
G01 X-9.18504 Y4.69120
G01 X-9.19510 Y4.69748
G01 X-9.00205 Y4.92755
G01 X-8.99503 Y4.92769
G01 X-8.98882 Y4.92838
G01 X-8.98540 Y4.92900
G01 X-8.75533 Y4.73595
G04 P0 ( dwell for no time -- G64 should not smooth over this point )
G00 Z0.08000 ( retract )

G00 X-7.82482 Y2.65072 ( rapid move to begin. )
G01 F3.00000
( Mill infeed pass 1/1 )
G01 Z-0.00800
G04 P0 ( dwell for no time -- G64 should not smooth over this point )
G01 F6.00000
G01 X-7.82482 Y2.65072
G01 X-7.86153 Y2.67360
G01 X-7.94032 Y2.72357
G01 X-7.95892 Y2.73552
G01 X-8.03254 Y2.78347
G01 X-8.05125 Y2.79582
G01 X-8.11977 Y2.84165
G01 X-8.13739 Y2.85360
G01 X-8.20064 Y2.89704
G01 X-8.21839 Y2.90938
G01 X-8.27852 Y2.95177
G01 X-8.29580 Y2.96412
G01 X-8.35188 Y3.00470
G01 X-8.42068 Y3.05564
G01 X-8.43708 Y3.06799
G01 X-8.50051 Y3.11647
G01 X-8.54538 Y3.15154
G01 X-8.60329 Y3.19780
G01 X-8.61849 Y3.21014
G01 X-8.67204 Y3.25429
G01 X-8.70870 Y3.28519
G01 X-8.75741 Y3.32711
G01 X-8.80327 Y3.36755
G01 X-8.81704 Y3.37989
G01 X-8.86032 Y3.41930
G01 X-8.90169 Y3.45791
G01 X-8.92881 Y3.48375
G01 X-8.96695 Y3.52086
G01 X-9.00330 Y3.55710
G01 X-9.03750 Y3.59206
G01 X-9.06971 Y3.62578
G01 X-9.10116 Y3.65953
G01 X-9.13118 Y3.69255
G01 X-9.14220 Y3.70488
G01 X-9.17044 Y3.73704
G01 X-9.19745 Y3.76857
G01 X-9.22272 Y3.79881
G01 X-9.24711 Y3.82875
G01 X-9.26078 Y3.84586
G01 X-9.28277 Y3.87394
G01 X-9.31338 Y3.91423
G01 X-9.33401 Y3.94224
G01 X-9.35373 Y3.96974
G01 X-9.36394 Y3.98426
G01 X-9.38180 Y4.01017
G01 X-9.39922 Y4.03613
G01 X-9.42356 Y4.07358
G01 X-9.44707 Y4.11127
G01 X-9.46845 Y4.14699
G01 X-9.48887 Y4.18255
G01 X-9.50827 Y4.21782
G01 X-9.52559 Y4.25072
G01 X-9.54293 Y4.28515
G01 X-9.55829 Y4.31706
G01 X-9.57417 Y4.35178
G01 X-9.58753 Y4.38248
G01 X-9.59614 Y4.40309
G01 X-9.60453 Y4.42389
G01 X-9.61239 Y4.44408
G01 X-9.62010 Y4.46460
G01 X-9.63176 Y4.49725
G01 X-9.64091 Y4.52445
G01 X-9.64728 Y4.54432
G01 X-9.65328 Y4.56388
G01 X-9.65887 Y4.58291
G01 X-9.66428 Y4.60221
G01 X-9.67246 Y4.63329
G01 X-9.67876 Y4.65916
G01 X-9.68306 Y4.67801
G01 X-9.68700 Y4.69632
G01 X-9.69078 Y4.71495
G01 X-9.69422 Y4.73310
G01 X-9.69956 Y4.76395
G01 X-9.70238 Y4.78196
G01 X-9.70495 Y4.79978
G01 X-9.70734 Y4.81801
G01 X-9.70952 Y4.83634
G01 X-9.71204 Y4.86044
G01 X-9.71367 Y4.87858
G01 X-9.71506 Y4.89660
G01 X-9.71621 Y4.91419
G01 X-9.71716 Y4.93215
G01 X-9.71825 Y4.96201
G01 X-9.71861 Y4.98003
G01 X-9.71874 Y4.99806
G01 X-9.71858 Y5.02178
G01 X-9.71820 Y5.03980
G01 X-9.71760 Y5.05773
G01 X-9.71679 Y5.07524
G01 X-9.71578 Y5.09281
G01 X-9.71452 Y5.11082
G01 X-9.71306 Y5.12850
G01 X-9.71135 Y5.14659
G01 X-9.70945 Y5.16434
G01 X-9.70726 Y5.18261
G01 X-9.70484 Y5.20099
G01 X-9.70026 Y5.23170
G01 X-9.69728 Y5.24970
G01 X-9.69408 Y5.26767
G01 X-9.68929 Y5.29254
G01 X-9.68548 Y5.31086
G01 X-9.68130 Y5.32980
G01 X-9.67385 Y5.36116
G01 X-9.66909 Y5.37983
G01 X-9.66395 Y5.39899
G01 X-9.65642 Y5.42553
G01 X-9.65071 Y5.44459
G01 X-9.64467 Y5.46393
G01 X-9.63417 Y5.49573
G01 X-9.62426 Y5.52403
G01 X-9.61171 Y5.55770
G01 X-9.60008 Y5.58724
G01 X-9.58639 Y5.62019
G01 X-9.57329 Y5.65018
G01 X-9.55785 Y5.68383
G01 X-9.54282 Y5.71507
G01 X-9.53157 Y5.73760
G01 X-9.51357 Y5.77227
G01 X-9.49485 Y5.80675
G01 X-9.47466 Y5.84237
G01 X-9.46053 Y5.86642
G01 X-9.44893 Y5.88565
G01 X-9.44990 Y5.88794
G01 X-9.44893 Y5.88565
G01 X-9.40326 Y5.87390
G01 X-9.37668 Y5.86748
G01 X-9.34641 Y5.86050
G01 X-9.30716 Y5.85212
G01 X-9.26825 Y5.84459
G01 X-9.24361 Y5.84023
G01 X-9.22837 Y5.83773
G01 X-9.20960 Y5.83483
G01 X-9.18718 Y5.83167
G01 X-9.16460 Y5.82878
G01 X-9.15146 Y5.82728
G01 X-9.12043 Y5.82417
G01 X-9.08674 Y5.82157
G01 X-9.06815 Y5.82050
G01 X-9.04530 Y5.81952
G01 X-9.01592 Y5.81884
G01 X-8.99151 Y5.81878
G01 X-8.97405 Y5.81900
G01 X-8.94117 Y5.82005
G01 X-8.91118 Y5.82172
G01 X-8.87977 Y5.82416
G01 X-8.85569 Y5.82650
G01 X-8.84353 Y5.82784
G01 X-8.81156 Y5.83183
G01 X-8.77853 Y5.83663
G01 X-8.75515 Y5.84045
G01 X-8.73064 Y5.84478
G01 X-8.69160 Y5.85236
G01 X-8.65242 Y5.86077
G01 X-8.62483 Y5.86711
G01 X-8.60969 Y5.87075
G01 X-8.56453 Y5.88209
G01 X-8.53290 Y5.89053
G01 X-8.49901 Y5.89991
G01 X-8.44652 Y5.91517
G01 X-8.40761 Y5.92697
G01 X-8.38499 Y5.93402
G01 X-8.32299 Y5.95386
G01 X-8.27581 Y5.96951
G01 X-8.20903 Y5.99227
G01 X-8.20080 Y6.00087
G01 X-8.20903 Y5.99227
G01 X-8.22607 Y5.93603
G01 X-8.23901 Y5.89246
G01 X-8.24880 Y5.85881
G01 X-8.26569 Y5.79903
G01 X-8.27359 Y5.77024
G01 X-8.28670 Y5.72077
G01 X-8.29789 Y5.67651
G01 X-8.30319 Y5.65469
G01 X-8.30773 Y5.63542
G01 X-8.31609 Y5.59835
G01 X-8.32349 Y5.56312
G01 X-8.32723 Y5.54416
G01 X-8.33296 Y5.51302
G01 X-8.33506 Y5.50074
G01 X-8.33959 Y5.47214
G01 X-8.34334 Y5.44515
G01 X-8.34628 Y5.42038
G01 X-8.34787 Y5.40469
G01 X-8.34981 Y5.38134
G01 X-8.35117 Y5.35864
G01 X-8.35290 Y5.30983
G01 X-8.35388 Y5.29001
G01 X-8.35506 Y5.27098
G01 X-8.35647 Y5.25187
G01 X-8.35804 Y5.23363
G01 X-8.35981 Y5.21561
G01 X-8.36182 Y5.19742
G01 X-8.36579 Y5.16634
G01 X-8.36825 Y5.14935
G01 X-8.37095 Y5.13220
G01 X-8.37383 Y5.11528
G01 X-8.37678 Y5.09909
G01 X-8.38409 Y5.06255
G01 X-8.38674 Y5.04633
G01 X-8.38834 Y5.03309
G01 X-8.38958 Y5.01673
G01 X-8.39000 Y5.00095
G01 X-8.38967 Y4.98522
G01 X-8.38854 Y4.96897
G01 X-8.38659 Y4.95256
G01 X-8.38396 Y4.93677
G01 X-8.37667 Y4.90031
G01 X-8.37372 Y4.88411
G01 X-8.37085 Y4.86719
G01 X-8.36814 Y4.84997
G01 X-8.36562 Y4.83245
G01 X-8.36329 Y4.81473
G01 X-8.36119 Y4.79711
G01 X-8.35793 Y4.76518
G01 X-8.35637 Y4.74683
G01 X-8.35497 Y4.72771
G01 X-8.35378 Y4.70809
G01 X-8.35284 Y4.68867
G01 X-8.35146 Y4.64782
G01 X-8.35034 Y4.62636
G01 X-8.34780 Y4.59460
G01 X-8.34512 Y4.56929
G01 X-8.34311 Y4.55304
G01 X-8.33942 Y4.52667
G01 X-8.33489 Y4.49824
G01 X-8.33278 Y4.48597
G01 X-8.32717 Y4.45552
G01 X-8.32329 Y4.43595
G01 X-8.31673 Y4.40472
G01 X-8.30698 Y4.36133
G01 X-8.29707 Y4.32017
G01 X-8.29154 Y4.29810
G01 X-8.27881 Y4.24919
G01 X-8.26396 Y4.19472
G01 X-8.25658 Y4.16845
G01 X-8.23893 Y4.10725
G01 X-8.21809 Y4.03733
G01 X-8.20337 Y3.98909
G01 X-8.17552 Y3.89987
G01 X-8.16465 Y3.86564
G01 X-8.13099 Y3.76099
G01 X-8.10521 Y3.67947
G01 X-8.09284 Y3.63952
G01 X-8.06339 Y3.54226
G01 X-8.05102 Y3.50047
G01 X-8.01849 Y3.38806
G01 X-8.00652 Y3.34573
G01 X-7.96993 Y3.21326
G01 X-7.95755 Y3.16737
G01 X-7.91585 Y3.00880
G01 X-7.88954 Y2.90583
G01 X-7.85462 Y2.76756
G01 X-7.82482 Y2.65072
G01 X-7.80897 Y2.62911
G01 X-7.86686 Y2.66514
G01 X-7.94570 Y2.71514
G01 X-7.96435 Y2.72712
G01 X-8.03803 Y2.77511
G01 X-8.05679 Y2.78750
G01 X-8.12535 Y2.83336
G01 X-8.14303 Y2.84534
G01 X-8.20633 Y2.88881
G01 X-8.22413 Y2.90119
G01 X-8.28430 Y2.94361
G01 X-8.30164 Y2.95600
G01 X-8.35777 Y2.99662
G01 X-8.42666 Y3.04763
G01 X-8.49112 Y3.09659
G01 X-8.55156 Y3.14368
G01 X-8.60957 Y3.19001
G01 X-8.62482 Y3.20239
G01 X-8.67846 Y3.24663
G01 X-8.72968 Y3.28994
G01 X-8.76397 Y3.31956
G01 X-8.80992 Y3.36008
G01 X-8.85406 Y3.39997
G01 X-8.89541 Y3.43827
G01 X-8.90857 Y3.45065
G01 X-8.93573 Y3.47654
G01 X-8.97396 Y3.51372
G01 X-8.98648 Y3.52610
G01 X-9.02261 Y3.56244
G01 X-9.04469 Y3.58510
G01 X-9.07698 Y3.61891
G01 X-9.10851 Y3.65275
G01 X-9.11985 Y3.66513
G01 X-9.13862 Y3.68587
G01 X-9.16721 Y3.71812
G01 X-9.17800 Y3.73049
G01 X-9.20509 Y3.76212
G01 X-9.22050 Y3.78048
G01 X-9.24489 Y3.81011
G01 X-9.26861 Y3.83964
G01 X-9.29068 Y3.86782
G01 X-9.32140 Y3.90826
G01 X-9.34210 Y3.93637
G01 X-9.36190 Y3.96396
G01 X-9.38045 Y3.99051
G01 X-9.39843 Y4.01692
G01 X-9.41544 Y4.04258
G01 X-9.43199 Y4.06822
G01 X-9.44793 Y4.09359
G01 X-9.46287 Y4.11803
G01 X-9.47708 Y4.14193
G01 X-9.49101 Y4.16602
G01 X-9.50449 Y4.19002
G01 X-9.51708 Y4.21308
G01 X-9.52907 Y4.23570
G01 X-9.54597 Y4.26876
G01 X-9.55646 Y4.29007
G01 X-9.57199 Y4.32278
G01 X-9.58330 Y4.34771
G01 X-9.59290 Y4.36962
G01 X-9.60177 Y4.39055
G01 X-9.61383 Y4.42021
G01 X-9.62642 Y4.45289
G01 X-9.63399 Y4.47352
G01 X-9.64120 Y4.49397
G01 X-9.65042 Y4.52135
G01 X-9.65683 Y4.54134
G01 X-9.66641 Y4.57298
G01 X-9.67198 Y4.59253
G01 X-9.67898 Y4.61846
G01 X-9.68689 Y4.65012
G01 X-9.69282 Y4.67586
G01 X-9.69679 Y4.69429
G01 X-9.70289 Y4.72500
G01 X-9.70737 Y4.74997
G01 X-9.71227 Y4.78047
G01 X-9.71566 Y4.80439
G01 X-9.71946 Y4.83521
G01 X-9.72141 Y4.85354
G01 X-9.72363 Y4.87776
G01 X-9.72584 Y4.90787
G01 X-9.72715 Y4.93170
G01 X-9.72824 Y4.96174
G01 X-9.72860 Y4.97988
G01 X-9.72874 Y5.00379
G01 X-9.72834 Y5.03431
G01 X-9.72759 Y5.05814
G01 X-9.72611 Y5.08773
G01 X-9.72449 Y5.11160
G01 X-9.72187 Y5.14176
G01 X-9.71938 Y5.16548
G01 X-9.71718 Y5.18387
G01 X-9.71474 Y5.20237
G01 X-9.71014 Y5.23326
G01 X-9.70608 Y5.25750
G01 X-9.70036 Y5.28815
G01 X-9.69526 Y5.31297
G01 X-9.68819 Y5.34440
G01 X-9.68355 Y5.36357
G01 X-9.67694 Y5.38926
G01 X-9.67161 Y5.40881
G01 X-9.66246 Y5.44032
G01 X-9.65419 Y5.46698
G01 X-9.64767 Y5.48697
G01 X-9.64111 Y5.50631
G01 X-9.63004 Y5.53739
G01 X-9.62105 Y5.56127
G01 X-9.60935 Y5.59099
G01 X-9.59559 Y5.62411
G01 X-9.58651 Y5.64504
G01 X-9.57683 Y5.66665
G01 X-9.56690 Y5.68808
G01 X-9.55179 Y5.71949
G01 X-9.54048 Y5.74213
G01 X-9.52892 Y5.76458
G01 X-9.51652 Y5.78794
G01 X-9.50359 Y5.81160
G01 X-9.48331 Y5.84738
G01 X-9.46912 Y5.87154
G01 X-9.45358 Y5.89724
G01 X-9.45406 Y5.89838
G01 X-9.45358 Y5.89724
G01 X-9.43125 Y5.89134
G01 X-9.40082 Y5.88360
G01 X-9.37439 Y5.87721
G01 X-9.34416 Y5.87024
G01 X-9.30523 Y5.86193
G01 X-9.26644 Y5.85442
G01 X-9.24190 Y5.85009
G01 X-9.22681 Y5.84761
G01 X-9.20817 Y5.84472
G01 X-9.18582 Y5.84157
G01 X-9.16338 Y5.83871
G01 X-9.15040 Y5.83722
G01 X-9.11960 Y5.83413
G01 X-9.08613 Y5.83155
G01 X-9.06768 Y5.83049
G01 X-9.04486 Y5.82951
G01 X-9.01576 Y5.82884
G01 X-8.99160 Y5.82878
G01 X-8.97435 Y5.82899
G01 X-8.94156 Y5.83004
G01 X-8.91189 Y5.83169
G01 X-8.88064 Y5.83412
G01 X-8.85670 Y5.83645
G01 X-8.84468 Y5.83778
G01 X-8.81283 Y5.84175
G01 X-8.78012 Y5.84650
G01 X-8.75689 Y5.85030
G01 X-8.73242 Y5.85462
G01 X-8.69367 Y5.86215
G01 X-8.65462 Y5.87052
G01 X-8.62711 Y5.87685
G01 X-8.61202 Y5.88047
G01 X-8.56711 Y5.89176
G01 X-8.51925 Y5.90463
G01 X-8.48547 Y5.91418
G01 X-8.46649 Y5.91971
G01 X-8.42860 Y5.93100
G01 X-8.36930 Y5.94946
G01 X-8.32607 Y5.96337
G01 X-8.29923 Y5.97222
G01 X-8.24937 Y5.98900
G01 X-8.19373 Y6.00816
G01 X-8.18964 Y6.01241
G01 X-8.19373 Y6.00816
G01 X-8.20919 Y5.95740
G01 X-8.22943 Y5.88959
G01 X-8.23917 Y5.85610
G01 X-8.24901 Y5.82156
G01 X-8.26394 Y5.76759
G01 X-8.27701 Y5.71829
G01 X-8.28817 Y5.67415
G01 X-8.29348 Y5.65229
G01 X-8.29798 Y5.63322
G01 X-8.30632 Y5.59619
G01 X-8.31055 Y5.57641
G01 X-8.31742 Y5.54223
G01 X-8.32312 Y5.51121
G01 X-8.32519 Y5.49914
G01 X-8.32971 Y5.47063
G01 X-8.33341 Y5.44398
G01 X-8.33635 Y5.41921
G01 X-8.33792 Y5.40368
G01 X-8.33984 Y5.38066
G01 X-8.34118 Y5.35827
G01 X-8.34291 Y5.30939
G01 X-8.34390 Y5.28945
G01 X-8.34508 Y5.27029
G01 X-8.34650 Y5.25106
G01 X-8.34808 Y5.23270
G01 X-8.34986 Y5.21456
G01 X-8.35189 Y5.19625
G01 X-8.35588 Y5.16498
G01 X-8.35836 Y5.14787
G01 X-8.36108 Y5.13060
G01 X-8.36397 Y5.11356
G01 X-8.36696 Y5.09725
G01 X-8.37423 Y5.06089
G01 X-8.37685 Y5.04490
G01 X-8.37837 Y5.03226
G01 X-8.37959 Y5.01627
G01 X-8.38000 Y5.00096
G01 X-8.37968 Y4.98572
G01 X-8.37859 Y4.96996
G01 X-8.37669 Y4.95402
G01 X-8.37411 Y4.93846
G01 X-8.36684 Y4.90214
G01 X-8.36387 Y4.88583
G01 X-8.36097 Y4.86878
G01 X-8.35825 Y4.85144
G01 X-8.35571 Y4.83380
G01 X-8.35336 Y4.81595
G01 X-8.35125 Y4.79821
G01 X-8.34797 Y4.76610
G01 X-8.34640 Y4.74763
G01 X-8.34499 Y4.72839
G01 X-8.34379 Y4.70865
G01 X-8.34285 Y4.68911
G01 X-8.34147 Y4.64827
G01 X-8.34035 Y4.62687
G01 X-8.33784 Y4.59551
G01 X-8.33520 Y4.57057
G01 X-8.33320 Y4.55442
G01 X-8.32954 Y4.52823
G01 X-8.32502 Y4.49985
G01 X-8.31975 Y4.47009
G01 X-8.31737 Y4.45751
G01 X-8.31034 Y4.42273
G01 X-8.30292 Y4.38846
G01 X-8.29725 Y4.36364
G01 X-8.28736 Y4.32254
G01 X-8.27588 Y4.27733
G01 X-8.26250 Y4.22710
G01 X-8.24696 Y4.17116
G01 X-8.23724 Y4.13722
G01 X-8.21756 Y4.07029
G01 X-8.20852 Y4.04021
G01 X-8.18374 Y3.95948
G01 X-8.16597 Y3.90285
G01 X-8.15513 Y3.86870
G01 X-8.12147 Y3.76404
G01 X-8.09567 Y3.68246
G01 X-8.08328 Y3.64244
G01 X-8.05381 Y3.54513
G01 X-8.04142 Y3.50328
G01 X-8.00888 Y3.39081
G01 X-7.99688 Y3.34843
G01 X-7.96028 Y3.21589
G01 X-7.94789 Y3.16995
G01 X-7.90617 Y3.01131
G01 X-7.87985 Y2.90829
G01 X-7.83144 Y2.71695
G01 X-7.80897 Y2.62911
G01 X-7.80401 Y2.62233
G04 P0 ( dwell for no time -- G64 should not smooth over this point )
G00 Z0.08000 ( retract )

G00 X-6.74237 Y2.79387 ( rapid move to begin. )
G01 F3.00000
( Mill infeed pass 1/1 )
G01 Z-0.00800
G04 P0 ( dwell for no time -- G64 should not smooth over this point )
G01 F6.00000
G01 X-6.74237 Y2.79387
G01 X-6.73143 Y2.84381
G01 X-6.43614 Y3.58332
G01 X-6.39797 Y3.68142
G01 X-6.36323 Y3.77606
G01 X-6.33186 Y3.86728
G01 X-6.30389 Y3.95509
G01 X-6.27930 Y4.03948
G01 X-6.25809 Y4.12044
G01 X-6.24026 Y4.19797
G01 X-6.22579 Y4.27221
G01 X-6.17730 Y4.54718
G01 X-6.16700 Y4.59860
G01 X-6.15521 Y4.64525
G01 X-6.14146 Y4.68902
G01 X-6.12589 Y4.72920
G01 X-6.10805 Y4.76661
G01 X-6.09857 Y4.78359
G01 X-6.08861 Y4.79966
G01 X-6.07862 Y4.81419
G01 X-6.06774 Y4.82843
G01 X-6.05637 Y4.84175
G01 X-6.04451 Y4.85414
G01 X-6.04254 Y4.85586
G01 X-6.04031 Y4.85722
G01 X-6.03698 Y4.85886
G01 X-6.01319 Y4.87006
G01 X-5.99988 Y4.87600
G01 X-5.98884 Y4.88120
G01 X-5.97584 Y4.88809
G01 X-5.97203 Y4.89031
G01 X-5.96051 Y4.89756
G01 X-5.95693 Y4.90000
G01 X-5.94653 Y4.90767
G01 X-5.94319 Y4.91034
G01 X-5.93372 Y4.91847
G01 X-5.93060 Y4.92136
G01 X-5.92183 Y4.93009
G01 X-5.91894 Y4.93321
G01 X-5.91078 Y4.94264
G01 X-5.90811 Y4.94598
G01 X-5.90043 Y4.95632
G01 X-5.89797 Y4.95988
G01 X-5.89069 Y4.97138
G01 X-5.88847 Y4.97518
G01 X-5.88157 Y4.98809
G01 X-5.87959 Y4.99215
G01 X-5.87306 Y5.00688
G01 X-5.87134 Y5.01122
G01 X-5.86523 Y5.02830
G01 X-5.86377 Y5.03294
G01 X-5.85844 Y5.05216
G01 X-5.85737 Y5.05666
G01 X-5.85276 Y5.07944
G01 X-5.85187 Y5.08473
G01 X-5.84819 Y5.11367
G01 X-5.84767 Y5.11934
G01 X-5.84577 Y5.15540
G01 X-5.84567 Y5.16166
G01 X-5.84573 Y5.18401
G01 X-5.84665 Y5.20727
G01 X-5.84747 Y5.22103
G01 X-5.84727 Y5.22456
G01 X-5.76893 Y5.66883
G01 X-5.76291 Y5.70632
G01 X-5.75788 Y5.74483
G01 X-5.53727 Y7.64471
G01 X-5.52464 Y7.65444
G01 X-5.52621 Y7.65323
G01 X-5.61985 Y7.66654
G01 X-5.71826 Y7.67837
G01 X-5.81667 Y7.68806
G01 X-5.91507 Y7.69560
G01 X-6.01348 Y7.70099
