( pcb2gcode 3.0.1 )
( Software-independent Gcode )

G94 ( Inches per minute feed rate. )
G20 ( Units == INCHES. )

G90 ( Absolute coordinates. )
G00 S12000 ( RPM spindle speed. )
G64 P0.00040 ( set maximum deviation from commanded toolpath )
G01 F360.00000 ( Feedrate. )


G00 Z1.00000 (Retract to tool change height)
T1
M5      (Spindle stop.)
G04 P1.00000 (Wait for spindle to stop)
(MSG, Change tool bit to mill diameter 0.00000in)
M6      (Tool change.)
M0      (Temporary machine stop.)
M3 ( Spindle on clockwise. )
G04 P1.00000 (Wait for spindle to get up to speed)
G04 P0 ( dwell for no time -- G64 should not smooth over this point )
G00 Z0.08000 ( retract )

G00 X-2.36525 Y-3.21762 ( rapid move to begin. )
G01 F180.00000
( Mill infeed pass 1/1 )
G01 Z-0.04000
G04 P0 ( dwell for no time -- G64 should not smooth over this point )
G01 F360.00000
G01 X-2.36525 Y-3.21762
G01 X-2.36538 Y-3.21964
G01 X-2.36589 Y-3.22202
G01 X-2.36643 Y-3.22355
G01 X-2.36732 Y-3.22537
G01 X-2.36845 Y-3.22706
G01 X-2.36979 Y-3.22858
G01 X-2.55096 Y-3.40976
G01 X-2.55249 Y-3.41109
G01 X-2.55453 Y-3.41242
G01 X-2.55713 Y-3.41354
G01 X-2.55950 Y-3.41411
G01 X-2.56192 Y-3.41430
G01 X-3.03579 Y-3.41421
G01 X-3.03818 Y-3.41377
G01 X-3.04047 Y-3.41296
G01 X-3.04261 Y-3.41180
G01 X-3.04454 Y-3.41032
G01 X-3.07356 Y-3.38133
G01 X-3.07560 Y-3.37881
G01 X-3.07659 Y-3.37704
G01 X-3.07734 Y-3.37516
G01 X-3.07784 Y-3.37319
G01 X-3.07808 Y-3.37118
G01 X-3.07810 Y-3.33937
G01 X-3.10000 Y-3.33937
G01 X-3.10000 Y-3.31550
G01 X-3.22520 Y-3.31550
G01 X-3.22520 Y-3.33937
G01 X-3.30000 Y-3.33937
G01 X-3.30000 Y-3.26063
G01 X-3.22520 Y-3.26063
G01 X-3.22520 Y-3.28450
G01 X-3.10000 Y-3.28450
G01 X-3.10000 Y-3.26063
G01 X-3.02520 Y-3.26063
G01 X-3.02520 Y-3.33937
G01 X-3.04710 Y-3.33937
G01 X-3.04710 Y-3.36395
G01 X-3.02775 Y-3.38330
G01 X-2.56834 Y-3.38330
G01 X-2.39625 Y-3.21120
G01 X-2.39625 Y-2.81713
G01 X-2.42973 Y-2.78365
G01 X-2.78555 Y-2.78365
G01 X-2.78757 Y-2.78352
G01 X-2.78956 Y-2.78312
G01 X-2.79148 Y-2.78247
G01 X-2.79330 Y-2.78157
G01 X-2.79498 Y-2.78045
G01 X-2.79651 Y-2.77911
G01 X-2.93412 Y-2.64150
G01 X-2.95870 Y-2.64150
G01 X-2.95870 Y-2.69490
G01 X-3.09650 Y-2.69490
G01 X-3.09650 Y-2.57902
G01 X-3.14370 Y-2.53182
G01 X-3.14370 Y-2.57680
G01 X-3.28150 Y-2.57680
G01 X-3.28150 Y-2.43900
G01 X-3.14370 Y-2.43900
G01 X-3.14370 Y-2.49253
G01 X-3.14130 Y-2.49304
G01 X-3.13903 Y-2.49391
G01 X-3.13692 Y-2.49513
G01 X-3.13503 Y-2.49666
G01 X-3.07458 Y-2.55710
G01 X-2.95870 Y-2.55710
G01 X-2.95870 Y-2.61050
G01 X-2.92648 Y-2.61055
G01 X-2.92408 Y-2.61093
G01 X-2.92177 Y-2.61168
G01 X-2.91960 Y-2.61278
G01 X-2.91794 Y-2.61395
G01 X-2.77913 Y-2.75265
G01 X-2.42331 Y-2.75265
G01 X-2.42129 Y-2.75278
G01 X-2.41891 Y-2.75329
G01 X-2.41700 Y-2.75399
G01 X-2.41487 Y-2.75515
G01 X-2.41294 Y-2.75663
G01 X-2.36979 Y-2.79975
G01 X-2.36845 Y-2.80127
G01 X-2.36713 Y-2.80332
G01 X-2.36601 Y-2.80592
G01 X-2.36544 Y-2.80829
G01 X-2.36525 Y-2.81071
G01 X-2.36525 Y-3.21762
G04 P0 ( dwell for no time -- G64 should not smooth over this point )
G00 Z0.08000 ( retract )

G00 X-2.56340 Y-3.32790 ( rapid move to begin. )
G01 F180.00000
( Mill infeed pass 1/1 )
G01 Z-0.04000
G04 P0 ( dwell for no time -- G64 should not smooth over this point )
G01 F360.00000
G01 X-2.56340 Y-3.32790
G01 X-2.56361 Y-3.32522
G01 X-2.56408 Y-3.32258
G01 X-2.56481 Y-3.31999
G01 X-2.56579 Y-3.31749
G01 X-2.56700 Y-3.31509
G01 X-2.56845 Y-3.31282
G01 X-2.57025 Y-3.31054
G01 X-2.57212 Y-3.30861
G01 X-2.57435 Y-3.30674
G01 X-2.57657 Y-3.30523
G01 X-2.57893 Y-3.30394
G01 X-2.58161 Y-3.30281
G01 X-2.58418 Y-3.30202
G01 X-2.58682 Y-3.30149
G01 X-2.58949 Y-3.30122
G01 X-2.63448 Y-3.30118
G01 X-2.63893 Y-3.30158
G01 X-2.64156 Y-3.30217
G01 X-2.64411 Y-3.30300
G01 X-2.64677 Y-3.30419
G01 X-2.64910 Y-3.30552
G01 X-2.65129 Y-3.30708
G01 X-2.65332 Y-3.30884
G01 X-2.65517 Y-3.31079
G01 X-2.65687 Y-3.31299
G01 X-2.88107 Y-3.31299
G01 X-2.92533 Y-3.29684
G01 X-2.92578 Y-3.29343
G01 X-2.92648 Y-3.29030
G01 X-2.92744 Y-3.28725
G01 X-2.92883 Y-3.28393
G01 X-2.93032 Y-3.28110
G01 X-2.93206 Y-3.27841
G01 X-2.93402 Y-3.27587
G01 X-2.93647 Y-3.27324
G01 X-2.93917 Y-3.27085
G01 X-2.94175 Y-3.26895
G01 X-2.94448 Y-3.26728
G01 X-2.94734 Y-3.26585
G01 X-2.95032 Y-3.26467
G01 X-2.95339 Y-3.26375
G01 X-2.95652 Y-3.26309
G01 X-2.96010 Y-3.26268
G01 X-2.96410 Y-3.26263
G01 X-2.96769 Y-3.26295
G01 X-2.97123 Y-3.26361
G01 X-2.97507 Y-3.26474
G01 X-2.97876 Y-3.26627
G01 X-2.98193 Y-3.26798
G01 X-2.98524 Y-3.27023
G01 X-2.98829 Y-3.27282
G01 X-2.99105 Y-3.27572
G01 X-2.99325 Y-3.27857
G01 X-2.99517 Y-3.28162
G01 X-2.99695 Y-3.28520
G01 X-2.99821 Y-3.28857
G01 X-2.99923 Y-3.29244
G01 X-2.99983 Y-3.29640
G01 X-3.00000 Y-3.30000
G01 X-2.99989 Y-3.30280
G01 X-2.99958 Y-3.30558
G01 X-2.99906 Y-3.30834
G01 X-2.99833 Y-3.31104
G01 X-2.99741 Y-3.31369
G01 X-2.99628 Y-3.31625
G01 X-2.99497 Y-3.31873
G01 X-2.99348 Y-3.32110
G01 X-2.99181 Y-3.32335
G01 X-2.98998 Y-3.32547
G01 X-2.98800 Y-3.32745
G01 X-2.98587 Y-3.32928
G01 X-2.98362 Y-3.33094
G01 X-2.98124 Y-3.33242
G01 X-2.97876 Y-3.33373
G01 X-2.97619 Y-3.33484
G01 X-2.97123 Y-3.33639
G01 X-2.96848 Y-3.33694
G01 X-2.96570 Y-3.33727
G01 X-2.96290 Y-3.33740
G01 X-2.96010 Y-3.33732
G01 X-2.95495 Y-3.33661
G01 X-2.94994 Y-3.33520
G01 X-2.94734 Y-3.33415
G01 X-2.94483 Y-3.33291
G01 X-2.94242 Y-3.33149
G01 X-2.94011 Y-3.32989
G01 X-2.93613 Y-3.32643
G01 X-2.88926 Y-3.34354
G01 X-2.88737 Y-3.34409
G01 X-2.88504 Y-3.34444
G01 X-2.65687 Y-3.34449
G01 X-2.65509 Y-3.34677
G01 X-2.65324 Y-3.34872
G01 X-2.65120 Y-3.35047
G01 X-2.64901 Y-3.35202
G01 X-2.64667 Y-3.35334
G01 X-2.64421 Y-3.35444
G01 X-2.64166 Y-3.35528
G01 X-2.63904 Y-3.35588
G01 X-2.63436 Y-3.35630
G01 X-2.58982 Y-3.35628
G01 X-2.58737 Y-3.35607
G01 X-2.58494 Y-3.35564
G01 X-2.58257 Y-3.35500
G01 X-2.58005 Y-3.35405
G01 X-2.57783 Y-3.35298
G01 X-2.57572 Y-3.35171
G01 X-2.57373 Y-3.35026
G01 X-2.57172 Y-3.34848
G01 X-2.56989 Y-3.34652
G01 X-2.56838 Y-3.34456
G01 X-2.56706 Y-3.34249
G01 X-2.56593 Y-3.34030
G01 X-2.56499 Y-3.33802
G01 X-2.56427 Y-3.33567
G01 X-2.56372 Y-3.33303
G01 X-2.56345 Y-3.33059
G01 X-2.56340 Y-3.32790
G04 P0 ( dwell for no time -- G64 should not smooth over this point )
G00 Z0.08000 ( retract )

G00 X-2.56342 Y-3.16997 ( rapid move to begin. )
G01 F180.00000
( Mill infeed pass 1/1 )
G01 Z-0.04000
G04 P0 ( dwell for no time -- G64 should not smooth over this point )
G01 F360.00000
G01 X-2.56342 Y-3.16997
G01 X-2.56374 Y-3.16685
G01 X-2.56442 Y-3.16379
G01 X-2.56544 Y-3.16083
G01 X-2.56678 Y-3.15800
G01 X-2.56845 Y-3.15534
G01 X-2.57040 Y-3.15289
G01 X-2.57262 Y-3.15068
G01 X-2.57507 Y-3.14873
G01 X-2.57773 Y-3.14707
G01 X-2.58077 Y-3.14565
G01 X-2.58375 Y-3.14466
G01 X-2.58682 Y-3.14401
G01 X-2.58994 Y-3.14372
G01 X-2.63448 Y-3.14370
G01 X-2.63893 Y-3.14410
G01 X-2.64177 Y-3.14475
G01 X-2.64432 Y-3.14560
G01 X-2.64677 Y-3.14671
G01 X-2.64910 Y-3.14804
G01 X-2.65129 Y-3.14960
G01 X-2.65332 Y-3.15136
G01 X-2.65517 Y-3.15331
G01 X-2.65687 Y-3.15551
G01 X-3.24888 Y-3.15551
G01 X-3.49685 Y-2.90754
G01 X-3.49693 Y-2.84838
G01 X-3.49727 Y-2.84638
G01 X-3.49772 Y-2.84483
G01 X-3.49910 Y-2.84189
G01 X-3.50104 Y-2.83930
G01 X-3.50347 Y-2.83716
G01 X-3.50520 Y-2.83610
G01 X-3.50742 Y-2.83512
G01 X-3.50977 Y-2.83451
G01 X-3.51219 Y-2.83426
G01 X-3.64400 Y-2.83425
G01 X-3.64590 Y-2.83208
G01 X-3.64828 Y-2.82994
G01 X-3.65092 Y-2.82811
G01 X-3.65339 Y-2.82679
G01 X-3.65638 Y-2.82563
G01 X-3.65909 Y-2.82492
G01 X-3.66227 Y-2.82448
G01 X-3.66507 Y-2.82443
G01 X-3.66905 Y-2.82488
G01 X-3.67291 Y-2.82595
G01 X-3.67656 Y-2.82761
G01 X-3.67990 Y-2.82981
G01 X-3.68286 Y-2.83252
G01 X-3.68536 Y-2.83565
G01 X-3.68734 Y-2.83913
G01 X-3.68875 Y-2.84288
G01 X-3.68938 Y-2.84561
G01 X-3.68968 Y-2.84800
G01 X-3.68975 Y-2.85080
G01 X-3.68951 Y-2.85360
G01 X-3.68896 Y-2.85635
G01 X-3.68812 Y-2.85902
G01 X-3.68699 Y-2.86159
G01 X-3.68558 Y-2.86402
G01 X-3.68392 Y-2.86628
G01 X-3.68202 Y-2.86834
G01 X-3.68022 Y-2.86993
G01 X-3.67794 Y-2.87157
G01 X-3.67549 Y-2.87295
G01 X-3.67291 Y-2.87405
G01 X-3.67023 Y-2.87486
G01 X-3.66787 Y-2.87532
G01 X-3.66467 Y-2.87559
G01 X-3.66107 Y-2.87540
G01 X-3.65792 Y-2.87481
G01 X-3.65450 Y-2.87369
G01 X-3.65161 Y-2.87229
G01 X-3.64860 Y-2.87031
G01 X-3.64618 Y-2.86820
G01 X-3.64400 Y-2.86575
G01 X-3.52835 Y-2.86575
G01 X-3.52835 Y-2.91394
G01 X-3.53296 Y-2.91633
G01 X-3.53722 Y-2.91931
G01 X-3.54105 Y-2.92282
G01 X-3.54415 Y-2.92648
G01 X-3.54697 Y-2.93085
G01 X-3.54905 Y-2.93517
G01 X-3.55058 Y-2.93972
G01 X-3.55160 Y-2.94481
G01 X-3.55193 Y-2.94880
G01 X-3.55182 Y-2.95320
G01 X-3.55129 Y-2.95716
G01 X-3.55036 Y-2.96105
G01 X-3.54905 Y-2.96483
G01 X-3.54717 Y-2.96880
G01 X-3.54508 Y-2.97221
G01 X-3.54266 Y-2.97539
G01 X-3.53934 Y-2.97886
G01 X-3.53595 Y-2.98167
G01 X-3.53193 Y-2.98428
G01 X-3.52761 Y-2.98637
G01 X-3.52346 Y-2.98782
G01 X-3.51877 Y-2.98886
G01 X-3.51400 Y-2.98933
G01 X-3.50920 Y-2.98920
G01 X-3.50485 Y-2.98858
G01 X-3.50021 Y-2.98735
G01 X-3.49576 Y-2.98556
G01 X-3.49155 Y-2.98325
G01 X-3.48797 Y-2.98069
G01 X-3.48442 Y-2.97747
G01 X-3.48129 Y-2.97383
G01 X-3.47879 Y-2.97014
G01 X-3.26654 Y-3.18240
G01 X-3.26499 Y-3.18375
G01 X-3.26363 Y-3.18469
G01 X-3.26181 Y-3.18565
G01 X-3.25988 Y-3.18636
G01 X-3.25787 Y-3.18682
G01 X-3.25540 Y-3.18701
G01 X-2.65687 Y-3.18701
G01 X-2.65509 Y-3.18929
G01 X-2.65324 Y-3.19123
G01 X-2.65120 Y-3.19299
G01 X-2.64901 Y-3.19454
G01 X-2.64667 Y-3.19586
G01 X-2.64421 Y-3.19695
G01 X-2.64166 Y-3.19780
G01 X-2.63904 Y-3.19840
G01 X-2.63459 Y-3.19882
G01 X-2.59072 Y-3.19882
G01 X-2.58648 Y-3.19846
G01 X-2.58214 Y-3.19738
G01 X-2.57823 Y-3.19571
G01 X-2.57444 Y-3.19333
G01 X-2.57124 Y-3.19053
G01 X-2.56838 Y-3.18708
G01 X-2.56622 Y-3.18343
G01 X-2.56457 Y-3.17926
G01 X-2.56383 Y-3.17622
G01 X-2.56345 Y-3.17311
G01 X-2.56342 Y-3.16997
G04 P0 ( dwell for no time -- G64 should not smooth over this point )
G00 Z0.08000 ( retract )

G00 X-2.42325 Y-2.95040 ( rapid move to begin. )
G01 F180.00000
( Mill infeed pass 1/1 )
G01 Z-0.04000
G04 P0 ( dwell for no time -- G64 should not smooth over this point )
G01 F360.00000
G01 X-2.42325 Y-2.95040
G01 X-2.42349 Y-2.95439
G01 X-2.42406 Y-2.95795
G01 X-2.42506 Y-2.96182
G01 X-2.42630 Y-2.96520
G01 X-2.42803 Y-2.96880
G01 X-2.42989 Y-2.97188
G01 X-2.43228 Y-2.97509
G01 X-2.43470 Y-2.97775
G01 X-2.43736 Y-2.98019
G01 X-2.44055 Y-2.98259
G01 X-2.44362 Y-2.98447
G01 X-2.44710 Y-2.98617
G01 X-2.44718 Y-3.18183
G01 X-2.44763 Y-3.18422
G01 X-2.44844 Y-3.18652
G01 X-2.44960 Y-3.18865
G01 X-2.45135 Y-3.19088
G01 X-2.52142 Y-3.26096
G01 X-2.52327 Y-3.26254
G01 X-2.52535 Y-3.26381
G01 X-2.52837 Y-3.26497
G01 X-2.53157 Y-3.26548
G01 X-2.56816 Y-3.26550
G01 X-2.57003 Y-3.26795
G01 X-2.57204 Y-3.27005
G01 X-2.57426 Y-3.27193
G01 X-2.57667 Y-3.27357
G01 X-2.57923 Y-3.27495
G01 X-2.58193 Y-3.27604
G01 X-2.58473 Y-3.27685
G01 X-2.58759 Y-3.27735
G01 X-2.59094 Y-3.27756
G01 X-2.63436 Y-3.27756
G01 X-2.63727 Y-3.27739
G01 X-2.64145 Y-3.27660
G01 X-2.64545 Y-3.27518
G01 X-2.64901 Y-3.27328
G01 X-2.65241 Y-3.27073
G01 X-2.65538 Y-3.26769
G01 X-2.65785 Y-3.26423
G01 X-2.65976 Y-3.26043
G01 X-2.66106 Y-3.25638
G01 X-2.66172 Y-3.25218
G01 X-2.66173 Y-3.24793
G01 X-2.66109 Y-3.24373
G01 X-2.65980 Y-3.23967
G01 X-2.65791 Y-3.23587
G01 X-2.65560 Y-3.23257
G01 X-2.65266 Y-3.22949
G01 X-2.64929 Y-3.22690
G01 X-2.64637 Y-3.22525
G01 X-2.64305 Y-3.22388
G01 X-2.63981 Y-3.22301
G01 X-2.63627 Y-3.22251
G01 X-2.58904 Y-3.22251
G01 X-2.58593 Y-3.22290
G01 X-2.58289 Y-3.22364
G01 X-2.57995 Y-3.22473
G01 X-2.57715 Y-3.22614
G01 X-2.57453 Y-3.22786
G01 X-2.57212 Y-3.22987
G01 X-2.56996 Y-3.23214
G01 X-2.56816 Y-3.23450
G01 X-2.53881 Y-3.23450
G01 X-2.47810 Y-3.17379
G01 X-2.47810 Y-2.98617
G01 X-2.48158 Y-2.98447
G01 X-2.48465 Y-2.98259
G01 X-2.48784 Y-2.98019
G01 X-2.49049 Y-2.97775
G01 X-2.49291 Y-2.97509
G01 X-2.49530 Y-2.97188
G01 X-2.49717 Y-2.96880
G01 X-2.49889 Y-2.96520
G01 X-2.50013 Y-2.96182
G01 X-2.50114 Y-2.95795
G01 X-2.50170 Y-2.95439
G01 X-2.50195 Y-2.95040
G01 X-2.50182 Y-2.94680
G01 X-2.50129 Y-2.94284
G01 X-2.50036 Y-2.93895
G01 X-2.49913 Y-2.93539
G01 X-2.56902 Y-2.86550
G01 X-2.58701 Y-2.86550
G01 X-2.58701 Y-2.87559
G01 X-2.63819 Y-2.87559
G01 X-2.63819 Y-2.82441
G01 X-2.58701 Y-2.82441
G01 X-2.58701 Y-2.83450
G01 X-2.56098 Y-2.83458
G01 X-2.55898 Y-2.83493
G01 X-2.55667 Y-2.83568
G01 X-2.55485 Y-2.83658
G01 X-2.55284 Y-2.83795
G01 X-2.47721 Y-2.91346
G01 X-2.47346 Y-2.91218
G01 X-2.46956 Y-2.91127
G01 X-2.46560 Y-2.91076
G01 X-2.46200 Y-2.91065
G01 X-2.45801 Y-2.91092
G01 X-2.45406 Y-2.91159
G01 X-2.45021 Y-2.91265
G01 X-2.44685 Y-2.91394
G01 X-2.44327 Y-2.91572
G01 X-2.43989 Y-2.91786
G01 X-2.43705 Y-2.92007
G01 X-2.43414 Y-2.92282
G01 X-2.43153 Y-2.92585
G01 X-2.42946 Y-2.92879
G01 X-2.42766 Y-2.93190
G01 X-2.42600 Y-2.93554
G01 X-2.42483 Y-2.93895
G01 X-2.42391 Y-2.94284
G01 X-2.42338 Y-2.94680
G01 X-2.42325 Y-2.95040
G04 P0 ( dwell for no time -- G64 should not smooth over this point )
G00 Z0.08000 ( retract )

G00 X-2.42325 Y-2.55000 ( rapid move to begin. )
G01 F180.00000
( Mill infeed pass 1/1 )
G01 Z-0.04000
G04 P0 ( dwell for no time -- G64 should not smooth over this point )
G01 F360.00000
G01 X-2.42325 Y-2.55000
G01 X-2.42341 Y-2.55360
G01 X-2.42391 Y-2.55716
G01 X-2.42472 Y-2.56067
G01 X-2.42585 Y-2.56408
G01 X-2.42730 Y-2.56738
G01 X-2.42924 Y-2.57087
G01 X-2.43129 Y-2.57383
G01 X-2.43360 Y-2.57660
G01 X-2.43615 Y-2.57913
G01 X-2.43892 Y-2.58143
G01 X-2.44189 Y-2.58346
G01 X-2.44540 Y-2.58539
G01 X-2.44870 Y-2.58681
G01 X-2.45212 Y-2.58793
G01 X-2.45563 Y-2.58873
G01 X-2.45920 Y-2.58920
G01 X-2.46240 Y-2.58935
G01 X-2.46560 Y-2.58923
G01 X-2.46877 Y-2.58886
G01 X-2.47152 Y-2.58832
G01 X-2.47461 Y-2.58747
G01 X-2.47724 Y-2.58652
G01 X-2.47980 Y-2.58539
G01 X-2.48262 Y-2.58388
G01 X-2.48530 Y-2.58214
G01 X-2.48784 Y-2.58019
G01 X-2.49021 Y-2.57804
G01 X-2.49213 Y-2.57600
G01 X-2.49415 Y-2.57352
G01 X-2.49574 Y-2.57121
G01 X-2.49735 Y-2.56845
G01 X-2.49866 Y-2.56575
G01 X-2.82654 Y-2.56575
G01 X-2.82784 Y-2.56845
G01 X-2.82946 Y-2.57121
G01 X-2.83129 Y-2.57383
G01 X-2.83333 Y-2.57630
G01 X-2.83556 Y-2.57859
G01 X-2.83797 Y-2.58069
G01 X-2.84055 Y-2.58259
G01 X-2.84327 Y-2.58428
G01 X-2.84612 Y-2.58573
G01 X-2.84908 Y-2.58695
G01 X-2.85212 Y-2.58793
G01 X-2.85524 Y-2.58866
G01 X-2.85841 Y-2.58913
G01 X-2.86160 Y-2.58934
G01 X-2.86480 Y-2.58929
G01 X-2.86798 Y-2.58898
G01 X-2.87230 Y-2.58813
G01 X-2.87687 Y-2.58667
G01 X-2.88087 Y-2.58485
G01 X-2.88465 Y-2.58259
G01 X-2.88815 Y-2.57993
G01 X-2.89133 Y-2.57689
G01 X-2.89415 Y-2.57352
G01 X-2.89658 Y-2.56985
G01 X-2.89858 Y-2.56593
G01 X-2.90013 Y-2.56182
G01 X-2.90122 Y-2.55755
G01 X-2.90185 Y-2.55280
G01 X-2.90192 Y-2.54840
G01 X-2.90149 Y-2.54402
G01 X-2.90058 Y-2.53972
G01 X-2.89913 Y-2.53538
G01 X-3.01552 Y-2.41900
G01 X-3.35968 Y-2.41900
G01 X-3.47606 Y-2.53539
G01 X-3.47472 Y-2.53933
G01 X-3.47377 Y-2.54363
G01 X-3.47330 Y-2.54800
G01 X-3.47330 Y-2.55204
G01 X-3.22698 Y-2.67520
G01 X-3.14370 Y-2.67520
G01 X-3.14370 Y-2.81300
G01 X-3.28150 Y-2.81300
G01 X-3.28150 Y-2.68316
G01 X-3.48739 Y-2.58021
G01 X-3.49122 Y-2.58303
G01 X-3.49504 Y-2.58521
G01 X-3.49945 Y-2.58709
G01 X-3.50367 Y-2.58832
G01 X-3.50841 Y-2.58913
G01 X-3.51280 Y-2.58935
G01 X-3.51719 Y-2.58908
G01 X-3.52152 Y-2.58832
G01 X-3.52574 Y-2.58709
G01 X-3.53016 Y-2.58521
G01 X-3.53431 Y-2.58282
G01 X-3.53784 Y-2.58019
G01 X-3.54105 Y-2.57718
G01 X-3.54415 Y-2.57352
G01 X-3.54658 Y-2.56985
G01 X-3.54866 Y-2.56575
G01 X-3.87654 Y-2.56575
G01 X-3.87784 Y-2.56845
G01 X-3.87946 Y-2.57121
G01 X-3.88105 Y-2.57352
G01 X-3.88306 Y-2.57600
G01 X-3.88499 Y-2.57804
G01 X-3.88736 Y-2.58019
G01 X-3.88989 Y-2.58214
G01 X-3.89223 Y-2.58367
G01 X-3.89468 Y-2.58503
G01 X-3.89759 Y-2.58637
G01 X-3.90021 Y-2.58735
G01 X-3.90329 Y-2.58823
G01 X-3.90603 Y-2.58880
G01 X-3.90920 Y-2.58920
G01 X-3.91200 Y-2.58934
G01 X-3.91520 Y-2.58926
G01 X-3.91877 Y-2.58886
G01 X-3.92230 Y-2.58813
G01 X-3.92574 Y-2.58709
G01 X-3.92944 Y-2.58556
G01 X-3.93262 Y-2.58388
G01 X-3.93595 Y-2.58167
G01 X-3.93875 Y-2.57940
G01 X-3.94133 Y-2.57689
G01 X-3.94366 Y-2.57415
G01 X-3.94574 Y-2.57121
G01 X-3.94754 Y-2.56810
G01 X-3.94920 Y-2.56446
G01 X-3.95036 Y-2.56105
G01 X-3.95122 Y-2.55755
G01 X-3.95178 Y-2.55360
G01 X-3.95195 Y-2.55000
G01 X-3.95178 Y-2.54640
G01 X-3.95122 Y-2.54244
G01 X-3.95036 Y-2.53895
G01 X-3.94920 Y-2.53554
G01 X-3.94754 Y-2.53190
G01 X-3.94574 Y-2.52879
G01 X-3.94366 Y-2.52585
G01 X-3.94105 Y-2.52282
G01 X-3.93815 Y-2.52007
G01 X-3.93530 Y-2.51786
G01 X-3.93193 Y-2.51572
G01 X-3.92871 Y-2.51410
G01 X-3.92499 Y-2.51265
G01 X-3.92152 Y-2.51167
G01 X-3.91759 Y-2.51097
G01 X-3.91400 Y-2.51067
G01 X-3.91120 Y-2.51067
G01 X-3.90801 Y-2.51092
G01 X-3.90485 Y-2.51142
G01 X-3.90212 Y-2.51207
G01 X-3.89945 Y-2.51291
G01 X-3.89648 Y-2.51410
G01 X-3.89155 Y-2.51675
G01 X-3.88705 Y-2.52007
G01 X-3.88470 Y-2.52225
G01 X-3.88280 Y-2.52430
G01 X-3.88105 Y-2.52648
G01 X-3.87924 Y-2.52913
G01 X-3.87784 Y-2.53155
G01 X-3.87654 Y-2.53425
G01 X-3.54866 Y-2.53425
G01 X-3.54697 Y-2.53085
G01 X-3.54508 Y-2.52779
G01 X-3.54266 Y-2.52460
G01 X-3.54021 Y-2.52196
G01 X-3.53722 Y-2.51931
G01 X-3.53431 Y-2.51718
G01 X-3.53087 Y-2.51515
G01 X-3.52761 Y-2.51363
G01 X-3.52384 Y-2.51229
G01 X-3.52035 Y-2.51142
G01 X-3.51639 Y-2.51083
G01 X-3.51280 Y-2.51065
G01 X-3.50920 Y-2.51080
G01 X-3.50524 Y-2.51134
G01 X-3.50174 Y-2.51218
G01 X-3.49798 Y-2.51346
G01 X-3.37677 Y-2.39226
G01 X-3.37488 Y-2.39073
G01 X-3.37277 Y-2.38951
G01 X-3.37050 Y-2.38864
G01 X-3.36852 Y-2.38819
G01 X-3.36610 Y-2.38800
G01 X-3.00910 Y-2.38800
G01 X-3.00627 Y-2.38826
G01 X-3.00317 Y-2.38918
G01 X-3.00066 Y-2.39050
G01 X-2.99843 Y-2.39226
G01 X-2.87721 Y-2.51346
G01 X-2.87346 Y-2.51218
G01 X-2.86996 Y-2.51134
G01 X-2.86599 Y-2.51080
G01 X-2.86240 Y-2.51065
G01 X-2.85880 Y-2.51083
G01 X-2.85485 Y-2.51142
G01 X-2.85135 Y-2.51229
G01 X-2.84759 Y-2.51363
G01 X-2.84432 Y-2.51515
G01 X-2.84088 Y-2.51718
G01 X-2.83797 Y-2.51931
G01 X-2.83499 Y-2.52196
G01 X-2.83254 Y-2.52460
G01 X-2.83012 Y-2.52779
G01 X-2.82822 Y-2.53085
G01 X-2.82654 Y-2.53425
G01 X-2.49866 Y-2.53425
G01 X-2.49735 Y-2.53155
G01 X-2.49595 Y-2.52913
G01 X-2.49415 Y-2.52648
G01 X-2.49240 Y-2.52430
G01 X-2.49049 Y-2.52225
G01 X-2.48815 Y-2.52007
G01 X-2.48364 Y-2.51675
G01 X-2.47871 Y-2.51410
G01 X-2.47574 Y-2.51291
G01 X-2.47307 Y-2.51207
G01 X-2.47035 Y-2.51142
G01 X-2.46719 Y-2.51092
G01 X-2.46400 Y-2.51067
G01 X-2.46120 Y-2.51067
G01 X-2.45761 Y-2.51097
G01 X-2.45367 Y-2.51167
G01 X-2.45021 Y-2.51265
G01 X-2.44648 Y-2.51410
G01 X-2.44327 Y-2.51572
G01 X-2.43989 Y-2.51786
G01 X-2.43705 Y-2.52007
G01 X-2.43414 Y-2.52282
G01 X-2.43153 Y-2.52585
G01 X-2.42946 Y-2.52879
G01 X-2.42766 Y-2.53190
G01 X-2.42600 Y-2.53554
G01 X-2.42483 Y-2.53895
G01 X-2.42398 Y-2.54244
G01 X-2.42341 Y-2.54640
G01 X-2.42325 Y-2.55000
G04 P0 ( dwell for no time -- G64 should not smooth over this point )
G00 Z0.08000 ( retract )

G00 X-2.68547 Y-2.85140 ( rapid move to begin. )
G01 F180.00000
( Mill infeed pass 1/1 )
G01 Z-0.04000
G04 P0 ( dwell for no time -- G64 should not smooth over this point )
G01 F360.00000
G01 X-2.68547 Y-2.85140
G01 X-2.68547 Y-2.84860
G01 X-2.68592 Y-2.84502
G01 X-2.68674 Y-2.84192
G01 X-2.68794 Y-2.83895
G01 X-2.68972 Y-2.83581
G01 X-2.69167 Y-2.83326
G01 X-2.69421 Y-2.83071
G01 X-2.69675 Y-2.82876
G01 X-2.69952 Y-2.82714
G01 X-2.70247 Y-2.82588
G01 X-2.70555 Y-2.82500
G01 X-2.70912 Y-2.82448
G01 X-2.71233 Y-2.82444
G01 X-2.71591 Y-2.82488
G01 X-2.71901 Y-2.82569
G01 X-2.72198 Y-2.82687
G01 X-2.72513 Y-2.82864
G01 X-2.72799 Y-2.83084
G01 X-2.73051 Y-2.83341
G01 X-2.73265 Y-2.83632
G01 X-2.73436 Y-2.83949
G01 X-2.73560 Y-2.84288
G01 X-2.73636 Y-2.84640
G01 X-2.73661 Y-2.85000
G01 X-2.73638 Y-2.85344
G01 X-2.81744 Y-2.93450
G01 X-2.82643 Y-2.93450
G01 X-2.82784 Y-2.93155
G01 X-2.82946 Y-2.92879
G01 X-2.83153 Y-2.92585
G01 X-2.83360 Y-2.92340
G01 X-2.83585 Y-2.92113
G01 X-2.83860 Y-2.91881
G01 X-2.84155 Y-2.91675
G01 X-2.84432 Y-2.91515
G01 X-2.84833 Y-2.91333
G01 X-2.85290 Y-2.91186
G01 X-2.85761 Y-2.91097
G01 X-2.86240 Y-2.91065
G01 X-2.86798 Y-2.91102
G01 X-2.87113 Y-2.91159
G01 X-2.87384 Y-2.91229
G01 X-2.87687 Y-2.91333
G01 X-2.87944 Y-2.91444
G01 X-2.88431 Y-2.91718
G01 X-2.88691 Y-2.91906
G01 X-2.88905 Y-2.92086
G01 X-2.89291 Y-2.92491
G01 X-2.89617 Y-2.92946
G01 X-2.89754 Y-2.93190
G01 X-2.89877 Y-2.93450
G01 X-3.20198 Y-2.93450
G01 X-3.35853 Y-2.77795
G01 X-3.36005 Y-2.77661
G01 X-3.36174 Y-2.77549
G01 X-3.36393 Y-2.77444
G01 X-3.36587 Y-2.77384
G01 X-3.36746 Y-2.77354
G01 X-3.36949 Y-2.77341
G01 X-3.86310 Y-2.77343
G01 X-3.86590 Y-2.77384
G01 X-3.86822 Y-2.77459
G01 X-3.87073 Y-2.77591
G01 X-3.87295 Y-2.77766
G01 X-3.99841 Y-2.90311
G01 X-4.00022 Y-2.90529
G01 X-4.00161 Y-2.90777
G01 X-4.00252 Y-2.91045
G01 X-4.00293 Y-2.91326
G01 X-4.00294 Y-2.98633
G01 X-4.00276 Y-2.98835
G01 X-4.00219 Y-2.99072
G01 X-4.00144 Y-2.99260
G01 X-4.00022 Y-2.99471
G01 X-3.99841 Y-2.99689
G01 X-3.81249 Y-3.18278
G01 X-3.81056 Y-3.18426
G01 X-3.80805 Y-3.18558
G01 X-3.80573 Y-3.18633
G01 X-3.80333 Y-3.18671
G01 X-3.75704 Y-3.18676
G01 X-3.75524 Y-3.18912
G01 X-3.75324 Y-3.19123
G01 X-3.75102 Y-3.19313
G01 X-3.74862 Y-3.19477
G01 X-3.74606 Y-3.19616
G01 X-3.74337 Y-3.19726
G01 X-3.74058 Y-3.19808
G01 X-3.73771 Y-3.19860
G01 X-3.73436 Y-3.19882
G01 X-3.68960 Y-3.19879
G01 X-3.68538 Y-3.19825
G01 X-3.68151 Y-3.19715
G01 X-3.67764 Y-3.19539
G01 X-3.67426 Y-3.19319
G01 X-3.67108 Y-3.19037
G01 X-3.66838 Y-3.18708
G01 X-3.66632 Y-3.18363
G01 X-3.66471 Y-3.17969
G01 X-3.66372 Y-3.17555
G01 X-3.66339 Y-3.17131
G01 X-3.66367 Y-3.16730
G01 X-3.66461 Y-3.16315
G01 X-3.66617 Y-3.15919
G01 X-3.66832 Y-3.15553
G01 X-3.67085 Y-3.15240
G01 X-3.67399 Y-3.14953
G01 X-3.67715 Y-3.14740
G01 X-3.68077 Y-3.14565
G01 X-3.68462 Y-3.14444
G01 X-3.68837 Y-3.14382
G01 X-3.69094 Y-3.14370
G01 X-3.73560 Y-3.14373
G01 X-3.73893 Y-3.14410
G01 X-3.74199 Y-3.14481
G01 X-3.74494 Y-3.14586
G01 X-3.74776 Y-3.14723
G01 X-3.75040 Y-3.14892
G01 X-3.75283 Y-3.15090
G01 X-3.75502 Y-3.15314
G01 X-3.75704 Y-3.15576
G01 X-3.79570 Y-3.15576
G01 X-3.97195 Y-2.97951
G01 X-3.97195 Y-2.92049
G01 X-3.85586 Y-2.80441
G01 X-3.37591 Y-2.80441
G01 X-3.21936 Y-2.96096
G01 X-3.21783 Y-2.96230
G01 X-3.21650 Y-2.96321
G01 X-3.21357 Y-2.96461
G01 X-3.21082 Y-2.96531
G01 X-3.20840 Y-2.96550
G01 X-2.89877 Y-2.96550
G01 X-2.89637 Y-2.97019
G01 X-2.89317 Y-2.97478
G01 X-2.88934 Y-2.97886
G01 X-2.88498 Y-2.98237
G01 X-2.88016 Y-2.98521
G01 X-2.87499 Y-2.98735
G01 X-2.86956 Y-2.98873
G01 X-2.86400 Y-2.98933
G01 X-2.86120 Y-2.98933
G01 X-2.85801 Y-2.98908
G01 X-2.85485 Y-2.98858
G01 X-2.85212 Y-2.98793
G01 X-2.84945 Y-2.98709
G01 X-2.84648 Y-2.98590
G01 X-2.84155 Y-2.98325
G01 X-2.83892 Y-2.98143
G01 X-2.83675 Y-2.97967
G01 X-2.83470 Y-2.97775
G01 X-2.83254 Y-2.97539
G01 X-2.83081 Y-2.97319
G01 X-2.82903 Y-2.97053
G01 X-2.82766 Y-2.96809
G01 X-2.82643 Y-2.96550
G01 X-2.81102 Y-2.96550
G01 X-2.80900 Y-2.96537
G01 X-2.80701 Y-2.96497
G01 X-2.80509 Y-2.96432
G01 X-2.80327 Y-2.96342
G01 X-2.80159 Y-2.96230
G01 X-2.80006 Y-2.96096
G01 X-2.71446 Y-2.87536
G01 X-2.71152 Y-2.87559
G01 X-2.70872 Y-2.87549
G01 X-2.70555 Y-2.87500
G01 X-2.70285 Y-2.87425
G01 X-2.70024 Y-2.87321
G01 X-2.69777 Y-2.87189
G01 X-2.69514 Y-2.87006
G01 X-2.69303 Y-2.86820
G01 X-2.69141 Y-2.86643
G01 X-2.68972 Y-2.86419
G01 X-2.68830 Y-2.86177
G01 X-2.68715 Y-2.85921
G01 X-2.68639 Y-2.85693
G01 X-2.68578 Y-2.85419
G01 X-2.68547 Y-2.85140
G04 P0 ( dwell for no time -- G64 should not smooth over this point )
G00 Z0.08000 ( retract )

G00 X-3.32520 Y-3.29980 ( rapid move to begin. )
G01 F180.00000
( Mill infeed pass 1/1 )
G01 Z-0.04000
G04 P0 ( dwell for no time -- G64 should not smooth over this point )
G01 F360.00000
G01 X-3.32520 Y-3.29980
G01 X-3.32543 Y-3.29581
G01 X-3.32609 Y-3.29186
G01 X-3.32705 Y-3.28838
G01 X-3.32849 Y-3.28465
G01 X-3.33012 Y-3.28144
G01 X-3.33229 Y-3.27808
G01 X-3.33454 Y-3.27527
G01 X-3.33734 Y-3.27241
G01 X-3.34044 Y-3.26987
G01 X-3.34344 Y-3.26788
G01 X-3.34662 Y-3.26619
G01 X-3.35032 Y-3.26467
G01 X-3.35377 Y-3.26365
G01 X-3.35771 Y-3.26292
G01 X-3.36130 Y-3.26262
G01 X-3.36530 Y-3.26270
G01 X-3.36966 Y-3.26327
G01 X-3.37354 Y-3.26424
G01 X-3.37767 Y-3.26577
G01 X-3.38159 Y-3.26778
G01 X-3.38524 Y-3.27023
G01 X-3.38858 Y-3.27310
G01 X-3.39156 Y-3.27633
G01 X-3.39392 Y-3.27956
G01 X-3.39611 Y-3.28339
G01 X-3.39769 Y-3.28706
G01 X-3.39897 Y-3.29127
G01 X-3.39974 Y-3.29561
G01 X-3.40000 Y-3.30000
G01 X-3.39979 Y-3.30400
G01 X-3.39915 Y-3.30795
G01 X-3.39772 Y-3.31285
G01 X-3.39786 Y-3.31299
G01 X-3.66833 Y-3.31299
G01 X-3.67010 Y-3.31071
G01 X-3.67196 Y-3.30876
G01 X-3.67399 Y-3.30701
G01 X-3.67619 Y-3.30546
G01 X-3.67853 Y-3.30414
G01 X-3.68098 Y-3.30304
G01 X-3.68353 Y-3.30220
G01 X-3.68615 Y-3.30160
G01 X-3.69083 Y-3.30118
G01 X-3.73560 Y-3.30121
G01 X-3.73827 Y-3.30147
G01 X-3.74091 Y-3.30200
G01 X-3.74348 Y-3.30277
G01 X-3.74617 Y-3.30389
G01 X-3.74853 Y-3.30517
G01 X-3.75094 Y-3.30681
G01 X-3.75299 Y-3.30853
G01 X-3.75487 Y-3.31046
G01 X-3.75655 Y-3.31255
G01 X-3.75814 Y-3.31499
G01 X-3.75936 Y-3.31738
G01 X-3.76035 Y-3.31988
G01 X-3.76109 Y-3.32247
G01 X-3.76157 Y-3.32511
G01 X-3.76179 Y-3.32779
G01 X-3.76174 Y-3.33070
G01 X-3.76146 Y-3.33315
G01 X-3.76095 Y-3.33556
G01 X-3.76024 Y-3.33791
G01 X-3.75922 Y-3.34040
G01 X-3.75808 Y-3.34258
G01 X-3.75675 Y-3.34466
G01 X-3.75509 Y-3.34677
G01 X-3.75340 Y-3.34856
G01 X-3.75155 Y-3.35019
G01 X-3.74957 Y-3.35165
G01 X-3.74746 Y-3.35293
G01 X-3.74504 Y-3.35410
G01 X-3.74274 Y-3.35496
G01 X-3.74014 Y-3.35566
G01 X-3.73771 Y-3.35608
G01 X-3.73526 Y-3.35628
G01 X-3.69072 Y-3.35630
G01 X-3.68626 Y-3.35590
G01 X-3.68342 Y-3.35525
G01 X-3.68088 Y-3.35439
G01 X-3.67843 Y-3.35329
G01 X-3.67610 Y-3.35196
G01 X-3.67391 Y-3.35040
G01 X-3.67188 Y-3.34864
G01 X-3.67003 Y-3.34669
G01 X-3.66833 Y-3.34449
G01 X-3.39014 Y-3.34444
G01 X-3.38817 Y-3.34417
G01 X-3.38624 Y-3.34364
G01 X-3.38476 Y-3.34305
G01 X-3.38301 Y-3.34211
G01 X-3.38078 Y-3.34043
G01 X-3.37545 Y-3.33512
G01 X-3.37123 Y-3.33639
G01 X-3.36689 Y-3.33715
G01 X-3.36250 Y-3.33740
G01 X-3.35811 Y-3.33713
G01 X-3.35377 Y-3.33635
G01 X-3.34957 Y-3.33506
G01 X-3.34518 Y-3.33310
G01 X-3.34141 Y-3.33082
G01 X-3.33764 Y-3.32786
G01 X-3.33454 Y-3.32473
G01 X-3.33183 Y-3.32126
G01 X-3.32936 Y-3.31715
G01 X-3.32757 Y-3.31312
G01 X-3.32628 Y-3.30892
G01 X-3.32548 Y-3.30459
G01 X-3.32520 Y-3.29980
G04 P0 ( dwell for no time -- G64 should not smooth over this point )
G00 Z0.08000 ( retract )

G00 X-3.61239 Y-3.04130 ( rapid move to begin. )
G01 F180.00000
( Mill infeed pass 1/1 )
G01 Z-0.04000
G04 P0 ( dwell for no time -- G64 should not smooth over this point )
G01 F360.00000
G01 X-3.61239 Y-3.04130
G01 X-3.61241 Y-3.24631
G01 X-3.61272 Y-3.24872
G01 X-3.61341 Y-3.25105
G01 X-3.61446 Y-3.25325
G01 X-3.61584 Y-3.25525
G01 X-3.62263 Y-3.26204
G01 X-3.62463 Y-3.26342
G01 X-3.62721 Y-3.26461
G01 X-3.62956 Y-3.26524
G01 X-3.63198 Y-3.26549
G01 X-3.66816 Y-3.26550
G01 X-3.67003 Y-3.26795
G01 X-3.67204 Y-3.27005
G01 X-3.67426 Y-3.27193
G01 X-3.67667 Y-3.27357
G01 X-3.67923 Y-3.27495
G01 X-3.68193 Y-3.27604
G01 X-3.68473 Y-3.27685
G01 X-3.68759 Y-3.27735
G01 X-3.69094 Y-3.27756
G01 X-3.73526 Y-3.27754
G01 X-3.73904 Y-3.27714
G01 X-3.74295 Y-3.27615
G01 X-3.74667 Y-3.27460
G01 X-3.75012 Y-3.27253
G01 X-3.75324 Y-3.26998
G01 X-3.75581 Y-3.26717
G01 X-3.75808 Y-3.26384
G01 X-3.75984 Y-3.26022
G01 X-3.76084 Y-3.25725
G01 X-3.76146 Y-3.25441
G01 X-3.76177 Y-3.25151
G01 X-3.76178 Y-3.24860
G01 X-3.76147 Y-3.24571
G01 X-3.76081 Y-3.24264
G01 X-3.75989 Y-3.23988
G01 X-3.75868 Y-3.23723
G01 X-3.75707 Y-3.23454
G01 X-3.75531 Y-3.23222
G01 X-3.75332 Y-3.23010
G01 X-3.75094 Y-3.22806
G01 X-3.74834 Y-3.22631
G01 X-3.74576 Y-3.22496
G01 X-3.74305 Y-3.22388
G01 X-3.74025 Y-3.22310
G01 X-3.73738 Y-3.22262
G01 X-3.73448 Y-3.22244
G01 X-3.69083 Y-3.22244
G01 X-3.68770 Y-3.22263
G01 X-3.68484 Y-3.22313
G01 X-3.68204 Y-3.22392
G01 X-3.67913 Y-3.22510
G01 X-3.67657 Y-3.22648
G01 X-3.67417 Y-3.22813
G01 X-3.67196 Y-3.23002
G01 X-3.66996 Y-3.23214
G01 X-3.66816 Y-3.23450
G01 X-3.64339 Y-3.23450
G01 X-3.64339 Y-3.04772
G01 X-3.77464 Y-2.91634
G01 X-3.77602 Y-2.91434
G01 X-3.77692 Y-2.91252
G01 X-3.77767 Y-2.91021
G01 X-3.77805 Y-2.90781
G01 X-3.77810 Y-2.87559
G01 X-3.78819 Y-2.87559
G01 X-3.78819 Y-2.86550
G01 X-3.80618 Y-2.86550
G01 X-3.87606 Y-2.93539
G01 X-3.87495 Y-2.93857
G01 X-3.87406 Y-2.94205
G01 X-3.87349 Y-2.94561
G01 X-3.87327 Y-2.94880
G01 X-3.87330 Y-2.95200
G01 X-3.87365 Y-2.95558
G01 X-3.87432 Y-2.95912
G01 X-3.87531 Y-2.96258
G01 X-3.87662 Y-2.96593
G01 X-3.87803 Y-2.96880
G01 X-3.87967 Y-2.97155
G01 X-3.88178 Y-2.97447
G01 X-3.88414 Y-2.97718
G01 X-3.88675 Y-2.97967
G01 X-3.88924 Y-2.98167
G01 X-3.89223 Y-2.98367
G01 X-3.89612 Y-2.98573
G01 X-3.90021 Y-2.98735
G01 X-3.90446 Y-2.98850
G01 X-3.90880 Y-2.98917
G01 X-3.91320 Y-2.98935
G01 X-3.91759 Y-2.98903
G01 X-3.92152 Y-2.98832
G01 X-3.92574 Y-2.98709
G01 X-3.92980 Y-2.98539
G01 X-3.93364 Y-2.98325
G01 X-3.93722 Y-2.98069
G01 X-3.94049 Y-2.97775
G01 X-3.94342 Y-2.97447
G01 X-3.94574 Y-2.97121
G01 X-3.94790 Y-2.96738
G01 X-3.94962 Y-2.96333
G01 X-3.95058 Y-2.96028
G01 X-3.95122 Y-2.95755
G01 X-3.95170 Y-2.95439
G01 X-3.95192 Y-2.95160
G01 X-3.95193 Y-2.94880
G01 X-3.95170 Y-2.94561
G01 X-3.95122 Y-2.94245
G01 X-3.95058 Y-2.93972
G01 X-3.94962 Y-2.93667
G01 X-3.94858 Y-2.93407
G01 X-3.94717 Y-2.93120
G01 X-3.94415 Y-2.92648
G01 X-3.94213 Y-2.92400
G01 X-3.93815 Y-2.92007
G01 X-3.93398 Y-2.91696
G01 X-3.92944 Y-2.91444
G01 X-3.92461 Y-2.91253
G01 X-3.91917 Y-2.91120
G01 X-3.91400 Y-2.91067
G01 X-3.90841 Y-2.91087
G01 X-3.90329 Y-2.91177
G01 X-3.89798 Y-2.91346
G01 X-3.82235 Y-2.83795
G01 X-3.82035 Y-2.83658
G01 X-3.81853 Y-2.83568
G01 X-3.81622 Y-2.83493
G01 X-3.81422 Y-2.83458
G01 X-3.78819 Y-2.83450
G01 X-3.78819 Y-2.82441
G01 X-3.73701 Y-2.82441
G01 X-3.73701 Y-2.87559
G01 X-3.74710 Y-2.87559
G01 X-3.74710 Y-2.90017
G01 X-3.61692 Y-3.03034
G01 X-3.61584 Y-3.03155
G01 X-3.61467 Y-3.03320
G01 X-3.61327 Y-3.03613
G01 X-3.61264 Y-3.03848
G01 X-3.61239 Y-3.04130

G04 P0 ( dwell for no time -- G64 should not smooth over this point )
G00 Z1.000000 ( retract )

M5 ( Spindle off. )
G04 P1.000000
M9 ( Coolant off. )
M2 ( Program end. )

