( pcb2gcode 3.0.1 )
( Software-independent Gcode )

G94 ( Inches per minute feed rate. )
G20 ( Units == INCHES. )

G90 ( Absolute coordinates. )
G00 S12000 ( RPM spindle speed. )
G64 P0.00040 ( set maximum deviation from commanded toolpath )
G01 F360.00000 ( Feedrate. )


G00 Z1.00000 (Retract to tool change height)
T1
M5      (Spindle stop.)
G04 P1.00000 (Wait for spindle to stop)
(MSG, Change tool bit to mill diameter 0.00000in)
M6      (Tool change.)
M0      (Temporary machine stop.)
M3 ( Spindle on clockwise. )
G04 P1.00000 (Wait for spindle to get up to speed)
G04 P0 ( dwell for no time -- G64 should not smooth over this point )
G00 Z0.08000 ( retract )

G00 X3.15265 Y-3.21762 ( rapid move to begin. )
G01 F180.00000
( Mill infeed pass 1/1 )
G01 Z-0.04000
G04 P0 ( dwell for no time -- G64 should not smooth over this point )
G01 F360.00000
G01 X3.15265 Y-3.21762
G01 X3.15278 Y-3.21964
G01 X3.15329 Y-3.22202
G01 X3.15383 Y-3.22355
G01 X3.15473 Y-3.22537
G01 X3.15585 Y-3.22706
G01 X3.15719 Y-3.22858
G01 X3.33837 Y-3.40976
G01 X3.33989 Y-3.41109
G01 X3.34193 Y-3.41242
G01 X3.34454 Y-3.41354
G01 X3.34690 Y-3.41411
G01 X3.34933 Y-3.41430
G01 X3.82319 Y-3.41421
G01 X3.82558 Y-3.41377
G01 X3.82787 Y-3.41296
G01 X3.83001 Y-3.41180
G01 X3.83194 Y-3.41032
G01 X3.86096 Y-3.38133
G01 X3.86300 Y-3.37881
G01 X3.86399 Y-3.37704
G01 X3.86474 Y-3.37516
G01 X3.86524 Y-3.37319
G01 X3.86548 Y-3.37118
G01 X3.86550 Y-3.33937
G01 X3.88740 Y-3.33937
G01 X3.88740 Y-3.31550
G01 X4.01260 Y-3.31550
G01 X4.01260 Y-3.33937
G01 X4.08740 Y-3.33937
G01 X4.08740 Y-3.26063
G01 X4.01260 Y-3.26063
G01 X4.01260 Y-3.28450
G01 X3.88740 Y-3.28450
G01 X3.88740 Y-3.26063
G01 X3.81260 Y-3.26063
G01 X3.81260 Y-3.33937
G01 X3.83450 Y-3.33937
G01 X3.83450 Y-3.36395
G01 X3.81515 Y-3.38330
G01 X3.35575 Y-3.38330
G01 X3.18365 Y-3.21120
G01 X3.18365 Y-2.81713
G01 X3.21713 Y-2.78365
G01 X3.57295 Y-2.78365
G01 X3.57497 Y-2.78352
G01 X3.57696 Y-2.78312
G01 X3.57888 Y-2.78247
G01 X3.58070 Y-2.78157
G01 X3.58238 Y-2.78045
G01 X3.58391 Y-2.77911
G01 X3.72152 Y-2.64150
G01 X3.74610 Y-2.64150
G01 X3.74610 Y-2.69490
G01 X3.88390 Y-2.69490
G01 X3.88390 Y-2.57902
G01 X3.93110 Y-2.53182
G01 X3.93110 Y-2.57680
G01 X4.06890 Y-2.57680
G01 X4.06890 Y-2.43900
G01 X3.93110 Y-2.43900
G01 X3.93110 Y-2.49253
G01 X3.92870 Y-2.49304
G01 X3.92643 Y-2.49391
G01 X3.92432 Y-2.49513
G01 X3.92243 Y-2.49666
G01 X3.86198 Y-2.55710
G01 X3.74610 Y-2.55710
G01 X3.74610 Y-2.61050
G01 X3.71388 Y-2.61055
G01 X3.71148 Y-2.61093
G01 X3.70917 Y-2.61168
G01 X3.70700 Y-2.61278
G01 X3.70534 Y-2.61395
G01 X3.56653 Y-2.75265
G01 X3.21071 Y-2.75265
G01 X3.20869 Y-2.75278
G01 X3.20631 Y-2.75329
G01 X3.20441 Y-2.75399
G01 X3.20227 Y-2.75515
G01 X3.20034 Y-2.75663
G01 X3.15719 Y-2.79975
G01 X3.15585 Y-2.80127
G01 X3.15453 Y-2.80332
G01 X3.15341 Y-2.80592
G01 X3.15284 Y-2.80829
G01 X3.15265 Y-2.81071
G01 X3.15265 Y-3.21762
G04 P0 ( dwell for no time -- G64 should not smooth over this point )
G00 Z0.08000 ( retract )

G00 X3.35080 Y-3.32790 ( rapid move to begin. )
G01 F180.00000
( Mill infeed pass 1/1 )
G01 Z-0.04000
G04 P0 ( dwell for no time -- G64 should not smooth over this point )
G01 F360.00000
G01 X3.35080 Y-3.32790
G01 X3.35101 Y-3.32522
G01 X3.35148 Y-3.32258
G01 X3.35221 Y-3.31999
G01 X3.35319 Y-3.31749
G01 X3.35440 Y-3.31509
G01 X3.35585 Y-3.31282
G01 X3.35765 Y-3.31054
G01 X3.35952 Y-3.30861
G01 X3.36175 Y-3.30674
G01 X3.36397 Y-3.30523
G01 X3.36633 Y-3.30394
G01 X3.36901 Y-3.30281
G01 X3.37158 Y-3.30202
G01 X3.37422 Y-3.30149
G01 X3.37689 Y-3.30122
G01 X3.42188 Y-3.30118
G01 X3.42633 Y-3.30158
G01 X3.42896 Y-3.30217
G01 X3.43151 Y-3.30300
G01 X3.43417 Y-3.30419
G01 X3.43650 Y-3.30552
G01 X3.43869 Y-3.30708
G01 X3.44072 Y-3.30884
G01 X3.44257 Y-3.31079
G01 X3.44427 Y-3.31299
G01 X3.66847 Y-3.31299
G01 X3.71273 Y-3.29684
G01 X3.71318 Y-3.29343
G01 X3.71388 Y-3.29030
G01 X3.71484 Y-3.28725
G01 X3.71623 Y-3.28393
G01 X3.71773 Y-3.28110
G01 X3.71946 Y-3.27841
G01 X3.72142 Y-3.27587
G01 X3.72387 Y-3.27324
G01 X3.72657 Y-3.27085
G01 X3.72915 Y-3.26895
G01 X3.73188 Y-3.26728
G01 X3.73474 Y-3.26585
G01 X3.73772 Y-3.26467
G01 X3.74079 Y-3.26375
G01 X3.74392 Y-3.26309
G01 X3.74750 Y-3.26268
G01 X3.75150 Y-3.26263
G01 X3.75509 Y-3.26295
G01 X3.75863 Y-3.26361
G01 X3.76247 Y-3.26474
G01 X3.76616 Y-3.26627
G01 X3.76933 Y-3.26798
G01 X3.77264 Y-3.27023
G01 X3.77569 Y-3.27282
G01 X3.77845 Y-3.27572
G01 X3.78065 Y-3.27857
G01 X3.78257 Y-3.28162
G01 X3.78435 Y-3.28520
G01 X3.78561 Y-3.28857
G01 X3.78663 Y-3.29244
G01 X3.78723 Y-3.29640
G01 X3.78740 Y-3.30000
G01 X3.78730 Y-3.30280
G01 X3.78698 Y-3.30558
G01 X3.78646 Y-3.30834
G01 X3.78573 Y-3.31104
G01 X3.78481 Y-3.31369
G01 X3.78369 Y-3.31625
G01 X3.78237 Y-3.31873
G01 X3.78088 Y-3.32110
G01 X3.77921 Y-3.32335
G01 X3.77738 Y-3.32547
G01 X3.77540 Y-3.32745
G01 X3.77327 Y-3.32928
G01 X3.77102 Y-3.33094
G01 X3.76864 Y-3.33242
G01 X3.76616 Y-3.33373
G01 X3.76359 Y-3.33484
G01 X3.75863 Y-3.33639
G01 X3.75588 Y-3.33694
G01 X3.75310 Y-3.33727
G01 X3.75030 Y-3.33740
G01 X3.74750 Y-3.33732
G01 X3.74235 Y-3.33661
G01 X3.73734 Y-3.33520
G01 X3.73474 Y-3.33415
G01 X3.73223 Y-3.33291
G01 X3.72982 Y-3.33149
G01 X3.72752 Y-3.32989
G01 X3.72353 Y-3.32643
G01 X3.67666 Y-3.34354
G01 X3.67477 Y-3.34409
G01 X3.67244 Y-3.34444
G01 X3.44427 Y-3.34449
G01 X3.44249 Y-3.34677
G01 X3.44064 Y-3.34872
G01 X3.43860 Y-3.35047
G01 X3.43641 Y-3.35202
G01 X3.43407 Y-3.35334
G01 X3.43161 Y-3.35444
G01 X3.42907 Y-3.35528
G01 X3.42645 Y-3.35588
G01 X3.42177 Y-3.35630
G01 X3.37723 Y-3.35628
G01 X3.37477 Y-3.35607
G01 X3.37235 Y-3.35564
G01 X3.36997 Y-3.35500
G01 X3.36745 Y-3.35405
G01 X3.36523 Y-3.35298
G01 X3.36312 Y-3.35171
G01 X3.36113 Y-3.35026
G01 X3.35912 Y-3.34848
G01 X3.35729 Y-3.34652
G01 X3.35578 Y-3.34456
G01 X3.35446 Y-3.34249
G01 X3.35333 Y-3.34030
G01 X3.35240 Y-3.33802
G01 X3.35167 Y-3.33567
G01 X3.35112 Y-3.33303
G01 X3.35085 Y-3.33059
G01 X3.35080 Y-3.32790
G04 P0 ( dwell for no time -- G64 should not smooth over this point )
G00 Z0.08000 ( retract )

G00 X3.35082 Y-3.16997 ( rapid move to begin. )
G01 F180.00000
( Mill infeed pass 1/1 )
G01 Z-0.04000
G04 P0 ( dwell for no time -- G64 should not smooth over this point )
G01 F360.00000
G01 X3.35082 Y-3.16997
G01 X3.35114 Y-3.16685
G01 X3.35182 Y-3.16379
G01 X3.35284 Y-3.16083
G01 X3.35419 Y-3.15800
G01 X3.35585 Y-3.15534
G01 X3.35780 Y-3.15289
G01 X3.36002 Y-3.15068
G01 X3.36247 Y-3.14873
G01 X3.36514 Y-3.14707
G01 X3.36818 Y-3.14565
G01 X3.37115 Y-3.14466
G01 X3.37422 Y-3.14401
G01 X3.37734 Y-3.14372
G01 X3.42188 Y-3.14370
G01 X3.42633 Y-3.14410
G01 X3.42917 Y-3.14475
G01 X3.43172 Y-3.14560
G01 X3.43417 Y-3.14671
G01 X3.43650 Y-3.14804
G01 X3.43869 Y-3.14960
G01 X3.44072 Y-3.15136
G01 X3.44257 Y-3.15331
G01 X3.44427 Y-3.15551
G01 X4.03628 Y-3.15551
G01 X4.28425 Y-2.90754
G01 X4.28433 Y-2.84838
G01 X4.28467 Y-2.84638
G01 X4.28512 Y-2.84483
G01 X4.28650 Y-2.84189
G01 X4.28844 Y-2.83930
G01 X4.29087 Y-2.83716
G01 X4.29260 Y-2.83610
G01 X4.29483 Y-2.83512
G01 X4.29718 Y-2.83451
G01 X4.29959 Y-2.83426
G01 X4.43140 Y-2.83425
G01 X4.43330 Y-2.83208
G01 X4.43569 Y-2.82994
G01 X4.43832 Y-2.82811
G01 X4.44079 Y-2.82679
G01 X4.44378 Y-2.82563
G01 X4.44650 Y-2.82492
G01 X4.44967 Y-2.82448
G01 X4.45248 Y-2.82443
G01 X4.45646 Y-2.82488
G01 X4.46032 Y-2.82595
G01 X4.46396 Y-2.82761
G01 X4.46730 Y-2.82981
G01 X4.47026 Y-2.83252
G01 X4.47276 Y-2.83565
G01 X4.47474 Y-2.83913
G01 X4.47615 Y-2.84288
G01 X4.47679 Y-2.84561
G01 X4.47709 Y-2.84800
G01 X4.47715 Y-2.85080
G01 X4.47691 Y-2.85360
G01 X4.47637 Y-2.85635
G01 X4.47552 Y-2.85902
G01 X4.47439 Y-2.86159
G01 X4.47298 Y-2.86402
G01 X4.47132 Y-2.86628
G01 X4.46942 Y-2.86834
G01 X4.46762 Y-2.86993
G01 X4.46534 Y-2.87157
G01 X4.46290 Y-2.87295
G01 X4.46032 Y-2.87405
G01 X4.45763 Y-2.87486
G01 X4.45527 Y-2.87532
G01 X4.45207 Y-2.87559
G01 X4.44847 Y-2.87540
G01 X4.44532 Y-2.87481
G01 X4.44190 Y-2.87369
G01 X4.43901 Y-2.87229
G01 X4.43600 Y-2.87031
G01 X4.43359 Y-2.86820
G01 X4.43140 Y-2.86575
G01 X4.31575 Y-2.86575
G01 X4.31575 Y-2.91394
G01 X4.32036 Y-2.91633
G01 X4.32462 Y-2.91931
G01 X4.32845 Y-2.92282
G01 X4.33155 Y-2.92648
G01 X4.33437 Y-2.93085
G01 X4.33645 Y-2.93517
G01 X4.33798 Y-2.93972
G01 X4.33901 Y-2.94481
G01 X4.33933 Y-2.94880
G01 X4.33922 Y-2.95320
G01 X4.33869 Y-2.95716
G01 X4.33777 Y-2.96105
G01 X4.33645 Y-2.96483
G01 X4.33457 Y-2.96880
G01 X4.33248 Y-2.97221
G01 X4.33006 Y-2.97539
G01 X4.32674 Y-2.97886
G01 X4.32336 Y-2.98167
G01 X4.31933 Y-2.98428
G01 X4.31501 Y-2.98637
G01 X4.31086 Y-2.98782
G01 X4.30617 Y-2.98886
G01 X4.30140 Y-2.98933
G01 X4.29660 Y-2.98920
G01 X4.29225 Y-2.98858
G01 X4.28761 Y-2.98735
G01 X4.28316 Y-2.98556
G01 X4.27895 Y-2.98325
G01 X4.27538 Y-2.98069
G01 X4.27182 Y-2.97747
G01 X4.26869 Y-2.97383
G01 X4.26619 Y-2.97014
G01 X4.05394 Y-3.18240
G01 X4.05239 Y-3.18375
G01 X4.05103 Y-3.18469
G01 X4.04921 Y-3.18565
G01 X4.04728 Y-3.18636
G01 X4.04527 Y-3.18682
G01 X4.04280 Y-3.18701
G01 X3.44427 Y-3.18701
G01 X3.44249 Y-3.18929
G01 X3.44064 Y-3.19123
G01 X3.43860 Y-3.19299
G01 X3.43641 Y-3.19454
G01 X3.43407 Y-3.19586
G01 X3.43161 Y-3.19695
G01 X3.42907 Y-3.19780
G01 X3.42645 Y-3.19840
G01 X3.42199 Y-3.19882
G01 X3.37812 Y-3.19882
G01 X3.37389 Y-3.19846
G01 X3.36954 Y-3.19738
G01 X3.36563 Y-3.19571
G01 X3.36184 Y-3.19333
G01 X3.35864 Y-3.19053
G01 X3.35578 Y-3.18708
G01 X3.35362 Y-3.18343
G01 X3.35197 Y-3.17926
G01 X3.35124 Y-3.17622
G01 X3.35085 Y-3.17311
G01 X3.35082 Y-3.16997
G04 P0 ( dwell for no time -- G64 should not smooth over this point )
G00 Z0.08000 ( retract )

G00 X3.21065 Y-2.95040 ( rapid move to begin. )
G01 F180.00000
( Mill infeed pass 1/1 )
G01 Z-0.04000
G04 P0 ( dwell for no time -- G64 should not smooth over this point )
G01 F360.00000
G01 X3.21065 Y-2.95040
G01 X3.21089 Y-2.95439
G01 X3.21146 Y-2.95795
G01 X3.21247 Y-2.96182
G01 X3.21370 Y-2.96520
G01 X3.21543 Y-2.96880
G01 X3.21730 Y-2.97188
G01 X3.21969 Y-2.97509
G01 X3.22210 Y-2.97775
G01 X3.22476 Y-2.98019
G01 X3.22795 Y-2.98259
G01 X3.23102 Y-2.98447
G01 X3.23450 Y-2.98617
G01 X3.23458 Y-3.18183
G01 X3.23503 Y-3.18422
G01 X3.23584 Y-3.18652
G01 X3.23700 Y-3.18865
G01 X3.23876 Y-3.19088
G01 X3.30883 Y-3.26096
G01 X3.31068 Y-3.26254
G01 X3.31275 Y-3.26381
G01 X3.31577 Y-3.26497
G01 X3.31898 Y-3.26548
G01 X3.35556 Y-3.26550
G01 X3.35743 Y-3.26795
G01 X3.35944 Y-3.27005
G01 X3.36166 Y-3.27193
G01 X3.36407 Y-3.27357
G01 X3.36663 Y-3.27495
G01 X3.36933 Y-3.27604
G01 X3.37213 Y-3.27685
G01 X3.37499 Y-3.27735
G01 X3.37835 Y-3.27756
G01 X3.42177 Y-3.27756
G01 X3.42467 Y-3.27739
G01 X3.42885 Y-3.27660
G01 X3.43285 Y-3.27518
G01 X3.43641 Y-3.27328
G01 X3.43981 Y-3.27073
G01 X3.44278 Y-3.26769
G01 X3.44525 Y-3.26423
G01 X3.44716 Y-3.26043
G01 X3.44846 Y-3.25638
G01 X3.44913 Y-3.25218
G01 X3.44913 Y-3.24793
G01 X3.44849 Y-3.24373
G01 X3.44720 Y-3.23967
G01 X3.44531 Y-3.23587
G01 X3.44300 Y-3.23257
G01 X3.44006 Y-3.22949
G01 X3.43669 Y-3.22690
G01 X3.43377 Y-3.22525
G01 X3.43046 Y-3.22388
G01 X3.42721 Y-3.22301
G01 X3.42367 Y-3.22251
G01 X3.37644 Y-3.22251
G01 X3.37333 Y-3.22290
G01 X3.37029 Y-3.22364
G01 X3.36735 Y-3.22473
G01 X3.36455 Y-3.22614
G01 X3.36193 Y-3.22786
G01 X3.35952 Y-3.22987
G01 X3.35736 Y-3.23214
G01 X3.35556 Y-3.23450
G01 X3.32621 Y-3.23450
G01 X3.26550 Y-3.17379
G01 X3.26550 Y-2.98617
G01 X3.26898 Y-2.98447
G01 X3.27205 Y-2.98259
G01 X3.27524 Y-2.98019
G01 X3.27790 Y-2.97775
G01 X3.28031 Y-2.97509
G01 X3.28270 Y-2.97188
G01 X3.28457 Y-2.96880
G01 X3.28630 Y-2.96520
G01 X3.28753 Y-2.96182
G01 X3.28854 Y-2.95795
G01 X3.28910 Y-2.95439
G01 X3.28935 Y-2.95040
G01 X3.28922 Y-2.94680
G01 X3.28869 Y-2.94284
G01 X3.28777 Y-2.93895
G01 X3.28653 Y-2.93539
G01 X3.35642 Y-2.86550
G01 X3.37441 Y-2.86550
G01 X3.37441 Y-2.87559
G01 X3.42559 Y-2.87559
G01 X3.42559 Y-2.82441
G01 X3.37441 Y-2.82441
G01 X3.37441 Y-2.83450
G01 X3.34838 Y-2.83458
G01 X3.34638 Y-2.83493
G01 X3.34407 Y-2.83568
G01 X3.34225 Y-2.83658
G01 X3.34024 Y-2.83795
G01 X3.26461 Y-2.91346
G01 X3.26086 Y-2.91218
G01 X3.25696 Y-2.91127
G01 X3.25300 Y-2.91076
G01 X3.24940 Y-2.91065
G01 X3.24541 Y-2.91092
G01 X3.24147 Y-2.91159
G01 X3.23761 Y-2.91265
G01 X3.23425 Y-2.91394
G01 X3.23067 Y-2.91572
G01 X3.22729 Y-2.91786
G01 X3.22445 Y-2.92007
G01 X3.22155 Y-2.92282
G01 X3.21893 Y-2.92585
G01 X3.21686 Y-2.92879
G01 X3.21506 Y-2.93190
G01 X3.21340 Y-2.93554
G01 X3.21223 Y-2.93895
G01 X3.21131 Y-2.94284
G01 X3.21078 Y-2.94680
G01 X3.21065 Y-2.95040
G04 P0 ( dwell for no time -- G64 should not smooth over this point )
G00 Z0.08000 ( retract )

G00 X3.21065 Y-2.55000 ( rapid move to begin. )
G01 F180.00000
( Mill infeed pass 1/1 )
G01 Z-0.04000
G04 P0 ( dwell for no time -- G64 should not smooth over this point )
G01 F360.00000
G01 X3.21065 Y-2.55000
G01 X3.21081 Y-2.55360
G01 X3.21131 Y-2.55716
G01 X3.21212 Y-2.56067
G01 X3.21326 Y-2.56408
G01 X3.21470 Y-2.56738
G01 X3.21664 Y-2.57087
G01 X3.21869 Y-2.57383
G01 X3.22100 Y-2.57660
G01 X3.22355 Y-2.57913
G01 X3.22632 Y-2.58143
G01 X3.22929 Y-2.58346
G01 X3.23280 Y-2.58539
G01 X3.23610 Y-2.58681
G01 X3.23952 Y-2.58793
G01 X3.24303 Y-2.58873
G01 X3.24660 Y-2.58920
G01 X3.24980 Y-2.58935
G01 X3.25300 Y-2.58923
G01 X3.25617 Y-2.58886
G01 X3.25892 Y-2.58832
G01 X3.26201 Y-2.58747
G01 X3.26464 Y-2.58652
G01 X3.26720 Y-2.58539
G01 X3.27002 Y-2.58388
G01 X3.27271 Y-2.58214
G01 X3.27524 Y-2.58019
G01 X3.27761 Y-2.57804
G01 X3.27954 Y-2.57600
G01 X3.28155 Y-2.57352
G01 X3.28314 Y-2.57121
G01 X3.28476 Y-2.56845
G01 X3.28606 Y-2.56575
G01 X3.61394 Y-2.56575
G01 X3.61524 Y-2.56845
G01 X3.61686 Y-2.57121
G01 X3.61869 Y-2.57383
G01 X3.62073 Y-2.57630
G01 X3.62296 Y-2.57859
G01 X3.62538 Y-2.58069
G01 X3.62795 Y-2.58259
G01 X3.63067 Y-2.58428
G01 X3.63352 Y-2.58573
G01 X3.63648 Y-2.58695
G01 X3.63952 Y-2.58793
G01 X3.64264 Y-2.58866
G01 X3.64581 Y-2.58913
G01 X3.64900 Y-2.58934
G01 X3.65220 Y-2.58929
G01 X3.65538 Y-2.58898
G01 X3.65970 Y-2.58813
G01 X3.66427 Y-2.58667
G01 X3.66827 Y-2.58485
G01 X3.67205 Y-2.58259
G01 X3.67555 Y-2.57993
G01 X3.67873 Y-2.57689
G01 X3.68155 Y-2.57352
G01 X3.68398 Y-2.56985
G01 X3.68598 Y-2.56593
G01 X3.68753 Y-2.56182
G01 X3.68862 Y-2.55755
G01 X3.68925 Y-2.55280
G01 X3.68932 Y-2.54840
G01 X3.68889 Y-2.54402
G01 X3.68798 Y-2.53972
G01 X3.68653 Y-2.53538
G01 X3.80292 Y-2.41900
G01 X4.14708 Y-2.41900
G01 X4.26347 Y-2.53539
G01 X4.26212 Y-2.53933
G01 X4.26117 Y-2.54363
G01 X4.26070 Y-2.54800
G01 X4.26070 Y-2.55204
G01 X4.01438 Y-2.67520
G01 X3.93110 Y-2.67520
G01 X3.93110 Y-2.81300
G01 X4.06890 Y-2.81300
G01 X4.06890 Y-2.68316
G01 X4.27479 Y-2.58021
G01 X4.27862 Y-2.58303
G01 X4.28244 Y-2.58521
G01 X4.28686 Y-2.58709
G01 X4.29108 Y-2.58832
G01 X4.29581 Y-2.58913
G01 X4.30020 Y-2.58935
G01 X4.30459 Y-2.58908
G01 X4.30892 Y-2.58832
G01 X4.31314 Y-2.58709
G01 X4.31756 Y-2.58521
G01 X4.32172 Y-2.58282
G01 X4.32524 Y-2.58019
G01 X4.32845 Y-2.57718
G01 X4.33155 Y-2.57352
G01 X4.33398 Y-2.56985
G01 X4.33606 Y-2.56575
G01 X4.66394 Y-2.56575
G01 X4.66524 Y-2.56845
G01 X4.66686 Y-2.57121
G01 X4.66845 Y-2.57352
G01 X4.67046 Y-2.57600
G01 X4.67239 Y-2.57804
G01 X4.67476 Y-2.58019
G01 X4.67729 Y-2.58214
G01 X4.67964 Y-2.58367
G01 X4.68208 Y-2.58503
G01 X4.68499 Y-2.58637
G01 X4.68761 Y-2.58735
G01 X4.69069 Y-2.58823
G01 X4.69343 Y-2.58880
G01 X4.69660 Y-2.58920
G01 X4.69940 Y-2.58934
G01 X4.70260 Y-2.58926
G01 X4.70617 Y-2.58886
G01 X4.70970 Y-2.58813
G01 X4.71314 Y-2.58709
G01 X4.71684 Y-2.58556
G01 X4.72002 Y-2.58388
G01 X4.72335 Y-2.58167
G01 X4.72615 Y-2.57940
G01 X4.72873 Y-2.57689
G01 X4.73107 Y-2.57415
G01 X4.73314 Y-2.57121
G01 X4.73494 Y-2.56810
G01 X4.73660 Y-2.56446
G01 X4.73777 Y-2.56105
G01 X4.73862 Y-2.55755
G01 X4.73918 Y-2.55360
G01 X4.73935 Y-2.55000
G01 X4.73918 Y-2.54640
G01 X4.73862 Y-2.54244
G01 X4.73777 Y-2.53895
G01 X4.73660 Y-2.53554
G01 X4.73494 Y-2.53190
G01 X4.73314 Y-2.52879
G01 X4.73107 Y-2.52585
G01 X4.72845 Y-2.52282
G01 X4.72555 Y-2.52007
G01 X4.72271 Y-2.51786
G01 X4.71933 Y-2.51572
G01 X4.71611 Y-2.51410
G01 X4.71239 Y-2.51265
G01 X4.70892 Y-2.51167
G01 X4.70499 Y-2.51097
G01 X4.70140 Y-2.51067
G01 X4.69860 Y-2.51067
G01 X4.69541 Y-2.51092
G01 X4.69225 Y-2.51142
G01 X4.68952 Y-2.51207
G01 X4.68686 Y-2.51291
G01 X4.68389 Y-2.51410
G01 X4.67896 Y-2.51675
G01 X4.67445 Y-2.52007
G01 X4.67210 Y-2.52225
G01 X4.67020 Y-2.52430
G01 X4.66845 Y-2.52648
G01 X4.66664 Y-2.52913
G01 X4.66524 Y-2.53155
G01 X4.66394 Y-2.53425
G01 X4.33606 Y-2.53425
G01 X4.33437 Y-2.53085
G01 X4.33248 Y-2.52779
G01 X4.33006 Y-2.52460
G01 X4.32761 Y-2.52196
G01 X4.32462 Y-2.51931
G01 X4.32172 Y-2.51718
G01 X4.31827 Y-2.51515
G01 X4.31501 Y-2.51363
G01 X4.31124 Y-2.51229
G01 X4.30775 Y-2.51142
G01 X4.30379 Y-2.51083
G01 X4.30020 Y-2.51065
G01 X4.29660 Y-2.51080
G01 X4.29264 Y-2.51134
G01 X4.28914 Y-2.51218
G01 X4.28538 Y-2.51346
G01 X4.16417 Y-2.39226
G01 X4.16228 Y-2.39073
G01 X4.16017 Y-2.38951
G01 X4.15790 Y-2.38864
G01 X4.15592 Y-2.38819
G01 X4.15350 Y-2.38800
G01 X3.79650 Y-2.38800
G01 X3.79367 Y-2.38826
G01 X3.79057 Y-2.38918
G01 X3.78806 Y-2.39050
G01 X3.78583 Y-2.39226
G01 X3.66461 Y-2.51346
G01 X3.66086 Y-2.51218
G01 X3.65736 Y-2.51134
G01 X3.65340 Y-2.51080
G01 X3.64980 Y-2.51065
G01 X3.64621 Y-2.51083
G01 X3.64225 Y-2.51142
G01 X3.63876 Y-2.51229
G01 X3.63499 Y-2.51363
G01 X3.63173 Y-2.51515
G01 X3.62828 Y-2.51718
G01 X3.62538 Y-2.51931
G01 X3.62239 Y-2.52196
G01 X3.61994 Y-2.52460
G01 X3.61752 Y-2.52779
G01 X3.61563 Y-2.53085
G01 X3.61394 Y-2.53425
G01 X3.28606 Y-2.53425
G01 X3.28476 Y-2.53155
G01 X3.28336 Y-2.52913
G01 X3.28155 Y-2.52648
G01 X3.27980 Y-2.52430
G01 X3.27790 Y-2.52225
G01 X3.27555 Y-2.52007
G01 X3.27104 Y-2.51675
G01 X3.26611 Y-2.51410
G01 X3.26314 Y-2.51291
G01 X3.26047 Y-2.51207
G01 X3.25775 Y-2.51142
G01 X3.25459 Y-2.51092
G01 X3.25140 Y-2.51067
G01 X3.24860 Y-2.51067
G01 X3.24501 Y-2.51097
G01 X3.24108 Y-2.51167
G01 X3.23761 Y-2.51265
G01 X3.23388 Y-2.51410
G01 X3.23067 Y-2.51572
G01 X3.22729 Y-2.51786
G01 X3.22445 Y-2.52007
G01 X3.22155 Y-2.52282
G01 X3.21893 Y-2.52585
G01 X3.21686 Y-2.52879
G01 X3.21506 Y-2.53190
G01 X3.21340 Y-2.53554
G01 X3.21223 Y-2.53895
G01 X3.21138 Y-2.54244
G01 X3.21081 Y-2.54640
G01 X3.21065 Y-2.55000
G04 P0 ( dwell for no time -- G64 should not smooth over this point )
G00 Z0.08000 ( retract )

G00 X3.47287 Y-2.85140 ( rapid move to begin. )
G01 F180.00000
( Mill infeed pass 1/1 )
G01 Z-0.04000
G04 P0 ( dwell for no time -- G64 should not smooth over this point )
G01 F360.00000
G01 X3.47287 Y-2.85140
G01 X3.47287 Y-2.84860
G01 X3.47332 Y-2.84502
G01 X3.47414 Y-2.84192
G01 X3.47534 Y-2.83895
G01 X3.47713 Y-2.83581
G01 X3.47907 Y-2.83326
G01 X3.48161 Y-2.83071
G01 X3.48415 Y-2.82876
G01 X3.48692 Y-2.82714
G01 X3.48987 Y-2.82588
G01 X3.49295 Y-2.82500
G01 X3.49652 Y-2.82448
G01 X3.49973 Y-2.82444
G01 X3.50331 Y-2.82488
G01 X3.50641 Y-2.82569
G01 X3.50939 Y-2.82687
G01 X3.51253 Y-2.82864
G01 X3.51539 Y-2.83084
G01 X3.51791 Y-2.83341
G01 X3.52005 Y-2.83632
G01 X3.52176 Y-2.83949
G01 X3.52300 Y-2.84288
G01 X3.52376 Y-2.84640
G01 X3.52401 Y-2.85000
G01 X3.52378 Y-2.85344
G01 X3.60485 Y-2.93450
G01 X3.61383 Y-2.93450
G01 X3.61524 Y-2.93155
G01 X3.61686 Y-2.92879
G01 X3.61893 Y-2.92585
G01 X3.62100 Y-2.92340
G01 X3.62326 Y-2.92113
G01 X3.62601 Y-2.91881
G01 X3.62895 Y-2.91675
G01 X3.63173 Y-2.91515
G01 X3.63573 Y-2.91333
G01 X3.64030 Y-2.91186
G01 X3.64501 Y-2.91097
G01 X3.64980 Y-2.91065
G01 X3.65538 Y-2.91102
G01 X3.65853 Y-2.91159
G01 X3.66124 Y-2.91229
G01 X3.66427 Y-2.91333
G01 X3.66684 Y-2.91444
G01 X3.67171 Y-2.91718
G01 X3.67431 Y-2.91906
G01 X3.67645 Y-2.92086
G01 X3.68031 Y-2.92491
G01 X3.68357 Y-2.92946
G01 X3.68494 Y-2.93190
G01 X3.68617 Y-2.93450
G01 X3.98938 Y-2.93450
G01 X4.14593 Y-2.77795
G01 X4.14745 Y-2.77661
G01 X4.14914 Y-2.77549
G01 X4.15133 Y-2.77444
G01 X4.15327 Y-2.77384
G01 X4.15487 Y-2.77354
G01 X4.15689 Y-2.77341
G01 X4.65050 Y-2.77343
G01 X4.65330 Y-2.77384
G01 X4.65562 Y-2.77459
G01 X4.65813 Y-2.77591
G01 X4.66036 Y-2.77766
G01 X4.78581 Y-2.90311
G01 X4.78762 Y-2.90529
G01 X4.78901 Y-2.90777
G01 X4.78992 Y-2.91045
G01 X4.79033 Y-2.91326
G01 X4.79034 Y-2.98633
G01 X4.79016 Y-2.98835
G01 X4.78959 Y-2.99072
G01 X4.78884 Y-2.99260
G01 X4.78762 Y-2.99471
G01 X4.78581 Y-2.99689
G01 X4.59989 Y-3.18278
G01 X4.59796 Y-3.18426
G01 X4.59545 Y-3.18558
G01 X4.59314 Y-3.18633
G01 X4.59073 Y-3.18671
G01 X4.54444 Y-3.18676
G01 X4.54264 Y-3.18912
G01 X4.54064 Y-3.19123
G01 X4.53843 Y-3.19313
G01 X4.53603 Y-3.19477
G01 X4.53347 Y-3.19616
G01 X4.53077 Y-3.19726
G01 X4.52798 Y-3.19808
G01 X4.52512 Y-3.19860
G01 X4.52177 Y-3.19882
G01 X4.47700 Y-3.19879
G01 X4.47278 Y-3.19825
G01 X4.46891 Y-3.19715
G01 X4.46504 Y-3.19539
G01 X4.46166 Y-3.19319
G01 X4.45849 Y-3.19037
G01 X4.45578 Y-3.18708
G01 X4.45372 Y-3.18363
G01 X4.45211 Y-3.17969
G01 X4.45112 Y-3.17555
G01 X4.45079 Y-3.17131
G01 X4.45107 Y-3.16730
G01 X4.45201 Y-3.16315
G01 X4.45357 Y-3.15919
G01 X4.45572 Y-3.15553
G01 X4.45826 Y-3.15240
G01 X4.46140 Y-3.14953
G01 X4.46455 Y-3.14740
G01 X4.46818 Y-3.14565
G01 X4.47202 Y-3.14444
G01 X4.47577 Y-3.14382
G01 X4.47835 Y-3.14370
G01 X4.52300 Y-3.14373
G01 X4.52633 Y-3.14410
G01 X4.52939 Y-3.14481
G01 X4.53234 Y-3.14586
G01 X4.53516 Y-3.14723
G01 X4.53780 Y-3.14892
G01 X4.54023 Y-3.15090
G01 X4.54242 Y-3.15314
G01 X4.54444 Y-3.15576
G01 X4.58310 Y-3.15576
G01 X4.75935 Y-2.97951
G01 X4.75935 Y-2.92049
G01 X4.64327 Y-2.80441
G01 X4.16331 Y-2.80441
G01 X4.00676 Y-2.96096
G01 X4.00523 Y-2.96230
G01 X4.00390 Y-2.96321
G01 X4.00097 Y-2.96461
G01 X3.99822 Y-2.96531
G01 X3.99580 Y-2.96550
G01 X3.68617 Y-2.96550
G01 X3.68377 Y-2.97019
G01 X3.68057 Y-2.97478
G01 X3.67674 Y-2.97886
G01 X3.67238 Y-2.98237
G01 X3.66756 Y-2.98521
G01 X3.66239 Y-2.98735
G01 X3.65696 Y-2.98873
G01 X3.65140 Y-2.98933
G01 X3.64860 Y-2.98933
G01 X3.64541 Y-2.98908
G01 X3.64225 Y-2.98858
G01 X3.63952 Y-2.98793
G01 X3.63686 Y-2.98709
G01 X3.63388 Y-2.98590
G01 X3.62895 Y-2.98325
G01 X3.62632 Y-2.98143
G01 X3.62415 Y-2.97967
G01 X3.62210 Y-2.97775
G01 X3.61994 Y-2.97539
G01 X3.61821 Y-2.97319
G01 X3.61643 Y-2.97053
G01 X3.61506 Y-2.96809
G01 X3.61383 Y-2.96550
G01 X3.59843 Y-2.96550
G01 X3.59640 Y-2.96537
G01 X3.59441 Y-2.96497
G01 X3.59249 Y-2.96432
G01 X3.59068 Y-2.96342
G01 X3.58899 Y-2.96230
G01 X3.58746 Y-2.96096
G01 X3.50186 Y-2.87536
G01 X3.49893 Y-2.87559
G01 X3.49612 Y-2.87549
G01 X3.49295 Y-2.87500
G01 X3.49025 Y-2.87425
G01 X3.48765 Y-2.87321
G01 X3.48517 Y-2.87189
G01 X3.48254 Y-2.87006
G01 X3.48044 Y-2.86820
G01 X3.47881 Y-2.86643
G01 X3.47713 Y-2.86419
G01 X3.47570 Y-2.86177
G01 X3.47455 Y-2.85921
G01 X3.47379 Y-2.85693
G01 X3.47318 Y-2.85419
G01 X3.47287 Y-2.85140
G04 P0 ( dwell for no time -- G64 should not smooth over this point )
G00 Z0.08000 ( retract )

G00 X4.11260 Y-3.29980 ( rapid move to begin. )
G01 F180.00000
( Mill infeed pass 1/1 )
G01 Z-0.04000
G04 P0 ( dwell for no time -- G64 should not smooth over this point )
G01 F360.00000
G01 X4.11260 Y-3.29980
G01 X4.11283 Y-3.29581
G01 X4.11350 Y-3.29186
G01 X4.11445 Y-3.28838
G01 X4.11589 Y-3.28465
G01 X4.11753 Y-3.28144
G01 X4.11969 Y-3.27808
G01 X4.12194 Y-3.27527
G01 X4.12475 Y-3.27241
G01 X4.12784 Y-3.26987
G01 X4.13084 Y-3.26788
G01 X4.13402 Y-3.26619
G01 X4.13772 Y-3.26467
G01 X4.14117 Y-3.26365
G01 X4.14511 Y-3.26292
G01 X4.14870 Y-3.26262
G01 X4.15270 Y-3.26270
G01 X4.15706 Y-3.26327
G01 X4.16095 Y-3.26424
G01 X4.16507 Y-3.26577
G01 X4.16899 Y-3.26778
G01 X4.17264 Y-3.27023
G01 X4.17598 Y-3.27310
G01 X4.17896 Y-3.27633
G01 X4.18133 Y-3.27956
G01 X4.18351 Y-3.28339
G01 X4.18509 Y-3.28706
G01 X4.18637 Y-3.29127
G01 X4.18714 Y-3.29561
G01 X4.18740 Y-3.30000
G01 X4.18719 Y-3.30400
G01 X4.18655 Y-3.30795
G01 X4.18512 Y-3.31285
G01 X4.18526 Y-3.31299
G01 X4.45573 Y-3.31299
G01 X4.45751 Y-3.31071
G01 X4.45936 Y-3.30876
G01 X4.46140 Y-3.30701
G01 X4.46359 Y-3.30546
G01 X4.46593 Y-3.30414
G01 X4.46838 Y-3.30304
G01 X4.47093 Y-3.30220
G01 X4.47355 Y-3.30160
G01 X4.47823 Y-3.30118
G01 X4.52300 Y-3.30121
G01 X4.52567 Y-3.30147
G01 X4.52831 Y-3.30200
G01 X4.53088 Y-3.30277
G01 X4.53357 Y-3.30389
G01 X4.53593 Y-3.30517
G01 X4.53834 Y-3.30681
G01 X4.54039 Y-3.30853
G01 X4.54227 Y-3.31046
G01 X4.54396 Y-3.31255
G01 X4.54554 Y-3.31499
G01 X4.54676 Y-3.31738
G01 X4.54775 Y-3.31988
G01 X4.54849 Y-3.32247
G01 X4.54897 Y-3.32511
G01 X4.54920 Y-3.32779
G01 X4.54914 Y-3.33070
G01 X4.54886 Y-3.33315
G01 X4.54836 Y-3.33556
G01 X4.54764 Y-3.33791
G01 X4.54662 Y-3.34040
G01 X4.54548 Y-3.34258
G01 X4.54415 Y-3.34466
G01 X4.54249 Y-3.34677
G01 X4.54080 Y-3.34856
G01 X4.53895 Y-3.35019
G01 X4.53697 Y-3.35165
G01 X4.53486 Y-3.35293
G01 X4.53245 Y-3.35410
G01 X4.53014 Y-3.35496
G01 X4.52754 Y-3.35566
G01 X4.52512 Y-3.35608
G01 X4.52266 Y-3.35628
G01 X4.47812 Y-3.35630
G01 X4.47366 Y-3.35590
G01 X4.47083 Y-3.35525
G01 X4.46828 Y-3.35439
G01 X4.46583 Y-3.35329
G01 X4.46350 Y-3.35196
G01 X4.46131 Y-3.35040
G01 X4.45928 Y-3.34864
G01 X4.45743 Y-3.34669
G01 X4.45573 Y-3.34449
G01 X4.17754 Y-3.34444
G01 X4.17557 Y-3.34417
G01 X4.17364 Y-3.34364
G01 X4.17216 Y-3.34305
G01 X4.17041 Y-3.34211
G01 X4.16818 Y-3.34043
G01 X4.16285 Y-3.33512
G01 X4.15863 Y-3.33639
G01 X4.15429 Y-3.33715
G01 X4.14990 Y-3.33740
G01 X4.14551 Y-3.33713
G01 X4.14117 Y-3.33635
G01 X4.13697 Y-3.33506
G01 X4.13258 Y-3.33310
G01 X4.12882 Y-3.33082
G01 X4.12504 Y-3.32786
G01 X4.12194 Y-3.32473
G01 X4.11923 Y-3.32126
G01 X4.11676 Y-3.31715
G01 X4.11498 Y-3.31312
G01 X4.11368 Y-3.30892
G01 X4.11288 Y-3.30459
G01 X4.11260 Y-3.29980
G04 P0 ( dwell for no time -- G64 should not smooth over this point )
G00 Z0.08000 ( retract )

G00 X4.39979 Y-3.04130 ( rapid move to begin. )
G01 F180.00000
( Mill infeed pass 1/1 )
G01 Z-0.04000
G04 P0 ( dwell for no time -- G64 should not smooth over this point )
G01 F360.00000
G01 X4.39979 Y-3.04130
G01 X4.39981 Y-3.24631
G01 X4.40013 Y-3.24872
G01 X4.40082 Y-3.25105
G01 X4.40186 Y-3.25325
G01 X4.40324 Y-3.25525
G01 X4.41003 Y-3.26204
G01 X4.41204 Y-3.26342
G01 X4.41461 Y-3.26461
G01 X4.41696 Y-3.26524
G01 X4.41938 Y-3.26549
G01 X4.45556 Y-3.26550
G01 X4.45743 Y-3.26795
G01 X4.45944 Y-3.27005
G01 X4.46166 Y-3.27193
G01 X4.46407 Y-3.27357
G01 X4.46663 Y-3.27495
G01 X4.46933 Y-3.27604
G01 X4.47213 Y-3.27685
G01 X4.47499 Y-3.27735
G01 X4.47835 Y-3.27756
G01 X4.52266 Y-3.27754
G01 X4.52644 Y-3.27714
G01 X4.53035 Y-3.27615
G01 X4.53407 Y-3.27460
G01 X4.53752 Y-3.27253
G01 X4.54064 Y-3.26998
G01 X4.54321 Y-3.26717
G01 X4.54548 Y-3.26384
G01 X4.54725 Y-3.26022
G01 X4.54824 Y-3.25725
G01 X4.54886 Y-3.25441
G01 X4.54917 Y-3.25151
G01 X4.54918 Y-3.24860
G01 X4.54887 Y-3.24571
G01 X4.54821 Y-3.24264
G01 X4.54729 Y-3.23988
G01 X4.54608 Y-3.23723
G01 X4.54447 Y-3.23454
G01 X4.54271 Y-3.23222
G01 X4.54072 Y-3.23010
G01 X4.53834 Y-3.22806
G01 X4.53574 Y-3.22631
G01 X4.53316 Y-3.22496
G01 X4.53046 Y-3.22388
G01 X4.52765 Y-3.22310
G01 X4.52478 Y-3.22262
G01 X4.52188 Y-3.22244
G01 X4.47823 Y-3.22244
G01 X4.47511 Y-3.22263
G01 X4.47224 Y-3.22313
G01 X4.46944 Y-3.22392
G01 X4.46653 Y-3.22510
G01 X4.46397 Y-3.22648
G01 X4.46157 Y-3.22813
G01 X4.45936 Y-3.23002
G01 X4.45736 Y-3.23214
G01 X4.45556 Y-3.23450
G01 X4.43079 Y-3.23450
G01 X4.43079 Y-3.04772
G01 X4.56205 Y-2.91634
G01 X4.56342 Y-2.91434
G01 X4.56432 Y-2.91252
G01 X4.56507 Y-2.91021
G01 X4.56545 Y-2.90781
G01 X4.56550 Y-2.87559
G01 X4.57559 Y-2.87559
G01 X4.57559 Y-2.86550
G01 X4.59358 Y-2.86550
G01 X4.66347 Y-2.93539
G01 X4.66235 Y-2.93857
G01 X4.66146 Y-2.94205
G01 X4.66090 Y-2.94561
G01 X4.66067 Y-2.94880
G01 X4.66070 Y-2.95200
G01 X4.66105 Y-2.95558
G01 X4.66172 Y-2.95912
G01 X4.66271 Y-2.96258
G01 X4.66402 Y-2.96593
G01 X4.66543 Y-2.96880
G01 X4.66707 Y-2.97155
G01 X4.66918 Y-2.97447
G01 X4.67155 Y-2.97718
G01 X4.67415 Y-2.97967
G01 X4.67664 Y-2.98167
G01 X4.67964 Y-2.98367
G01 X4.68352 Y-2.98573
G01 X4.68761 Y-2.98735
G01 X4.69186 Y-2.98850
G01 X4.69620 Y-2.98917
G01 X4.70060 Y-2.98935
G01 X4.70499 Y-2.98903
G01 X4.70892 Y-2.98832
G01 X4.71314 Y-2.98709
G01 X4.71720 Y-2.98539
G01 X4.72104 Y-2.98325
G01 X4.72462 Y-2.98069
G01 X4.72790 Y-2.97775
G01 X4.73082 Y-2.97447
G01 X4.73314 Y-2.97121
G01 X4.73530 Y-2.96738
G01 X4.73702 Y-2.96333
G01 X4.73798 Y-2.96028
G01 X4.73862 Y-2.95755
G01 X4.73910 Y-2.95439
G01 X4.73932 Y-2.95160
G01 X4.73933 Y-2.94880
G01 X4.73910 Y-2.94561
G01 X4.73862 Y-2.94245
G01 X4.73798 Y-2.93972
G01 X4.73702 Y-2.93667
G01 X4.73598 Y-2.93407
G01 X4.73457 Y-2.93120
G01 X4.73155 Y-2.92648
G01 X4.72954 Y-2.92400
G01 X4.72555 Y-2.92007
G01 X4.72138 Y-2.91696
G01 X4.71684 Y-2.91444
G01 X4.71201 Y-2.91253
G01 X4.70657 Y-2.91120
G01 X4.70140 Y-2.91067
G01 X4.69581 Y-2.91087
G01 X4.69069 Y-2.91177
G01 X4.68539 Y-2.91346
G01 X4.60975 Y-2.83795
G01 X4.60775 Y-2.83658
G01 X4.60593 Y-2.83568
G01 X4.60362 Y-2.83493
G01 X4.60162 Y-2.83458
G01 X4.57559 Y-2.83450
G01 X4.57559 Y-2.82441
G01 X4.52441 Y-2.82441
G01 X4.52441 Y-2.87559
G01 X4.53450 Y-2.87559
G01 X4.53450 Y-2.90017
G01 X4.40433 Y-3.03034
G01 X4.40324 Y-3.03155
G01 X4.40207 Y-3.03320
G01 X4.40068 Y-3.03613
G01 X4.40005 Y-3.03848
G01 X4.39979 Y-3.04130

G04 P0 ( dwell for no time -- G64 should not smooth over this point )
G00 Z1.000000 ( retract )

M5 ( Spindle off. )
G04 P1.000000
M9 ( Coolant off. )
M2 ( Program end. )

