( pcb2gcode 3.0.2 )
( Software-independent Gcode )

G94 ( Inches per minute feed rate. )
G20 ( Units == INCHES. )

G90 ( Absolute coordinates. )
G00 S30000 ( RPM spindle speed. )
G64 P0.00040 ( set maximum deviation from commanded toolpath )
G01 F6.00000 ( Feedrate. )


G00 Z1.00000 (Retract to tool change height)
T1
M5      (Spindle stop.)
G04 P1.00000 (Wait for spindle to stop)
(MSG, Change tool bit to mill diameter 0.20000in)
M6      (Tool change.)
M0      (Temporary machine stop.)
M3 ( Spindle on clockwise. )
G04 P1.00000 (Wait for spindle to get up to speed)
G04 P0 ( dwell for no time -- G64 should not smooth over this point )
G00 Z0.08000 ( retract )

G00 X0.13250 Y0.00000 ( rapid move to begin. )
G01 F3.00000
( Mill infeed pass 1/1 )
G01 Z-0.00800
G04 P0 ( dwell for no time -- G64 should not smooth over this point )
G01 F6.00000
G01 X0.13250 Y0.00000
G01 X0.13250 Y10.00039
G01 X0.13225 Y10.00794
G01 X0.13188 Y10.01277
G01 X0.13085 Y10.02073
G01 X0.12996 Y10.02580
G01 X0.12826 Y10.03317
G01 X0.12689 Y10.03813
G01 X0.12435 Y10.04568
G01 X0.12235 Y10.05085
G01 X0.11923 Y10.05774
G01 X0.11692 Y10.06234
G01 X0.11294 Y10.06924
G01 X0.11019 Y10.07358
G01 X0.10555 Y10.08006
G01 X0.10238 Y10.08411
G01 X0.09713 Y10.09009
G01 X0.09329 Y10.09409
G01 X0.08775 Y10.09925
G01 X0.08415 Y10.10234
G01 X0.07784 Y10.10720
G01 X0.07363 Y10.11016
G01 X0.06687 Y10.11436
G01 X0.06274 Y10.11671
G01 X0.05560 Y10.12024
G01 X0.05090 Y10.12233
G01 X0.04308 Y10.12528
G01 X0.03857 Y10.12676
G01 X0.03087 Y10.12882
G01 X0.02624 Y10.12987
G01 X0.02118 Y10.13077
G01 X0.01329 Y10.13183
G01 X0.00855 Y10.13220
G01 X0.00041 Y10.13250
G01 X-10.00000 Y10.13250
G01 X-10.00754 Y10.13227
G01 X-10.01277 Y10.13188
G01 X-10.02073 Y10.13085
G01 X-10.02580 Y10.12996
G01 X-10.03317 Y10.12826
G01 X-10.03813 Y10.12689
G01 X-10.04568 Y10.12435
G01 X-10.05085 Y10.12235
G01 X-10.05774 Y10.11923
G01 X-10.06234 Y10.11692
G01 X-10.06924 Y10.11294
G01 X-10.07358 Y10.11019
G01 X-10.08006 Y10.10555
G01 X-10.08411 Y10.10238
G01 X-10.09009 Y10.09713
G01 X-10.09409 Y10.09329
G01 X-10.09925 Y10.08775
G01 X-10.10234 Y10.08415
G01 X-10.10720 Y10.07784
G01 X-10.11016 Y10.07363
G01 X-10.11436 Y10.06687
G01 X-10.11671 Y10.06274
G01 X-10.12024 Y10.05560
G01 X-10.12233 Y10.05090
G01 X-10.12528 Y10.04308
G01 X-10.12676 Y10.03857
G01 X-10.12882 Y10.03087
G01 X-10.12987 Y10.02624
G01 X-10.13077 Y10.02118
G01 X-10.13183 Y10.01329
G01 X-10.13220 Y10.00855
G01 X-10.13250 Y10.00041
G01 X-10.13250 Y0.00000
G01 X-10.13227 Y-0.00754
G01 X-10.13188 Y-0.01277
G01 X-10.13085 Y-0.02073
G01 X-10.12996 Y-0.02580
G01 X-10.12826 Y-0.03317
G01 X-10.12689 Y-0.03813
G01 X-10.12435 Y-0.04568
G01 X-10.12235 Y-0.05085
G01 X-10.11923 Y-0.05774
G01 X-10.11692 Y-0.06234
G01 X-10.11294 Y-0.06924
G01 X-10.11019 Y-0.07358
G01 X-10.10555 Y-0.08006
G01 X-10.10238 Y-0.08411
G01 X-10.09713 Y-0.09009
G01 X-10.09329 Y-0.09409
G01 X-10.08775 Y-0.09925
G01 X-10.08415 Y-0.10235
G01 X-10.07784 Y-0.10719
G01 X-10.07363 Y-0.11016
G01 X-10.06687 Y-0.11436
G01 X-10.06274 Y-0.11671
G01 X-10.05560 Y-0.12024
G01 X-10.05090 Y-0.12233
G01 X-10.04308 Y-0.12527
G01 X-10.03857 Y-0.12676
G01 X-10.03049 Y-0.12892
G01 X-10.02586 Y-0.12995
G01 X-10.02118 Y-0.13077
G01 X-10.01329 Y-0.13183
G01 X-10.00855 Y-0.13220
G01 X-10.00041 Y-0.13250
G01 X0.00118 Y-0.13249
G01 X0.00794 Y-0.13225
G01 X0.01317 Y-0.13184
G01 X0.02073 Y-0.13085
G01 X0.02619 Y-0.12988
G01 X0.03356 Y-0.12816
G01 X0.03851 Y-0.12678
G01 X0.04605 Y-0.12422
G01 X0.05121 Y-0.12220
G01 X0.05774 Y-0.11923
G01 X0.06234 Y-0.11692
G01 X0.06924 Y-0.11294
G01 X0.07358 Y-0.11019
G01 X0.08006 Y-0.10555
G01 X0.08411 Y-0.10238
G01 X0.09009 Y-0.09713
G01 X0.09409 Y-0.09329
G01 X0.09925 Y-0.08775
G01 X0.10235 Y-0.08415
G01 X0.10719 Y-0.07784
G01 X0.11016 Y-0.07363
G01 X0.11436 Y-0.06687
G01 X0.11671 Y-0.06274
G01 X0.12024 Y-0.05560
G01 X0.12248 Y-0.05053
G01 X0.12527 Y-0.04308
G01 X0.12676 Y-0.03857
G01 X0.12892 Y-0.03049
G01 X0.12995 Y-0.02586
G01 X0.13124 Y-0.01800
G01 X0.13187 Y-0.01289
G01 X0.13238 Y-0.00494
G01 X0.13250 Y0.00000
G04 P0 ( dwell for no time -- G64 should not smooth over this point )
G00 Z0.08000 ( retract )

G00 X-0.13250 Y0.13250 ( rapid move to begin. )
G01 F3.00000
( Mill infeed pass 1/1 )
G01 Z-0.00800
G04 P0 ( dwell for no time -- G64 should not smooth over this point )
G01 F6.00000
G01 X-0.13250 Y0.13250
G01 X-0.13250 Y9.86750
G01 X-9.86750 Y9.86750
G01 X-9.86750 Y0.13250
G01 X-0.13250 Y0.13250
G04 P0 ( dwell for no time -- G64 should not smooth over this point )
G00 Z0.08000 ( retract )

G00 X-2.17522 Y4.31057 ( rapid move to begin. )
G01 F3.00000
( Mill infeed pass 1/1 )
G01 Z-0.00800
G04 P0 ( dwell for no time -- G64 should not smooth over this point )
G01 F6.00000
G01 X-2.17522 Y4.31057
G01 X-2.17550 Y4.30296
G01 X-2.17637 Y4.29540
G01 X-2.17781 Y4.28793
G01 X-2.17994 Y4.28020
G01 X-2.18252 Y4.27304
G01 X-2.18565 Y4.26610
G01 X-2.18929 Y4.25942
G01 X-2.19366 Y4.25270
G01 X-2.19804 Y4.24698
G01 X-2.20310 Y4.24129
G01 X-2.24158 Y4.20282
G01 X-2.24605 Y4.19881
G01 X-2.25108 Y4.19484
G01 X-2.25635 Y4.19119
G01 X-2.26185 Y4.18789
G01 X-2.26863 Y4.18443
G01 X-2.27566 Y4.18151
G01 X-2.28289 Y4.17912
G01 X-2.28988 Y4.17738
G01 X-2.29738 Y4.17609
G01 X-2.30496 Y4.17537
G01 X-2.31217 Y4.17523
G01 X-2.31977 Y4.17564
G01 X-2.32772 Y4.17669
G01 X-2.33477 Y4.17819
G01 X-2.34170 Y4.18018
G01 X-2.34884 Y4.18283
G01 X-2.35575 Y4.18601
G01 X-2.36241 Y4.18970
G01 X-2.36876 Y4.19389
G01 X-2.37478 Y4.19855
G01 X-2.38128 Y4.20450
G01 X-3.05731 Y4.88054
G01 X-3.06459 Y4.88433
G01 X-3.07000 Y4.88751
G01 X-3.07690 Y4.89210
G01 X-3.08319 Y4.89689
G01 X-3.08810 Y4.90104
G01 X-3.09417 Y4.90680
G01 X-3.09823 Y4.91110
G01 X-3.10314 Y4.91682
G01 X-3.10627 Y4.92088
G01 X-3.11060 Y4.92705
G01 X-3.11334 Y4.93138
G01 X-3.11630 Y4.93656
G01 X-3.11851 Y4.94074
G01 X-3.12036 Y4.94466
G01 X-3.12290 Y4.95049
G01 X-3.12484 Y4.95565
G01 X-3.12683 Y4.96169
G01 X-3.12812 Y4.96624
G01 X-3.12982 Y4.97358
G01 X-3.13070 Y4.97823
G01 X-3.13212 Y4.99002
G01 X-3.13237 Y4.99474
G01 X-3.13248 Y5.00188
G01 X-3.13230 Y5.00701
G01 X-3.13170 Y5.01452
G01 X-3.13109 Y5.01921
G01 X-3.13001 Y5.02547
G01 X-3.12885 Y5.03087
G01 X-3.12720 Y5.03701
G01 X-3.12451 Y5.04525
G01 X-3.12236 Y5.05081
G01 X-3.12047 Y5.05515
G01 X-3.11713 Y5.06190
G01 X-3.11486 Y5.06605
G01 X-3.10849 Y5.07607
G01 X-3.10568 Y5.07988
G01 X-3.10124 Y5.08547
G01 X-3.09758 Y5.08961
G01 X-3.09205 Y5.09530
G01 X-3.08799 Y5.09903
G01 X-3.08223 Y5.10389
G01 X-3.07814 Y5.10698
G01 X-3.07161 Y5.11148
G01 X-3.06724 Y5.11415
G01 X-3.06059 Y5.11783
G01 X-3.05589 Y5.12012
G01 X-3.04890 Y5.12315
G01 X-3.04438 Y5.12482
G01 X-3.03683 Y5.12728
G01 X-3.03187 Y5.12858
G01 X-3.02413 Y5.13028
G01 X-3.01946 Y5.13104
G01 X-3.01151 Y5.13200
G01 X-3.00629 Y5.13233
G01 X-2.99867 Y5.13249
G01 X-2.99106 Y5.13217
G01 X-2.98626 Y5.13178
G01 X-2.97870 Y5.13076
G01 X-2.97396 Y5.12991
G01 X-2.96615 Y5.12808
G01 X-2.96112 Y5.12667
G01 X-2.95431 Y5.12436
G01 X-2.94956 Y5.12252
G01 X-2.94265 Y5.11944
G01 X-2.93799 Y5.11708
G01 X-2.93174 Y5.11356
G01 X-2.92707 Y5.11061
G01 X-2.92090 Y5.10629
G01 X-2.91594 Y5.10240
G01 X-2.91049 Y5.09769
G01 X-2.90587 Y5.09322
G01 X-2.90065 Y5.08767
G01 X-2.89505 Y5.08085
G01 X-2.89147 Y5.07600
G01 X-2.88690 Y5.06903
G01 X-2.88301 Y5.06216
G01 X-2.88054 Y5.05732
G01 X-2.20227 Y4.37898
G01 X-2.19907 Y4.37539
G01 X-2.19629 Y4.37197
G01 X-2.19343 Y4.36811
G01 X-2.19076 Y4.36411
G01 X-2.18848 Y4.36034
G01 X-2.18619 Y4.35611
G01 X-2.18410 Y4.35178
G01 X-2.18223 Y4.34735
G01 X-2.18057 Y4.34284
G01 X-2.17912 Y4.33825
G01 X-2.17800 Y4.33399
G01 X-2.17698 Y4.32929
G01 X-2.17620 Y4.32455
G01 X-2.17564 Y4.31977
G01 X-2.17531 Y4.31498
G01 X-2.17522 Y4.31057
G04 P0 ( dwell for no time -- G64 should not smooth over this point )
G00 Z0.08000 ( retract )

G00 X-1.65001 Y5.00156 ( rapid move to begin. )
G01 F3.00000
( Mill infeed pass 1/1 )
G01 Z-0.00800
G04 P0 ( dwell for no time -- G64 should not smooth over this point )
G01 F6.00000
G01 X-1.65001 Y5.00156
G01 X-1.65056 Y5.01974
G01 X-1.65197 Y5.03705
G01 X-1.65429 Y5.05463
G01 X-1.65724 Y5.07081
G01 X-1.66104 Y5.08721
G01 X-1.66588 Y5.10422
G01 X-1.67129 Y5.12021
G01 X-1.67764 Y5.13633
G01 X-1.68480 Y5.15215
G01 X-1.69271 Y5.16756
G01 X-1.70115 Y5.18218
G01 X-1.71051 Y5.19671
G01 X-1.72033 Y5.21044
G01 X-1.73109 Y5.22402
G01 X-1.74253 Y5.23708
G01 X-1.75428 Y5.24924
G01 X-1.76689 Y5.26107
G01 X-1.78009 Y5.27229
G01 X-1.79387 Y5.28286
G01 X-1.80815 Y5.29273
G01 X-1.82287 Y5.30187
G01 X-1.83759 Y5.31004
G01 X-1.85270 Y5.31749
G01 X-1.86859 Y5.32439
G01 X-1.88480 Y5.33050
G01 X-1.90087 Y5.33567
G01 X-1.91756 Y5.34015
G01 X-1.93402 Y5.34372
G01 X-1.95063 Y5.34650
G01 X-1.96784 Y5.34852
G01 X-1.98516 Y5.34969
G01 X-2.00248 Y5.34999
G01 X-2.01936 Y5.34946
G01 X-2.03658 Y5.34808
G01 X-2.05373 Y5.34585
G01 X-2.07037 Y5.34285
G01 X-2.08725 Y5.33895
G01 X-2.10350 Y5.33435
G01 X-2.11991 Y5.32882
G01 X-2.13645 Y5.32231
G01 X-2.15190 Y5.31532
G01 X-2.16735 Y5.30740
G01 X-2.18235 Y5.29874
G01 X-2.19654 Y5.28960
G01 X-2.21063 Y5.27952
G01 X-2.22420 Y5.26876
G01 X-2.23690 Y5.25763
G01 X-2.24936 Y5.24560
G01 X-2.26121 Y5.23296
G01 X-2.27214 Y5.22009
G01 X-2.28267 Y5.20639
G01 X-2.29227 Y5.19255
G01 X-2.30120 Y5.17827
G01 X-2.30965 Y5.16315
G01 X-2.31736 Y5.14759
G01 X-2.32429 Y5.13167
G01 X-2.33040 Y5.11547
G01 X-2.33559 Y5.09940
G01 X-2.34009 Y5.08267
G01 X-2.34378 Y5.06570
G01 X-2.34661 Y5.04857
G01 X-2.34859 Y5.03137
G01 X-2.34970 Y5.01452
G01 X-2.34999 Y4.99761
G01 X-2.34942 Y4.97985
G01 X-2.34803 Y4.96295
G01 X-2.34571 Y4.94537
G01 X-2.34276 Y4.92919
G01 X-2.33896 Y4.91279
G01 X-2.33412 Y4.89578
G01 X-2.32871 Y4.87979
G01 X-2.32236 Y4.86367
G01 X-2.31520 Y4.84785
G01 X-2.30729 Y4.83244
G01 X-2.29885 Y4.81782
G01 X-2.28949 Y4.80329
G01 X-2.27967 Y4.78956
G01 X-2.26891 Y4.77598
G01 X-2.25747 Y4.76292
G01 X-2.24572 Y4.75075
G01 X-2.23311 Y4.73893
G01 X-2.21991 Y4.72771
G01 X-2.20613 Y4.71714
G01 X-2.19185 Y4.70727
G01 X-2.17713 Y4.69813
G01 X-2.16241 Y4.68996
G01 X-2.14730 Y4.68251
G01 X-2.13141 Y4.67561
G01 X-2.11520 Y4.66950
G01 X-2.09913 Y4.66433
G01 X-2.08244 Y4.65985
G01 X-2.06598 Y4.65627
G01 X-2.04937 Y4.65350
G01 X-2.03216 Y4.65148
G01 X-2.01484 Y4.65031
G01 X-1.99752 Y4.65001
G01 X-1.98064 Y4.65053
G01 X-1.96342 Y4.65192
G01 X-1.94627 Y4.65415
G01 X-1.92962 Y4.65715
G01 X-1.91275 Y4.66105
G01 X-1.89650 Y4.66565
G01 X-1.88009 Y4.67118
G01 X-1.86355 Y4.67769
G01 X-1.84810 Y4.68468
G01 X-1.83265 Y4.69260
G01 X-1.81765 Y4.70125
G01 X-1.80346 Y4.71040
G01 X-1.78937 Y4.72048
G01 X-1.77579 Y4.73124
G01 X-1.76310 Y4.74236
G01 X-1.75064 Y4.75440
G01 X-1.73879 Y4.76704
G01 X-1.72786 Y4.77991
G01 X-1.71733 Y4.79361
G01 X-1.70773 Y4.80745
G01 X-1.69880 Y4.82173
G01 X-1.69035 Y4.83685
G01 X-1.68264 Y4.85241
G01 X-1.67571 Y4.86833
G01 X-1.66959 Y4.88453
G01 X-1.66441 Y4.90060
G01 X-1.65990 Y4.91733
G01 X-1.65622 Y4.93429
G01 X-1.65339 Y4.95143
G01 X-1.65145 Y4.96823
G01 X-1.65032 Y4.98507
G01 X-1.65001 Y5.00156
G04 P0 ( dwell for no time -- G64 should not smooth over this point )
G00 Z0.08000 ( retract )

G00 X-3.77626 Y4.91161 ( rapid move to begin. )
G01 F3.00000
( Mill infeed pass 1/1 )
G01 Z-0.00800
G04 P0 ( dwell for no time -- G64 should not smooth over this point )
G01 F6.00000
G01 X-3.77626 Y4.91161
G01 X-3.77652 Y4.90440
G01 X-3.77735 Y4.89684
G01 X-3.77876 Y4.88936
G01 X-3.78062 Y4.88239
G01 X-3.78297 Y4.87558
G01 X-3.78581 Y4.86895
G01 X-3.78912 Y4.86254
G01 X-3.79311 Y4.85605
G01 X-3.79588 Y4.85212
G01 X-3.79883 Y4.84833
G01 X-3.80196 Y4.84468
G01 X-3.80526 Y4.84118
G01 X-3.84262 Y4.80387
G01 X-3.84833 Y4.79883
G01 X-3.85473 Y4.79401
G01 X-3.86046 Y4.79033
G01 X-3.86643 Y4.78705
G01 X-3.87223 Y4.78433
G01 X-3.87858 Y4.78187
G01 X-3.88509 Y4.77984
G01 X-3.89171 Y4.77826
G01 X-3.89803 Y4.77718
G01 X-3.90480 Y4.77649
G01 X-3.91161 Y4.77626
G01 X-3.91802 Y4.77646
G01 X-3.92480 Y4.77713
G01 X-3.93151 Y4.77826
G01 X-3.93814 Y4.77984
G01 X-3.94464 Y4.78187
G01 X-3.95062 Y4.78418
G01 X-3.95680 Y4.78705
G01 X-3.96311 Y4.79053
G01 X-3.96882 Y4.79424
G01 X-3.97427 Y4.79832
G01 X-3.97973 Y4.80304
G01 X-4.05732 Y4.88054
G01 X-4.06693 Y4.88565
G01 X-4.07621 Y4.89161
G01 X-4.08466 Y4.89807
G01 X-4.09284 Y4.90547
G01 X-4.09586 Y4.90855
G01 X-4.10064 Y4.91382
G01 X-4.10362 Y4.91746
G01 X-4.10769 Y4.92281
G01 X-4.11013 Y4.92636
G01 X-4.11414 Y4.93271
G01 X-4.11946 Y4.94268
G01 X-4.19530 Y5.01853
G01 X-4.19989 Y5.02356
G01 X-4.20412 Y5.02890
G01 X-4.20799 Y5.03451
G01 X-4.21146 Y5.04037
G01 X-4.21452 Y5.04645
G01 X-4.21731 Y5.05310
G01 X-4.21950 Y5.05955
G01 X-4.22124 Y5.06614
G01 X-4.22253 Y5.07282
G01 X-4.22339 Y5.07998
G01 X-4.22373 Y5.08678
G01 X-4.22361 Y5.09359
G01 X-4.22297 Y5.10078
G01 X-4.22190 Y5.10750
G01 X-4.22037 Y5.11414
G01 X-4.21826 Y5.12104
G01 X-4.21582 Y5.12739
G01 X-4.21295 Y5.13357
G01 X-4.20987 Y5.13919
G01 X-4.20644 Y5.14461
G01 X-4.20292 Y5.14948
G01 X-4.19857 Y5.15472
G01 X-4.19474 Y5.15881
G01 X-4.15853 Y5.19502
G01 X-4.15229 Y5.20066
G01 X-4.14560 Y5.20576
G01 X-4.13850 Y5.21028
G01 X-4.13069 Y5.21436
G01 X-4.12554 Y5.21658
G01 X-4.12028 Y5.21852
G01 X-4.11491 Y5.22016
G01 X-4.10907 Y5.22158
G01 X-4.10356 Y5.22259
G01 X-4.09799 Y5.22328
G01 X-4.09239 Y5.22366
G01 X-4.08678 Y5.22373
G01 X-4.08118 Y5.22348
G01 X-4.07560 Y5.22292
G01 X-4.07006 Y5.22205
G01 X-4.06457 Y5.22087
G01 X-4.05917 Y5.21938
G01 X-4.05385 Y5.21759
G01 X-4.04828 Y5.21535
G01 X-4.04320 Y5.21295
G01 X-4.03689 Y5.20946
G01 X-4.03118 Y5.20576
G01 X-4.02573 Y5.20168
G01 X-4.02027 Y5.19696
G01 X-3.94268 Y5.11946
G01 X-3.93307 Y5.11435
G01 X-3.92379 Y5.10839
G01 X-3.91534 Y5.10193
G01 X-3.90715 Y5.09453
G01 X-3.90387 Y5.09116
G01 X-3.89910 Y5.08588
G01 X-3.89231 Y5.07719
G01 X-3.88987 Y5.07364
G01 X-3.88586 Y5.06729
G01 X-3.88054 Y5.05731
G01 X-3.80554 Y4.98232
G01 X-3.80143 Y4.97795
G01 X-3.79588 Y4.97110
G01 X-3.79311 Y4.96717
G01 X-3.79053 Y4.96311
G01 X-3.78816 Y4.95893
G01 X-3.78616 Y4.95500
G01 X-3.78269 Y4.94690
G01 X-3.77995 Y4.93852
G01 X-3.77885 Y4.93425
G01 X-3.77788 Y4.92955
G01 X-3.77668 Y4.92082
G01 X-3.77637 Y4.91642
G01 X-3.77626 Y4.91161
G04 P0 ( dwell for no time -- G64 should not smooth over this point )
G00 Z0.08000 ( retract )

G00 X-5.86931 Y4.97922 ( rapid move to begin. )
G01 F3.00000
( Mill infeed pass 1/1 )
G01 Z-0.00800
G04 P0 ( dwell for no time -- G64 should not smooth over this point )
G01 F6.00000
G01 X-5.86931 Y4.97922
G01 X-5.86899 Y4.98055
G01 X-5.86792 Y4.98969
G01 X-5.86760 Y4.99487
G01 X-5.86755 Y4.99966
G01 X-5.86774 Y5.00726
G01 X-5.86808 Y5.01244
G01 X-5.86876 Y5.01799
G01 X-5.86996 Y5.02509
G01 X-5.87091 Y5.02985
G01 X-5.87209 Y5.03456
G01 X-5.87592 Y5.04646
G01 X-5.87901 Y5.05394
G01 X-5.88419 Y5.06435
G01 X-5.88873 Y5.07187
G01 X-5.89304 Y5.07812
G01 X-5.89615 Y5.08229
G01 X-5.90134 Y5.08836
G01 X-5.90655 Y5.09389
G01 X-5.91028 Y5.09750
G01 X-5.91419 Y5.10092
G01 X-5.92013 Y5.10566
G01 X-5.92695 Y5.11054
G01 X-5.93102 Y5.11307
G01 X-5.93796 Y5.11705
G01 X-5.94187 Y5.11906
G01 X-5.94609 Y5.12102
G01 X-6.12068 Y5.49542
G01 X-6.12319 Y5.50043
G01 X-6.12598 Y5.50530
G01 X-6.13090 Y5.51261
G01 X-6.13645 Y5.51945
G01 X-6.14258 Y5.52579
G01 X-6.14924 Y5.53156
G01 X-6.15605 Y5.53650
G01 X-6.16012 Y5.53906
G01 X-6.16395 Y5.54123
G01 X-6.17189 Y5.54506
G01 X-6.18014 Y5.54817
G01 X-6.18862 Y5.55055
G01 X-6.19729 Y5.55216
G01 X-6.20566 Y5.55299
G01 X-6.21006 Y5.55315
G01 X-6.21487 Y5.55309
G01 X-6.22365 Y5.55239
G01 X-6.23234 Y5.55092
G01 X-6.24087 Y5.54868
G01 X-6.24916 Y5.54571
G01 X-6.25357 Y5.54378
G01 X-6.70709 Y5.33230
G01 X-6.71174 Y5.32996
G01 X-6.71626 Y5.32738
G01 X-6.72032 Y5.32479
G01 X-6.72456 Y5.32177
G01 X-6.72833 Y5.31879
G01 X-6.73225 Y5.31536
G01 X-6.73599 Y5.31173
G01 X-6.73926 Y5.30821
G01 X-6.74262 Y5.30423
G01 X-6.74576 Y5.30007
G01 X-6.74868 Y5.29576
G01 X-6.75118 Y5.29165
G01 X-6.75365 Y5.28707
G01 X-6.75572 Y5.28273
G01 X-6.75773 Y5.27792
G01 X-6.75948 Y5.27302
G01 X-6.76185 Y5.26453
G01 X-6.76283 Y5.25982
G01 X-6.76353 Y5.25547
G01 X-6.76434 Y5.24669
G01 X-6.76438 Y5.23788
G01 X-6.76365 Y5.22910
G01 X-6.76214 Y5.22042
G01 X-6.75987 Y5.21190
G01 X-6.75687 Y5.20362
G01 X-6.54256 Y4.74390
G01 X-6.53971 Y4.73861
G01 X-6.53655 Y4.73350
G01 X-6.53308 Y4.72859
G01 X-6.52933 Y4.72390
G01 X-6.52530 Y4.71944
G01 X-6.52101 Y4.71523
G01 X-6.51616 Y4.71104
G01 X-6.51138 Y4.70739
G01 X-6.50639 Y4.70404
G01 X-6.50121 Y4.70100
G01 X-6.49586 Y4.69827
G01 X-6.49035 Y4.69587
G01 X-6.48471 Y4.69380
G01 X-6.47895 Y4.69207
G01 X-6.47310 Y4.69070
G01 X-6.46718 Y4.68968
G01 X-6.46080 Y4.68898
G01 X-6.45360 Y4.68869
G01 X-6.44719 Y4.68887
G01 X-6.44041 Y4.68951
G01 X-6.43369 Y4.69060
G01 X-6.42706 Y4.69216
G01 X-6.42055 Y4.69416
G01 X-6.41419 Y4.69660
G01 X-6.03650 Y4.87264
G01 X-6.02981 Y4.87091
G01 X-6.02117 Y4.86927
G01 X-6.01564 Y4.86843
G01 X-6.00967 Y4.86787
G01 X-6.00048 Y4.86755
G01 X-5.99449 Y4.86761
G01 X-5.98891 Y4.86800
G01 X-5.97964 Y4.86910
G01 X-5.96857 Y4.87498
G01 X-5.96427 Y4.87747
G01 X-5.95228 Y4.88502
G01 X-5.94824 Y4.88777
G01 X-5.93740 Y4.89578
G01 X-5.93362 Y4.89879
G01 X-5.92374 Y4.90728
G01 X-5.92021 Y4.91054
G01 X-5.91105 Y4.91967
G01 X-5.90778 Y4.92319
G01 X-5.89925 Y4.93305
G01 X-5.89623 Y4.93682
G01 X-5.88823 Y4.94759
G01 X-5.88546 Y4.95162
G01 X-5.87788 Y4.96358
G01 X-5.87538 Y4.96787
G01 X-5.86931 Y4.97922
G01 X-5.42370 Y5.42483
G01 X-5.41838 Y5.42970
G01 X-5.41272 Y5.43417
G01 X-5.40642 Y5.43844
G01 X-5.40016 Y5.44203
G01 X-5.39366 Y5.44516
G01 X-5.38696 Y5.44781
G01 X-5.37969 Y5.45008
G01 X-5.37267 Y5.45171
G01 X-5.36753 Y5.45257
G01 X-5.36236 Y5.45317
G01 X-5.35676 Y5.45350
G01 X-5.35155 Y5.45353
G01 X-5.34635 Y5.45329
G01 X-5.34116 Y5.45278
G01 X-5.33601 Y5.45200
G01 X-5.33091 Y5.45096
G01 X-5.32587 Y5.44965
G01 X-5.32090 Y5.44807
G01 X-5.31603 Y5.44625
G01 X-5.31089 Y5.44400
G01 X-5.30588 Y5.44146
G01 X-5.30137 Y5.43886
G01 X-5.29700 Y5.43603
G01 X-5.29278 Y5.43297
G01 X-5.28782 Y5.42891
G01 X-5.28284 Y5.42426
G01 X-4.99068 Y5.13210
G01 X-4.98485 Y5.13162
G01 X-4.98011 Y5.13100
G01 X-4.97579 Y5.13023
G01 X-4.96795 Y5.12854
G01 X-4.95978 Y5.12623
G01 X-4.94919 Y5.12237
G01 X-4.94438 Y5.12024
G01 X-4.93792 Y5.11700
G01 X-4.93098 Y5.11310
G01 X-4.92074 Y5.10615
G01 X-4.91695 Y5.10324
G01 X-4.91330 Y5.10015
G01 X-4.90741 Y5.09475
G01 X-4.90349 Y5.09078
G01 X-4.90005 Y5.08691
G01 X-4.89423 Y5.07980
G01 X-4.89053 Y5.07461
G01 X-4.88604 Y5.06752
G01 X-4.88326 Y5.06268
G01 X-4.88076 Y5.05770
G01 X-4.87765 Y5.05078
G01 X-4.87545 Y5.04522
G01 X-4.87383 Y5.04030
G01 X-4.87109 Y5.03064
G01 X-4.86948 Y5.02277
G01 X-4.86863 Y5.01723
G01 X-4.86782 Y5.00926
G01 X-4.86753 Y5.00206
G01 X-4.86755 Y4.99646
G01 X-4.86801 Y4.98846
G01 X-4.86895 Y4.98051
G01 X-4.86981 Y4.97538
G01 X-4.87134 Y4.96834
G01 X-4.87280 Y4.96293
G01 X-4.87500 Y4.95606
G01 X-4.87802 Y4.94827
G01 X-4.88028 Y4.94326
G01 X-4.88386 Y4.93623
G01 X-4.88788 Y4.92943
G01 X-4.89088 Y4.92484
G01 X-4.89510 Y4.91907
G01 X-4.89862 Y4.91470
G01 X-4.90367 Y4.90902
G01 X-4.90848 Y4.90421
G01 X-4.91231 Y4.90067
G01 X-4.91752 Y4.89630
G01 X-4.92134 Y4.89339
G01 X-4.92658 Y4.88970
G01 X-4.93063 Y4.88712
G01 X-4.93624 Y4.88385
G01 X-4.94238 Y4.88070
G01 X-4.94637 Y4.87884
G01 X-4.95681 Y4.87474
G01 X-4.96291 Y4.87280
G01 X-4.96716 Y4.87164
G01 X-4.97340 Y4.87021
G01 X-4.97813 Y4.86932
G01 X-4.98486 Y4.86837
G01 X-4.99073 Y4.86785
G01 X-5.49698 Y4.36165
G01 X-5.50302 Y4.35638
G01 X-5.50946 Y4.35161
G01 X-5.51592 Y4.34758
G01 X-5.52302 Y4.34387
G01 X-5.53040 Y4.34075
G01 X-5.53800 Y4.33822
G01 X-5.54578 Y4.33631
G01 X-5.55369 Y4.33504
G01 X-5.55888 Y4.33455
G01 X-5.56448 Y4.33432
G01 X-5.56969 Y4.33439
G01 X-5.57489 Y4.33474
G01 X-5.58006 Y4.33535
G01 X-5.58519 Y4.33624
G01 X-5.59027 Y4.33738
G01 X-5.59529 Y4.33880
G01 X-5.60060 Y4.34061
G01 X-5.60543 Y4.34255
G01 X-5.61015 Y4.34474
G01 X-5.61476 Y4.34718
G01 X-5.61923 Y4.34986
G01 X-5.62355 Y4.35276
G01 X-5.62772 Y4.35588
G01 X-5.63172 Y4.35922
G01 X-5.63640 Y4.36360
G01 X-5.98995 Y4.71716
G01 X-5.99380 Y4.72123
G01 X-5.99742 Y4.72552
G01 X-6.00056 Y4.72967
G01 X-6.00326 Y4.73365
G01 X-6.00577 Y4.73775
G01 X-6.00827 Y4.74233
G01 X-6.01052 Y4.74702
G01 X-6.01252 Y4.75183
G01 X-6.01414 Y4.75636
G01 X-6.01555 Y4.76096
G01 X-6.01673 Y4.76562
G01 X-6.01776 Y4.77072
G01 X-6.01847 Y4.77548
G01 X-6.01895 Y4.78026
G01 X-6.01920 Y4.78506
G01 X-6.01921 Y4.79027
G01 X-6.01895 Y4.79547
G01 X-6.01847 Y4.80026
G01 X-6.01776 Y4.80501
G01 X-6.01673 Y4.81012
G01 X-6.01555 Y4.81478
G01 X-6.01414 Y4.81938
G01 X-6.01252 Y4.82390
G01 X-6.01068 Y4.82835
G01 X-6.00845 Y4.83305
G01 X-6.00617 Y4.83729
G01 X-6.00391 Y4.84107
G01 X-6.00126 Y4.84508
G01 X-5.99866 Y4.84864
G01 X-5.99564 Y4.85238
G01 X-5.99107 Y4.85744
G01 X-5.97918 Y4.86935
G04 P0 ( dwell for no time -- G64 should not smooth over this point )
G00 Z0.08000 ( retract )

G00 X-6.73930 Y4.80832 ( rapid move to begin. )
G01 F3.00000
( Mill infeed pass 1/1 )
G01 Z-0.00800
G04 P0 ( dwell for no time -- G64 should not smooth over this point )
G01 F6.00000
G01 X-6.73930 Y4.80832
G01 X-6.73964 Y4.81672
G01 X-6.74075 Y4.82546
G01 X-6.81608 Y5.25268
G01 X-6.81714 Y5.25778
G01 X-6.81824 Y5.26204
G01 X-6.82018 Y5.26815
G01 X-6.82234 Y5.27375
G01 X-6.82502 Y5.27957
G01 X-6.82806 Y5.28521
G01 X-6.83123 Y5.29031
G01 X-6.83495 Y5.29553
G01 X-6.83899 Y5.30050
G01 X-6.84335 Y5.30520
G01 X-6.84799 Y5.30961
G01 X-6.85260 Y5.31346
G01 X-6.85775 Y5.31727
G01 X-6.86314 Y5.32073
G01 X-6.86839 Y5.32366
G01 X-6.87416 Y5.32643
G01 X-6.88010 Y5.32882
G01 X-6.88619 Y5.33083
G01 X-6.89200 Y5.33236
G01 X-6.89749 Y5.33347
G01 X-6.90344 Y5.33431
G01 X-6.90902 Y5.33477
G01 X-6.91503 Y5.33492
G01 X-6.92103 Y5.33471
G01 X-6.92661 Y5.33419
G01 X-6.93255 Y5.33328
G01 X-6.93842 Y5.33202
G01 X-6.94421 Y5.33041
G01 X-6.94951 Y5.32859
G01 X-6.95507 Y5.32632
G01 X-6.96048 Y5.32372
G01 X-6.96539 Y5.32100
G01 X-6.97046 Y5.31779
G01 X-6.97502 Y5.31453
G01 X-6.97877 Y5.31153
G01 X-7.31290 Y5.03109
G01 X-7.31782 Y5.02638
G01 X-7.32266 Y5.02104
G01 X-7.32686 Y5.01570
G01 X-7.33091 Y5.00973
G01 X-7.33433 Y5.00385
G01 X-7.33750 Y4.99738
G01 X-7.34007 Y4.99107
G01 X-7.34220 Y4.98461
G01 X-7.34421 Y4.97644
G01 X-7.34553 Y4.96814
G01 X-7.34615 Y4.95976
G01 X-7.34606 Y4.95135
G01 X-7.34532 Y4.94338
G01 X-7.34387 Y4.93510
G01 X-7.34171 Y4.92697
G01 X-7.33889 Y4.91905
G01 X-7.33559 Y4.91176
G01 X-7.33130 Y4.90407
G01 X-7.32682 Y4.89743
G01 X-7.32157 Y4.89086
G01 X-7.31578 Y4.88476
G01 X-7.30950 Y4.87917
G01 X-7.30278 Y4.87413
G01 X-7.29600 Y4.86987
G01 X-7.28854 Y4.86599
G01 X-7.28078 Y4.86276
G01 X-6.87350 Y4.71452
G01 X-6.86742 Y4.71252
G01 X-6.86200 Y4.71110
G01 X-6.85611 Y4.70991
G01 X-6.85056 Y4.70912
G01 X-6.84457 Y4.70863
G01 X-6.83857 Y4.70849
G01 X-6.83297 Y4.70869
G01 X-6.82738 Y4.70920
G01 X-6.82144 Y4.71010
G01 X-6.81557 Y4.71134
G01 X-6.81016 Y4.71283
G01 X-6.80447 Y4.71475
G01 X-6.79928 Y4.71685
G01 X-6.79420 Y4.71924
G01 X-6.78893 Y4.72210
G01 X-6.78417 Y4.72506
G01 X-6.77926 Y4.72852
G01 X-6.77456 Y4.73227
G01 X-6.77040 Y4.73602
G01 X-6.76644 Y4.73999
G01 X-6.76246 Y4.74449
G01 X-6.75900 Y4.74890
G01 X-6.75578 Y4.75349
G01 X-6.75263 Y4.75860
G01 X-6.74997 Y4.76354
G01 X-6.74760 Y4.76861
G01 X-6.74537 Y4.77419
G01 X-6.74359 Y4.77951
G01 X-6.74203 Y4.78531
G01 X-6.74081 Y4.79119
G01 X-6.74000 Y4.79673
G01 X-6.73947 Y4.80272
G01 X-6.73930 Y4.80832
G04 P0 ( dwell for no time -- G64 should not smooth over this point )
G00 Z0.08000 ( retract )

G00 X-7.65000 Y4.99980 ( rapid move to begin. )
G01 F3.00000
( Mill infeed pass 1/1 )
G01 Z-0.00800
G04 P0 ( dwell for no time -- G64 should not smooth over this point )
G01 F6.00000
G01 X-7.65000 Y4.99980
G01 X-7.65017 Y5.00581
G01 X-7.65070 Y5.01181
G01 X-7.65159 Y5.01776
G01 X-7.65274 Y5.02326
G01 X-7.65432 Y5.02906
G01 X-7.65638 Y5.03514
G01 X-7.65866 Y5.04071
G01 X-7.66127 Y5.04613
G01 X-7.78840 Y5.26651
G01 X-7.79090 Y5.27062
G01 X-7.79361 Y5.27460
G01 X-7.79725 Y5.27939
G01 X-7.80117 Y5.28395
G01 X-7.80536 Y5.28827
G01 X-7.80980 Y5.29233
G01 X-7.81448 Y5.29612
G01 X-7.81938 Y5.29961
G01 X-7.82413 Y5.30260
G01 X-7.82940 Y5.30551
G01 X-7.83447 Y5.30793
G01 X-7.84004 Y5.31020
G01 X-7.84574 Y5.31213
G01 X-7.85155 Y5.31372
G01 X-7.85744 Y5.31495
G01 X-7.86339 Y5.31583
G01 X-7.86899 Y5.31632
G01 X-7.87500 Y5.31651
G01 X-8.12500 Y5.31651
G01 X-8.13061 Y5.31635
G01 X-8.13701 Y5.31578
G01 X-8.14375 Y5.31473
G01 X-8.15040 Y5.31323
G01 X-8.15655 Y5.31140
G01 X-8.16294 Y5.30903
G01 X-8.16880 Y5.30640
G01 X-8.17483 Y5.30321
G01 X-8.18062 Y5.29961
G01 X-8.18520 Y5.29636
G01 X-8.18928 Y5.29311
G01 X-8.19318 Y5.28965
G01 X-8.19691 Y5.28600
G01 X-8.20043 Y5.28216
G01 X-8.20375 Y5.27813
G01 X-8.20663 Y5.27427
G01 X-8.20974 Y5.26960
G01 X-8.33720 Y5.04895
G01 X-8.34016 Y5.04326
G01 X-8.34275 Y5.03739
G01 X-8.34483 Y5.03174
G01 X-8.34667 Y5.02559
G01 X-8.34811 Y5.01934
G01 X-8.34915 Y5.01300
G01 X-8.34978 Y5.00662
G01 X-8.35000 Y5.00020
G01 X-8.34983 Y4.99418
G01 X-8.34925 Y4.98779
G01 X-8.34834 Y4.98184
G01 X-8.34707 Y4.97596
G01 X-8.34545 Y4.97017
G01 X-8.34348 Y4.96448
G01 X-8.34117 Y4.95892
G01 X-8.33854 Y4.95351
G01 X-8.21140 Y4.73315
G01 X-8.20663 Y4.72572
G01 X-8.20300 Y4.72092
G01 X-8.19910 Y4.71634
G01 X-8.19493 Y4.71201
G01 X-8.19050 Y4.70793
G01 X-8.18584 Y4.70413
G01 X-8.18128 Y4.70084
G01 X-8.17621 Y4.69760
G01 X-8.17095 Y4.69468
G01 X-8.16553 Y4.69207
G01 X-8.15995 Y4.68980
G01 X-8.15426 Y4.68787
G01 X-8.14845 Y4.68628
G01 X-8.14256 Y4.68505
G01 X-8.13661 Y4.68417
G01 X-8.13101 Y4.68367
G01 X-8.12500 Y4.68349
G01 X-7.87500 Y4.68349
G01 X-7.86939 Y4.68365
G01 X-7.86299 Y4.68422
G01 X-7.85625 Y4.68527
G01 X-7.84960 Y4.68677
G01 X-7.84345 Y4.68860
G01 X-7.83706 Y4.69097
G01 X-7.83120 Y4.69360
G01 X-7.82517 Y4.69679
G01 X-7.81938 Y4.70039
G01 X-7.81512 Y4.70340
G01 X-7.81103 Y4.70663
G01 X-7.80711 Y4.71007
G01 X-7.80309 Y4.71400
G01 X-7.79957 Y4.71784
G01 X-7.79625 Y4.72186
G01 X-7.79314 Y4.72605
G01 X-7.79026 Y4.73040
G01 X-7.66280 Y4.95105
G01 X-7.65984 Y4.95674
G01 X-7.65725 Y4.96261
G01 X-7.65517 Y4.96826
G01 X-7.65333 Y4.97441
G01 X-7.65189 Y4.98066
G01 X-7.65085 Y4.98700
G01 X-7.65022 Y4.99338
G01 X-7.65000 Y4.99980
G04 P0 ( dwell for no time -- G64 should not smooth over this point )
G00 Z0.08000 ( retract )

G00 X-8.40000 Y4.99949 ( rapid move to begin. )
G01 F3.00000
( Mill infeed pass 1/1 )
G01 Z-0.00800
G04 P0 ( dwell for no time -- G64 should not smooth over this point )
G01 F6.00000
G01 X-8.40000 Y4.99949
G01 X-8.40016 Y5.01391
G01 X-8.40069 Y5.02876
G01 X-8.40159 Y5.04362
G01 X-8.40285 Y5.05845
G01 X-8.40449 Y5.07324
G01 X-8.40648 Y5.08797
G01 X-8.40877 Y5.10222
G01 X-8.41149 Y5.11684
G01 X-8.41456 Y5.13138
G01 X-8.41789 Y5.14543
G01 X-8.42167 Y5.15980
G01 X-8.42581 Y5.17410
G01 X-8.43030 Y5.18826
G01 X-8.43499 Y5.20190
G01 X-8.44000 Y5.21542
G01 X-8.44551 Y5.22921
G01 X-8.45118 Y5.24249
G01 X-8.45736 Y5.25600
G01 X-8.46387 Y5.26938
G01 X-8.47072 Y5.28260
G01 X-8.47788 Y5.29562
G01 X-8.48514 Y5.30810
G01 X-8.49292 Y5.32074
G01 X-8.50079 Y5.33285
G01 X-8.50919 Y5.34511
G01 X-8.51788 Y5.35716
G01 X-8.52687 Y5.36898
G01 X-8.53590 Y5.38027
G01 X-8.54546 Y5.39165
G01 X-8.55501 Y5.40248
G01 X-8.56511 Y5.41336
G01 X-8.57518 Y5.42371
G01 X-8.58579 Y5.43408
G01 X-8.59639 Y5.44396
G01 X-8.60934 Y5.45543
G01 X-8.61879 Y5.46337
G01 X-8.63089 Y5.47303
G01 X-8.64231 Y5.48173
G01 X-8.65434 Y5.49043
G01 X-8.66624 Y5.49860
G01 X-8.67869 Y5.50672
G01 X-8.69136 Y5.51453
G01 X-8.70420 Y5.52201
G01 X-8.71684 Y5.52898
G01 X-8.73001 Y5.53582
G01 X-8.74299 Y5.54217
G01 X-8.75650 Y5.54837
G01 X-8.77015 Y5.55423
G01 X-8.78356 Y5.55960
G01 X-8.79748 Y5.56479
G01 X-8.81153 Y5.56963
G01 X-8.82530 Y5.57400
G01 X-8.83955 Y5.57815
G01 X-8.85351 Y5.58184
G01 X-8.86795 Y5.58529
G01 X-8.88207 Y5.58830
G01 X-8.89666 Y5.59103
G01 X-8.91091 Y5.59335
G01 X-8.92563 Y5.59537
G01 X-8.94001 Y5.59699
G01 X-8.95525 Y5.59833
G01 X-8.97008 Y5.59925
G01 X-8.98451 Y5.59980
G01 X-8.99937 Y5.60000
G01 X-9.01425 Y5.59983
G01 X-9.02913 Y5.59929
G01 X-9.04396 Y5.59839
G01 X-9.05833 Y5.59716
G01 X-9.07266 Y5.59558
G01 X-9.08739 Y5.59360
G01 X-9.10209 Y5.59125
G01 X-9.11672 Y5.58854
G01 X-9.13126 Y5.58547
G01 X-9.14531 Y5.58214
G01 X-9.15968 Y5.57836
G01 X-9.17358 Y5.57434
G01 X-9.18815 Y5.56974
G01 X-9.20181 Y5.56504
G01 X-9.21574 Y5.55987
G01 X-9.22954 Y5.55436
G01 X-9.24281 Y5.54867
G01 X-9.25631 Y5.54250
G01 X-9.26929 Y5.53617
G01 X-9.28249 Y5.52934
G01 X-9.29551 Y5.52218
G01 X-9.30800 Y5.51492
G01 X-9.32065 Y5.50713
G01 X-9.33313 Y5.49902
G01 X-9.34539 Y5.49062
G01 X-9.35742 Y5.48192
G01 X-9.36891 Y5.47318
G01 X-9.38018 Y5.46418
G01 X-9.39123 Y5.45491
G01 X-9.40236 Y5.44509
G01 X-9.41295 Y5.43528
G01 X-9.42359 Y5.42493
G01 X-9.43370 Y5.41462
G01 X-9.44387 Y5.40371
G01 X-9.45542 Y5.39066
G01 X-9.46364 Y5.38088
G01 X-9.47324 Y5.36884
G01 X-9.48194 Y5.35740
G01 X-9.49063 Y5.34537
G01 X-9.49879 Y5.33348
G01 X-9.50666 Y5.32139
G01 X-9.51447 Y5.30875
G01 X-9.52196 Y5.29591
G01 X-9.52893 Y5.28326
G01 X-9.53578 Y5.27007
G01 X-9.54231 Y5.25670
G01 X-9.54850 Y5.24319
G01 X-9.55420 Y5.22992
G01 X-9.55972 Y5.21614
G01 X-9.56475 Y5.20263
G01 X-9.56946 Y5.18900
G01 X-9.57396 Y5.17483
G01 X-9.57812 Y5.16055
G01 X-9.58193 Y5.14616
G01 X-9.58537 Y5.13170
G01 X-9.58837 Y5.11758
G01 X-9.59109 Y5.10299
G01 X-9.59340 Y5.08873
G01 X-9.59541 Y5.07403
G01 X-9.59702 Y5.05969
G01 X-9.59829 Y5.04533
G01 X-9.59922 Y5.03050
G01 X-9.59980 Y5.01563
G01 X-9.60000 Y5.00075
G01 X-9.59983 Y4.98587
G01 X-9.59930 Y4.97099
G01 X-9.59840 Y4.95616
G01 X-9.59717 Y4.94177
G01 X-9.59554 Y4.92702
G01 X-9.59361 Y4.91271
G01 X-9.59127 Y4.89803
G01 X-9.58856 Y4.88340
G01 X-9.58549 Y4.86884
G01 X-9.58206 Y4.85436
G01 X-9.57827 Y4.83999
G01 X-9.57426 Y4.82613
G01 X-9.56991 Y4.81238
G01 X-9.56509 Y4.79833
G01 X-9.55992 Y4.78439
G01 X-9.55457 Y4.77098
G01 X-9.54874 Y4.75733
G01 X-9.54274 Y4.74420
G01 X-9.53623 Y4.73083
G01 X-9.52939 Y4.71762
G01 X-9.52224 Y4.70459
G01 X-9.51498 Y4.69211
G01 X-9.50720 Y4.67946
G01 X-9.49934 Y4.66735
G01 X-9.49095 Y4.65508
G01 X-9.48226 Y4.64303
G01 X-9.47353 Y4.63153
G01 X-9.46452 Y4.62023
G01 X-9.45469 Y4.60851
G01 X-9.44485 Y4.59737
G01 X-9.43503 Y4.58678
G01 X-9.42468 Y4.57615
G01 X-9.41435 Y4.56605
G01 X-9.40346 Y4.55590
G01 X-9.39065 Y4.54457
G01 X-9.38089 Y4.53637
G01 X-9.36893 Y4.52683
G01 X-9.35749 Y4.51813
G01 X-9.34547 Y4.50944
G01 X-9.33358 Y4.50127
G01 X-9.32149 Y4.49340
G01 X-9.30885 Y4.48559
G01 X-9.29601 Y4.47810
G01 X-9.28338 Y4.47114
G01 X-9.27059 Y4.46448
G01 X-9.25724 Y4.45794
G01 X-9.24374 Y4.45174
G01 X-9.23048 Y4.44603
G01 X-9.21670 Y4.44050
G01 X-9.20317 Y4.43545
G01 X-9.18913 Y4.43059
G01 X-9.17495 Y4.42607
G01 X-9.16068 Y4.42192
G01 X-9.14674 Y4.41822
G01 X-9.13272 Y4.41486
G01 X-9.11820 Y4.41176
G01 X-9.10401 Y4.40908
G01 X-9.08934 Y4.40669
G01 X-9.07460 Y4.40466
G01 X-9.05981 Y4.40299
G01 X-9.04499 Y4.40169
G01 X-9.03016 Y4.40076
G01 X-9.01573 Y4.40021
G01 X-9.00087 Y4.40000
G01 X-8.98599 Y4.40016
G01 X-8.97111 Y4.40069
G01 X-8.95628 Y4.40159
G01 X-8.94189 Y4.40282
G01 X-8.92714 Y4.40444
G01 X-8.91282 Y4.40637
G01 X-8.89817 Y4.40870
G01 X-8.88397 Y4.41133
G01 X-8.86942 Y4.41438
G01 X-8.85496 Y4.41779
G01 X-8.84099 Y4.42145
G01 X-8.82671 Y4.42557
G01 X-8.81212 Y4.43017
G01 X-8.79883 Y4.43473
G01 X-8.78450 Y4.44003
G01 X-8.77109 Y4.44538
G01 X-8.75744 Y4.45121
G01 X-8.74430 Y4.45721
G01 X-8.73094 Y4.46371
G01 X-8.71772 Y4.47055
G01 X-8.70468 Y4.47771
G01 X-8.69183 Y4.48519
G01 X-8.67953 Y4.49275
G01 X-8.66707 Y4.50084
G01 X-8.65481 Y4.50924
G01 X-8.64311 Y4.51768
G01 X-8.63162 Y4.52640
G01 X-8.62001 Y4.53567
G01 X-8.60862 Y4.54522
G01 X-8.59779 Y4.55477
G01 X-8.58689 Y4.56487
G01 X-8.57622 Y4.57525
G01 X-8.56583 Y4.58588
G01 X-8.55597 Y4.59647
G01 X-8.54432 Y4.60963
G01 X-8.53663 Y4.61879
G01 X-8.52690 Y4.63098
G01 X-8.51820 Y4.64241
G01 X-8.50951 Y4.65444
G01 X-8.50133 Y4.66634
G01 X-8.49322 Y4.67879
G01 X-8.48541 Y4.69146
G01 X-8.47793 Y4.70430
G01 X-8.47115 Y4.71659
G01 X-8.46412 Y4.73012
G01 X-8.45779 Y4.74308
G01 X-8.45177 Y4.75619
G01 X-8.44590 Y4.76984
G01 X-8.44037 Y4.78363
G01 X-8.43533 Y4.79716
G01 X-8.43047 Y4.81121
G01 X-8.42597 Y4.82538
G01 X-8.42194 Y4.83924
G01 X-8.41813 Y4.85361
G01 X-8.41468 Y4.86808
G01 X-8.41159 Y4.88264
G01 X-8.40886 Y4.89725
G01 X-8.40656 Y4.91151
G01 X-8.40455 Y4.92623
G01 X-8.40291 Y4.94100
G01 X-8.40166 Y4.95539
G01 X-8.40074 Y4.97022
G01 X-8.40019 Y4.98507
G01 X-8.40000 Y4.99949
G04 P0 ( dwell for no time -- G64 should not smooth over this point )
G00 Z0.08000 ( retract )

G00 X-8.70002 Y4.99714 ( rapid move to begin. )
G01 F3.00000
( Mill infeed pass 1/1 )
G01 Z-0.00800
G04 P0 ( dwell for no time -- G64 should not smooth over this point )
G01 F6.00000
G01 X-8.70002 Y4.99714
G01 X-8.70004 Y5.00432
G01 X-8.70059 Y5.01868
G01 X-8.70115 Y5.02621
G01 X-8.70275 Y5.04047
G01 X-8.70509 Y5.05500
G01 X-8.70807 Y5.06909
G01 X-8.70981 Y5.07608
G01 X-8.71390 Y5.09022
G01 X-8.71613 Y5.09704
G01 X-8.72112 Y5.11055
G01 X-8.72674 Y5.12380
G01 X-8.72979 Y5.13033
G01 X-8.73300 Y5.13677
G01 X-8.73894 Y5.14776
G01 X-8.85207 Y5.01294
G01 X-8.71725 Y4.89981
G01 X-8.71337 Y4.91145
G01 X-8.70945 Y4.92531
G01 X-8.70621 Y4.93931
G01 X-8.70477 Y4.94672
G01 X-8.70256 Y4.96093
G01 X-8.70103 Y4.97524
G01 X-8.70019 Y4.98959
G01 X-8.70002 Y4.99714
G04 P0 ( dwell for no time -- G64 should not smooth over this point )
G00 Z0.08000 ( retract )

G00 X-8.85224 Y4.73895 ( rapid move to begin. )
G01 F3.00000
( Mill infeed pass 1/1 )
G01 Z-0.00800
G04 P0 ( dwell for no time -- G64 should not smooth over this point )
G01 F6.00000
G01 X-8.85224 Y4.73895
G01 X-8.86303 Y4.73310
G01 X-8.86947 Y4.72989
G01 X-8.88258 Y4.72394
G01 X-8.89594 Y4.71863
G01 X-8.90987 Y4.71387
G01 X-8.91676 Y4.71178
G01 X-8.93066 Y4.70813
G01 X-8.94507 Y4.70508
G01 X-8.95928 Y4.70278
G01 X-8.97392 Y4.70114
G01 X-8.98824 Y4.70024
G01 X-9.00296 Y4.70002
G01 X-9.01735 Y4.70051
G01 X-9.02453 Y4.70101
G01 X-9.03917 Y4.70258
G01 X-9.05337 Y4.70479
G01 X-9.06748 Y4.70769
G01 X-9.08142 Y4.71127
G01 X-9.08833 Y4.71331
G01 X-9.10018 Y4.71725
G01 X-8.98706 Y4.85207
G01 X-8.85224 Y4.73895
G04 P0 ( dwell for no time -- G64 should not smooth over this point )
G00 Z0.08000 ( retract )

G00 X-9.14793 Y4.98706 ( rapid move to begin. )
G01 F3.00000
( Mill infeed pass 1/1 )
G01 Z-0.00800
G04 P0 ( dwell for no time -- G64 should not smooth over this point )
G01 F6.00000
G01 X-9.14793 Y4.98706
G01 X-9.26106 Y4.85224
G01 X-9.26693 Y4.86309
G01 X-9.27014 Y4.86954
G01 X-9.27608 Y4.88263
G01 X-9.28150 Y4.89629
G01 X-9.28625 Y4.91023
G01 X-9.29022 Y4.92407
G01 X-9.29353 Y4.93808
G01 X-9.29493 Y4.94514
G01 X-9.29723 Y4.95936
G01 X-9.29886 Y4.97399
G01 X-9.29978 Y4.98866
G01 X-9.29998 Y5.00303
G01 X-9.29949 Y5.01742
G01 X-9.29830 Y5.03177
G01 X-9.29746 Y5.03892
G01 X-9.29525 Y5.05315
G01 X-9.29236 Y5.06726
G01 X-9.28880 Y5.08118
G01 X-9.28666 Y5.08842
G01 X-9.28275 Y5.10019
G01 X-9.14793 Y4.98706
G04 P0 ( dwell for no time -- G64 should not smooth over this point )
G00 Z0.08000 ( retract )

G00 X-8.89981 Y5.28275 ( rapid move to begin. )
G01 F3.00000
( Mill infeed pass 1/1 )
G01 Z-0.00800
G04 P0 ( dwell for no time -- G64 should not smooth over this point )
G01 F6.00000
G01 X-8.89981 Y5.28275
G01 X-8.91153 Y5.28665
G01 X-8.91843 Y5.28869
G01 X-8.93269 Y5.29234
G01 X-8.94675 Y5.29523
G01 X-8.96130 Y5.29749
G01 X-8.96845 Y5.29833
G01 X-8.98280 Y5.29950
G01 X-8.99719 Y5.29998
G01 X-9.01159 Y5.29977
G01 X-9.02628 Y5.29884
G01 X-9.04057 Y5.29724
G01 X-9.05510 Y5.29489
G01 X-9.06214 Y5.29349
G01 X-9.07615 Y5.29017
G01 X-9.08999 Y5.28618
G01 X-9.10359 Y5.28154
G01 X-9.11728 Y5.27612
G01 X-9.13039 Y5.27017
G01 X-9.13684 Y5.26696
G01 X-9.14776 Y5.26106
G01 X-9.01294 Y5.14793
G01 X-8.89981 Y5.28275
G04 P0 ( dwell for no time -- G64 should not smooth over this point )
G00 Z0.08000 ( retract )

G00 X-8.86505 Y5.61552 ( rapid move to begin. )
G01 F3.00000
( Mill infeed pass 1/1 )
G01 Z-0.00800
G04 P0 ( dwell for no time -- G64 should not smooth over this point )
G01 F6.00000
G01 X-8.86505 Y5.61552
G01 X-8.97946 Y6.11103
G01 X-8.97246 Y6.11303
G01 X-8.96829 Y6.11444
G01 X-8.96045 Y6.11777
G01 X-8.95297 Y6.12181
G01 X-8.94568 Y6.12669
G01 X-8.93909 Y6.13206
G01 X-8.93379 Y6.13725
G01 X-8.93013 Y6.14133
G01 X-8.92740 Y6.14475
G01 X-8.92481 Y6.14833
G01 X-8.92032 Y6.15556
G01 X-8.91665 Y6.16289
G01 X-8.91476 Y6.16749
G01 X-8.91299 Y6.17261
G01 X-8.91108 Y6.17955
G01 X-8.91026 Y6.18356
G01 X-8.90960 Y6.18761
G01 X-8.90912 Y6.19204
G01 X-8.90884 Y6.19608
G01 X-8.90879 Y6.20160
G01 X-8.90889 Y6.20492
G01 X-8.90940 Y6.21056
G01 X-8.90974 Y6.21337
G01 X-8.91103 Y6.22054
G01 X-8.91321 Y6.22811
G01 X-8.91518 Y6.23356
G01 X-8.91777 Y6.23954
G01 X-8.92181 Y6.24703
G01 X-8.92418 Y6.25072
G01 X-8.92669 Y6.25431
G01 X-8.93206 Y6.26091
G01 X-8.93804 Y6.26697
G01 X-8.94133 Y6.26986
G01 X-8.94474 Y6.27260
G01 X-8.95172 Y6.27742
G01 X-8.95593 Y6.27987
G01 X-8.96289 Y6.28335
G01 X-8.97108 Y6.28653
G01 X-8.97527 Y6.28781
G01 X-8.97955 Y6.28892
G01 X-8.98761 Y6.29040
G01 X-8.99608 Y6.29116
G01 X-9.00051 Y6.29122
G01 X-9.00492 Y6.29111
G01 X-9.01337 Y6.29026
G01 X-9.02054 Y6.28896
G01 X-9.02754 Y6.28697
G01 X-9.03170 Y6.28555
G01 X-9.03954 Y6.28223
G01 X-9.04703 Y6.27818
G01 X-9.05072 Y6.27582
G01 X-9.05431 Y6.27331
G01 X-9.06091 Y6.26793
G01 X-9.06621 Y6.26275
G01 X-9.06986 Y6.25867
G01 X-9.07260 Y6.25525
G01 X-9.07741 Y6.24827
G01 X-9.07968 Y6.24444
G01 X-9.08335 Y6.23711
G01 X-9.08654 Y6.22892
G01 X-9.08782 Y6.22473
G01 X-9.08892 Y6.22045
G01 X-9.09039 Y6.21239
G01 X-9.09116 Y6.20391
G01 X-9.09120 Y6.19840
G01 X-9.09092 Y6.19262
G01 X-9.09026 Y6.18663
G01 X-9.08897 Y6.17946
G01 X-9.08697 Y6.17246
G01 X-9.08555 Y6.16829
G01 X-9.08223 Y6.16045
G01 X-9.07818 Y6.15297
G01 X-9.07582 Y6.14928
G01 X-9.07331 Y6.14569
G01 X-9.06794 Y6.13909
G01 X-9.06196 Y6.13302
G01 X-9.05867 Y6.13014
G01 X-9.05525 Y6.12739
G01 X-9.04828 Y6.12258
G01 X-9.04406 Y6.12012
G01 X-9.03711 Y6.11665
G01 X-9.02891 Y6.11346
G01 X-9.02473 Y6.11219
G01 X-9.02045 Y6.11108
G01 X-9.01239 Y6.10960
G01 X-9.00391 Y6.10884
G01 X-8.99949 Y6.10878
G01 X-8.99507 Y6.10889
G01 X-8.98663 Y6.10974
G01 X-8.97946 Y6.11103
G01 X-8.97246 Y6.11303
G01 X-8.96829 Y6.11444
G01 X-8.96045 Y6.11777
G01 X-8.95297 Y6.12181
G01 X-8.94568 Y6.12669
G01 X-8.93909 Y6.13206
G01 X-8.93379 Y6.13725
G01 X-8.93013 Y6.14133
G01 X-8.92740 Y6.14475
G01 X-8.92481 Y6.14833
G01 X-8.92032 Y6.15556
G01 X-8.91837 Y6.15926
G01 X-8.91596 Y6.16453
G01 X-8.91346 Y6.17108
G01 X-8.91218 Y6.17527
G01 X-8.91108 Y6.17955
G01 X-8.91026 Y6.18356
G01 X-8.90960 Y6.18761
G01 X-8.90907 Y6.19262
G01 X-8.90884 Y6.19608
G01 X-8.90879 Y6.20160
G01 X-8.90889 Y6.20492
G01 X-8.90940 Y6.21056
G01 X-8.90974 Y6.21337
G01 X-8.91103 Y6.22054
G01 X-8.41553 Y6.33494
G01 X-8.41406 Y6.32912
G01 X-8.41128 Y6.31580
G01 X-8.40846 Y6.30043
G01 X-8.40605 Y6.28496
G01 X-8.40432 Y6.27187
G01 X-8.40281 Y6.25795
G01 X-8.40153 Y6.24278
G01 X-8.40062 Y6.22715
G01 X-8.40016 Y6.21394
G01 X-8.40001 Y6.20032
G01 X-8.40018 Y6.18548
G01 X-8.40076 Y6.16989
G01 X-8.40172 Y6.15472
G01 X-8.40285 Y6.14156
G01 X-8.40433 Y6.12804
G01 X-8.40641 Y6.11252
G01 X-8.40869 Y6.09828
G01 X-8.41154 Y6.08290
G01 X-8.41435 Y6.06957
G01 X-8.41737 Y6.05670
G01 X-8.42118 Y6.04197
G01 X-8.42539 Y6.02731
G01 X-8.43008 Y6.01241
G01 X-8.43434 Y5.99992
G01 X-8.43903 Y5.98715
G01 X-8.44459 Y5.97301
G01 X-8.45069 Y5.95864
G01 X-8.45631 Y5.94623
G01 X-8.46204 Y5.93432
G01 X-8.46915 Y5.92037
G01 X-8.47623 Y5.90732
G01 X-8.48342 Y5.89480
G01 X-8.49180 Y5.88105
G01 X-8.49917 Y5.86959
G01 X-8.50657 Y5.85864
G01 X-8.51588 Y5.84555
G01 X-8.52528 Y5.83307
G01 X-8.53346 Y5.82271
G01 X-8.54188 Y5.81255
G01 X-8.55241 Y5.80042
G01 X-8.56242 Y5.78948
G01 X-8.57242 Y5.77908
G01 X-8.58355 Y5.76807
G01 X-8.59315 Y5.75901
G01 X-8.60295 Y5.75017
G01 X-8.61478 Y5.74000
G01 X-8.62687 Y5.73014
G01 X-8.63731 Y5.72203
G01 X-8.64826 Y5.71392
G01 X-8.66143 Y5.70465
G01 X-8.67343 Y5.69666
G01 X-8.68663 Y5.68834
G01 X-8.69796 Y5.68157
G01 X-8.70944 Y5.67505
G01 X-8.72319 Y5.66767
G01 X-8.73606 Y5.66117
G01 X-8.75058 Y5.65430
G01 X-8.76264 Y5.64894
G01 X-8.77483 Y5.64386
G01 X-8.78938 Y5.63818
G01 X-8.80414 Y5.63287
G01 X-8.81862 Y5.62808
G01 X-8.83125 Y5.62422
G01 X-8.84473 Y5.62044
G01 X-8.85996 Y5.61657
G01 X-8.86505 Y5.61552
G01 X-8.87091 Y5.61405
G01 X-8.88413 Y5.61130
G01 X-8.89952 Y5.60847
G01 X-8.91499 Y5.60605
G01 X-8.92967 Y5.60414
G01 X-8.94280 Y5.60273
G01 X-8.95595 Y5.60162
G01 X-8.97155 Y5.60067
G01 X-8.98719 Y5.60014
G01 X-9.00080 Y5.60000
G01 X-9.01400 Y5.60017
G01 X-9.02921 Y5.60071
G01 X-9.04483 Y5.60168
G01 X-9.05999 Y5.60301
G01 X-9.07313 Y5.60447
G01 X-9.08663 Y5.60629
G01 X-9.10168 Y5.60868
G01 X-9.11626 Y5.61137
G01 X-9.13197 Y5.61470
G01 X-9.14481 Y5.61774
G01 X-9.15759 Y5.62107
G01 X-9.17259 Y5.62536
G01 X-9.18747 Y5.63004
G01 X-9.19998 Y5.63431
G01 X-9.21277 Y5.63900
G01 X-9.22775 Y5.64491
G01 X-9.24103 Y5.65054
G01 X-9.25523 Y5.65700
G01 X-9.26750 Y5.66293
G01 X-9.27926 Y5.66896
G01 X-9.29301 Y5.67641
G01 X-9.30549 Y5.68359
G01 X-9.31881 Y5.69172
G01 X-9.32994 Y5.69886
G01 X-9.34123 Y5.70648
G01 X-9.35398 Y5.71554
G01 X-9.36582 Y5.72442
G01 X-9.37778 Y5.73387
G01 X-9.38827 Y5.74256
G01 X-9.39825 Y5.75123
G01 X-9.41012 Y5.76205
G01 X-9.42054 Y5.77205
G01 X-9.43184 Y5.78346
G01 X-9.44091 Y5.79306
G01 X-9.44975 Y5.80286
G01 X-9.45993 Y5.81469
G01 X-9.46929 Y5.82615
G01 X-9.47814 Y5.83754
G01 X-9.48746 Y5.85017
G01 X-9.49528 Y5.86133
G01 X-9.50262 Y5.87233
G01 X-9.51097 Y5.88550
G01 X-9.51899 Y5.89893
G01 X-9.52570 Y5.91079
G01 X-9.53194 Y5.92244
G01 X-9.53898 Y5.93637
G01 X-9.54564 Y5.95047
G01 X-9.55149 Y5.96367
G01 X-9.55672 Y5.97625
G01 X-9.56151 Y5.98858
G01 X-9.56683 Y6.00326
G01 X-9.57177 Y6.01812
G01 X-9.57575 Y6.03113
G01 X-9.57932 Y6.04384
G01 X-9.58324 Y6.05917
G01 X-9.58447 Y6.06506
G01 X-9.58595 Y6.07090
G01 X-9.58876 Y6.08442
G01 X-9.59130 Y6.09820
G01 X-9.59381 Y6.11407
G01 X-9.59580 Y6.12919
G01 X-9.59730 Y6.14314
G01 X-9.59840 Y6.15632
G01 X-9.59934 Y6.17189
G01 X-9.59984 Y6.18628
G01 X-9.59999 Y6.20188
G01 X-9.59981 Y6.21508
G01 X-9.59933 Y6.22827
G01 X-9.59842 Y6.24350
G01 X-9.59708 Y6.25913
G01 X-9.59533 Y6.27466
G01 X-9.59355 Y6.28774
G01 X-9.59147 Y6.30077
G01 X-9.58857 Y6.31657
G01 X-9.58533 Y6.33185
G01 X-9.58229 Y6.34470
G01 X-9.57896 Y6.35747
G01 X-9.57454 Y6.37291
G01 X-9.57022 Y6.38667
G01 X-9.56558 Y6.40031
G01 X-9.56016 Y6.41498
G01 X-9.55514 Y6.42764
G01 X-9.54998 Y6.43982
G01 X-9.54356 Y6.45406
G01 X-9.53711 Y6.46742
G01 X-9.52996 Y6.48131
G01 X-9.52365 Y6.49291
G01 X-9.51687 Y6.50470
G01 X-9.50874 Y6.51809
G01 X-9.50095 Y6.53022
G01 X-9.49333 Y6.54150
G01 X-9.48402 Y6.55458
G01 X-9.47559 Y6.56581
G01 X-9.46716 Y6.57650
G01 X-9.45693 Y6.58886
G01 X-9.44773 Y6.59942
G01 X-9.43883 Y6.60917
G01 X-9.42775 Y6.62075
G01 X-9.41662 Y6.63176
G01 X-9.40703 Y6.64083
G01 X-9.39632 Y6.65048
G01 X-9.38411 Y6.66092
G01 X-9.37388 Y6.66927
G01 X-9.36251 Y6.67811
G01 X-9.34992 Y6.68739
G01 X-9.33877 Y6.69521
G01 X-9.32677 Y6.70321
G01 X-9.31460 Y6.71091
G01 X-9.30328 Y6.71770
G01 X-9.28932 Y6.72564
G01 X-9.27660 Y6.73244
G01 X-9.26446 Y6.73857
G01 X-9.24964 Y6.74559
G01 X-9.23758 Y6.75096
G01 X-9.22540 Y6.75605
G01 X-9.21005 Y6.76203
G01 X-9.19687 Y6.76678
G01 X-9.18435 Y6.77097
G01 X-9.16783 Y6.77604
G01 X-9.15510 Y6.77961
G01 X-9.14084 Y6.78324
G01 X-9.13493 Y6.78448
G01 X-9.12911 Y6.78594
G01 X-9.11569 Y6.78874
G01 X-9.09955 Y6.79168
G01 X-9.08649 Y6.79373
G01 X-9.07258 Y6.79559
G01 X-9.05624 Y6.79735
G01 X-9.04307 Y6.79845
G01 X-9.02825 Y6.79933
G01 X-9.01264 Y6.79986
G01 X-8.99944 Y6.80000
G01 X-8.98504 Y6.79981
G01 X-8.96941 Y6.79921
G01 X-8.95541 Y6.79834
G01 X-8.94184 Y6.79717
G01 X-8.92590 Y6.79540
G01 X-8.91240 Y6.79357
G01 X-8.89854 Y6.79136
G01 X-8.88235 Y6.78835
G01 X-8.86942 Y6.78562
G01 X-8.85497 Y6.78221
G01 X-8.83983 Y6.77822
G01 X-8.82674 Y6.77444
G01 X-8.81298 Y6.77011
G01 X-8.79823 Y6.76505
G01 X-8.78584 Y6.76048
G01 X-8.77245 Y6.75518
G01 X-8.75917 Y6.74955
G01 X-8.74676 Y6.74393
G01 X-8.73231 Y6.73697
G01 X-8.71985 Y6.73058
G01 X-8.70825 Y6.72428
G01 X-8.69470 Y6.71652
G01 X-8.68201 Y6.70881
G01 X-8.67088 Y6.70167
G01 X-8.65757 Y6.69269
G01 X-8.64583 Y6.68432
G01 X-8.63526 Y6.67640
G01 X-8.62298 Y6.66675
G01 X-8.61155 Y6.65728
G01 X-8.60157 Y6.64861
G01 X-8.58941 Y6.63751
G01 X-8.57930 Y6.62780
G01 X-8.56999 Y6.61843
G01 X-8.55894 Y6.60678
G01 X-8.54928 Y6.59605
G01 X-8.54041 Y6.58571
G01 X-8.53051 Y6.57360
G01 X-8.52168 Y6.56222
G01 X-8.51383 Y6.55161
G01 X-8.50459 Y6.53847
G01 X-8.49659 Y6.52647
G01 X-8.48954 Y6.51531
G01 X-8.48111 Y6.50124
G01 X-8.47441 Y6.48940
G01 X-8.46818 Y6.47777
G01 X-8.46092 Y6.46344
G01 X-8.45492 Y6.45077
G01 X-8.44938 Y6.43835
G01 X-8.44307 Y6.42321
G01 X-8.43814 Y6.41051
G01 X-8.43351 Y6.39770
G01 X-8.42829 Y6.38207
G01 X-8.42419 Y6.36866
G01 X-8.42041 Y6.35515
G01 X-8.41676 Y6.34081
G01 X-8.41553 Y6.33494
G04 P0 ( dwell for no time -- G64 should not smooth over this point )
G00 Z0.08000 ( retract )

G00 X-9.13494 Y6.78447 ( rapid move to begin. )
G01 F3.00000
( Mill infeed pass 1/1 )
G01 Z-0.00800
G04 P0 ( dwell for no time -- G64 should not smooth over this point )
G01 F6.00000
G01 X-9.13494 Y6.78447
G01 X-9.02054 Y6.28896
G01 X-9.02754 Y6.28697
G01 X-9.03170 Y6.28555
G01 X-9.03954 Y6.28223
G01 X-9.04703 Y6.27818
G01 X-9.05431 Y6.27331
G01 X-9.06091 Y6.26793
G01 X-9.06697 Y6.26196
G01 X-9.06986 Y6.25867
G01 X-9.07260 Y6.25525
G01 X-9.07741 Y6.24827
G01 X-9.07968 Y6.24444
G01 X-9.08159 Y6.24081
G01 X-9.08335 Y6.23711
G01 X-9.08503 Y6.23303
G01 X-9.08654 Y6.22892
G01 X-9.08782 Y6.22473
G01 X-9.08892 Y6.22045
G01 X-9.08976 Y6.21629
G01 X-9.09039 Y6.21239
G01 X-9.09092 Y6.20738
G01 X-9.09116 Y6.20391
G01 X-9.09120 Y6.19840
G01 X-9.09111 Y6.19508
G01 X-9.09060 Y6.18943
G01 X-9.09026 Y6.18663
G01 X-9.08897 Y6.17946
G01 X-9.58447 Y6.06506

G04 P0 ( dwell for no time -- G64 should not smooth over this point )
G00 Z1.000000 ( retract )

M5 ( Spindle off. )
G04 P1.000000
M9 ( Coolant off. )
M2 ( Program end. )

