( pcb2gcode 2.5.0 )
( Software-independent Gcode )

G94 ( Inches per minute feed rate. )
G20 ( Units == INCHES. )

G90 ( Absolute coordinates. )
G00 S12000 ( RPM spindle speed. )
G64 P0.00040 ( set maximum deviation from commanded toolpath )
G01 F360.00000 ( Feedrate. )


G00 Z1.00000 (Retract to tool change height)
T1
M5      (Spindle stop.)
G04 P1.00000 (Wait for spindle to stop)
(MSG, Change tool bit to mill diameter 0.39370in)
M6      (Tool change.)
M0      (Temporary machine stop.)
M3 ( Spindle on clockwise. )
G04 P1.00000 (Wait for spindle to get up to speed)
G04 P0 ( dwell for no time -- G64 should not smooth over this point )
G00 Z0.08000 ( retract )

G00 X-3.03372 Y-2.64484 ( rapid move to begin. )
G01 F180.00000
( Mill infeed pass 1/1 )
G01 Z-0.04000
G04 P0 ( dwell for no time -- G64 should not smooth over this point )
G01 F360.00000
G01 X-3.03372 Y-2.64484
G01 X-3.01409 Y-2.66457
G01 X-3.00785 Y-2.67148
G01 X-3.00271 Y-2.67759
G01 X-2.99735 Y-2.68454
G01 X-2.99230 Y-2.69173
G01 X-2.98646 Y-2.70083
G01 X-2.98149 Y-2.70947
G01 X-2.97696 Y-2.71835
G01 X-2.97223 Y-2.72895
G01 X-2.96884 Y-2.73747
G01 X-2.96573 Y-2.74652
G01 X-2.96307 Y-2.75571
G01 X-2.96036 Y-2.76703
G01 X-2.95857 Y-2.77650
G01 X-2.95725 Y-2.78605
G01 X-2.95616 Y-2.79882
G01 X-2.95580 Y-2.80992
G01 X-2.95581 Y-3.21963
G01 X-2.95600 Y-3.22648
G01 X-2.95643 Y-3.23371
G01 X-2.95765 Y-3.24563
G01 X-2.95967 Y-3.25784
G01 X-2.96125 Y-3.26531
G01 X-2.96277 Y-3.27157
G01 X-2.96450 Y-3.27778
G01 X-2.96655 Y-3.28431
G01 X-2.96922 Y-3.29189
G01 X-2.97154 Y-3.29786
G01 X-2.97658 Y-3.30918
G01 X-2.97999 Y-3.31603
G01 X-2.98325 Y-3.32205
G01 X-2.98671 Y-3.32795
G01 X-2.98994 Y-3.33306
G01 X-2.99422 Y-3.33942
G01 X-2.99822 Y-3.34497
G01 X-3.00216 Y-3.35006
G01 X-3.00627 Y-3.35502
G01 X-3.01106 Y-3.36048
G01 X-3.01573 Y-3.36548
G01 X-3.19917 Y-3.54895
G01 X-3.20827 Y-3.55749
G01 X-3.21620 Y-3.56424
G01 X-3.22445 Y-3.57054
G01 X-3.23472 Y-3.57751
G01 X-3.24321 Y-3.58273
G01 X-3.25231 Y-3.58769
G01 X-3.26094 Y-3.59184
G01 X-3.27162 Y-3.59639
G01 X-3.28143 Y-3.60000
G01 X-3.05000 Y-3.60000
G01 X-3.05000 Y-3.39978
G01 X-3.20031 Y-3.55009
G01 X-3.20528 Y-3.55480
G01 X-3.21100 Y-3.55988
G01 X-3.21590 Y-3.56399
G01 X-3.22092 Y-3.56793
G01 X-3.22607 Y-3.57171
G01 X-3.23201 Y-3.57575
G01 X-3.23910 Y-3.58028
G01 X-3.24599 Y-3.58431
G01 X-3.25231 Y-3.58769
G01 X-3.25840 Y-3.59067
G01 X-3.27236 Y-3.59668
G01 X-3.27871 Y-3.59906
G01 X-3.28514 Y-3.60121
G01 X-3.29163 Y-3.60315
G01 X-3.29819 Y-3.60486
G01 X-3.30565 Y-3.60659
G01 X-3.31314 Y-3.60804
G01 X-3.32068 Y-3.60920
G01 X-3.32786 Y-3.61003
G01 X-3.33903 Y-3.61088
G01 X-3.34896 Y-3.61115
G01 X-3.82362 Y-3.61106
G01 X-3.83443 Y-3.61074
G01 X-3.84560 Y-3.60978
G01 X-3.85472 Y-3.60852
G01 X-3.86539 Y-3.60655
G01 X-3.87439 Y-3.60447
G01 X-3.88367 Y-3.60186
G01 X-3.89434 Y-3.59825
G01 X-3.90296 Y-3.59493
G01 X-3.91177 Y-3.59104
G01 X-3.92074 Y-3.58653
G01 X-3.92988 Y-3.58143
G01 X-3.93806 Y-3.57634
G01 X-3.94631 Y-3.57062
G01 X-3.95462 Y-3.56427
G01 X-3.96079 Y-3.55914
G01 X-3.96674 Y-3.55377
G01 X-3.98622 Y-3.53444
G01 X-3.99781 Y-3.53566
G01 X-4.00940 Y-3.53619
G01 X-4.08940 Y-3.53621
G01 X-4.09740 Y-3.53597
G01 X-4.10538 Y-3.53540
G01 X-4.11293 Y-3.53456
G01 X-4.12102 Y-3.53333
G01 X-4.13084 Y-3.53587
G01 X-4.14029 Y-3.53783
G01 X-4.15180 Y-3.53960
G01 X-4.16181 Y-3.54067
G01 X-4.16825 Y-3.54108
G01 X-4.17550 Y-3.54128
G01 X-4.21917 Y-3.54130
G01 X-4.21601 Y-3.60000
G01 X-4.84395 Y-3.60000
G01 X-4.85458 Y-3.58680
G01 X-4.86299 Y-3.57561
G01 X-4.87299 Y-3.56114
G01 X-4.87844 Y-3.55267
G01 X-4.88326 Y-3.54484
G01 X-4.89158 Y-3.53024
G01 X-4.90000 Y-3.51397
G01 X-4.90000 Y-3.49546
G01 X-4.87408 Y-3.48180
G01 X-4.82261 Y-3.45619
G01 X-4.78803 Y-3.43994
G01 X-4.75547 Y-3.42557
G01 X-4.75000 Y-3.42325
G01 X-4.72885 Y-3.41485
G01 X-4.73203 Y-3.40682
G01 X-4.73481 Y-3.39890
G01 X-4.73752 Y-3.39004
G01 X-4.73967 Y-3.38192
G01 X-4.74182 Y-3.37209
G01 X-4.74324 Y-3.36422
G01 X-4.74439 Y-3.35589
G01 X-4.74544 Y-3.34549
G01 X-4.74586 Y-3.33790
G01 X-4.74604 Y-3.32939
G01 X-4.74599 Y-3.32299
G01 X-4.74567 Y-3.31563
G01 X-4.73678 Y-3.31210
G01 X-4.74567 Y-3.31563
G01 X-4.74596 Y-3.32179
G01 X-4.74605 Y-3.32819
G01 X-4.74565 Y-3.34229
G01 X-4.74510 Y-3.34947
G01 X-4.74430 Y-3.35669
G01 X-4.74250 Y-3.36855
G01 X-4.74031 Y-3.37919
G01 X-4.73795 Y-3.38850
G01 X-4.73481 Y-3.39890
G01 X-4.73133 Y-3.40869
G01 X-4.72712 Y-3.41895
G01 X-4.72290 Y-3.42802
G01 X-4.71747 Y-3.43834
G01 X-4.71218 Y-3.44729
G01 X-4.70690 Y-3.45539
G01 X-4.70203 Y-3.46223
G01 X-4.69522 Y-3.47098
G01 X-4.68951 Y-3.47768
G01 X-4.68238 Y-3.48533
G01 X-4.67612 Y-3.49152
G01 X-4.66806 Y-3.49879
G01 X-4.66129 Y-3.50441
G01 X-4.65261 Y-3.51095
G01 X-4.64571 Y-3.51574
G01 X-4.63650 Y-3.52151
G01 X-4.62887 Y-3.52588
G01 X-4.62104 Y-3.52991
G01 X-4.61100 Y-3.53460
G01 X-4.60323 Y-3.53778
G01 X-4.59340 Y-3.54137
G01 X-4.58269 Y-3.54467
G01 X-4.57546 Y-3.54659
G01 X-4.56884 Y-3.54813
G01 X-4.55579 Y-3.55053
G01 X-4.54468 Y-3.55196
G01 X-4.53467 Y-3.55276
G01 X-4.52592 Y-3.55310
G01 X-4.47619 Y-3.55314
G01 X-4.46856 Y-3.55292
G01 X-4.46054 Y-3.55236
G01 X-4.45052 Y-3.55138
G01 X-4.44102 Y-3.55002
G01 X-4.43276 Y-3.54845
G01 X-4.42291 Y-3.54618
G01 X-4.41481 Y-3.54397
G01 X-4.40659 Y-3.54133
G01 X-4.17187 Y-3.54121
G01 X-4.16583 Y-3.54095
G01 X-4.15900 Y-3.54042
G01 X-4.15260 Y-3.53971
G01 X-4.14504 Y-3.53864
G01 X-4.13319 Y-3.53640
G01 X-4.12102 Y-3.53333
G01 X-4.11452 Y-3.53434
G01 X-4.10737 Y-3.53520
G01 X-4.10059 Y-3.53578
G01 X-4.09340 Y-3.53613
G01 X-4.02232 Y-3.53622
G01 X-4.01886 Y-3.60000
G01 X-3.88937 Y-3.60000
G01 X-3.89698 Y-3.59728
G01 X-3.90296 Y-3.59493
G01 X-3.90922 Y-3.59221
G01 X-3.91503 Y-3.58947
G01 X-3.92109 Y-3.58634
G01 X-3.92884 Y-3.58204
G01 X-3.93468 Y-3.57851
G01 X-3.94040 Y-3.57478
G01 X-3.94631 Y-3.57062
G01 X-3.95241 Y-3.56600
G01 X-3.95742 Y-3.56199
G01 X-3.96230 Y-3.55782
G01 X-3.96963 Y-3.55100
G01 X-3.98622 Y-3.53444
G01 X-3.99781 Y-3.53566
G01 X-4.00940 Y-3.53619
G01 X-4.08940 Y-3.53621
G01 X-4.09740 Y-3.53597
G01 X-4.10538 Y-3.53540
G01 X-4.11293 Y-3.53456
G01 X-4.12102 Y-3.53333
G01 X-4.12268 Y-3.49978
G01 X-4.12151 Y-3.46950
G01 X-4.12059 Y-3.44991
G01 X-4.11839 Y-3.41080
G01 X-4.11752 Y-3.39859
G01 X-4.11607 Y-3.38184
G01 X-4.11501 Y-3.37243
G01 X-4.11386 Y-3.36411
G01 X-4.11273 Y-3.35747
G01 X-4.11172 Y-3.35257
G01 X-4.11022 Y-3.34670
G01 X-4.10925 Y-3.34352
G01 X-4.10672 Y-3.33663
G01 X-4.10454 Y-3.33008
G01 X-4.10274 Y-3.32336
G01 X-4.10150 Y-3.31729
G01 X-4.10065 Y-3.31132
G01 X-4.10015 Y-3.30534
G01 X-4.10001 Y-3.29906
G01 X-4.10020 Y-3.29369
G01 X-4.10117 Y-3.28475
G01 X-4.10214 Y-3.27933
G01 X-4.10333 Y-3.27421
G01 X-4.10553 Y-3.26676
G01 X-4.10991 Y-3.25435
G01 X-4.11119 Y-3.24961
G01 X-4.11300 Y-3.24101
G01 X-4.11470 Y-3.22993
G01 X-4.11571 Y-3.22141
G01 X-4.11707 Y-3.20653
G01 X-4.12326 Y-3.20279
G01 X-4.12918 Y-3.19948
G01 X-4.13289 Y-3.19753
G01 X-4.14289 Y-3.19268
G01 X-4.15410 Y-3.18795
G01 X-4.16763 Y-3.18309
G01 X-4.18219 Y-3.17874
G01 X-4.19378 Y-3.17587
G01 X-4.19889 Y-3.17476
G01 X-4.21310 Y-3.17210
G01 X-4.21848 Y-3.17125
G01 X-4.23523 Y-3.16914
G01 X-4.24090 Y-3.16859
G01 X-4.26285 Y-3.16717
G01 X-4.26972 Y-3.18291
G01 X-4.33313 Y-3.24632
G01 X-4.34132 Y-3.25400
G01 X-4.34375 Y-3.25613
G01 X-4.35457 Y-3.26476
G01 X-4.36173 Y-3.26969
G01 X-4.37043 Y-3.27485
G01 X-4.37932 Y-3.27917
G01 X-4.38893 Y-3.28315
G01 X-4.39664 Y-3.28582
G01 X-4.40116 Y-3.28701
G01 X-4.40824 Y-3.28838
G01 X-4.41446 Y-3.28905
G01 X-4.41938 Y-3.28924
G01 X-4.44536 Y-3.28924
G01 X-4.44568 Y-3.28936
G01 X-4.44897 Y-3.28938
G01 X-4.67385 Y-3.28938
G01 X-4.73079 Y-3.30990
G01 X-4.73678 Y-3.31210
G01 X-4.74550 Y-3.31556
G01 X-4.92556 Y-3.13552
G01 X-4.93297 Y-3.12763
G01 X-4.94074 Y-3.11842
G01 X-4.94467 Y-3.11340
G01 X-4.94843 Y-3.10824
G01 X-4.95181 Y-3.10331
G01 X-4.95545 Y-3.09759
G01 X-4.96261 Y-3.08509
G01 X-4.96569 Y-3.07905
G01 X-4.96840 Y-3.07326
G01 X-4.97093 Y-3.06739
G01 X-4.97373 Y-3.06031
G01 X-4.97576 Y-3.05468
G01 X-4.97785 Y-3.04822
G01 X-4.97993 Y-3.04093
G01 X-4.98166 Y-3.03392
G01 X-4.98312 Y-3.02729
G01 X-4.98421 Y-3.02140
G01 X-4.98529 Y-3.01430
G01 X-4.98611 Y-3.00716
G01 X-4.98678 Y-2.99914
G01 X-4.98714 Y-2.99111
G01 X-4.98717 Y-2.91162
G01 X-4.98686 Y-2.90206
G01 X-4.98608 Y-2.89253
G01 X-4.98462 Y-2.88141
G01 X-4.98297 Y-2.87194
G01 X-4.98056 Y-2.86139
G01 X-4.97733 Y-2.85022
G01 X-4.97297 Y-2.83770
G01 X-4.96835 Y-2.82660
G01 X-4.96325 Y-2.81616
G01 X-4.95677 Y-2.80459
G01 X-4.95053 Y-2.79479
G01 X-4.94397 Y-2.78568
G01 X-4.93535 Y-2.77509
G01 X-4.92753 Y-2.76649
G01 X-4.87232 Y-2.71124
G01 X-4.85989 Y-2.71145
G01 X-4.87261 Y-2.71123
G01 X-4.88078 Y-2.70196
G01 X-4.88635 Y-2.69514
G01 X-4.89114 Y-2.68872
G01 X-4.89752 Y-2.67951
G01 X-4.90179 Y-2.67274
G01 X-4.90679 Y-2.66411
G01 X-4.91033 Y-2.65747
G01 X-4.91379 Y-2.65034
G01 X-4.91800 Y-2.64090
G01 X-4.92120 Y-2.63280
G01 X-4.92435 Y-2.62378
G01 X-4.92641 Y-2.61729
G01 X-4.92834 Y-2.61035
G01 X-4.93042 Y-2.60183
G01 X-4.93183 Y-2.59524
G01 X-4.93294 Y-2.58900
G01 X-4.93432 Y-2.57956
G01 X-4.93505 Y-2.57326
G01 X-4.93563 Y-2.56616
G01 X-4.93606 Y-2.55740
G01 X-4.93619 Y-2.55140
G01 X-4.93613 Y-2.54460
G01 X-4.93573 Y-2.53542
G01 X-4.93524 Y-2.52871
G01 X-4.93447 Y-2.52162
G01 X-4.93330 Y-2.51335
G01 X-4.93119 Y-2.50165
G01 X-4.92793 Y-2.48810
G01 X-4.92486 Y-2.47774
G01 X-4.92037 Y-2.46497
G01 X-4.91626 Y-2.45510
G01 X-4.91015 Y-2.44218
G01 X-4.90717 Y-2.43658
G01 X-4.90322 Y-2.42967
G01 X-4.89752 Y-2.42049
G01 X-4.89022 Y-2.41000
G01 X-4.88344 Y-2.40122
G01 X-4.87461 Y-2.39095
G01 X-4.86630 Y-2.38229
G01 X-4.85671 Y-2.37329
G01 X-4.84793 Y-2.36589
G01 X-4.83686 Y-2.35749
G01 X-4.83164 Y-2.35390
G01 X-4.82557 Y-2.35000
G01 X-4.90000 Y-2.35000
G01 X-4.90000 Y-2.42434
G01 X-4.90012 Y-2.42453
G01 X-4.89437 Y-2.41585
G01 X-4.88617 Y-2.40463
G01 X-4.87726 Y-2.39395
G01 X-4.86996 Y-2.38598
G01 X-4.85964 Y-2.37596
G01 X-4.85192 Y-2.36914
G01 X-4.84133 Y-2.36077
G01 X-4.83230 Y-2.35434
G01 X-4.82123 Y-2.34730
G01 X-4.81194 Y-2.34202
G01 X-4.79952 Y-2.33579
G01 X-4.78934 Y-2.33138
G01 X-4.77746 Y-2.32687
G01 X-4.76613 Y-2.32328
G01 X-4.75884 Y-2.32126
G01 X-4.75269 Y-2.31975
G01 X-4.73905 Y-2.31709
G01 X-4.73122 Y-2.31587
G01 X-4.72295 Y-2.31494
G01 X-4.71300 Y-2.31417
G01 X-4.70420 Y-2.31384
G01 X-4.69505 Y-2.31386
G01 X-4.68715 Y-2.31416
G01 X-4.67643 Y-2.31499
G01 X-4.66768 Y-2.31603
G01 X-4.65863 Y-2.31746
G01 X-4.65087 Y-2.31897
G01 X-4.64119 Y-2.32124
G01 X-4.63271 Y-2.32360
G01 X-4.62361 Y-2.32650
G01 X-4.61545 Y-2.32947
G01 X-4.60547 Y-2.33354
G01 X-4.59713 Y-2.33740
G01 X-4.40286 Y-2.33740
G01 X-4.39002 Y-2.33162
G01 X-4.38412 Y-2.32930
G01 X-4.37708 Y-2.32678
G01 X-4.30336 Y-2.25306
G01 X-4.29735 Y-2.24730
G01 X-4.28958 Y-2.24053
G01 X-4.27982 Y-2.23282
G01 X-4.27128 Y-2.22681
G01 X-4.26209 Y-2.22106
G01 X-4.25580 Y-2.21745
G01 X-4.24978 Y-2.21423
G01 X-4.24401 Y-2.21140
G01 X-4.23778 Y-2.20860
G01 X-4.23147 Y-2.20602
G01 X-4.22358 Y-2.20307
G01 X-4.21752 Y-2.20103
G01 X-4.21063 Y-2.19898
G01 X-4.20407 Y-2.19728
G01 X-4.19625 Y-2.19551
G01 X-4.18997 Y-2.19431
G01 X-4.18288 Y-2.19319
G01 X-4.17534 Y-2.19230
G01 X-4.16697 Y-2.19161
G01 X-4.16024 Y-2.19126
G01 X-4.15350 Y-2.19115
G01 X-3.79449 Y-2.19116
G01 X-3.78448 Y-2.19151
G01 X-3.77289 Y-2.19251
G01 X-3.76301 Y-2.19381
G01 X-3.75321 Y-2.19561
G01 X-3.74275 Y-2.19811
G01 X-3.73161 Y-2.20136
G01 X-3.72219 Y-2.20459
G01 X-3.71330 Y-2.20813
G01 X-3.70353 Y-2.21262
G01 X-3.69322 Y-2.21800
G01 X-3.68491 Y-2.22284
G01 X-3.67618 Y-2.22853
G01 X-3.66968 Y-2.23322
G01 X-3.66178 Y-2.23941
G01 X-3.65597 Y-2.24431
G01 X-3.65036 Y-2.24943
G01 X-3.57292 Y-2.32678
G01 X-3.56588 Y-2.32930
G01 X-3.55998 Y-2.33162
G01 X-3.54714 Y-2.33740
G01 X-3.35287 Y-2.33740
G01 X-3.34453 Y-2.33354
G01 X-3.33455 Y-2.32947
G01 X-3.32639 Y-2.32650
G01 X-3.31729 Y-2.32360
G01 X-3.30881 Y-2.32124
G01 X-3.29913 Y-2.31897
G01 X-3.29137 Y-2.31746
G01 X-3.28232 Y-2.31603
G01 X-3.27357 Y-2.31499
G01 X-3.26285 Y-2.31416
G01 X-3.25495 Y-2.31386
G01 X-3.24580 Y-2.31384
G01 X-3.23700 Y-2.31417
G01 X-3.22705 Y-2.31494
G01 X-3.21878 Y-2.31587
G01 X-3.21095 Y-2.31709
G01 X-3.19731 Y-2.31975
G01 X-3.19116 Y-2.32126
G01 X-3.18387 Y-2.32328
G01 X-3.17254 Y-2.32687
G01 X-3.16066 Y-2.33138
G01 X-3.15048 Y-2.33579
G01 X-3.13806 Y-2.34202
G01 X-3.12877 Y-2.34730
G01 X-3.11770 Y-2.35434
G01 X-3.10867 Y-2.36077
G01 X-3.09808 Y-2.36914
G01 X-3.09036 Y-2.37596
G01 X-3.08004 Y-2.38598
G01 X-3.07274 Y-2.39395
G01 X-3.06383 Y-2.40463
G01 X-3.05563 Y-2.41585
G01 X-3.04988 Y-2.42453
G01 X-3.05000 Y-2.42434
G01 X-3.05000 Y-2.35000
G01 X-3.12443 Y-2.35000
G01 X-3.11606 Y-2.35545
G01 X-3.10867 Y-2.36077
G01 X-3.09960 Y-2.36788
G01 X-3.09181 Y-2.37461
G01 X-3.08370 Y-2.38229
G01 X-3.07701 Y-2.38918
G01 X-3.06884 Y-2.39848
G01 X-3.06262 Y-2.40619
G01 X-3.05563 Y-2.41585
G01 X-3.05074 Y-2.42317
G01 X-3.04419 Y-2.43417
G01 X-3.04003 Y-2.44182
G01 X-3.03605 Y-2.45002
G01 X-3.03094 Y-2.46166
G01 X-3.02785 Y-2.46981
G01 X-3.02405 Y-2.48117
G01 X-3.02146 Y-2.49042
G01 X-3.01856 Y-2.50282
G01 X-3.01693 Y-2.51178
G01 X-3.01525 Y-2.52398
G01 X-3.01437 Y-2.53384
G01 X-3.01385 Y-2.54540
G01 X-3.01385 Y-2.55460
G01 X-3.01429 Y-2.56500
G01 X-3.01517 Y-2.57537
G01 X-3.01677 Y-2.58726
G01 X-3.01847 Y-2.59672
G01 X-3.02086 Y-2.60725
G01 X-3.02359 Y-2.61729
G01 X-3.02705 Y-2.62795
G01 X-3.03010 Y-2.63621
G01 X-3.03372 Y-2.64484
G01 X-3.06599 Y-2.65023
G01 X-3.07256 Y-2.65115
G01 X-3.09651 Y-2.65392
G01 X-3.13969 Y-2.65833
G01 X-3.16064 Y-2.66076
G01 X-3.18501 Y-2.66394
G01 X-3.22104 Y-2.66925
G01 X-3.23217 Y-2.67033
G01 X-3.24287 Y-2.67088
G01 X-3.25271 Y-2.67097
G01 X-3.26255 Y-2.67066
G01 X-3.27206 Y-2.66999
G01 X-3.28438 Y-2.66855
G01 X-3.29365 Y-2.66705
G01 X-3.30259 Y-2.66528
G01 X-3.31247 Y-2.66292
G01 X-3.32557 Y-2.65920
G01 X-3.52784 Y-2.65920
G01 X-3.58176 Y-2.63688
G01 X-3.59504 Y-2.63576
G01 X-3.60890 Y-2.63388
G01 X-3.61779 Y-2.63221
G01 X-3.62990 Y-2.62929
G01 X-3.64032 Y-2.62609
G01 X-3.64951 Y-2.62265
G01 X-3.65827 Y-2.61873
G01 X-3.66786 Y-2.61360
G01 X-3.67461 Y-2.60939
G01 X-3.68046 Y-2.60524
G01 X-3.68396 Y-2.60251
G01 X-3.69224 Y-2.59540
G01 X-3.69836 Y-2.59049
G01 X-3.70633 Y-2.58463
G01 X-3.71461 Y-2.57905
G01 X-3.71636 Y-2.56915
G01 X-3.71723 Y-2.56136
G01 X-3.71780 Y-2.55323
G01 X-3.71888 Y-2.54510
G01 X-3.72431 Y-2.53831
G01 X-3.73065 Y-2.53243
G01 X-3.73792 Y-2.52747
G01 X-3.74610 Y-2.52343
G01 X-3.83152 Y-2.48805
G01 X-3.83338 Y-2.48805
G01 X-3.88232 Y-2.46778
G01 X-3.91110 Y-2.43900
G01 X-3.91610 Y-2.43462
G01 X-3.92110 Y-2.43150
G01 X-3.92610 Y-2.42962
G01 X-3.93110 Y-2.42900
G01 X-4.06890 Y-2.42900
G01 X-4.07390 Y-2.42962
G01 X-4.07890 Y-2.43150
G01 X-4.08390 Y-2.43462
G01 X-4.08890 Y-2.43900
G01 X-4.12418 Y-2.47428
G01 X-4.14506 Y-2.52470
G01 X-4.11287 Y-2.57680
G01 X-4.10382 Y-2.58909
G01 X-4.09348 Y-2.59878
G01 X-4.08184 Y-2.60588
G01 X-4.06890 Y-2.61039
G01 X-4.00277 Y-2.62600
G01 X-3.93310 Y-2.62600
G01 X-3.93110 Y-2.62800
G01 X-3.92077 Y-2.63980
G01 X-3.91340 Y-2.65160
G01 X-3.90897 Y-2.66340
G01 X-3.90750 Y-2.67520
G01 X-3.90750 Y-2.69490
G01 X-3.90602 Y-2.70670
G01 X-3.90160 Y-2.71850
G01 X-3.89422 Y-2.73030
G01 X-3.88390 Y-2.74210
G01 X-3.81131 Y-2.81470
G01 X-3.82628 Y-2.82854
G01 X-3.84126 Y-2.84053
G01 X-3.85623 Y-2.85068
G01 X-3.87121 Y-2.85899
G01 X-3.88618 Y-2.86545
G01 X-3.90115 Y-2.87006
G01 X-3.91613 Y-2.87283
G01 X-3.93110 Y-2.87375
G01 X-3.96421 Y-2.87375
G01 X-4.06890 Y-2.83039
G01 X-4.07460 Y-2.82739
G01 X-4.07939 Y-2.82349
G01 X-4.08329 Y-2.81870
G01 X-4.08629 Y-2.81300
G01 X-4.11402 Y-2.74604
G01 X-4.11625 Y-2.74099
G01 X-4.12047 Y-2.73262
G01 X-4.12500 Y-2.72485
G01 X-4.12821 Y-2.71982
G01 X-4.13554 Y-2.71671
G01 X-4.14221 Y-2.71425
G01 X-4.15082 Y-2.71160
G01 X-4.15689 Y-2.71003
G01 X-4.28118 Y-2.68069
G01 X-4.29551 Y-2.68132
G01 X-4.30581 Y-2.68130
G01 X-4.31021 Y-2.68116
G01 X-4.32497 Y-2.68017
G01 X-4.33984 Y-2.67834
G01 X-4.35106 Y-2.67639
G01 X-4.35586 Y-2.67542
G01 X-4.36799 Y-2.67256
G01 X-4.37875 Y-2.66958
G01 X-4.62129 Y-2.66959
G01 X-4.63037 Y-2.67215
G01 X-4.64072 Y-2.67469
G01 X-4.67432 Y-2.68152
G01 X-4.69449 Y-2.68598
G01 X-4.71399 Y-2.69060
G01 X-4.74714 Y-2.69902
G01 X-4.76530 Y-2.70298
G01 X-4.78056 Y-2.70563
G01 X-4.80248 Y-2.70848
G01 X-4.80762 Y-2.70899
G01 X-4.82784 Y-2.71053
G01 X-4.85484 Y-2.71142
G01 X-4.87232 Y-2.71124
G01 X-4.92725 Y-2.76620
G01 X-4.93456 Y-2.77418
G01 X-4.94250 Y-2.78378
G01 X-4.94755 Y-2.79051
G01 X-4.95253 Y-2.79779
G01 X-4.95697 Y-2.80494
G01 X-4.96134 Y-2.81263
G01 X-4.96507 Y-2.81973
G01 X-4.96835 Y-2.82660
G01 X-4.97135 Y-2.83360
G01 X-4.97422 Y-2.84109
G01 X-4.97708 Y-2.84946
G01 X-4.97908 Y-2.85597
G01 X-4.98114 Y-2.86372
G01 X-4.98273 Y-2.87076
G01 X-4.98425 Y-2.87904
G01 X-4.98557 Y-2.88817
G01 X-4.98639 Y-2.89570
G01 X-4.98690 Y-2.90286
G01 X-4.98718 Y-2.91242
G01 X-4.98714 Y-2.99111
G01 X-4.98678 Y-2.99914
G01 X-4.98603 Y-3.00795
G01 X-4.98519 Y-3.01509
G01 X-4.98401 Y-3.02258
G01 X-4.98166 Y-3.03392
G01 X-4.97993 Y-3.04093
G01 X-4.97809 Y-3.04746
G01 X-4.97429 Y-3.05882
G01 X-4.96969 Y-3.07034
G01 X-4.96707 Y-3.07617
G01 X-4.96409 Y-3.08226
G01 X-4.95810 Y-3.09313
G01 X-4.95181 Y-3.10331
G01 X-4.94515 Y-3.11276
G01 X-4.94099 Y-3.11811
G01 X-4.93587 Y-3.12430
G01 X-4.93163 Y-3.12912
G01 X-4.92696 Y-3.13409
G01 X-4.82131 Y-3.23976
G01 X-4.83430 Y-3.24520
G01 X-4.86856 Y-3.26029
G01 X-4.90000 Y-3.27506
G01 X-4.90000 Y-3.16108
G01 X-4.74550 Y-3.31556
G01 X-4.73678 Y-3.31210
G01 X-4.73079 Y-3.30990
G01 X-4.67385 Y-3.28938
G01 X-4.65705 Y-3.27788
G01 X-4.61948 Y-3.25165
G01 X-4.60322 Y-3.24004
G01 X-4.58847 Y-3.22917
G01 X-4.58143 Y-3.22426
G01 X-4.57474 Y-3.22011
G01 X-4.56823 Y-3.21654
G01 X-4.56240 Y-3.21374
G01 X-4.55470 Y-3.21063
G01 X-4.45113 Y-3.21062
G01 X-4.44742 Y-3.20279
G01 X-4.44424 Y-3.19398
G01 X-4.44269 Y-3.18813
G01 X-4.44186 Y-3.18388
G01 X-4.44109 Y-3.17794
G01 X-4.44080 Y-3.17060
G01 X-4.44106 Y-3.16504
G01 X-4.44153 Y-3.16079
G01 X-4.44302 Y-3.15301
G01 X-4.44482 Y-3.14669
G01 X-4.44719 Y-3.14028
G01 X-4.44907 Y-3.13603
G01 X-4.45244 Y-3.12945
G01 X-4.45682 Y-3.12221
G01 X-4.46250 Y-3.11418
G01 X-4.46628 Y-3.10941
G01 X-4.47375 Y-3.10090
G01 X-4.49868 Y-3.07583
G01 X-4.52305 Y-3.06573
G01 X-4.53197 Y-3.06232
G01 X-4.54635 Y-3.05763
G01 X-4.55287 Y-3.05579
G01 X-4.58872 Y-3.01992
G01 X-4.60424 Y-3.02135
G01 X-4.61998 Y-3.02213
G01 X-4.63352 Y-3.02218
G01 X-4.64023 Y-3.02196
G01 X-4.65013 Y-3.02130
G01 X-4.66027 Y-3.02016
G01 X-4.66568 Y-3.01935
G01 X-4.67058 Y-3.01848
G01 X-4.67973 Y-3.01647
G01 X-4.68464 Y-3.01516
G01 X-4.69260 Y-3.01265
G01 X-4.70200 Y-3.00899
G01 X-4.70627 Y-3.00705
G01 X-4.71178 Y-3.00422
G01 X-4.71862 Y-3.00017
G01 X-4.72356 Y-2.99681
G01 X-4.72710 Y-2.99413
G01 X-4.73255 Y-2.98952
G01 X-4.73667 Y-2.98556
G01 X-4.73969 Y-2.98236
G01 X-4.74314 Y-2.97835
G01 X-4.74638 Y-2.97413
G01 X-4.74792 Y-2.96677
G01 X-4.74885 Y-2.95994
G01 X-4.74932 Y-2.95236
G01 X-4.74921 Y-2.94489
G01 X-4.74885 Y-2.94006
G01 X-4.74792 Y-2.93323
G01 X-4.74639 Y-2.92586
G01 X-4.74326 Y-2.92179
G01 X-4.73871 Y-2.91656
G01 X-4.73264 Y-2.91056
G01 X-4.72742 Y-2.90612
G01 X-4.72178 Y-2.90193
G01 X-4.71556 Y-2.89794
G01 X-4.70833 Y-2.89397
G01 X-4.70068 Y-2.89044
G01 X-4.69278 Y-2.88740
G01 X-4.63345 Y-2.82811
G01 X-4.62363 Y-2.82405
G01 X-4.62017 Y-2.82280
G01 X-4.61525 Y-2.82137
G01 X-4.61088 Y-2.82043
G01 X-4.60420 Y-2.81961
G01 X-4.58983 Y-2.81948
G01 X-4.58271 Y-2.81568
G01 X-4.57559 Y-2.81441
G01 X-4.52441 Y-2.81441
G01 X-4.51941 Y-2.81503
G01 X-4.51441 Y-2.81691
G01 X-4.50941 Y-2.82003
G01 X-4.50441 Y-2.82441
G01 X-4.49875 Y-2.83007
G01 X-4.49997 Y-2.83737
G01 X-4.50065 Y-2.84503
G01 X-4.50074 Y-2.85283
G01 X-4.50043 Y-2.85826
G01 X-4.49982 Y-2.86374
G01 X-4.49888 Y-2.86932
G01 X-4.49616 Y-2.88107
G01 X-4.49428 Y-2.89192
G01 X-4.49040 Y-2.89567
G01 X-4.48564 Y-2.89982
G01 X-4.48036 Y-2.90396
G01 X-4.47713 Y-2.90628
G01 X-4.46875 Y-2.91162
G01 X-4.46295 Y-2.91482
G01 X-4.45869 Y-2.91693
G01 X-4.44977 Y-2.92083
G01 X-4.43931 Y-2.92459
G01 X-4.42791 Y-2.92783
G01 X-4.42379 Y-2.92882
G01 X-4.41044 Y-2.93139
G01 X-4.40566 Y-2.93337
G01 X-4.40203 Y-2.94368
G01 X-4.39938 Y-2.95033
G01 X-4.39479 Y-2.96059
G01 X-4.39026 Y-2.96944
G01 X-4.38823 Y-2.97306
G01 X-4.38331 Y-2.98117
G01 X-4.38035 Y-2.98561
G01 X-4.37472 Y-2.99337
G01 X-4.36357 Y-3.00740
G01 X-4.35460 Y-3.01942
G01 X-4.34807 Y-3.02868
G01 X-4.33601 Y-3.04659
G01 X-4.33289 Y-3.05099
G01 X-4.32671 Y-3.05916
G01 X-4.32286 Y-3.06395
G01 X-4.31441 Y-3.07384
G01 X-4.31006 Y-3.07864
G01 X-4.29883 Y-3.09025
G01 X-4.29192 Y-3.09698
G01 X-4.26285 Y-3.16717
G01 X-4.24090 Y-3.16859
G01 X-4.23523 Y-3.16914
G01 X-4.21848 Y-3.17125
G01 X-4.21310 Y-3.17210
G01 X-4.19889 Y-3.17476
G01 X-4.19378 Y-3.17587
G01 X-4.18219 Y-3.17874
G01 X-4.16763 Y-3.18309
G01 X-4.16298 Y-3.18466
G01 X-4.15007 Y-3.18958
G01 X-4.14289 Y-3.19268
G01 X-4.13289 Y-3.19753
G01 X-4.12326 Y-3.20279
G01 X-4.11707 Y-3.20653
G01 X-4.10145 Y-3.20966
G01 X-4.08740 Y-3.21436
G01 X-4.08133 Y-3.21674
G01 X-4.07627 Y-3.21848
G01 X-4.06773 Y-3.22085
G01 X-4.06260 Y-3.22194
G01 X-4.05558 Y-3.22303
G01 X-4.04817 Y-3.22366
G01 X-4.04280 Y-3.22382
G01 X-4.01260 Y-3.22382
G01 X-4.00212 Y-3.22456
G01 X-3.99164 Y-3.22680
G01 X-3.98116 Y-3.23053
G01 X-3.97068 Y-3.23575
G01 X-3.92932 Y-3.23575
G01 X-3.91884 Y-3.23053
G01 X-3.90836 Y-3.22680
G01 X-3.89788 Y-3.22456
G01 X-3.88740 Y-3.22382
G01 X-3.81260 Y-3.22382
G01 X-3.79889 Y-3.22509
G01 X-3.78518 Y-3.22892
G01 X-3.78714 Y-3.24178
G01 X-3.78911 Y-3.25082
G01 X-3.79127 Y-3.25802
G01 X-3.79353 Y-3.26406
G01 X-3.79529 Y-3.26935
G01 X-3.79676 Y-3.27458
G01 X-3.79801 Y-3.28008
G01 X-3.79940 Y-3.28909
G01 X-3.79984 Y-3.29449
G01 X-3.80000 Y-3.30047
G01 X-3.79975 Y-3.30702
G01 X-3.79878 Y-3.31561
G01 X-3.79751 Y-3.32229
G01 X-3.79655 Y-3.32624
G01 X-3.79409 Y-3.33436
G01 X-3.79033 Y-3.34485
G01 X-3.78881 Y-3.35040
G01 X-3.78790 Y-3.35439
G01 X-3.78121 Y-3.35631
G01 X-3.77645 Y-3.35744
G01 X-3.77098 Y-3.35851
G01 X-3.76578 Y-3.35930
G01 X-3.76042 Y-3.35989
G01 X-3.75415 Y-3.36027
G01 X-3.74682 Y-3.36030
G01 X-3.73916 Y-3.35984
G01 X-3.73067 Y-3.35878
G01 X-3.72522 Y-3.35780
G01 X-3.71942 Y-3.35648
G01 X-3.68242 Y-3.36300
G01 X-3.67771 Y-3.36359
G01 X-3.67244 Y-3.36387
G01 X-3.45275 Y-3.36389
G01 X-3.44466 Y-3.36657
G01 X-3.43774 Y-3.36822
G01 X-3.43360 Y-3.36892
G01 X-3.42952 Y-3.36942
G01 X-3.42242 Y-3.36979
G01 X-3.37722 Y-3.36979
G01 X-3.36992 Y-3.36936
G01 X-3.36201 Y-3.36817
G01 X-3.35892 Y-3.36601
G01 X-3.35496 Y-3.36291
G01 X-3.34923 Y-3.35769
G01 X-3.34651 Y-3.35482
G01 X-3.34253 Y-3.35008
G01 X-3.33812 Y-3.34386
G01 X-3.33392 Y-3.33661
G01 X-3.33199 Y-3.33270
G01 X-3.33006 Y-3.32828
G01 X-3.32739 Y-3.32099
G01 X-3.32489 Y-3.31230
G01 X-3.32346 Y-3.30590
G01 X-3.32251 Y-3.30052
G01 X-3.32718 Y-3.29776
G01 X-3.33291 Y-3.29471
G01 X-3.33859 Y-3.29205
G01 X-3.34531 Y-3.28937
G01 X-3.45432 Y-3.28937
G01 X-3.46185 Y-3.28633
G01 X-3.47036 Y-3.28215
G01 X-3.47533 Y-3.27933
G01 X-3.47959 Y-3.27671
G01 X-3.48548 Y-3.27274
G01 X-3.48973 Y-3.26964
G01 X-3.49684 Y-3.26402
G01 X-3.50109 Y-3.26038
G01 X-3.51212 Y-3.25000
G01 X-3.50109 Y-3.26038
G01 X-3.49684 Y-3.26402
G01 X-3.48973 Y-3.26964
G01 X-3.48548 Y-3.27274
G01 X-3.47959 Y-3.27671
G01 X-3.47533 Y-3.27933
G01 X-3.47036 Y-3.28215
G01 X-3.46185 Y-3.28633
G01 X-3.45432 Y-3.28937
G01 X-3.34531 Y-3.28937
G01 X-3.33859 Y-3.29205
G01 X-3.33291 Y-3.29471
G01 X-3.32718 Y-3.29776
G01 X-3.32251 Y-3.30052
G01 X-3.31402 Y-3.29677
G01 X-3.31098 Y-3.29522
G01 X-3.30540 Y-3.29200
G01 X-3.29842 Y-3.28719
G01 X-3.29328 Y-3.28293
G01 X-3.28997 Y-3.27981
G01 X-3.21990 Y-3.20974
G01 X-3.21585 Y-3.20532
G01 X-3.21141 Y-3.19970
G01 X-3.21052 Y-3.19548
G01 X-3.20956 Y-3.18895
G01 X-3.20912 Y-3.18184
G01 X-3.20908 Y-3.00020
G01 X-3.20574 Y-2.99260
G01 X-3.20365 Y-2.98704
G01 X-3.20078 Y-2.97767
G01 X-3.19915 Y-2.97052
G01 X-3.19778 Y-2.96150
G01 X-3.19728 Y-2.95522
G01 X-3.19722 Y-2.94632
G01 X-3.19767 Y-2.93959
G01 X-3.19834 Y-2.93418
G01 X-3.19922 Y-2.92909
G01 X-3.20048 Y-2.92349
G01 X-3.20193 Y-2.91824
G01 X-3.20373 Y-2.91273
G01 X-3.20611 Y-2.90650
G01 X-3.20783 Y-2.90250
G01 X-3.21069 Y-2.89651
G01 X-3.21616 Y-2.88663
G01 X-3.21863 Y-2.88263
G01 X-3.22339 Y-2.87554
G01 X-3.22931 Y-2.86757
G01 X-3.23319 Y-2.86274
G01 X-3.23657 Y-2.85874
G01 X-3.24269 Y-2.85193
G01 X-3.24540 Y-2.84540
G01 X-3.31778 Y-2.81545
G01 X-3.32338 Y-2.81342
G01 X-3.32990 Y-2.81155
G01 X-3.33826 Y-2.80993
G01 X-3.34403 Y-2.80930
G01 X-3.34830 Y-2.80912
G01 X-3.35406 Y-2.80911
G01 X-3.36423 Y-2.80530
G01 X-3.37441 Y-2.80403
G01 X-3.42559 Y-2.80403
G01 X-3.43287 Y-2.80468
G01 X-3.44015 Y-2.80663
G01 X-3.44743 Y-2.80988
G01 X-3.45471 Y-2.81443
G01 X-3.45312 Y-2.82217
G01 X-3.45141 Y-2.82927
G01 X-3.45028 Y-2.83561
G01 X-3.44955 Y-2.84203
G01 X-3.44932 Y-2.84564
G01 X-3.44930 Y-2.85400
G01 X-3.44967 Y-2.85943
G01 X-3.45071 Y-2.86714
G01 X-3.45454 Y-2.88460
G01 X-3.45560 Y-2.89107
G01 X-3.45664 Y-2.89933
G01 X-3.45772 Y-2.91139
G01 X-3.45838 Y-2.92213
G01 X-3.45957 Y-2.95429
G01 X-3.45343 Y-2.98070
G01 X-3.44461 Y-3.00979
G01 X-3.45820 Y-3.01698
G01 X-3.46992 Y-3.02384
G01 X-3.48047 Y-3.03060
G01 X-3.50688 Y-3.04154
G01 X-3.51430 Y-3.04448
G01 X-3.53036 Y-3.05001
G01 X-3.54789 Y-3.05471
G01 X-3.56096 Y-3.05731
G01 X-3.56653 Y-3.05820
G01 X-3.57520 Y-3.06099
G01 X-3.58561 Y-3.06392
G01 X-3.59120 Y-3.06533
G01 X-3.60437 Y-3.06817
G01 X-3.61376 Y-3.06974
G01 X-3.62264 Y-3.07089
G01 X-3.62907 Y-3.07152
G01 X-3.63905 Y-3.07217
G01 X-3.64860 Y-3.07242
G01 X-3.66029 Y-3.07218
G01 X-3.66588 Y-3.07188
G01 X-3.67784 Y-3.07081
G01 X-3.68343 Y-3.07011
G01 X-3.69572 Y-3.06812
G01 X-3.70132 Y-3.06701
G01 X-3.71413 Y-3.06399
G01 X-3.72642 Y-3.06050
G01 X-3.99693 Y-3.06050
G01 X-4.00542 Y-3.05671
G01 X-4.01961 Y-3.04943
G01 X-4.02216 Y-3.04798
G01 X-4.03643 Y-3.03892
G01 X-4.03911 Y-3.03702
G01 X-4.05053 Y-3.02819
G01 X-4.05754 Y-3.02200
G01 X-4.06278 Y-3.01698
G01 X-4.19612 Y-2.88363
G01 X-4.21140 Y-2.87730
G01 X-4.24042 Y-2.84832
G01 X-4.24718 Y-2.84209
G01 X-4.25479 Y-2.83600
G01 X-4.26266 Y-2.83073
G01 X-4.26776 Y-2.82783
G01 X-4.27100 Y-2.82621
G01 X-4.27529 Y-2.82433
G01 X-4.27853 Y-2.82311
G01 X-4.28359 Y-2.82153
G01 X-4.29085 Y-2.82002
G01 X-4.29562 Y-2.81950
G01 X-4.29959 Y-2.81933
G01 X-4.42517 Y-2.81933
G01 X-4.43089 Y-2.81742
G01 X-4.43520 Y-2.81630
G01 X-4.43979 Y-2.81539
G01 X-4.44387 Y-2.81483
G01 X-4.44829 Y-2.81449
G01 X-4.45361 Y-2.81445
G01 X-4.45924 Y-2.81483
G01 X-4.46324 Y-2.81538
G01 X-4.47093 Y-2.81705
G01 X-4.47494 Y-2.81826
G01 X-4.48117 Y-2.82058
G01 X-4.48779 Y-2.82364
G01 X-4.49093 Y-2.82531
G01 X-4.49875 Y-2.83007
G01 X-4.49997 Y-2.83737
G01 X-4.50050 Y-2.84263
G01 X-4.50078 Y-2.85024
G01 X-4.50062 Y-2.85564
G01 X-4.50016 Y-2.86107
G01 X-4.49939 Y-2.86655
G01 X-4.49829 Y-2.87213
G01 X-4.49616 Y-2.88107
G01 X-4.49428 Y-2.89192
G01 X-4.49040 Y-2.89567
G01 X-4.48564 Y-2.89982
G01 X-4.48036 Y-2.90396
G01 X-4.47713 Y-2.90628
G01 X-4.46875 Y-2.91162
G01 X-4.46295 Y-2.91482
G01 X-4.45869 Y-2.91693
G01 X-4.44977 Y-2.92083
G01 X-4.44609 Y-2.92224
G01 X-4.43585 Y-2.92567
G01 X-4.42379 Y-2.92882
G01 X-4.41044 Y-2.93139
G01 X-4.40566 Y-2.93337
G01 X-4.40203 Y-2.94368
G01 X-4.39938 Y-2.95033
G01 X-4.39479 Y-2.96059
G01 X-4.39026 Y-2.96944
G01 X-4.38823 Y-2.97306
G01 X-4.38331 Y-2.98117
G01 X-4.38035 Y-2.98561
G01 X-4.37472 Y-2.99337
G01 X-4.36357 Y-3.00740
G01 X-4.35460 Y-3.01942
G01 X-4.34807 Y-3.02868
G01 X-4.33601 Y-3.04659
G01 X-4.33289 Y-3.05099
G01 X-4.32671 Y-3.05916
G01 X-4.32286 Y-3.06395
G01 X-4.31441 Y-3.07384
G01 X-4.31006 Y-3.07864
G01 X-4.29883 Y-3.09025
G01 X-4.29192 Y-3.09698
G01 X-4.26285 Y-3.16717
G01 X-4.24090 Y-3.16859
G01 X-4.23523 Y-3.16914
G01 X-4.21848 Y-3.17125
G01 X-4.21310 Y-3.17210
G01 X-4.19889 Y-3.17476
G01 X-4.19378 Y-3.17587
G01 X-4.18219 Y-3.17874
G01 X-4.16763 Y-3.18309
G01 X-4.16298 Y-3.18466
G01 X-4.15007 Y-3.18958
G01 X-4.14289 Y-3.19268
G01 X-4.13289 Y-3.19753
G01 X-4.12326 Y-3.20279
G01 X-4.11707 Y-3.20653
G01 X-4.10145 Y-3.20966
G01 X-4.08740 Y-3.21436
G01 X-4.08133 Y-3.21674
G01 X-4.07627 Y-3.21848
G01 X-4.06773 Y-3.22085
G01 X-4.06260 Y-3.22194
G01 X-4.05558 Y-3.22303
G01 X-4.04817 Y-3.22366
G01 X-4.04280 Y-3.22382
G01 X-4.01260 Y-3.22382
G01 X-4.00212 Y-3.22456
G01 X-3.99164 Y-3.22680
G01 X-3.98116 Y-3.23053
G01 X-3.97068 Y-3.23575
G01 X-3.92932 Y-3.23575
G01 X-3.91884 Y-3.23053
G01 X-3.90836 Y-3.22680
G01 X-3.89788 Y-3.22456
G01 X-3.88740 Y-3.22382
G01 X-3.81260 Y-3.22382
G01 X-3.79889 Y-3.22509
G01 X-3.78518 Y-3.22892
G01 X-3.77367 Y-3.22668
G01 X-3.76572 Y-3.22564
G01 X-3.75484 Y-3.22489
G01 X-3.74315 Y-3.22497
G01 X-3.73605 Y-3.22546
G01 X-3.72631 Y-3.22668
G01 X-3.71616 Y-3.22862
G01 X-3.70609 Y-3.23122
G01 X-3.69476 Y-3.23496
G01 X-3.68632 Y-3.23830
G01 X-3.67460 Y-3.24371
G01 X-3.66548 Y-3.24856
G01 X-3.65734 Y-3.25000
G01 X-3.51212 Y-3.25000
G01 X-3.50142 Y-3.23990
G01 X-3.49716 Y-3.23625
G01 X-3.49001 Y-3.23057
G01 X-3.48576 Y-3.22745
G01 X-3.47984 Y-3.22345
G01 X-3.47072 Y-3.21805
G01 X-3.46249 Y-3.21396
G01 X-3.45432 Y-3.21064
G01 X-3.34532 Y-3.21061
G01 X-3.33743 Y-3.20740
G01 X-3.33198 Y-3.20117
G01 X-3.32669 Y-3.19405
G01 X-3.32419 Y-3.19023
G01 X-3.32195 Y-3.18655
G01 X-3.31856 Y-3.18028
G01 X-3.31405 Y-3.17035
G01 X-3.31120 Y-3.16270
G01 X-3.30902 Y-3.15576
G01 X-3.30986 Y-3.14936
G01 X-3.31140 Y-3.14107
G01 X-3.31350 Y-3.13255
G01 X-3.31619 Y-3.12376
G01 X-3.31959 Y-3.11461
G01 X-3.32379 Y-3.10500
G01 X-3.32531 Y-3.10187
G01 X-3.33069 Y-3.09172
G01 X-3.33754 Y-3.08044
G01 X-3.34355 Y-3.07158
G01 X-3.35312 Y-3.05891
G01 X-3.36495 Y-3.04499
G01 X-3.37765 Y-3.03157
G01 X-3.38319 Y-3.02846
G01 X-3.39466 Y-3.02161
G01 X-3.39866 Y-3.01909
G01 X-3.41278 Y-3.00965
G01 X-3.44461 Y-3.00979
G01 X-3.45343 Y-2.98070
G01 X-3.45957 Y-2.95429
G01 X-3.45838 Y-2.92213
G01 X-3.45772 Y-2.91139
G01 X-3.45664 Y-2.89933
G01 X-3.45560 Y-2.89107
G01 X-3.45454 Y-2.88460
G01 X-3.45071 Y-2.86714
G01 X-3.44967 Y-2.85943
G01 X-3.44930 Y-2.85400
G01 X-3.44932 Y-2.84564
G01 X-3.44955 Y-2.84203
G01 X-3.45028 Y-2.83561
G01 X-3.45141 Y-2.82927
G01 X-3.45312 Y-2.82217
G01 X-3.45471 Y-2.81443
G01 X-3.46206 Y-2.81124
G01 X-3.46886 Y-2.80880
G01 X-3.47514 Y-2.80699
G01 X-3.48396 Y-2.80518
G01 X-3.48995 Y-2.80443
G01 X-3.49356 Y-2.80417
G01 X-3.49948 Y-2.80405
G01 X-3.50581 Y-2.80434
G01 X-3.51449 Y-2.80544
G01 X-3.52073 Y-2.80675
G01 X-3.52779 Y-2.80874
G01 X-3.53521 Y-2.81141
G01 X-3.54307 Y-2.81489
G01 X-3.54668 Y-2.81671
G01 X-3.55513 Y-2.82154
G01 X-3.56072 Y-2.82516
G01 X-3.56944 Y-2.83147
G01 X-3.57627 Y-2.83424
G01 X-3.58573 Y-2.83751
G01 X-3.59640 Y-2.84045
G01 X-3.60873 Y-2.84297
G01 X-3.61613 Y-2.84412
G01 X-3.64453 Y-2.83115
G01 X-3.65536 Y-2.82667
G01 X-3.66112 Y-2.82451
G01 X-3.67158 Y-2.82091
G01 X-3.68297 Y-2.81751
G01 X-3.69480 Y-2.81447
G01 X-3.70810 Y-2.81159
G01 X-3.71979 Y-2.80948
G01 X-3.73384 Y-2.81439
G01 X-3.74610 Y-2.81470
G01 X-3.81131 Y-2.81470

G04 P0 ( dwell for no time -- G64 should not smooth over this point )
G00 Z1.000000 ( retract )

M5 ( Spindle off. )
G04 P1.000000
M9 ( Coolant off. )
M2 ( Program end. )

