( pcb2gcode 3.0.1 )
( Software-independent Gcode )

G94 ( Inches per minute feed rate. )
G20 ( Units == INCHES. )

G90 ( Absolute coordinates. )
G00 S10000 ( RPM spindle speed. )
G64 P0.00040 ( set maximum deviation from commanded toolpath )
G01 F100.00000 ( Feedrate. )


G00 Z1.00000 (Retract to tool change height)
T1
M5      (Spindle stop.)
G04 P1.00000 (Wait for spindle to stop)
(MSG, Change tool bit to cutter diameter 0.00000in)
M6      (Tool change.)
M0      (Temporary machine stop.)
M3 ( Spindle on clockwise. )
G04 P1.00000 (Wait for spindle to get up to speed)
G04 P0 ( dwell for no time -- G64 should not smooth over this point )
G00 Z0.08000 ( retract )

G00 X4.55000 Y-4.25000 ( rapid move to begin. )
G01 Z-0.00512 F50.00000 ( plunge. )
G04 P0 ( dwell for no time -- G64 should not smooth over this point )
G01 F100.00000
G01 X4.55000 Y-4.15000
G01 X4.75000 Y-4.15000
G01 X4.74977 Y-4.15679
G01 X4.74908 Y-4.16355
G01 X4.74793 Y-4.17024
G01 X4.74622 Y-4.17723
G01 X4.74415 Y-4.18370
G01 X4.74148 Y-4.19038
G01 X4.73853 Y-4.19650
G01 X4.73496 Y-4.20274
G01 X4.73095 Y-4.20871
G01 X4.72677 Y-4.21407
G01 X4.72225 Y-4.21914
G01 X4.71739 Y-4.22389
G01 X4.71190 Y-4.22854
G01 X4.70643 Y-4.23256
G01 X4.70069 Y-4.23620
G01 X4.69472 Y-4.23944
G01 X4.69038 Y-4.24148
G01 X4.68595 Y-4.24331
G01 X4.68105 Y-4.24506
G01 X4.67646 Y-4.24643
G01 X4.67181 Y-4.24759
G01 X4.66671 Y-4.24859
G01 X4.66196 Y-4.24928
G01 X4.65719 Y-4.24974
G01 X4.65000 Y-4.25000
G01 X4.55000 Y-4.25000
G04 P0 ( dwell for no time -- G64 should not smooth over this point )
G00 Z0.08000 ( retract )

G00 X4.60000 Y-3.94980 ( rapid move to begin. )
G01 Z-0.00512 F50.00000 ( plunge. )
G04 P0 ( dwell for no time -- G64 should not smooth over this point )
G01 F100.00000
G01 X4.60012 Y-3.95500
G01 X4.60048 Y-3.95978
G01 X4.60106 Y-3.96455
G01 X4.60187 Y-3.96928
G01 X4.60301 Y-3.97435
G01 X4.60429 Y-3.97897
G01 X4.60579 Y-3.98353
G01 X4.60766 Y-3.98838
G01 X4.60961 Y-3.99277
G01 X4.61195 Y-3.99741
G01 X4.61433 Y-4.00158
G01 X4.61690 Y-4.00563
G01 X4.61967 Y-4.00955
G01 X4.62261 Y-4.01334
G01 X4.62601 Y-4.01727
G01 X4.62932 Y-4.02075
G01 X4.63310 Y-4.02432
G01 X4.63674 Y-4.02745
G01 X4.64053 Y-4.03039
G01 X4.64445 Y-4.03315
G01 X4.64851 Y-4.03572
G01 X4.65303 Y-4.03828
G01 X4.65732 Y-4.04043
G01 X4.66171 Y-4.04238
G01 X4.66618 Y-4.04411
G01 X4.67074 Y-4.04562
G01 X4.67575 Y-4.04701
G01 X4.68043 Y-4.04807
G01 X4.68516 Y-4.04889
G01 X4.69032 Y-4.04953
G01 X4.69510 Y-4.04988
G01 X4.69990 Y-4.05000
G01 X4.70470 Y-4.04989
G01 X4.70948 Y-4.04955
G01 X4.71425 Y-4.04898
G01 X4.71937 Y-4.04810
G01 X4.72445 Y-4.04697
G01 X4.72907 Y-4.04568
G01 X4.73363 Y-4.04418
G01 X4.73811 Y-4.04245
G01 X4.74250 Y-4.04052
G01 X4.74679 Y-4.03838
G01 X4.75098 Y-4.03603
G01 X4.75538 Y-4.03326
G01 X4.75931 Y-4.03051
G01 X4.76342 Y-4.02732
G01 X4.76705 Y-4.02419
G01 X4.77053 Y-4.02089
G01 X4.77358 Y-4.01772
G01 X4.77675 Y-4.01411
G01 X4.77998 Y-4.01003
G01 X4.78276 Y-4.00613
G01 X4.78557 Y-4.00175
G01 X4.78795 Y-3.99758
G01 X4.79013 Y-3.99331
G01 X4.79226 Y-3.98857
G01 X4.79401 Y-3.98410
G01 X4.79565 Y-3.97917
G01 X4.79694 Y-3.97454
G01 X4.79801 Y-3.96986
G01 X4.79891 Y-3.96474
G01 X4.79950 Y-3.95998
G01 X4.79988 Y-3.95480
G01 X4.80000 Y-3.95000
G01 X4.79988 Y-3.94520
G01 X4.79950 Y-3.94002
G01 X4.79891 Y-3.93526
G01 X4.79809 Y-3.93053
G01 X4.79704 Y-3.92584
G01 X4.79577 Y-3.92122
G01 X4.79414 Y-3.91628
G01 X4.79242 Y-3.91180
G01 X4.79048 Y-3.90741
G01 X4.78833 Y-3.90312
G01 X4.78598 Y-3.89893
G01 X4.78321 Y-3.89454
G01 X4.78045 Y-3.89061
G01 X4.77726 Y-3.88651
G01 X4.77412 Y-3.88287
G01 X4.77082 Y-3.87940
G01 X4.76705 Y-3.87581
G01 X4.76342 Y-3.87268
G01 X4.75963 Y-3.86972
G01 X4.75571 Y-3.86696
G01 X4.75166 Y-3.86438
G01 X4.74714 Y-3.86181
G01 X4.74286 Y-3.85965
G01 X4.73848 Y-3.85770
G01 X4.73400 Y-3.85596
G01 X4.72945 Y-3.85444
G01 X4.72483 Y-3.85313
G01 X4.72016 Y-3.85205
G01 X4.71544 Y-3.85120
G01 X4.71028 Y-3.85053
G01 X4.70510 Y-3.85013
G01 X4.70030 Y-3.85000
G01 X4.69510 Y-3.85012
G01 X4.69032 Y-3.85047
G01 X4.68516 Y-3.85111
G01 X4.68043 Y-3.85193
G01 X4.67575 Y-3.85298
G01 X4.67074 Y-3.85438
G01 X4.66618 Y-3.85589
G01 X4.66171 Y-3.85762
G01 X4.65732 Y-3.85956
G01 X4.65303 Y-3.86172
G01 X4.64851 Y-3.86428
G01 X4.64445 Y-3.86685
G01 X4.64053 Y-3.86961
G01 X4.63674 Y-3.87255
G01 X4.63310 Y-3.87568
G01 X4.62932 Y-3.87925
G01 X4.62601 Y-3.88273
G01 X4.62261 Y-3.88666
G01 X4.61967 Y-3.89045
G01 X4.61690 Y-3.89437
G01 X4.61433 Y-3.89842
G01 X4.61195 Y-3.90259
G01 X4.60961 Y-3.90723
G01 X4.60766 Y-3.91162
G01 X4.60579 Y-3.91647
G01 X4.60429 Y-3.92103
G01 X4.60301 Y-3.92565
G01 X4.60195 Y-3.93033
G01 X4.60106 Y-3.93545
G01 X4.60048 Y-3.94022
G01 X4.60012 Y-3.94500
G01 X4.60000 Y-3.94980

G04 P0 ( dwell for no time -- G64 should not smooth over this point )
G00 Z1.000000 ( retract )

M5 ( Spindle off. )
G04 P1.000000
M9 ( Coolant off. )
M2 ( Program end. )

