( pcb2gcode 2.5.0 )
( Software-independent Gcode )

G94 ( Inches per minute feed rate. )
G20 ( Units == INCHES. )

G90 ( Absolute coordinates. )
G00 S12000 ( RPM spindle speed. )
G64 P0.00040 ( set maximum deviation from commanded toolpath )
G01 F360.00000 ( Feedrate. )


G00 Z1.00000 (Retract to tool change height)
T1
M5      (Spindle stop.)
G04 P3.00000 (Wait for spindle to stop)
(MSG, Change tool bit to mill diameter 0.00787in)
M6      (Tool change.)
M0      (Temporary machine stop.)
M3 ( Spindle on clockwise. )
G04 P3.00000 (Wait for spindle to get up to speed)
G04 P0 ( dwell for no time -- G64 should not smooth over this point )
G00 Z0.08000 ( retract )

G00 X-3.18784 Y-2.55104 ( rapid move to begin. )
G01 F180.00000
( Mill infeed pass 1/1 )
G01 Z-0.04000
G04 P0 ( dwell for no time -- G64 should not smooth over this point )
G01 F360.00000
G01 X-3.18784 Y-2.55104
G01 X-3.18806 Y-2.54448
G01 X-3.18892 Y-2.53834
G01 X-3.19026 Y-2.53274
G01 X-3.19210 Y-2.52731
G01 X-3.19465 Y-2.52165
G01 X-3.19751 Y-2.51665
G01 X-3.20081 Y-2.51196
G01 X-3.20425 Y-2.50791
G01 X-3.20586 Y-2.50623
G01 X-3.21044 Y-2.50204
G01 X-3.21471 Y-2.49881
G01 X-3.22038 Y-2.49534
G01 X-3.22479 Y-2.49316
G01 X-3.23058 Y-2.49093
G01 X-3.23617 Y-2.48937
G01 X-3.24272 Y-2.48825
G01 X-3.24749 Y-2.48787
G01 X-3.25140 Y-2.48784
G01 X-3.25781 Y-2.48831
G01 X-3.26219 Y-2.48902
G01 X-3.26655 Y-2.49006
G01 X-3.27083 Y-2.49141
G01 X-3.27500 Y-2.49307
G01 X-3.28291 Y-2.49724
G01 X-3.28978 Y-2.50221
G01 X-3.29373 Y-2.50579
G01 X-3.29682 Y-2.50908
G01 X-3.29874 Y-2.51141
G01 X-3.29853 Y-2.51191
G01 X-3.29874 Y-2.51141
G01 X-3.60128 Y-2.51141
G01 X-3.60153 Y-2.51197
G01 X-3.60128 Y-2.51141
G01 X-3.60319 Y-2.50908
G01 X-3.60656 Y-2.50550
G01 X-3.61121 Y-2.50139
G01 X-3.61555 Y-2.49823
G01 X-3.62011 Y-2.49549
G01 X-3.62653 Y-2.49241
G01 X-3.63197 Y-2.49049
G01 X-3.63673 Y-2.48926
G01 X-3.64373 Y-2.48813
G01 X-3.64947 Y-2.48782
G01 X-3.65476 Y-2.48800
G01 X-3.65748 Y-2.48831
G01 X-3.65769 Y-2.48888
G01 X-3.65748 Y-2.48831
G01 X-3.77052 Y-2.37531
G01 X-3.77425 Y-2.37231
G01 X-3.77597 Y-2.37112
G01 X-3.78030 Y-2.36878
G01 X-3.78216 Y-2.36795
G01 X-3.78917 Y-2.36587
G01 X-3.79158 Y-2.36552
G01 X-3.79650 Y-2.36516
G01 X-4.15350 Y-2.36516
G01 X-4.15812 Y-2.36546
G01 X-4.16016 Y-2.36575
G01 X-4.16492 Y-2.36691
G01 X-4.17054 Y-2.36916
G01 X-4.17537 Y-2.37202
G01 X-4.17974 Y-2.37555
G01 X-4.29252 Y-2.48831
G01 X-4.29230 Y-2.48888
G01 X-4.29252 Y-2.48831
G01 X-4.29523 Y-2.48800
G01 X-4.30053 Y-2.48782
G01 X-4.30627 Y-2.48813
G01 X-4.31327 Y-2.48926
G01 X-4.31803 Y-2.49049
G01 X-4.32346 Y-2.49241
G01 X-4.32989 Y-2.49549
G01 X-4.33445 Y-2.49823
G01 X-4.33878 Y-2.50139
G01 X-4.34343 Y-2.50550
G01 X-4.34681 Y-2.50908
G01 X-4.34872 Y-2.51141
G01 X-4.34847 Y-2.51197
G01 X-4.34872 Y-2.51141
G01 X-4.65126 Y-2.51141
G01 X-4.65147 Y-2.51191
G01 X-4.65126 Y-2.51141
G01 X-4.65318 Y-2.50908
G01 X-4.65627 Y-2.50579
G01 X-4.66022 Y-2.50221
G01 X-4.66709 Y-2.49724
G01 X-4.67500 Y-2.49307
G01 X-4.67917 Y-2.49141
G01 X-4.68345 Y-2.49006
G01 X-4.68781 Y-2.48902
G01 X-4.69219 Y-2.48831
G01 X-4.69860 Y-2.48784
G01 X-4.70251 Y-2.48787
G01 X-4.70728 Y-2.48825
G01 X-4.71383 Y-2.48937
G01 X-4.71942 Y-2.49093
G01 X-4.72521 Y-2.49316
G01 X-4.72962 Y-2.49534
G01 X-4.73154 Y-2.49643
G01 X-4.73672 Y-2.49984
G01 X-4.74058 Y-2.50289
G01 X-4.74549 Y-2.50761
G01 X-4.74919 Y-2.51196
G01 X-4.75249 Y-2.51665
G01 X-4.75535 Y-2.52165
G01 X-4.75790 Y-2.52731
G01 X-4.75974 Y-2.53274
G01 X-4.76108 Y-2.53834
G01 X-4.76190 Y-2.54404
G01 X-4.76218 Y-2.54979
G01 X-4.76194 Y-2.55552
G01 X-4.76108 Y-2.56166
G01 X-4.75974 Y-2.56726
G01 X-4.75790 Y-2.57269
G01 X-4.75535 Y-2.57835
G01 X-4.75249 Y-2.58335
G01 X-4.74922 Y-2.58800
G01 X-4.74610 Y-2.59172
G01 X-4.74148 Y-2.59633
G01 X-4.73704 Y-2.59995
G01 X-4.73188 Y-2.60339
G01 X-4.72755 Y-2.60573
G01 X-4.72186 Y-2.60820
G01 X-4.71978 Y-2.60894
G01 X-4.71513 Y-2.61032
G01 X-4.70872 Y-2.61155
G01 X-4.70436 Y-2.61203
G01 X-4.69998 Y-2.61217
G01 X-4.69371 Y-2.61185
G01 X-4.68967 Y-2.61132
G01 X-4.68523 Y-2.61040
G01 X-4.68048 Y-2.60904
G01 X-4.67622 Y-2.60746
G01 X-4.67174 Y-2.60539
G01 X-4.66782 Y-2.60321
G01 X-4.66407 Y-2.60075
G01 X-4.66054 Y-2.59806
G01 X-4.65672 Y-2.59465
G01 X-4.65358 Y-2.59137
G01 X-4.65127 Y-2.58858
G01 X-4.65151 Y-2.58804
G01 X-4.65127 Y-2.58858
G01 X-4.34871 Y-2.58858
G01 X-4.34849 Y-2.58808
G01 X-4.34871 Y-2.58858
G01 X-4.34433 Y-2.59359
G01 X-4.33989 Y-2.59770
G01 X-4.33411 Y-2.60199
G01 X-4.32863 Y-2.60519
G01 X-4.32649 Y-2.60623
G01 X-4.32065 Y-2.60866
G01 X-4.31410 Y-2.61056
G01 X-4.30725 Y-2.61176
G01 X-4.30159 Y-2.61214
G01 X-4.29946 Y-2.61217
G01 X-4.29313 Y-2.61180
G01 X-4.28614 Y-2.61062
G01 X-4.28008 Y-2.60889
G01 X-4.27367 Y-2.60630
G01 X-4.27364 Y-2.60575
G01 X-4.27367 Y-2.60630
G01 X-4.09173 Y-2.69727
G01 X-4.09079 Y-2.69669
G01 X-4.09173 Y-2.69727
G01 X-4.09173 Y-2.79162
G01 X-4.08544 Y-2.80683
G01 X-4.08544 Y-2.69338
G01 X-4.08449 Y-2.69280
G01 X-4.08544 Y-2.69338
G01 X-4.27368 Y-2.59925
G01 X-4.27367 Y-2.59859
G01 X-4.27368 Y-2.59925
G01 X-4.27458 Y-2.59976
G01 X-4.28147 Y-2.60272
G01 X-4.28718 Y-2.60439
G01 X-4.29343 Y-2.60549
G01 X-4.30121 Y-2.60585
G01 X-4.30670 Y-2.60548
G01 X-4.31285 Y-2.60439
G01 X-4.31853 Y-2.60272
G01 X-4.32402 Y-2.60043
G01 X-4.32583 Y-2.59953
G01 X-4.33129 Y-2.59630
G01 X-4.33599 Y-2.59275
G01 X-4.34030 Y-2.58871
G01 X-4.34512 Y-2.58296
G01 X-4.34558 Y-2.58229
G01 X-4.34529 Y-2.58168
G01 X-4.34558 Y-2.58229
G01 X-4.65441 Y-2.58229
G01 X-4.65471 Y-2.58166
G01 X-4.65441 Y-2.58229
G01 X-4.65789 Y-2.58674
G01 X-4.66067 Y-2.58970
G01 X-4.66398 Y-2.59273
G01 X-4.66755 Y-2.59550
G01 X-4.67091 Y-2.59772
G01 X-4.67440 Y-2.59968
G01 X-4.67845 Y-2.60156
G01 X-4.68225 Y-2.60299
G01 X-4.68653 Y-2.60424
G01 X-4.69050 Y-2.60507
G01 X-4.69451 Y-2.60561
G01 X-4.69898 Y-2.60588
G01 X-4.70302 Y-2.60579
G01 X-4.70840 Y-2.60525
G01 X-4.71378 Y-2.60416
G01 X-4.71945 Y-2.60237
G01 X-4.72388 Y-2.60053
G01 X-4.72777 Y-2.59848
G01 X-4.73281 Y-2.59523
G01 X-4.73714 Y-2.59176
G01 X-4.74130 Y-2.58763
G01 X-4.74457 Y-2.58369
G01 X-4.74707 Y-2.58013
G01 X-4.74926 Y-2.57636
G01 X-4.75196 Y-2.57057
G01 X-4.75364 Y-2.56569
G01 X-4.75485 Y-2.56069
G01 X-4.75570 Y-2.55435
G01 X-4.75589 Y-2.55000
G01 X-4.75570 Y-2.54565
G01 X-4.75499 Y-2.54010
G01 X-4.75364 Y-2.53430
G01 X-4.75181 Y-2.52906
G01 X-4.74926 Y-2.52364
G01 X-4.74707 Y-2.51987
G01 X-4.74409 Y-2.51566
G01 X-4.73981 Y-2.51080
G01 X-4.73632 Y-2.50752
G01 X-4.73221 Y-2.50433
G01 X-4.72678 Y-2.50096
G01 X-4.72285 Y-2.49900
G01 X-4.71763 Y-2.49697
G01 X-4.71263 Y-2.49556
G01 X-4.70791 Y-2.49469
G01 X-4.70185 Y-2.49415
G01 X-4.69818 Y-2.49414
G01 X-4.69415 Y-2.49443
G01 X-4.68883 Y-2.49524
G01 X-4.68531 Y-2.49608
G01 X-4.68149 Y-2.49727
G01 X-4.67638 Y-2.49936
G01 X-4.67011 Y-2.50278
G01 X-4.66349 Y-2.50769
G01 X-4.66026 Y-2.51070
G01 X-4.65755 Y-2.51365
G01 X-4.65441 Y-2.51771
G01 X-4.65472 Y-2.51835
G01 X-4.65441 Y-2.51771
G01 X-4.34559 Y-2.51771
G01 X-4.34532 Y-2.51830
G01 X-4.34559 Y-2.51771
G01 X-4.34246 Y-2.51366
G01 X-4.33918 Y-2.51015
G01 X-4.33531 Y-2.50669
G01 X-4.33013 Y-2.50295
G01 X-4.32599 Y-2.50053
G01 X-4.32128 Y-2.49832
G01 X-4.31601 Y-2.49646
G01 X-4.31175 Y-2.49538
G01 X-4.30503 Y-2.49434
G01 X-4.30028 Y-2.49411
G01 X-4.29513 Y-2.49433
G01 X-4.29028 Y-2.49498
G01 X-4.29006 Y-2.49560
G01 X-4.29028 Y-2.49498
G01 X-4.17555 Y-2.38026
G01 X-4.17164 Y-2.37710
G01 X-4.16768 Y-2.37478
G01 X-4.16308 Y-2.37293
G01 X-4.15879 Y-2.37190
G01 X-4.15350 Y-2.37146
G01 X-3.79650 Y-2.37146
G01 X-3.79055 Y-2.37202
G01 X-3.78472 Y-2.37371
G01 X-3.78323 Y-2.37436
G01 X-3.77923 Y-2.37651
G01 X-3.77470 Y-2.38002
G01 X-3.65972 Y-2.49498
G01 X-3.65994 Y-2.49560
G01 X-3.65972 Y-2.49498
G01 X-3.65487 Y-2.49433
G01 X-3.64972 Y-2.49411
G01 X-3.64497 Y-2.49434
G01 X-3.63825 Y-2.49538
G01 X-3.63399 Y-2.49646
G01 X-3.62872 Y-2.49832
G01 X-3.62401 Y-2.50053
G01 X-3.61987 Y-2.50295
G01 X-3.61469 Y-2.50669
G01 X-3.61082 Y-2.51015
G01 X-3.60754 Y-2.51366
G01 X-3.60440 Y-2.51771
G01 X-3.60468 Y-2.51830
G01 X-3.60440 Y-2.51771
G01 X-3.29558 Y-2.51771
G01 X-3.29528 Y-2.51835
G01 X-3.29558 Y-2.51771
G01 X-3.29245 Y-2.51365
G01 X-3.28973 Y-2.51070
G01 X-3.28651 Y-2.50769
G01 X-3.27989 Y-2.50278
G01 X-3.27361 Y-2.49936
G01 X-3.26851 Y-2.49727
G01 X-3.26469 Y-2.49608
G01 X-3.26117 Y-2.49524
G01 X-3.25585 Y-2.49443
G01 X-3.25182 Y-2.49414
G01 X-3.24815 Y-2.49415
G01 X-3.24209 Y-2.49469
G01 X-3.23737 Y-2.49556
G01 X-3.23237 Y-2.49697
G01 X-3.22715 Y-2.49900
G01 X-3.22322 Y-2.50096
G01 X-3.21779 Y-2.50433
G01 X-3.21368 Y-2.50752
G01 X-3.21019 Y-2.51080
G01 X-3.20591 Y-2.51566
G01 X-3.20293 Y-2.51987
G01 X-3.20074 Y-2.52364
G01 X-3.19789 Y-2.52980
G01 X-3.19636 Y-2.53430
G01 X-3.19532 Y-2.53853
G01 X-3.19445 Y-2.54406
G01 X-3.19411 Y-2.55000
G01 X-3.19435 Y-2.55511
G01 X-3.19505 Y-2.56017
G01 X-3.19643 Y-2.56587
G01 X-3.19782 Y-2.57000
G01 X-3.19954 Y-2.57400
G01 X-3.20220 Y-2.57892
G01 X-3.20553 Y-2.58385
G01 X-3.20907 Y-2.58805
G01 X-3.21301 Y-2.59187
G01 X-3.21637 Y-2.59464
G01 X-3.21996 Y-2.59711
G01 X-3.22553 Y-2.60024
G01 X-3.23026 Y-2.60228
G01 X-3.23512 Y-2.60387
G01 X-3.24048 Y-2.60507
G01 X-3.24513 Y-2.60567
G01 X-3.24904 Y-2.60587
G01 X-3.25493 Y-2.60566
G01 X-3.25894 Y-2.60516
G01 X-3.26292 Y-2.60437
G01 X-3.26681 Y-2.60330
G01 X-3.27098 Y-2.60180
G01 X-3.27466 Y-2.60015
G01 X-3.27862 Y-2.59800
G01 X-3.28206 Y-2.59577
G01 X-3.28568 Y-2.59301
G01 X-3.28903 Y-2.58999
G01 X-3.29211 Y-2.58674
G01 X-3.29559 Y-2.58229
G01 X-3.29529 Y-2.58166
G01 X-3.29559 Y-2.58229
G01 X-3.60442 Y-2.58229
G01 X-3.60472 Y-2.58166
G01 X-3.60442 Y-2.58229
G01 X-3.60799 Y-2.58684
G01 X-3.61144 Y-2.59045
G01 X-3.61451 Y-2.59316
G01 X-3.61925 Y-2.59665
G01 X-3.62275 Y-2.59879
G01 X-3.62680 Y-2.60084
G01 X-3.63059 Y-2.60240
G01 X-3.63448 Y-2.60368
G01 X-3.64021 Y-2.60501
G01 X-3.64427 Y-2.60559
G01 X-3.64836 Y-2.60586
G01 X-3.65290 Y-2.60581
G01 X-3.65698 Y-2.60544
G01 X-3.66288 Y-2.60436
G01 X-3.66475 Y-2.60388
G01 X-3.67041 Y-2.60202
G01 X-3.67579 Y-2.59958
G01 X-3.68116 Y-2.59639
G01 X-3.68556 Y-2.59308
G01 X-3.69093 Y-2.58805
G01 X-3.69492 Y-2.58325
G01 X-3.69835 Y-2.57803
G01 X-3.70117 Y-2.57246
G01 X-3.70346 Y-2.56625
G01 X-3.70489 Y-2.56050
G01 X-3.70577 Y-2.55344
G01 X-3.70585 Y-2.54791
G01 X-3.70535 Y-2.54243
G01 X-3.70501 Y-2.54030
G01 X-3.70435 Y-2.54007
G01 X-3.70501 Y-2.54030
G01 X-3.80977 Y-2.43553
G01 X-3.80957 Y-2.43505
G01 X-3.80977 Y-2.43553
G01 X-3.91027 Y-2.43553
G01 X-3.91442 Y-2.43194
G01 X-3.91999 Y-2.42855
G01 X-3.92498 Y-2.42663
G01 X-3.93110 Y-2.42584
G01 X-4.06890 Y-2.42584
G01 X-4.07502 Y-2.42663
G01 X-4.08001 Y-2.42855
G01 X-4.08122 Y-2.42923
G01 X-4.14284 Y-2.42923
G01 X-4.14304 Y-2.42876
G01 X-4.14284 Y-2.42923
G01 X-4.25187 Y-2.53827
G01 X-4.25262 Y-2.53803
G01 X-4.25187 Y-2.53827
G01 X-4.25110 Y-2.54178
G01 X-4.25066 Y-2.54562
G01 X-4.25128 Y-2.54607
G01 X-4.25066 Y-2.54562
G01 X-4.01197 Y-2.66496
G01 X-4.01201 Y-2.66513
G01 X-4.01197 Y-2.66496
G01 X-3.93070 Y-2.66497
G01 X-3.92871 Y-2.66525
G01 X-3.92718 Y-2.66574
G01 X-3.92575 Y-2.66647
G01 X-3.92445 Y-2.66742
G01 X-3.92306 Y-2.66886
G01 X-3.92198 Y-2.67055
G01 X-3.92115 Y-2.67281
G01 X-3.92087 Y-2.67480
G01 X-3.92087 Y-2.81340
G01 X-3.92115 Y-2.81539
G01 X-3.92164 Y-2.81692
G01 X-3.92259 Y-2.81869
G01 X-3.92386 Y-2.82024
G01 X-3.92541 Y-2.82151
G01 X-3.92718 Y-2.82246
G01 X-3.92910 Y-2.82304
G01 X-3.93110 Y-2.82324
G01 X-4.06890 Y-2.82324
G01 X-4.07050 Y-2.82311
G01 X-4.07206 Y-2.82274
G01 X-4.07459 Y-2.82151
G01 X-4.07642 Y-2.81995
G01 X-4.07783 Y-2.81800
G01 X-4.07875 Y-2.81578
G01 X-4.07913 Y-2.81340
G01 X-4.07914 Y-2.68948
G01 X-4.07820 Y-2.68890
G01 X-4.07914 Y-2.68948
G01 X-4.27388 Y-2.59211
G01 X-4.27387 Y-2.59140
G01 X-4.27388 Y-2.59211
G01 X-4.27807 Y-2.59447
G01 X-4.28360 Y-2.59679
G01 X-4.28937 Y-2.59842
G01 X-4.29489 Y-2.59932
G01 X-4.30044 Y-2.59958
G01 X-4.30597 Y-2.59922
G01 X-4.31143 Y-2.59825
G01 X-4.31677 Y-2.59666
G01 X-4.32194 Y-2.59447
G01 X-4.32718 Y-2.59147
G01 X-4.33136 Y-2.58839
G01 X-4.33573 Y-2.58438
G01 X-4.33962 Y-2.57981
G01 X-4.34219 Y-2.57599
G01 X-4.34187 Y-2.57534
G01 X-4.34219 Y-2.57599
G01 X-4.65779 Y-2.57599
G01 X-4.65809 Y-2.57537
G01 X-4.65779 Y-2.57599
G01 X-4.66003 Y-2.57934
G01 X-4.66276 Y-2.58275
G01 X-4.66522 Y-2.58535
G01 X-4.66819 Y-2.58804
G01 X-4.67136 Y-2.59048
G01 X-4.67434 Y-2.59243
G01 X-4.67779 Y-2.59433
G01 X-4.68106 Y-2.59583
G01 X-4.68441 Y-2.59707
G01 X-4.68824 Y-2.59817
G01 X-4.69175 Y-2.59889
G01 X-4.69569 Y-2.59940
G01 X-4.69927 Y-2.59958
G01 X-4.70330 Y-2.59948
G01 X-4.70732 Y-2.59903
G01 X-4.71222 Y-2.59806
G01 X-4.71705 Y-2.59655
G01 X-4.72120 Y-2.59483
G01 X-4.72482 Y-2.59292
G01 X-4.72941 Y-2.58992
G01 X-4.73295 Y-2.58705
G01 X-4.73651 Y-2.58354
G01 X-4.73942 Y-2.58006
G01 X-4.74176 Y-2.57673
G01 X-4.74381 Y-2.57321
G01 X-4.74611 Y-2.56824
G01 X-4.74759 Y-2.56393
G01 X-4.74867 Y-2.55949
G01 X-4.74941 Y-2.55406
G01 X-4.74959 Y-2.55000
G01 X-4.74941 Y-2.54594
G01 X-4.74875 Y-2.54099
G01 X-4.74759 Y-2.53607
G01 X-4.74592 Y-2.53130
G01 X-4.74381 Y-2.52679
G01 X-4.74176 Y-2.52327
G01 X-4.73913 Y-2.51954
G01 X-4.73549 Y-2.51538
G01 X-4.73221 Y-2.51230
G01 X-4.72859 Y-2.50949
G01 X-4.72438 Y-2.50682
G01 X-4.72073 Y-2.50496
G01 X-4.71563 Y-2.50294
G01 X-4.71122 Y-2.50170
G01 X-4.70680 Y-2.50089
G01 X-4.70140 Y-2.50044
G01 X-4.69821 Y-2.50045
G01 X-4.69421 Y-2.50075
G01 X-4.69026 Y-2.50138
G01 X-4.68680 Y-2.50220
G01 X-4.68341 Y-2.50327
G01 X-4.67973 Y-2.50475
G01 X-4.67379 Y-2.50791
G01 X-4.66807 Y-2.51207
G01 X-4.66460 Y-2.51529
G01 X-4.66245 Y-2.51761
G01 X-4.66000 Y-2.52070
G01 X-4.65777 Y-2.52401
G01 X-4.65812 Y-2.52470
G01 X-4.65777 Y-2.52401
G01 X-4.34218 Y-2.52401
G01 X-4.34182 Y-2.52471
G01 X-4.34218 Y-2.52401
G01 X-4.34091 Y-2.52199
G01 X-4.33789 Y-2.51802
G01 X-4.33441 Y-2.51431
G01 X-4.33105 Y-2.51134
G01 X-4.32734 Y-2.50863
G01 X-4.32305 Y-2.50610
G01 X-4.31889 Y-2.50415
G01 X-4.31419 Y-2.50249
G01 X-4.30974 Y-2.50138
G01 X-4.30481 Y-2.50065
G01 X-4.30072 Y-2.50043
G01 X-4.29569 Y-2.50060
G01 X-4.29075 Y-2.50128
G01 X-4.28826 Y-2.50186
G01 X-4.28802 Y-2.50262
G01 X-4.28826 Y-2.50186
G01 X-4.17141 Y-2.38502
G01 X-4.16808 Y-2.38229
G01 X-4.16529 Y-2.38064
G01 X-4.16384 Y-2.37995
G01 X-4.16052 Y-2.37874
G01 X-4.15746 Y-2.37807
G01 X-4.15350 Y-2.37776
G01 X-3.79650 Y-2.37776
G01 X-3.79155 Y-2.37825
G01 X-3.78690 Y-2.37962
G01 X-3.78264 Y-2.38181
G01 X-3.77888 Y-2.38474
G01 X-3.66174 Y-2.50186
G01 X-3.66198 Y-2.50262
G01 X-3.66174 Y-2.50186
G01 X-3.65925 Y-2.50128
G01 X-3.65430 Y-2.50060
G01 X-3.64928 Y-2.50043
G01 X-3.64519 Y-2.50065
G01 X-3.64026 Y-2.50138
G01 X-3.63581 Y-2.50249
G01 X-3.63111 Y-2.50415
G01 X-3.62695 Y-2.50610
G01 X-3.62266 Y-2.50863
G01 X-3.61895 Y-2.51134
G01 X-3.61558 Y-2.51431
G01 X-3.61211 Y-2.51802
G01 X-3.60908 Y-2.52199
G01 X-3.60782 Y-2.52401
G01 X-3.60818 Y-2.52471
G01 X-3.60782 Y-2.52401
G01 X-3.29222 Y-2.52401
G01 X-3.29188 Y-2.52470
G01 X-3.29222 Y-2.52401
G01 X-3.29000 Y-2.52070
G01 X-3.28755 Y-2.51761
G01 X-3.28540 Y-2.51529
G01 X-3.28193 Y-2.51207
G01 X-3.27621 Y-2.50791
G01 X-3.27027 Y-2.50475
G01 X-3.26659 Y-2.50327
G01 X-3.26320 Y-2.50220
G01 X-3.25974 Y-2.50138
G01 X-3.25578 Y-2.50075
G01 X-3.25179 Y-2.50045
G01 X-3.24860 Y-2.50044
G01 X-3.24320 Y-2.50089
G01 X-3.23878 Y-2.50170
G01 X-3.23436 Y-2.50294
G01 X-3.22927 Y-2.50496
G01 X-3.22562 Y-2.50682
G01 X-3.22141 Y-2.50949
G01 X-3.21779 Y-2.51230
G01 X-3.21451 Y-2.51538
G01 X-3.21087 Y-2.51954
G01 X-3.20824 Y-2.52327
G01 X-3.20619 Y-2.52679
G01 X-3.20372 Y-2.53222
G01 X-3.20241 Y-2.53607
G01 X-3.20144 Y-2.54002
G01 X-3.20068 Y-2.54495
G01 X-3.20041 Y-2.55000
G01 X-3.20062 Y-2.55453
G01 X-3.20134 Y-2.55948
G01 X-3.20227 Y-2.56344
G01 X-3.20354 Y-2.56731
G01 X-3.20553 Y-2.57193
G01 X-3.20770 Y-2.57586
G01 X-3.21055 Y-2.58004
G01 X-3.21378 Y-2.58385
G01 X-3.21667 Y-2.58671
G01 X-3.21980 Y-2.58932
G01 X-3.22352 Y-2.59191
G01 X-3.22830 Y-2.59458
G01 X-3.23249 Y-2.59639
G01 X-3.23680 Y-2.59780
G01 X-3.24169 Y-2.59888
G01 X-3.24569 Y-2.59940
G01 X-3.24975 Y-2.59958
G01 X-3.25378 Y-2.59944
G01 X-3.25776 Y-2.59897
G01 X-3.26127 Y-2.59829
G01 X-3.26511 Y-2.59723
G01 X-3.26845 Y-2.59603
G01 X-3.27170 Y-2.59458
G01 X-3.27523 Y-2.59269
G01 X-3.27861 Y-2.59050
G01 X-3.28181 Y-2.58804
G01 X-3.28477 Y-2.58535
G01 X-3.28723 Y-2.58275
G01 X-3.28997 Y-2.57934
G01 X-3.29221 Y-2.57599
G01 X-3.29187 Y-2.57531
G01 X-3.29221 Y-2.57599
G01 X-3.60779 Y-2.57599
G01 X-3.60817 Y-2.57526
G01 X-3.60779 Y-2.57599
G01 X-3.61030 Y-2.57970
G01 X-3.61312 Y-2.58314
G01 X-3.61593 Y-2.58603
G01 X-3.61897 Y-2.58868
G01 X-3.62222 Y-2.59107
G01 X-3.62564 Y-2.59319
G01 X-3.62886 Y-2.59485
G01 X-3.63335 Y-2.59670
G01 X-3.63680 Y-2.59780
G01 X-3.64114 Y-2.59878
G01 X-3.64472 Y-2.59930
G01 X-3.64874 Y-2.59957
G01 X-3.65277 Y-2.59951
G01 X-3.65637 Y-2.59917
G01 X-3.66282 Y-2.59788
G01 X-3.66777 Y-2.59629
G01 X-3.67286 Y-2.59400
G01 X-3.67762 Y-2.59118
G01 X-3.68175 Y-2.58807
G01 X-3.68633 Y-2.58374
G01 X-3.68987 Y-2.57948
G01 X-3.69309 Y-2.57451
G01 X-3.69556 Y-2.56955
G01 X-3.69735 Y-2.56471
G01 X-3.69854 Y-2.56008
G01 X-3.69944 Y-2.55375
G01 X-3.69954 Y-2.54779
G01 X-3.69904 Y-2.54265
G01 X-3.69814 Y-2.53826
G01 X-3.69742 Y-2.53802
G01 X-3.69814 Y-2.53826
G01 X-3.80716 Y-2.42923
G01 X-3.80696 Y-2.42876
G01 X-3.80716 Y-2.42923
G01 X-3.91878 Y-2.42923
G01 X-3.91999 Y-2.42855
G01 X-3.92499 Y-2.42667
G01 X-3.93110 Y-2.42585
G01 X-4.06890 Y-2.42585
G01 X-4.07429 Y-2.42650
G01 X-4.08001 Y-2.42855
G01 X-4.08558 Y-2.43194
G01 X-4.08972 Y-2.43553
G01 X-4.14023 Y-2.43553
G01 X-4.14043 Y-2.43505
G01 X-4.14023 Y-2.43553
G01 X-4.24498 Y-2.54028
G01 X-4.24573 Y-2.54004
G01 X-4.24498 Y-2.54028
G01 X-4.24488 Y-2.54077
G01 X-4.24477 Y-2.54152
G01 X-4.24539 Y-2.54197
G01 X-4.24477 Y-2.54152
G01 X-4.01048 Y-2.65866
G01 X-4.01052 Y-2.65883
G01 X-4.01048 Y-2.65866
G01 X-3.93110 Y-2.65866
G01 X-3.92908 Y-2.65879
G01 X-3.92669 Y-2.65926
G01 X-3.92403 Y-2.66025
G01 X-3.92191 Y-2.66145
G01 X-3.92000 Y-2.66295
G01 X-3.91806 Y-2.66503
G01 X-3.91671 Y-2.66705
G01 X-3.91567 Y-2.66925
G01 X-3.91497 Y-2.67158
G01 X-3.91469 Y-2.67318
G01 X-3.91456 Y-2.67520
G01 X-3.91457 Y-2.81340
G01 X-3.91488 Y-2.81623
G01 X-3.91567 Y-2.81895
G01 X-3.91671 Y-2.82115
G01 X-3.91832 Y-2.82349
G01 X-3.92093 Y-2.82604
G01 X-3.92367 Y-2.82777
G01 X-3.92669 Y-2.82894
G01 X-3.93029 Y-2.82951
G01 X-4.06273 Y-2.82953
G01 X-4.06756 Y-2.82753
G01 X-4.07285 Y-2.82475
G01 X-4.07716 Y-2.82125
G01 X-4.08065 Y-2.81695
G01 X-4.08343 Y-2.81166
G01 X-4.08544 Y-2.80683
G01 X-4.08343 Y-2.81166
G01 X-4.08065 Y-2.81695
G01 X-4.07716 Y-2.82125
G01 X-4.07285 Y-2.82475
G01 X-4.06756 Y-2.82753
G01 X-4.04752 Y-2.83583
G01 X-3.92949 Y-2.83578
G01 X-3.92749 Y-2.83555
G01 X-3.92512 Y-2.83504
G01 X-3.92283 Y-2.83428
G01 X-3.92062 Y-2.83329
G01 X-3.91854 Y-2.83207
G01 X-3.91659 Y-2.83064
G01 X-3.91481 Y-2.82900
G01 X-3.91321 Y-2.82719
G01 X-3.91119 Y-2.82418
G01 X-3.90954 Y-2.82051
G01 X-3.90855 Y-2.81661
G01 X-3.90827 Y-2.81300
G01 X-3.90827 Y-2.70969
G01 X-3.90918 Y-2.70710
G01 X-3.91064 Y-2.69529
G01 X-3.91065 Y-2.67540
G01 X-3.91205 Y-2.66416
G01 X-3.91326 Y-2.66095
G01 X-3.91539 Y-2.65863
G01 X-3.91787 Y-2.65659
G01 X-3.92027 Y-2.65510
G01 X-3.92283 Y-2.65392
G01 X-3.92551 Y-2.65306
G01 X-3.92829 Y-2.65254
G01 X-3.93110 Y-2.65237
G01 X-4.00899 Y-2.65237
G01 X-4.00903 Y-2.65253
G01 X-4.00899 Y-2.65237
G01 X-4.23510 Y-2.53931
G01 X-4.23951 Y-2.54003
G01 X-4.23510 Y-2.53931
G01 X-4.13762 Y-2.44183
G01 X-4.13782 Y-2.44135
G01 X-4.13762 Y-2.44183
G01 X-4.09619 Y-2.44183
G01 X-4.09113 Y-2.43677
G01 X-4.08597 Y-2.43225
G01 X-4.08057 Y-2.42883
G01 X-4.07501 Y-2.42667
G01 X-4.06890 Y-2.42585
G01 X-3.93110 Y-2.42585
G01 X-3.92499 Y-2.42667
G01 X-3.91943 Y-2.42883
G01 X-3.91403 Y-2.43225
G01 X-3.90887 Y-2.43677
G01 X-3.90381 Y-2.44183
G01 X-3.81238 Y-2.44183
G01 X-3.81218 Y-2.44135
G01 X-3.81238 Y-2.44183
G01 X-3.71169 Y-2.54252
G01 X-3.71116 Y-2.54231
G01 X-3.71169 Y-2.54252
G01 X-3.71215 Y-2.54875
G01 X-3.71201 Y-2.55467
G01 X-3.71092 Y-2.56244
G01 X-3.70931 Y-2.56867
G01 X-3.70703 Y-2.57479
G01 X-3.70411 Y-2.58062
G01 X-3.70218 Y-2.58372
G01 X-3.69260 Y-2.59103
G01 X-3.68392 Y-2.59846
G01 X-3.67856 Y-2.60272
G01 X-3.67040 Y-2.60837
G01 X-3.66929 Y-2.60904
G01 X-3.66557 Y-2.61020
G01 X-3.65802 Y-2.61166
G01 X-3.65329 Y-2.61210
G01 X-3.64898 Y-2.61217
G01 X-3.64245 Y-2.61171
G01 X-3.63819 Y-2.61105
G01 X-3.63327 Y-2.60989
G01 X-3.62881 Y-2.60846
G01 X-3.62481 Y-2.60684
G01 X-3.61897 Y-2.60389
G01 X-3.61500 Y-2.60140
G01 X-3.61123 Y-2.59862
G01 X-3.60741 Y-2.59531
G01 X-3.60412 Y-2.59197
G01 X-3.60126 Y-2.58858
G01 X-3.60146 Y-2.58810
G01 X-3.60126 Y-2.58858
G01 X-3.29873 Y-2.58858
G01 X-3.29849 Y-2.58804
G01 X-3.29873 Y-2.58858
G01 X-3.29642 Y-2.59137
G01 X-3.29328 Y-2.59465
G01 X-3.28946 Y-2.59806
G01 X-3.28573 Y-2.60089
G01 X-3.28180 Y-2.60344
G01 X-3.27724 Y-2.60590
G01 X-3.27351 Y-2.60757
G01 X-3.26892 Y-2.60924
G01 X-3.26500 Y-2.61034
G01 X-3.25927 Y-2.61149
G01 X-3.25492 Y-2.61199
G01 X-3.25024 Y-2.61218
G01 X-3.24359 Y-2.61184
G01 X-3.23879 Y-2.61117
G01 X-3.23325 Y-2.60988
G01 X-3.22784 Y-2.60810
G01 X-3.22257 Y-2.60580
G01 X-3.21752 Y-2.60303
G01 X-3.21275 Y-2.59979
G01 X-3.20805 Y-2.59590
G01 X-3.20403 Y-2.59188
G01 X-3.20039 Y-2.58750
G01 X-3.19714 Y-2.58275
G01 X-3.19434 Y-2.57772
G01 X-3.19201 Y-2.57245
G01 X-3.19020 Y-2.56706
G01 X-3.18889 Y-2.56152
G01 X-3.18810 Y-2.55589
G01 X-3.18784 Y-2.55104
G01 X-3.20672 Y-2.55018
G01 X-3.20691 Y-2.55413
G01 X-3.20747 Y-2.55805
G01 X-3.20839 Y-2.56191
G01 X-3.20965 Y-2.56566
G01 X-3.21126 Y-2.56930
G01 X-3.21340 Y-2.57311
G01 X-3.21567 Y-2.57636
G01 X-3.21822 Y-2.57939
G01 X-3.22104 Y-2.58217
G01 X-3.22410 Y-2.58468
G01 X-3.22740 Y-2.58691
G01 X-3.23124 Y-2.58901
G01 X-3.23488 Y-2.59056
G01 X-3.23865 Y-2.59177
G01 X-3.24252 Y-2.59263
G01 X-3.24642 Y-2.59314
G01 X-3.24994 Y-2.59328
G01 X-3.25314 Y-2.59317
G01 X-3.25663 Y-2.59277
G01 X-3.25968 Y-2.59219
G01 X-3.26306 Y-2.59127
G01 X-3.26598 Y-2.59023
G01 X-3.26879 Y-2.58899
G01 X-3.27188 Y-2.58734
G01 X-3.27485 Y-2.58544
G01 X-3.27764 Y-2.58331
G01 X-3.28026 Y-2.58095
G01 X-3.28240 Y-2.57871
G01 X-3.28461 Y-2.57599
G01 X-3.28638 Y-2.57345
G01 X-3.28853 Y-2.56969
G01 X-3.61147 Y-2.56969
G01 X-3.61363 Y-2.57347
G01 X-3.61566 Y-2.57634
G01 X-3.61791 Y-2.57905
G01 X-3.62038 Y-2.58156
G01 X-3.62304 Y-2.58386
G01 X-3.62588 Y-2.58594
G01 X-3.62888 Y-2.58778
G01 X-3.63202 Y-2.58937
G01 X-3.63528 Y-2.59070
G01 X-3.63863 Y-2.59176
G01 X-3.64206 Y-2.59255
G01 X-3.64523 Y-2.59302
G01 X-3.64874 Y-2.59327
G01 X-3.65226 Y-2.59322
G01 X-3.65576 Y-2.59290
G01 X-3.66090 Y-2.59188
G01 X-3.66547 Y-2.59042
G01 X-3.66990 Y-2.58843
G01 X-3.67443 Y-2.58573
G01 X-3.67827 Y-2.58277
G01 X-3.68175 Y-2.57942
G01 X-3.68483 Y-2.57569
G01 X-3.68748 Y-2.57164
G01 X-3.68948 Y-2.56772
G01 X-3.69122 Y-2.56321
G01 X-3.69243 Y-2.55852
G01 X-3.69315 Y-2.55332
G01 X-3.69324 Y-2.54802
G01 X-3.69274 Y-2.54321
G01 X-3.69183 Y-2.53890
G01 X-3.69104 Y-2.53645
G01 X-3.80455 Y-2.42294
G01 X-4.14545 Y-2.42294
G01 X-4.25895 Y-2.53644
G01 X-4.25828 Y-2.53848
G01 X-4.25733 Y-2.54277
G01 X-4.25679 Y-2.54758
G01 X-4.25676 Y-2.54961
G01 X-4.01345 Y-2.67126
G01 X-3.93110 Y-2.67126
G01 X-3.92988 Y-2.67145
G01 X-3.92878 Y-2.67201
G01 X-3.92791 Y-2.67288
G01 X-3.92725 Y-2.67438
G01 X-3.92716 Y-2.81300
G01 X-3.92735 Y-2.81422
G01 X-3.92817 Y-2.81563
G01 X-3.92950 Y-2.81660
G01 X-3.93110 Y-2.81694
G01 X-4.06890 Y-2.81694
G01 X-4.07050 Y-2.81660
G01 X-4.07182 Y-2.81563
G01 X-4.07250 Y-2.81460
G01 X-4.07284 Y-2.81300
G01 X-4.07284 Y-2.68559
G01 X-4.27440 Y-2.58481
G01 X-4.27667 Y-2.58645
G01 X-4.28090 Y-2.58884
G01 X-4.28575 Y-2.59087
G01 X-4.29042 Y-2.59221
G01 X-4.29561 Y-2.59306
G01 X-4.30044 Y-2.59328
G01 X-4.30527 Y-2.59296
G01 X-4.31003 Y-2.59210
G01 X-4.31468 Y-2.59071
G01 X-4.31953 Y-2.58862
G01 X-4.32368 Y-2.58622
G01 X-4.32759 Y-2.58334
G01 X-4.33114 Y-2.58006
G01 X-4.33456 Y-2.57606
G01 X-4.33726 Y-2.57202
G01 X-4.33847 Y-2.56969
G01 X-4.66147 Y-2.56969
G01 X-4.66362 Y-2.57345
G01 X-4.66539 Y-2.57599
G01 X-4.66760 Y-2.57871
G01 X-4.66974 Y-2.58095
G01 X-4.67236 Y-2.58331
G01 X-4.67489 Y-2.58526
G01 X-4.67772 Y-2.58711
G01 X-4.68043 Y-2.58861
G01 X-4.68362 Y-2.59006
G01 X-4.68652 Y-2.59113
G01 X-4.68989 Y-2.59209
G01 X-4.69293 Y-2.59270
G01 X-4.69640 Y-2.59314
G01 X-4.69950 Y-2.59328
G01 X-4.70304 Y-2.59318
G01 X-4.70697 Y-2.59272
G01 X-4.71049 Y-2.59199
G01 X-4.71429 Y-2.59086
G01 X-4.71834 Y-2.58920
G01 X-4.72219 Y-2.58716
G01 X-4.72583 Y-2.58473
G01 X-4.72890 Y-2.58222
G01 X-4.73172 Y-2.57945
G01 X-4.73406 Y-2.57671
G01 X-4.73655 Y-2.57318
G01 X-4.73853 Y-2.56973
G01 X-4.74018 Y-2.56609
G01 X-4.74149 Y-2.56233
G01 X-4.74252 Y-2.55811
G01 X-4.74312 Y-2.55377
G01 X-4.74328 Y-2.55018
G01 X-4.74312 Y-2.54622
G01 X-4.74252 Y-2.54189
G01 X-4.74149 Y-2.53767
G01 X-4.74018 Y-2.53391
G01 X-4.73835 Y-2.52994
G01 X-4.73636 Y-2.52651
G01 X-4.73405 Y-2.52328
G01 X-4.73116 Y-2.51996
G01 X-4.72796 Y-2.51696
G01 X-4.72481 Y-2.51453
G01 X-4.72143 Y-2.51240
G01 X-4.71789 Y-2.51059
G01 X-4.71345 Y-2.50886
G01 X-4.70962 Y-2.50780
G01 X-4.70568 Y-2.50709
G01 X-4.70140 Y-2.50674
G01 X-4.69830 Y-2.50675
G01 X-4.69479 Y-2.50703
G01 X-4.69163 Y-2.50753
G01 X-4.68861 Y-2.50824
G01 X-4.68567 Y-2.50915
G01 X-4.68242 Y-2.51045
G01 X-4.67709 Y-2.51328
G01 X-4.67178 Y-2.51718
G01 X-4.66943 Y-2.51936
G01 X-4.66731 Y-2.52162
G01 X-4.66538 Y-2.52402
G01 X-4.66339 Y-2.52690
G01 X-4.66147 Y-2.53031
G01 X-4.33850 Y-2.53031
G01 X-4.33772 Y-2.52877
G01 X-4.33561 Y-2.52540
G01 X-4.33294 Y-2.52193
G01 X-4.33023 Y-2.51902
G01 X-4.32724 Y-2.51636
G01 X-4.32404 Y-2.51400
G01 X-4.32028 Y-2.51176
G01 X-4.31668 Y-2.51006
G01 X-4.31256 Y-2.50858
G01 X-4.30870 Y-2.50760
G01 X-4.30437 Y-2.50694
G01 X-4.30040 Y-2.50672
G01 X-4.29606 Y-2.50690
G01 X-4.29210 Y-2.50744
G01 X-4.28823 Y-2.50835
G01 X-4.28643 Y-2.50894
G01 X-4.16695 Y-2.38947
G01 X-4.16476 Y-2.38767
G01 X-4.16214 Y-2.38610
G01 X-4.15877 Y-2.38480
G01 X-4.15623 Y-2.38426
G01 X-4.15350 Y-2.38406
G01 X-3.79650 Y-2.38406
G01 X-3.79293 Y-2.38439
G01 X-3.78909 Y-2.38553
G01 X-3.78591 Y-2.38720
G01 X-3.78305 Y-2.38947
G01 X-3.66357 Y-2.50894
G01 X-3.66177 Y-2.50835
G01 X-3.65790 Y-2.50744
G01 X-3.65394 Y-2.50690
G01 X-3.64960 Y-2.50672
G01 X-3.64563 Y-2.50694
G01 X-3.64130 Y-2.50760
G01 X-3.63744 Y-2.50858
G01 X-3.63332 Y-2.51006
G01 X-3.62972 Y-2.51176
G01 X-3.62596 Y-2.51400
G01 X-3.62276 Y-2.51636
G01 X-3.61977 Y-2.51902
G01 X-3.61705 Y-2.52193
G01 X-3.61439 Y-2.52540
G01 X-3.61228 Y-2.52877
G01 X-3.61150 Y-2.53031
G01 X-3.28853 Y-2.53031
G01 X-3.28661 Y-2.52690
G01 X-3.28462 Y-2.52402
G01 X-3.28269 Y-2.52162
G01 X-3.28057 Y-2.51936
G01 X-3.27822 Y-2.51718
G01 X-3.27291 Y-2.51328
G01 X-3.26758 Y-2.51045
G01 X-3.26433 Y-2.50915
G01 X-3.26139 Y-2.50824
G01 X-3.25837 Y-2.50753
G01 X-3.25489 Y-2.50699
G01 X-3.25140 Y-2.50674
G01 X-3.24828 Y-2.50675
G01 X-3.24431 Y-2.50709
G01 X-3.24001 Y-2.50788
G01 X-3.23618 Y-2.50898
G01 X-3.23211 Y-2.51059
G01 X-3.22857 Y-2.51240
G01 X-3.22488 Y-2.51475
G01 X-3.22175 Y-2.51721
G01 X-3.21856 Y-2.52025
G01 X-3.21572 Y-2.52358
G01 X-3.21345 Y-2.52682
G01 X-3.21147 Y-2.53027
G01 X-3.20968 Y-2.53427
G01 X-3.20841 Y-2.53802
G01 X-3.20748 Y-2.54189
G01 X-3.20688 Y-2.54622
G01 X-3.20672 Y-2.55018
G04 P0 ( dwell for no time -- G64 should not smooth over this point )
G00 Z0.08000 ( retract )

G00 X-3.45238 Y-2.85136 ( rapid move to begin. )
G01 F180.00000
( Mill infeed pass 1/1 )
G01 Z-0.04000
G04 P0 ( dwell for no time -- G64 should not smooth over this point )
G01 F360.00000
G01 X-3.45238 Y-2.85136
G01 X-3.45247 Y-2.84578
G01 X-3.45299 Y-2.83916
G01 X-3.45389 Y-2.83303
G01 X-3.45462 Y-2.82936
G01 X-3.45786 Y-2.82355
G01 X-3.46113 Y-2.81914
G01 X-3.46543 Y-2.81459
G01 X-3.46772 Y-2.81259
G01 X-3.46982 Y-2.81180
G01 X-3.47592 Y-2.81004
G01 X-3.48182 Y-2.80874
G01 X-3.48755 Y-2.80786
G01 X-3.49635 Y-2.80721
G01 X-3.50207 Y-2.80727
G01 X-3.50823 Y-2.80773
G01 X-3.51705 Y-2.80914
G01 X-3.52348 Y-2.81073
G01 X-3.52893 Y-2.81245
G01 X-3.53141 Y-2.81457
G01 X-3.53530 Y-2.81861
G01 X-3.53844 Y-2.82278
G01 X-3.53977 Y-2.82480
G01 X-3.54224 Y-2.82939
G01 X-3.54319 Y-2.83161
G01 X-3.54505 Y-2.83691
G01 X-3.54631 Y-2.84280
G01 X-3.54645 Y-2.84381
G01 X-3.54621 Y-2.84394
G01 X-3.54645 Y-2.84381
G01 X-3.60737 Y-2.90473
G01 X-3.60724 Y-2.90682
G01 X-3.60737 Y-2.90473
G01 X-3.61225 Y-2.90059
G01 X-3.61653 Y-2.89759
G01 X-3.62031 Y-2.89537
G01 X-3.62662 Y-2.89239
G01 X-3.63333 Y-2.89012
G01 X-3.63603 Y-2.88943
G01 X-3.64231 Y-2.88829
G01 X-3.65001 Y-2.88782
G01 X-3.65774 Y-2.88831
G01 X-3.66343 Y-2.88928
G01 X-3.66782 Y-2.89042
G01 X-3.67168 Y-2.89173
G01 X-3.67698 Y-2.89398
G01 X-3.68403 Y-2.89795
G01 X-3.68905 Y-2.90162
G01 X-3.69239 Y-2.90451
G01 X-3.69710 Y-2.90943
G01 X-3.69891 Y-2.91167
G01 X-3.69871 Y-2.91215
G01 X-3.69891 Y-2.91167
G01 X-3.97992 Y-2.91167
G01 X-3.98012 Y-2.91214
G01 X-3.97992 Y-2.91167
G01 X-4.04993 Y-2.84165
G01 X-4.06514 Y-2.83535
G01 X-3.98253 Y-2.91796
G01 X-3.98273 Y-2.91844
G01 X-3.98253 Y-2.91796
G01 X-3.69567 Y-2.91796
G01 X-3.69533 Y-2.91864
G01 X-3.69567 Y-2.91796
G01 X-3.69330 Y-2.91467
G01 X-3.68745 Y-2.90852
G01 X-3.68433 Y-2.90590
G01 X-3.68109 Y-2.90356
G01 X-3.67457 Y-2.89982
G01 X-3.66963 Y-2.89769
G01 X-3.66581 Y-2.89640
G01 X-3.66228 Y-2.89548
G01 X-3.65721 Y-2.89459
G01 X-3.65002 Y-2.89412
G01 X-3.64312 Y-2.89454
G01 X-3.63642 Y-2.89579
G01 X-3.62995 Y-2.89783
G01 X-3.62416 Y-2.90045
G01 X-3.62008 Y-2.90280
G01 X-3.61653 Y-2.90526
G01 X-3.61179 Y-2.90922
G01 X-3.60896 Y-2.91206
G01 X-3.60750 Y-2.91377
G01 X-3.60747 Y-2.91628
G01 X-3.60750 Y-2.91377
G01 X-3.54035 Y-2.84662
G01 X-3.54007 Y-2.84677
G01 X-3.54035 Y-2.84662
G01 X-3.54013 Y-2.84408
G01 X-3.53877 Y-2.83790
G01 X-3.53684 Y-2.83270
G01 X-3.53443 Y-2.82814
G01 X-3.53337 Y-2.82652
G01 X-3.52999 Y-2.82212
G01 X-3.52635 Y-2.81846
G01 X-3.52196 Y-2.81507
G01 X-3.51633 Y-2.81187
G01 X-3.51057 Y-2.80968
G01 X-3.50618 Y-2.80859
G01 X-3.50173 Y-2.80803
G01 X-3.49997 Y-2.80791
G01 X-3.49545 Y-2.80798
G01 X-3.48927 Y-2.80888
G01 X-3.48338 Y-2.81067
G01 X-3.47931 Y-2.81246
G01 X-3.47546 Y-2.81469
G01 X-3.47021 Y-2.81873
G01 X-3.46675 Y-2.82223
G01 X-3.46396 Y-2.82580
G01 X-3.46275 Y-2.82764
G01 X-3.46036 Y-2.83195
G01 X-3.45852 Y-2.83650
G01 X-3.45723 Y-2.84122
G01 X-3.45634 Y-2.84818
G01 X-3.45636 Y-2.85231
G01 X-3.45687 Y-2.85690
G01 X-3.45785 Y-2.86134
G01 X-3.45915 Y-2.86522
G01 X-3.46102 Y-2.86937
G01 X-3.46336 Y-2.87335
G01 X-3.46609 Y-2.87700
G01 X-3.46856 Y-2.87971
G01 X-3.47310 Y-2.88364
G01 X-3.47671 Y-2.88610
G01 X-3.48068 Y-2.88821
G01 X-3.48497 Y-2.88992
G01 X-3.48891 Y-2.89103
G01 X-3.49438 Y-2.89193
G01 X-3.49511 Y-2.89199
G01 X-3.49526 Y-2.89170
G01 X-3.49511 Y-2.89199
G01 X-3.57577 Y-2.97265
G01 X-3.57945 Y-2.97580
G01 X-3.58222 Y-2.97763
G01 X-3.58557 Y-2.97934
G01 X-3.59076 Y-2.98110
G01 X-3.59446 Y-2.98179
G01 X-3.59806 Y-2.98203
G01 X-3.60423 Y-2.98204
G01 X-3.60454 Y-2.98143
G01 X-3.60423 Y-2.98204
G01 X-3.60720 Y-2.98594
G01 X-3.61021 Y-2.98924
G01 X-3.61343 Y-2.99226
G01 X-3.61658 Y-2.99479
G01 X-3.62017 Y-2.99726
G01 X-3.62773 Y-3.00125
G01 X-3.63109 Y-3.00259
G01 X-3.63456 Y-3.00370
G01 X-3.63924 Y-3.00484
G01 X-3.64415 Y-3.00557
G01 X-3.64818 Y-3.00585
G01 X-3.65184 Y-3.00585
G01 X-3.65989 Y-3.00500
G01 X-3.66646 Y-3.00337
G01 X-3.66870 Y-3.00263
G01 X-3.67563 Y-2.99965
G01 X-3.68178 Y-2.99597
G01 X-3.68798 Y-2.99099
G01 X-3.69366 Y-2.98488
G01 X-3.69567 Y-2.98204
G01 X-3.69541 Y-2.98147
G01 X-3.69567 Y-2.98204
G01 X-3.99580 Y-2.98204
G01 X-4.00112 Y-2.98159
G01 X-4.00659 Y-2.98016
G01 X-4.01102 Y-2.97814
G01 X-4.01290 Y-2.97708
G01 X-4.01554 Y-2.97523
G01 X-4.01845 Y-2.97265
G01 X-4.17016 Y-2.82094
G01 X-4.16996 Y-2.82046
G01 X-4.17016 Y-2.82094
G01 X-4.27535 Y-2.82094
G01 X-4.28057 Y-2.81912
G01 X-4.28522 Y-2.81787
G01 X-4.29288 Y-2.81658
G01 X-4.29797 Y-2.81622
G01 X-4.42459 Y-2.81618
G01 X-4.43004 Y-2.81439
G01 X-4.43600 Y-2.81290
G01 X-4.44057 Y-2.81206
G01 X-4.44347 Y-2.81171
G01 X-4.44944 Y-2.81130
G01 X-4.45225 Y-2.81125
G01 X-4.45780 Y-2.81153
G01 X-4.46379 Y-2.81226
G01 X-4.46978 Y-2.81350
G01 X-4.47386 Y-2.81465
G01 X-4.51209 Y-2.81465
G01 X-4.50733 Y-2.81766
G01 X-4.50233 Y-2.82204
G01 X-4.49831 Y-2.82606
G01 X-4.49241 Y-2.82253
G01 X-4.48515 Y-2.81888
G01 X-4.47830 Y-2.81609
G01 X-4.47386 Y-2.81465
G01 X-4.51209 Y-2.81465
G01 X-4.51330 Y-2.81396
G01 X-4.51829 Y-2.81203
G01 X-4.52441 Y-2.81124
G01 X-4.57559 Y-2.81123
G01 X-4.58376 Y-2.81263
G01 X-4.58746 Y-2.81465
G01 X-4.63903 Y-2.81465
G01 X-4.63922 Y-2.81417
G01 X-4.63903 Y-2.81465
G01 X-4.72409 Y-2.89971
G01 X-4.73076 Y-2.90477
G01 X-4.73606 Y-2.90941
G01 X-4.74002 Y-2.91337
G01 X-4.74388 Y-2.91762
G01 X-4.74935 Y-2.92452
G01 X-4.75086 Y-2.93176
G01 X-4.75165 Y-2.93684
G01 X-4.75231 Y-2.94382
G01 X-4.75249 Y-2.94886
G01 X-4.75231 Y-2.95612
G01 X-4.75165 Y-2.96310
G01 X-4.75081 Y-2.96851
G01 X-4.74989 Y-2.97299
G01 X-4.74921 Y-2.97551
G01 X-4.74939 Y-2.97560
G01 X-4.74921 Y-2.97551
G01 X-4.74642 Y-2.97928
G01 X-4.74295 Y-2.98345
G01 X-4.73898 Y-2.98773
G01 X-4.73466 Y-2.99187
G01 X-4.73023 Y-2.99566
G01 X-4.72407 Y-3.00031
G01 X-4.57886 Y-3.14552
G01 X-4.57906 Y-3.14600
G01 X-4.57886 Y-3.14552
G01 X-4.54929 Y-3.14552
G01 X-4.54912 Y-3.14594
G01 X-4.54929 Y-3.14552
G01 X-4.54755 Y-3.14375
G01 X-4.54395 Y-3.14074
G01 X-4.54034 Y-3.13841
G01 X-4.53684 Y-3.13666
G01 X-4.53170 Y-3.13484
G01 X-4.52785 Y-3.13398
G01 X-4.52338 Y-3.13350
G01 X-4.47835 Y-3.13346
G01 X-4.47451 Y-3.13366
G01 X-4.46965 Y-3.13448
G01 X-4.46440 Y-3.13613
G01 X-4.45944 Y-3.13853
G01 X-4.45507 Y-3.14148
G01 X-4.45081 Y-3.14537
G01 X-4.44753 Y-3.14939
G01 X-4.44709 Y-3.15001
G01 X-4.44607 Y-3.15377
G01 X-4.44489 Y-3.15964
G01 X-4.44409 Y-3.16675
G01 X-4.44395 Y-3.17204
G01 X-4.44412 Y-3.17618
G01 X-4.44496 Y-3.18333
G01 X-4.44577 Y-3.18746
G01 X-4.44709 Y-3.19249
G01 X-4.45111 Y-3.19746
G01 X-4.45545 Y-3.20133
G01 X-4.45978 Y-3.20417
G01 X-4.46502 Y-3.20662
G01 X-4.46774 Y-3.20746
G01 X-4.45304 Y-3.20744
G01 X-4.44936 Y-3.19918
G01 X-4.44709 Y-3.19249
G01 X-4.45111 Y-3.19746
G01 X-4.45608 Y-3.20177
G01 X-4.46011 Y-3.20437
G01 X-4.46502 Y-3.20662
G01 X-4.46774 Y-3.20746
G01 X-4.47012 Y-3.20749
G01 X-4.53231 Y-3.20748
G01 X-4.53433 Y-3.20686
G01 X-4.53769 Y-3.20548
G01 X-4.54152 Y-3.20341
G01 X-4.54451 Y-3.20136
G01 X-4.54756 Y-3.19878
G01 X-4.54929 Y-3.19699
G01 X-4.54915 Y-3.19662
G01 X-4.54929 Y-3.19699
G01 X-4.59154 Y-3.19692
G01 X-4.59553 Y-3.19628
G01 X-4.59861 Y-3.19531
G01 X-4.59983 Y-3.19483
G01 X-4.60311 Y-3.19311
G01 X-4.60713 Y-3.19002
G01 X-4.79305 Y-3.00413
G01 X-4.79602 Y-3.00056
G01 X-4.79805 Y-2.99707
G01 X-4.79954 Y-2.99311
G01 X-4.80026 Y-2.99002
G01 X-4.80057 Y-2.98680
G01 X-4.80056 Y-2.91289
G01 X-4.80005 Y-2.90898
G01 X-4.79961 Y-2.90716
G01 X-4.79828 Y-2.90343
G01 X-4.79636 Y-2.89997
G01 X-4.79305 Y-2.89587
G01 X-4.66759 Y-2.77043
G01 X-4.66386 Y-2.76743
G01 X-4.66000 Y-2.76533
G01 X-4.65563 Y-2.76387
G01 X-4.65050 Y-2.76319
G01 X-4.15689 Y-2.76317
G01 X-4.15379 Y-2.76336
G01 X-4.15101 Y-2.76385
G01 X-4.14760 Y-2.76491
G01 X-4.14408 Y-2.76659
G01 X-4.14140 Y-2.76836
G01 X-4.13869 Y-2.77071
G01 X-3.98514 Y-2.92426
G01 X-3.98534 Y-2.92474
G01 X-3.98514 Y-2.92426
G01 X-3.69238 Y-2.92426
G01 X-3.69202 Y-2.92496
G01 X-3.69238 Y-2.92426
G01 X-3.68796 Y-2.91811
G01 X-3.68333 Y-2.91329
G01 X-3.68061 Y-2.91099
G01 X-3.67674 Y-2.90827
G01 X-3.67122 Y-2.90518
G01 X-3.66796 Y-2.90378
G01 X-3.66419 Y-2.90249
G01 X-3.66073 Y-2.90159
G01 X-3.65682 Y-2.90088
G01 X-3.64957 Y-2.90042
G01 X-3.64351 Y-2.90084
G01 X-3.63757 Y-2.90200
G01 X-3.63149 Y-2.90401
G01 X-3.62704 Y-2.90605
G01 X-3.62346 Y-2.90811
G01 X-3.61976 Y-2.91070
G01 X-3.61632 Y-2.91361
G01 X-3.61346 Y-2.91648
G01 X-3.61111 Y-2.91924
G01 X-3.60818 Y-2.92336
G01 X-3.60832 Y-2.92639
G01 X-3.60818 Y-2.92336
G01 X-3.53423 Y-2.84941
G01 X-3.53394 Y-2.84956
G01 X-3.53423 Y-2.84941
G01 X-3.53394 Y-2.84532
G01 X-3.53293 Y-2.84038
G01 X-3.53109 Y-2.83529
G01 X-3.52907 Y-2.83147
G01 X-3.52829 Y-2.83025
G01 X-3.52522 Y-2.82625
G01 X-3.52217 Y-2.82318
G01 X-3.51786 Y-2.81991
G01 X-3.51401 Y-2.81774
G01 X-3.50981 Y-2.81603
G01 X-3.50544 Y-2.81487
G01 X-3.50097 Y-2.81428
G01 X-3.49504 Y-2.81435
G01 X-3.49103 Y-2.81495
G01 X-3.48665 Y-2.81616
G01 X-3.48251 Y-2.81790
G01 X-3.47863 Y-2.82014
G01 X-3.47503 Y-2.82287
G01 X-3.47181 Y-2.82604
G01 X-3.46823 Y-2.83075
G01 X-3.46603 Y-2.83470
G01 X-3.46450 Y-2.83849
G01 X-3.46332 Y-2.84284
G01 X-3.46267 Y-2.84774
G01 X-3.46264 Y-2.85178
G01 X-3.46311 Y-2.85605
G01 X-3.46408 Y-2.86016
G01 X-3.46508 Y-2.86309
G01 X-3.46637 Y-2.86597
G01 X-3.46850 Y-2.86970
G01 X-3.47128 Y-2.87337
G01 X-3.47339 Y-2.87563
G01 X-3.47637 Y-2.87823
G01 X-3.48000 Y-2.88073
G01 X-3.48350 Y-2.88257
G01 X-3.48716 Y-2.88401
G01 X-3.49100 Y-2.88505
G01 X-3.49536 Y-2.88569
G01 X-3.49782 Y-2.88579
G01 X-3.49798 Y-2.88545
G01 X-3.49782 Y-2.88579
G01 X-3.58023 Y-2.96820
G01 X-3.58224 Y-2.96999
G01 X-3.58615 Y-2.97260
G01 X-3.58878 Y-2.97386
G01 X-3.59242 Y-2.97501
G01 X-3.59529 Y-2.97554
G01 X-3.59843 Y-2.97574
G01 X-3.60762 Y-2.97574
G01 X-3.60793 Y-2.97510
G01 X-3.60762 Y-2.97574
G01 X-3.60970 Y-2.97889
G01 X-3.61214 Y-2.98202
G01 X-3.61456 Y-2.98467
G01 X-3.61742 Y-2.98738
G01 X-3.61988 Y-2.98938
G01 X-3.62378 Y-2.99208
G01 X-3.62973 Y-2.99525
G01 X-3.63341 Y-2.99673
G01 X-3.63680 Y-2.99780
G01 X-3.64026 Y-2.99862
G01 X-3.64421 Y-2.99925
G01 X-3.64821 Y-2.99955
G01 X-3.65140 Y-2.99956
G01 X-3.65878 Y-2.99880
G01 X-3.66561 Y-2.99706
G01 X-3.67213 Y-2.99437
G01 X-3.67759 Y-2.99118
G01 X-3.68370 Y-2.98637
G01 X-3.68829 Y-2.98150
G01 X-3.69238 Y-2.97574
G01 X-3.69201 Y-2.97503
G01 X-3.69238 Y-2.97574
G01 X-3.99580 Y-2.97574
G01 X-3.99989 Y-2.97541
G01 X-4.00426 Y-2.97430
G01 X-4.00936 Y-2.97187
G01 X-4.01168 Y-2.97025
G01 X-4.01400 Y-2.96820
G01 X-4.16755 Y-2.81465
G01 X-4.16735 Y-2.81417
G01 X-4.16755 Y-2.81465
G01 X-4.42922 Y-2.81465
G01 X-4.43453 Y-2.81322
G01 X-4.44066 Y-2.81207
G01 X-4.44808 Y-2.81135
G01 X-4.45235 Y-2.81127
G01 X-4.45792 Y-2.81154
G01 X-4.46367 Y-2.81226
G01 X-4.47172 Y-2.81400
G01 X-4.47596 Y-2.81528
G01 X-4.48231 Y-2.81764
G01 X-4.48942 Y-2.82094
G01 X-4.50358 Y-2.82094
G01 X-4.50774 Y-2.81736
G01 X-4.51274 Y-2.81424
G01 X-4.51902 Y-2.81191
G01 X-4.52441 Y-2.81126
G01 X-4.57559 Y-2.81126
G01 X-4.58374 Y-2.81270
G01 X-4.59062 Y-2.81633
G01 X-4.60180 Y-2.81635
G01 X-4.60650 Y-2.81662
G01 X-4.60894 Y-2.81694
G01 X-4.61597 Y-2.81828
G01 X-4.62111 Y-2.81979
G01 X-4.62430 Y-2.82094
G01 X-4.63642 Y-2.82094
G01 X-4.63662 Y-2.82046
G01 X-4.63642 Y-2.82094
G01 X-4.70387 Y-2.88840
G01 X-4.70978 Y-2.89117
G01 X-4.71720 Y-2.89523
G01 X-4.72359 Y-2.89936
G01 X-4.72940 Y-2.90367
G01 X-4.73478 Y-2.90825
G01 X-4.74008 Y-2.91343
G01 X-4.74388 Y-2.91762
G01 X-4.74866 Y-2.92362
G01 X-4.74946 Y-2.92515
G01 X-4.75010 Y-2.92791
G01 X-4.75153 Y-2.93595
G01 X-4.75231 Y-2.94382
G01 X-4.75249 Y-2.94886
G01 X-4.75231 Y-2.95612
G01 X-4.75165 Y-2.96315
G01 X-4.75081 Y-2.96851
G01 X-4.74989 Y-2.97299
G01 X-4.74921 Y-2.97551
G01 X-4.74554 Y-2.98038
G01 X-4.74204 Y-2.98446
G01 X-4.73897 Y-2.98772
G01 X-4.73466 Y-2.99187
G01 X-4.72907 Y-2.99659
G01 X-4.72417 Y-3.00024
G01 X-4.71884 Y-3.00376
G01 X-4.71324 Y-3.00702
G01 X-4.70945 Y-3.00900
G01 X-4.70387 Y-3.01161
G01 X-4.57625 Y-3.13922
G01 X-4.57645 Y-3.13970
G01 X-4.57625 Y-3.13922
G01 X-4.55193 Y-3.13922
G01 X-4.55180 Y-3.13959
G01 X-4.55193 Y-3.13922
G01 X-4.55151 Y-3.13882
G01 X-4.54733 Y-3.13541
G01 X-4.54342 Y-3.13291
G01 X-4.53893 Y-3.13069
G01 X-4.53421 Y-3.12899
G01 X-4.53006 Y-3.12799
G01 X-4.52346 Y-3.12720
G01 X-4.47836 Y-3.12717
G01 X-4.47386 Y-3.12740
G01 X-4.46819 Y-3.12835
G01 X-4.46245 Y-3.13013
G01 X-4.45664 Y-3.13288
G01 X-4.45293 Y-3.13530
G01 X-4.44919 Y-3.14377
G01 X-4.44720 Y-3.14964
G01 X-4.44607 Y-3.15377
G01 X-4.44465 Y-3.16120
G01 X-4.44409 Y-3.16675
G01 X-4.44395 Y-3.17204
G01 X-4.44423 Y-3.17763
G01 X-4.44472 Y-3.18176
G01 X-4.44618 Y-3.18917
G01 X-4.44788 Y-3.19504
G01 X-4.44936 Y-3.19918
G01 X-4.45218 Y-3.20570
G01 X-4.45295 Y-3.20725
G01 X-4.45325 Y-3.20745
G01 X-4.54672 Y-3.20749
G01 X-4.54883 Y-3.20598
G01 X-4.55171 Y-3.20352
G01 X-4.55196 Y-3.20329
G01 X-4.55183 Y-3.20293
G01 X-4.55196 Y-3.20329
G01 X-4.59075 Y-3.20325
G01 X-4.59290 Y-3.20310
G01 X-4.59615 Y-3.20259
G01 X-4.60056 Y-3.20131
G01 X-4.60279 Y-3.20039
G01 X-4.60704 Y-3.19807
G01 X-4.61095 Y-3.19507
G01 X-4.79750 Y-3.00858
G01 X-4.80034 Y-3.00528
G01 X-4.80152 Y-3.00366
G01 X-4.80372 Y-2.99982
G01 X-4.80535 Y-2.99572
G01 X-4.80640 Y-2.99144
G01 X-4.80684 Y-2.98747
G01 X-4.80686 Y-2.91326
G01 X-4.80675 Y-2.91128
G01 X-4.80629 Y-2.90808
G01 X-4.80558 Y-2.90514
G01 X-4.80403 Y-2.90084
G01 X-4.80113 Y-2.89575
G01 X-4.79750 Y-2.89142
G01 X-4.67177 Y-2.76570
G01 X-4.66802 Y-2.76266
G01 X-4.66583 Y-2.76127
G01 X-4.66149 Y-2.75913
G01 X-4.65647 Y-2.75761
G01 X-4.65248 Y-2.75701
G01 X-4.65050 Y-2.75689
G01 X-4.15689 Y-2.75687
G01 X-4.15262 Y-2.75716
G01 X-4.14949 Y-2.75774
G01 X-4.14643 Y-2.75865
G01 X-4.14202 Y-2.76056
G01 X-4.13791 Y-2.76311
G01 X-4.13476 Y-2.76576
G01 X-4.09125 Y-2.80924
G01 X-4.08920 Y-2.81420
G01 X-4.08612 Y-2.82019
G01 X-4.08141 Y-2.82596
G01 X-4.07608 Y-2.83021
G01 X-4.07037 Y-2.83318
G01 X-4.06514 Y-2.83535
G01 X-4.07037 Y-2.83318
G01 X-4.07606 Y-2.83018
G01 X-4.08184 Y-2.82548
G01 X-4.08608 Y-2.82016
G01 X-4.08907 Y-2.81447
G01 X-4.09755 Y-2.79403
G01 X-4.12978 Y-2.76180
G01 X-4.13406 Y-2.75811
G01 X-4.13857 Y-2.75524
G01 X-4.14225 Y-2.75349
G01 X-4.14417 Y-2.75276
G01 X-4.14761 Y-2.75171
G01 X-4.15108 Y-2.75102
G01 X-4.15652 Y-2.75058
G01 X-4.65050 Y-2.75060
G01 X-4.65296 Y-2.75073
G01 X-4.65773 Y-2.75143
G01 X-4.66304 Y-2.75299
G01 X-4.66591 Y-2.75420
G01 X-4.67021 Y-2.75653
G01 X-4.67227 Y-2.75798
G01 X-4.67623 Y-2.76125
G01 X-4.80196 Y-2.88696
G01 X-4.80544 Y-2.89101
G01 X-4.80690 Y-2.89306
G01 X-4.80987 Y-2.89848
G01 X-4.81168 Y-2.90351
G01 X-4.81246 Y-2.90676
G01 X-4.81313 Y-2.91202
G01 X-4.81318 Y-2.98633
G01 X-4.81286 Y-2.99085
G01 X-4.81245 Y-2.99328
G01 X-4.81147 Y-2.99724
G01 X-4.80938 Y-3.00257
G01 X-4.80636 Y-3.00776
G01 X-4.80225 Y-3.01274
G01 X-4.61603 Y-3.19893
G01 X-4.61379 Y-3.20089
G01 X-4.60961 Y-3.20390
G01 X-4.60468 Y-3.20646
G01 X-4.59981 Y-3.20817
G01 X-4.59671 Y-3.20888
G01 X-4.59352 Y-3.20938
G01 X-4.59115 Y-3.20954
G01 X-4.56070 Y-3.20958
G01 X-4.55579 Y-3.20768
G01 X-4.55472 Y-3.20739
G01 X-4.45304 Y-3.20744
G01 X-4.44936 Y-3.19918
G01 X-4.44726 Y-3.19309
G01 X-4.44577 Y-3.18746
G01 X-4.44496 Y-3.18333
G01 X-4.44423 Y-3.17763
G01 X-4.44395 Y-3.17204
G01 X-4.44409 Y-3.16675
G01 X-4.44465 Y-3.16120
G01 X-4.44567 Y-3.15551
G01 X-4.44780 Y-3.14769
G01 X-4.45010 Y-3.14150
G01 X-4.45193 Y-3.13735
G01 X-4.45520 Y-3.13098
G01 X-4.45894 Y-3.12476
G01 X-4.46093 Y-3.12399
G01 X-4.46673 Y-3.12222
G01 X-4.47433 Y-3.12103
G01 X-4.47836 Y-3.12087
G01 X-4.52467 Y-3.12096
G01 X-4.52998 Y-3.12156
G01 X-4.53454 Y-3.12256
G01 X-4.53662 Y-3.12315
G01 X-4.54120 Y-3.12481
G01 X-4.54597 Y-3.12712
G01 X-4.55010 Y-3.12969
G01 X-4.55431 Y-3.13292
G01 X-4.55422 Y-3.13322
G01 X-4.55431 Y-3.13292
G01 X-4.57364 Y-3.13292
G01 X-4.57384 Y-3.13340
G01 X-4.57364 Y-3.13292
G01 X-4.68962 Y-3.01694
G01 X-4.69635 Y-3.01465
G01 X-4.70091 Y-3.01288
G01 X-4.70765 Y-3.00987
G01 X-4.71493 Y-3.00608
G01 X-4.71891 Y-3.00372
G01 X-4.72417 Y-3.00024
G01 X-4.73023 Y-2.99566
G01 X-4.73466 Y-2.99187
G01 X-4.73798 Y-2.98872
G01 X-4.74295 Y-2.98345
G01 X-4.74642 Y-2.97928
G01 X-4.74921 Y-2.97551
G01 X-4.74989 Y-2.97299
G01 X-4.75081 Y-2.96851
G01 X-4.75165 Y-2.96315
G01 X-4.75236 Y-2.95534
G01 X-4.75248 Y-2.94803
G01 X-4.75198 Y-2.93976
G01 X-4.75087 Y-2.93182
G01 X-4.74946 Y-2.92515
G01 X-4.74895 Y-2.92403
G01 X-4.74807 Y-2.92283
G01 X-4.74319 Y-2.91683
G01 X-4.74008 Y-2.91343
G01 X-4.73605 Y-2.90943
G01 X-4.73068 Y-2.90470
G01 X-4.72505 Y-2.90038
G01 X-4.71720 Y-2.89525
G01 X-4.70978 Y-2.89117
G01 X-4.70193 Y-2.88755
G01 X-4.69451 Y-2.88468
G01 X-4.63520 Y-2.82549
G01 X-4.63527 Y-2.82539
G01 X-4.63520 Y-2.82549
G01 X-4.62470 Y-2.82109
G01 X-4.62111 Y-2.81979
G01 X-4.61597 Y-2.81830
G01 X-4.61137 Y-2.81732
G01 X-4.60447 Y-2.81647
G01 X-4.59062 Y-2.81633
G01 X-4.58374 Y-2.81270
G01 X-4.57614 Y-2.81131
G01 X-4.52441 Y-2.81126
G01 X-4.51830 Y-2.81208
G01 X-4.51274 Y-2.81424
G01 X-4.50733 Y-2.81766
G01 X-4.50233 Y-2.82204
G01 X-4.49831 Y-2.82606
G01 X-4.49252 Y-2.82259
G01 X-4.48916 Y-2.82081
G01 X-4.48243 Y-2.81769
G01 X-4.47596 Y-2.81528
G01 X-4.46978 Y-2.81350
G01 X-4.46379 Y-2.81228
G01 X-4.45792 Y-2.81154
G01 X-4.45225 Y-2.81127
G01 X-4.44487 Y-2.81157
G01 X-4.43930 Y-2.81228
G01 X-4.43163 Y-2.81394
G01 X-4.42459 Y-2.81618
G01 X-4.29959 Y-2.81618
G01 X-4.29534 Y-2.81636
G01 X-4.29032 Y-2.81692
G01 X-4.28533 Y-2.81786
G01 X-4.28070 Y-2.81908
G01 X-4.27754 Y-2.82012
G01 X-4.27402 Y-2.82145
G01 X-4.26973 Y-2.82332
G01 X-4.26620 Y-2.82509
G01 X-4.26242 Y-2.82724
G01 X-4.17277 Y-2.82724
G01 X-4.17257 Y-2.82676
G01 X-4.17277 Y-2.82724
G01 X-4.02264 Y-2.97737
G01 X-4.01941 Y-2.98020
G01 X-4.01583 Y-2.98269
G01 X-4.01080 Y-2.98522
G01 X-4.00854 Y-2.98615
G01 X-4.00194 Y-2.98784
G01 X-3.99580 Y-2.98833
G01 X-3.69894 Y-2.98833
G01 X-3.69872 Y-2.98782
G01 X-3.69894 Y-2.98833
G01 X-3.69805 Y-2.98947
G01 X-3.69313 Y-2.99476
G01 X-3.69166 Y-2.99616
G01 X-3.68536 Y-3.00115
G01 X-3.67811 Y-3.00546
G01 X-3.67072 Y-3.00861
G01 X-3.66802 Y-3.00948
G01 X-3.66060 Y-3.01127
G01 X-3.65181 Y-3.01216
G01 X-3.64773 Y-3.01214
G01 X-3.64330 Y-3.01182
G01 X-3.63781 Y-3.01098
G01 X-3.63345 Y-3.00994
G01 X-3.63000 Y-3.00887
G01 X-3.62500 Y-3.00693
G01 X-3.61740 Y-3.00295
G01 X-3.61194 Y-2.99917
G01 X-3.60884 Y-2.99661
G01 X-3.60557 Y-2.99350
G01 X-3.60282 Y-2.99051
G01 X-3.60107 Y-2.98833
G01 X-3.60130 Y-2.98783
G01 X-3.60107 Y-2.98833
G01 X-3.59491 Y-2.98815
G01 X-3.59237 Y-2.98784
G01 X-3.58789 Y-2.98685
G01 X-3.58395 Y-2.98550
G01 X-3.58019 Y-2.98371
G01 X-3.57799 Y-2.98241
G01 X-3.57458 Y-2.98001
G01 X-3.57132 Y-2.97711
G01 X-3.49220 Y-2.89799
G01 X-3.49232 Y-2.89776
G01 X-3.49220 Y-2.89799
G01 X-3.48686 Y-2.89700
G01 X-3.48256 Y-2.89575
G01 X-3.47765 Y-2.89374
G01 X-3.47343 Y-2.89147
G01 X-3.46920 Y-2.88859
G01 X-3.46740 Y-2.88716
G01 X-3.46390 Y-2.88395
G01 X-3.46124 Y-2.88103
G01 X-3.45836 Y-2.87719
G01 X-3.45582 Y-2.87301
G01 X-3.45458 Y-2.87048
G01 X-3.45381 Y-2.86660
G01 X-3.45311 Y-2.86185
G01 X-3.45260 Y-2.85659
G01 X-3.45238 Y-2.85136
G01 X-3.46894 Y-2.85140
G01 X-3.46927 Y-2.85462
G01 X-3.46995 Y-2.85779
G01 X-3.47081 Y-2.86045
G01 X-3.47211 Y-2.86339
G01 X-3.47397 Y-2.86654
G01 X-3.47591 Y-2.86910
G01 X-3.47783 Y-2.87115
G01 X-3.48029 Y-2.87329
G01 X-3.48292 Y-2.87512
G01 X-3.48579 Y-2.87668
G01 X-3.48879 Y-2.87791
G01 X-3.49190 Y-2.87879
G01 X-3.49552 Y-2.87938
G01 X-3.49879 Y-2.87952
G01 X-3.50036 Y-2.87942
G01 X-3.58468 Y-2.96374
G01 X-3.58680 Y-2.96557
G01 X-3.58893 Y-2.96695
G01 X-3.59123 Y-2.96805
G01 X-3.59364 Y-2.96883
G01 X-3.59563 Y-2.96923
G01 X-3.59843 Y-2.96944
G01 X-3.61134 Y-2.96944
G01 X-3.61316 Y-2.97272
G01 X-3.61512 Y-2.97563
G01 X-3.61704 Y-2.97806
G01 X-3.61941 Y-2.98063
G01 X-3.62167 Y-2.98272
G01 X-3.62408 Y-2.98467
G01 X-3.62709 Y-2.98672
G01 X-3.63242 Y-2.98955
G01 X-3.63567 Y-2.99084
G01 X-3.63861 Y-2.99176
G01 X-3.64163 Y-2.99247
G01 X-3.64479 Y-2.99297
G01 X-3.64830 Y-2.99325
G01 X-3.65140 Y-2.99326
G01 X-3.65738 Y-2.99264
G01 X-3.66336 Y-2.99116
G01 X-3.66906 Y-2.98885
G01 X-3.67438 Y-2.98576
G01 X-3.67921 Y-2.98194
G01 X-3.68344 Y-2.97747
G01 X-3.68700 Y-2.97245
G01 X-3.68858 Y-2.96944
G01 X-3.99580 Y-2.96944
G01 X-3.99887 Y-2.96919
G01 X-4.00231 Y-2.96831
G01 X-4.00587 Y-2.96663
G01 X-4.00783 Y-2.96526
G01 X-4.00954 Y-2.96374
G01 X-4.16494 Y-2.80835
G01 X-4.64163 Y-2.80835
G01 X-4.75541 Y-2.92212
G01 X-4.75541 Y-2.97788
G01 X-4.58147 Y-3.15182
G01 X-4.54637 Y-3.15182
G01 X-4.54523 Y-3.15039
G01 X-4.54271 Y-3.14785
G01 X-4.53992 Y-3.14561
G01 X-4.53728 Y-3.14392
G01 X-4.53407 Y-3.14232
G01 X-4.53071 Y-3.14110
G01 X-4.52677 Y-3.14019
G01 X-4.52300 Y-3.13980
G01 X-4.47835 Y-3.13976
G01 X-4.47514 Y-3.13994
G01 X-4.47084 Y-3.14068
G01 X-4.46646 Y-3.14210
G01 X-4.46283 Y-3.14386
G01 X-4.45919 Y-3.14627
G01 X-4.45560 Y-3.14949
G01 X-4.45232 Y-3.15354
G01 X-4.44991 Y-3.15775
G01 X-4.44834 Y-3.16170
G01 X-4.44723 Y-3.16643
G01 X-4.44686 Y-3.17163
G01 X-4.44729 Y-3.17647
G01 X-4.44846 Y-3.18118
G01 X-4.45007 Y-3.18512
G01 X-4.45240 Y-3.18910
G01 X-4.45587 Y-3.19331
G01 X-4.45951 Y-3.19649
G01 X-4.46341 Y-3.19898
G01 X-4.46783 Y-3.20094
G01 X-4.47229 Y-3.20216
G01 X-4.47651 Y-3.20269
G01 X-4.52176 Y-3.20275
G01 X-4.52537 Y-3.20253
G01 X-4.52868 Y-3.20196
G01 X-4.53188 Y-3.20104
G01 X-4.53496 Y-3.19980
G01 X-4.53790 Y-3.19824
G01 X-4.54065 Y-3.19637
G01 X-4.54320 Y-3.19423
G01 X-4.54639 Y-3.19069
G01 X-4.59135 Y-3.19060
G01 X-4.59435 Y-3.19008
G01 X-4.59698 Y-3.18921
G01 X-4.60008 Y-3.18757
G01 X-4.60229 Y-3.18590
G01 X-4.78859 Y-2.99967
G01 X-4.79103 Y-2.99668
G01 X-4.79250 Y-2.99406
G01 X-4.79342 Y-2.99164
G01 X-4.79408 Y-2.98871
G01 X-4.79428 Y-2.98633
G01 X-4.79427 Y-2.91326
G01 X-4.79365 Y-2.90919
G01 X-4.79261 Y-2.90617
G01 X-4.79106 Y-2.90337
G01 X-4.78859 Y-2.90033
G01 X-4.66314 Y-2.77488
G01 X-4.66027 Y-2.77261
G01 X-4.65715 Y-2.77096
G01 X-4.65420 Y-2.77000
G01 X-4.65050 Y-2.76949
G01 X-4.15689 Y-2.76947
G01 X-4.15461 Y-2.76961
G01 X-4.15255 Y-2.76997
G01 X-4.15017 Y-2.77068
G01 X-4.14744 Y-2.77193
G01 X-4.14527 Y-2.77334
G01 X-4.14314 Y-2.77516
G01 X-3.98775 Y-2.93056
G01 X-3.68866 Y-2.93056
G01 X-3.68677 Y-2.92718
G01 X-3.68316 Y-2.92219
G01 X-3.67899 Y-2.91786
G01 X-3.67661 Y-2.91587
G01 X-3.67365 Y-2.91376
G01 X-3.66840 Y-2.91082
G01 X-3.66555 Y-2.90960
G01 X-3.66223 Y-2.90848
G01 X-3.65923 Y-2.90771
G01 X-3.65608 Y-2.90714
G01 X-3.65006 Y-2.90672
G01 X-3.64475 Y-2.90704
G01 X-3.63956 Y-2.90800
G01 X-3.63453 Y-2.90958
G01 X-3.62976 Y-2.91174
G01 X-3.62670 Y-2.91352
G01 X-3.62346 Y-2.91580
G01 X-3.62072 Y-2.91813
G01 X-3.61821 Y-2.92063
G01 X-3.61572 Y-2.92358
G01 X-3.61364 Y-2.92652
G01 X-3.61135 Y-2.93056
G01 X-3.60648 Y-2.93056
G01 X-3.52783 Y-2.85192
G01 X-3.52794 Y-2.84972
G01 X-3.52761 Y-2.84558
G01 X-3.52670 Y-2.84152
G01 X-3.52523 Y-2.83763
G01 X-3.52322 Y-2.83398
G01 X-3.52072 Y-2.83066
G01 X-3.51778 Y-2.82771
G01 X-3.51446 Y-2.82522
G01 X-3.51085 Y-2.82322
G01 X-3.50740 Y-2.82188
G01 X-3.50378 Y-2.82097
G01 X-3.49968 Y-2.82050
G01 X-3.49595 Y-2.82058
G01 X-3.49187 Y-2.82122
G01 X-3.48833 Y-2.82226
G01 X-3.48494 Y-2.82374
G01 X-3.48176 Y-2.82563
G01 X-3.47882 Y-2.82793
G01 X-3.47593 Y-2.83088
G01 X-3.47370 Y-2.83387
G01 X-3.47169 Y-2.83747
G01 X-3.47034 Y-2.84091
G01 X-3.46942 Y-2.84453
G01 X-3.46897 Y-2.84810
G01 X-3.46894 Y-2.85140
G04 P0 ( dwell for no time -- G64 should not smooth over this point )
G00 Z0.08000 ( retract )

G00 X-3.20616 Y-2.91535 ( rapid move to begin. )
G01 F180.00000
( Mill infeed pass 1/1 )
G01 Z-0.04000
G04 P0 ( dwell for no time -- G64 should not smooth over this point )
G01 F360.00000
G01 X-3.20616 Y-2.91535
G01 X-3.21019 Y-2.91080
G01 X-3.21368 Y-2.90752
G01 X-3.21779 Y-2.90433
G01 X-3.22329 Y-2.90093
G01 X-3.22759 Y-2.89880
G01 X-3.23207 Y-2.89707
G01 X-3.23870 Y-2.89528
G01 X-3.24348 Y-2.89450
G01 X-3.24871 Y-2.89413
G01 X-3.25509 Y-2.89436
G01 X-3.25974 Y-2.89497
G01 X-3.25996 Y-2.89557
G01 X-3.25974 Y-2.89497
G01 X-3.32887 Y-2.82595
G01 X-3.33053 Y-2.82457
G01 X-3.33355 Y-2.82252
G01 X-3.33747 Y-2.82051
G01 X-3.34242 Y-2.81887
G01 X-3.34714 Y-2.81810
G01 X-3.35916 Y-2.81801
G01 X-3.35963 Y-2.81881
G01 X-3.35916 Y-2.81801
G01 X-3.36044 Y-2.81556
G01 X-3.36216 Y-2.81330
G01 X-3.36424 Y-2.81137
G01 X-3.36661 Y-2.80983
G01 X-3.36884 Y-2.80884
G01 X-3.37118 Y-2.80819
G01 X-3.37360 Y-2.80789
G01 X-3.42721 Y-2.80795
G01 X-3.43078 Y-2.80871
G01 X-3.43409 Y-2.81023
G01 X-3.43699 Y-2.81243
G01 X-3.43934 Y-2.81522
G01 X-3.44036 Y-2.81697
G01 X-3.44129 Y-2.81922
G01 X-3.44181 Y-2.82118
G01 X-3.44211 Y-2.82360
G01 X-3.44212 Y-2.87600
G01 X-3.44172 Y-2.87921
G01 X-3.44054 Y-2.88266
G01 X-3.43887 Y-2.88544
G01 X-3.43669 Y-2.88784
G01 X-3.43444 Y-2.88956
G01 X-3.43192 Y-2.89087
G01 X-3.42921 Y-2.89172
G01 X-3.42681 Y-2.89208
G01 X-3.37319 Y-2.89208
G01 X-3.37079 Y-2.89172
G01 X-3.36808 Y-2.89087
G01 X-3.36591 Y-2.88977
G01 X-3.36392 Y-2.88837
G01 X-3.36216 Y-2.88670
G01 X-3.36061 Y-2.88470
G01 X-3.36074 Y-2.88166
G01 X-3.36061 Y-2.88470
G01 X-3.30503 Y-2.94028
G01 X-3.30441 Y-2.94005
G01 X-3.30503 Y-2.94028
G01 X-3.30570 Y-2.94542
G01 X-3.30588 Y-2.95061
G01 X-3.30558 Y-2.95580
G01 X-3.30454 Y-2.96210
G01 X-3.30332 Y-2.96674
G01 X-3.30153 Y-2.97162
G01 X-3.29872 Y-2.97736
G01 X-3.29642 Y-2.98111
G01 X-3.29308 Y-2.98560
G01 X-3.28962 Y-2.98942
G01 X-3.28582 Y-2.99290
G01 X-3.28204 Y-2.99577
G01 X-3.28144 Y-2.99549
G01 X-3.28204 Y-2.99577
G01 X-3.28204 Y-3.16694
G01 X-3.28155 Y-3.16714
G01 X-3.28204 Y-3.16694
G01 X-3.33306 Y-3.21796
G01 X-3.33286 Y-3.21844
G01 X-3.33306 Y-3.21796
G01 X-3.34805 Y-3.21796
G01 X-3.34817 Y-3.21832
G01 X-3.34805 Y-3.21796
G01 X-3.34865 Y-3.21741
G01 X-3.35163 Y-3.21493
G01 X-3.35330 Y-3.21375
G01 X-3.45379 Y-3.21381
G01 X-3.45840 Y-3.21563
G01 X-3.46101 Y-3.21854
G01 X-3.46443 Y-3.22339
G01 X-3.46559 Y-3.22536
G01 X-3.46830 Y-3.23094
G01 X-3.47077 Y-3.23872
G01 X-3.47176 Y-3.24485
G01 X-3.47197 Y-3.24798
G01 X-3.47190 Y-3.25379
G01 X-3.47102 Y-3.25994
G01 X-3.47043 Y-3.26262
G01 X-3.46851 Y-3.26852
G01 X-3.46757 Y-3.27068
G01 X-3.46450 Y-3.27652
G01 X-3.46091 Y-3.28158
G01 X-3.45843 Y-3.28435
G01 X-3.45379 Y-3.28620
G01 X-3.36764 Y-3.28621
G01 X-3.36581 Y-3.28566
G01 X-3.36245 Y-3.28429
G01 X-3.35861 Y-3.28223
G01 X-3.35561 Y-3.28019
G01 X-3.35255 Y-3.27762
G01 X-3.35071 Y-3.27573
G01 X-3.35085 Y-3.27536
G01 X-3.35071 Y-3.27573
G01 X-3.31857 Y-3.27571
G01 X-3.31333 Y-3.27491
G01 X-3.30908 Y-3.27337
G01 X-3.30773 Y-3.27273
G01 X-3.30499 Y-3.27105
G01 X-3.30159 Y-3.26820
G01 X-3.23152 Y-3.19812
G01 X-3.22896 Y-3.19499
G01 X-3.22800 Y-3.19354
G01 X-3.22619 Y-3.18993
G01 X-3.22504 Y-3.18648
G01 X-3.22436 Y-3.18221
G01 X-3.22427 Y-2.99234
G01 X-3.22497 Y-2.99197
G01 X-3.22427 Y-2.99234
G01 X-3.22219 Y-2.99106
G01 X-3.21821 Y-2.98806
G01 X-3.21485 Y-2.98497
G01 X-3.21148 Y-2.98121
G01 X-3.20880 Y-2.97760
G01 X-3.20667 Y-2.97410
G01 X-3.20427 Y-2.96917
G01 X-3.20256 Y-2.96439
G01 X-3.20144 Y-2.96004
G01 X-3.20079 Y-2.95600
G01 X-3.20043 Y-2.95102
G01 X-3.20058 Y-2.94595
G01 X-3.20127 Y-2.94081
G01 X-3.20240 Y-2.93610
G01 X-3.20408 Y-2.93130
G01 X-3.20619 Y-2.92679
G01 X-3.20824 Y-2.92327
G01 X-3.21057 Y-2.91994
G01 X-3.21402 Y-2.91587
G01 X-3.21742 Y-2.91263
G01 X-3.22141 Y-2.90949
G01 X-3.22610 Y-2.90656
G01 X-3.23013 Y-2.90457
G01 X-3.23395 Y-2.90309
G01 X-3.23908 Y-2.90163
G01 X-3.24473 Y-2.90070
G01 X-3.24922 Y-2.90042
G01 X-3.25331 Y-2.90053
G01 X-3.25929 Y-2.90130
G01 X-3.26174 Y-2.90187
G01 X-3.26197 Y-2.90254
G01 X-3.26174 Y-2.90187
G01 X-3.33301 Y-2.83071
G01 X-3.33414 Y-2.82973
G01 X-3.33707 Y-2.82775
G01 X-3.34021 Y-2.82620
G01 X-3.34322 Y-2.82519
G01 X-3.34749 Y-2.82439
G01 X-3.36417 Y-2.82430
G01 X-3.36538 Y-2.82573
G01 X-3.36417 Y-2.82430
G01 X-3.36420 Y-2.82361
G01 X-3.36481 Y-2.82087
G01 X-3.36590 Y-2.81872
G01 X-3.36746 Y-2.81689
G01 X-3.36906 Y-2.81568
G01 X-3.37087 Y-2.81480
G01 X-3.37321 Y-2.81424
G01 X-3.42639 Y-2.81420
G01 X-3.42837 Y-2.81456
G01 X-3.43024 Y-2.81529
G01 X-3.43224 Y-2.81663
G01 X-3.43363 Y-2.81807
G01 X-3.43452 Y-2.81941
G01 X-3.43519 Y-2.82087
G01 X-3.43563 Y-2.82241
G01 X-3.43582 Y-2.82401
G01 X-3.43582 Y-2.87599
G01 X-3.43544 Y-2.87837
G01 X-3.43471 Y-2.88024
G01 X-3.43363 Y-2.88193
G01 X-3.43224 Y-2.88337
G01 X-3.43059 Y-2.88452
G01 X-3.42913 Y-2.88519
G01 X-3.42759 Y-2.88563
G01 X-3.42599 Y-2.88582
G01 X-3.37321 Y-2.88576
G01 X-3.37087 Y-2.88519
G01 X-3.36906 Y-2.88432
G01 X-3.36746 Y-2.88311
G01 X-3.36590 Y-2.88128
G01 X-3.36481 Y-2.87913
G01 X-3.36420 Y-2.87639
G01 X-3.36418 Y-2.87574
G01 X-3.36533 Y-2.87432
G01 X-3.36418 Y-2.87574
G01 X-3.36066 Y-2.87574
G01 X-3.36046 Y-2.87526
G01 X-3.36066 Y-2.87574
G01 X-3.29813 Y-2.93827
G01 X-3.29738 Y-2.93803
G01 X-3.29813 Y-2.93827
G01 X-3.29879 Y-2.94115
G01 X-3.29942 Y-2.94595
G01 X-3.29956 Y-2.95102
G01 X-3.29928 Y-2.95551
G01 X-3.29856 Y-2.96004
G01 X-3.29731 Y-2.96487
G01 X-3.29573 Y-2.96917
G01 X-3.29357 Y-2.97367
G01 X-3.29120 Y-2.97760
G01 X-3.28822 Y-2.98159
G01 X-3.28547 Y-2.98463
G01 X-3.28179 Y-2.98806
G01 X-3.27780 Y-2.99106
G01 X-3.27574 Y-2.99234
G01 X-3.27503 Y-2.99197
G01 X-3.27574 Y-2.99234
G01 X-3.27574 Y-3.16955
G01 X-3.27526 Y-3.16975
G01 X-3.27574 Y-3.16955
G01 X-3.33045 Y-3.22426
G01 X-3.33025 Y-3.22474
G01 X-3.33045 Y-3.22426
G01 X-3.35072 Y-3.22426
G01 X-3.35085 Y-3.22462
G01 X-3.35072 Y-3.22426
G01 X-3.35268 Y-3.22226
G01 X-3.35568 Y-3.21976
G01 X-3.35893 Y-3.21759
G01 X-3.36309 Y-3.21542
G01 X-3.36766 Y-3.21375
G01 X-3.44675 Y-3.21378
G01 X-3.45111 Y-3.21719
G01 X-3.45524 Y-3.22146
G01 X-3.45654 Y-3.22307
G01 X-3.45973 Y-3.22777
G01 X-3.46253 Y-3.23348
G01 X-3.46437 Y-3.23914
G01 X-3.46548 Y-3.24542
G01 X-3.46567 Y-3.24796
G01 X-3.46561 Y-3.25349
G01 X-3.46473 Y-3.25938
G01 X-3.46291 Y-3.26549
G01 X-3.46194 Y-3.26785
G01 X-3.45919 Y-3.27313
G01 X-3.45546 Y-3.27831
G01 X-3.45102 Y-3.28288
G01 X-3.44671 Y-3.28622
G01 X-3.34530 Y-3.28613
G01 X-3.34273 Y-3.28696
G01 X-3.33930 Y-3.28832
G01 X-3.31777 Y-3.28828
G01 X-3.31142 Y-3.28739
G01 X-3.30796 Y-3.28643
G01 X-3.30341 Y-3.28465
G01 X-3.30082 Y-3.28328
G01 X-3.29709 Y-3.28090
G01 X-3.29300 Y-3.27742
G01 X-3.22234 Y-3.20675
G01 X-3.21860 Y-3.20217
G01 X-3.21732 Y-3.20023
G01 X-3.21523 Y-3.19635
G01 X-3.21325 Y-3.19109
G01 X-3.21269 Y-3.18860
G01 X-3.21227 Y-3.18177
G01 X-3.21223 Y-3.00020
G01 X-3.21234 Y-3.00018
G01 X-3.21223 Y-3.00020
G01 X-3.21193 Y-2.99888
G01 X-3.20867 Y-2.99143
G01 X-3.20663 Y-2.98601
G01 X-3.20480 Y-2.98038
G01 X-3.20342 Y-2.97529
G01 X-3.20224 Y-2.96993
G01 X-3.20141 Y-2.96506
G01 X-3.20050 Y-2.95633
G01 X-3.20031 Y-2.95116
G01 X-3.20042 Y-2.94518
G01 X-3.20080 Y-2.93992
G01 X-3.20204 Y-2.93114
G01 X-3.20316 Y-2.92580
G01 X-3.20494 Y-2.91916
G01 X-3.20669 Y-2.91379
G01 X-3.20902 Y-2.90771
G01 X-3.21214 Y-2.90072
G01 X-3.21434 Y-2.89905
G01 X-3.21879 Y-2.89622
G01 X-3.22446 Y-2.89331
G01 X-3.23027 Y-2.89103
G01 X-3.23576 Y-2.88948
G01 X-3.24275 Y-2.88824
G01 X-3.24877 Y-2.88783
G01 X-3.25589 Y-2.88811
G01 X-3.25748 Y-2.88832
G01 X-3.25770 Y-2.88887
G01 X-3.25748 Y-2.88832
G01 X-3.32411 Y-2.82179
G01 X-3.32663 Y-2.81962
G01 X-3.33106 Y-2.81667
G01 X-3.33547 Y-2.81453
G01 X-3.34074 Y-2.81280
G01 X-3.34423 Y-2.81245
G01 X-3.34837 Y-2.81227
G01 X-3.35464 Y-2.81228
G01 X-3.36499 Y-2.80838
G01 X-3.37460 Y-2.80718
G01 X-3.42545 Y-2.80718
G01 X-3.43232 Y-2.80779
G01 X-3.43910 Y-2.80961
G01 X-3.44488 Y-2.81219
G01 X-3.44641 Y-2.81502
G01 X-3.44740 Y-2.81766
G01 X-3.44807 Y-2.82040
G01 X-3.44839 Y-2.82320
G01 X-3.44842 Y-2.82819
G01 X-3.44767 Y-2.83198
G01 X-3.44673 Y-2.83840
G01 X-3.44641 Y-2.84183
G01 X-3.44607 Y-2.84860
G01 X-3.44616 Y-2.85417
G01 X-3.44653 Y-2.85977
G01 X-3.44721 Y-2.86524
G01 X-3.44842 Y-2.87181
G01 X-3.44842 Y-2.87599
G01 X-3.44800 Y-2.88000
G01 X-3.44702 Y-2.88348
G01 X-3.44530 Y-2.88712
G01 X-3.44297 Y-2.89040
G01 X-3.44130 Y-2.89216
G01 X-3.43946 Y-2.89373
G01 X-3.43747 Y-2.89509
G01 X-3.43534 Y-2.89624
G01 X-3.43310 Y-2.89715
G01 X-3.43078 Y-2.89783
G01 X-3.42840 Y-2.89825
G01 X-3.42599 Y-2.89842
G01 X-3.37240 Y-2.89834
G01 X-3.37000 Y-2.89800
G01 X-3.36805 Y-2.89752
G01 X-3.36576 Y-2.89672
G01 X-3.36394 Y-2.89588
G01 X-3.36051 Y-2.89371
G01 X-3.36029 Y-2.89211
G01 X-3.36051 Y-2.89371
G01 X-3.31169 Y-2.94253
G01 X-3.31111 Y-2.94231
G01 X-3.31169 Y-2.94253
G01 X-3.31204 Y-2.94599
G01 X-3.31218 Y-2.95091
G01 X-3.31178 Y-2.95710
G01 X-3.31064 Y-2.96369
G01 X-3.30926 Y-2.96883
G01 X-3.30742 Y-2.97386
G01 X-3.30411 Y-2.98062
G01 X-3.30153 Y-2.98481
G01 X-3.29808 Y-2.98943
G01 X-3.29423 Y-2.99371
G01 X-3.29035 Y-2.99731
G01 X-3.28833 Y-2.99891
G01 X-3.28777 Y-2.99866
G01 X-3.28833 Y-2.99891
G01 X-3.28833 Y-3.16433
G01 X-3.28785 Y-3.16453
G01 X-3.28833 Y-3.16433
G01 X-3.33567 Y-3.21166
G01 X-3.33547 Y-3.21214
G01 X-3.33567 Y-3.21166
G01 X-3.33936 Y-3.21166
G01 X-3.34526 Y-3.21385
G01 X-3.35433 Y-3.21374
G01 X-3.43237 Y-3.21380
G01 X-3.43395 Y-3.21426
G01 X-3.43806 Y-3.21595
G01 X-3.44292 Y-3.21878
G01 X-3.44690 Y-3.22187
G01 X-3.45091 Y-3.22608
G01 X-3.45411 Y-3.23063
G01 X-3.45637 Y-3.23512
G01 X-3.45696 Y-3.23658
G01 X-3.45854 Y-3.24178
G01 X-3.45934 Y-3.24716
G01 X-3.45936 Y-3.25220
G01 X-3.45924 Y-3.25378
G01 X-3.45821 Y-3.25951
G01 X-3.45664 Y-3.26430
G01 X-3.45402 Y-3.26951
G01 X-3.45063 Y-3.27426
G01 X-3.44713 Y-3.27789
G01 X-3.44594 Y-3.27893
G01 X-3.44158 Y-3.28211
G01 X-3.43700 Y-3.28454
G01 X-3.43235 Y-3.28622
G01 X-3.35326 Y-3.28622
G01 X-3.35131 Y-3.28483
G01 X-3.34842 Y-3.28238
G01 X-3.34804 Y-3.28203
G01 X-3.34817 Y-3.28167
G01 X-3.34804 Y-3.28203
G01 X-3.31810 Y-3.28199
G01 X-3.31205 Y-3.28108
G01 X-3.31021 Y-3.28054
G01 X-3.30682 Y-3.27925
G01 X-3.30486 Y-3.27834
G01 X-3.30131 Y-3.27617
G01 X-3.29713 Y-3.27265
G01 X-3.22706 Y-3.20257
G01 X-3.22353 Y-3.19825
G01 X-3.22092 Y-3.19363
G01 X-3.21944 Y-3.18974
G01 X-3.21877 Y-3.18724
G01 X-3.21819 Y-3.18399
G01 X-3.21806 Y-3.18227
G01 X-3.21797 Y-2.99577
G01 X-3.21856 Y-2.99550
G01 X-3.21797 Y-2.99577
G01 X-3.21388 Y-2.99264
G01 X-3.21012 Y-2.98915
G01 X-3.20616 Y-2.98462
G01 X-3.20480 Y-2.98038
G01 X-3.20342 Y-2.97529
G01 X-3.20162 Y-2.96641
G01 X-3.20078 Y-2.95986
G01 X-3.20031 Y-2.95116
G01 X-3.20030 Y-2.94994
G01 X-3.20672 Y-2.95026
G01 X-3.20701 Y-2.95501
G01 X-3.20765 Y-2.95894
G01 X-3.20865 Y-2.96281
G01 X-3.21015 Y-2.96690
G01 X-3.21188 Y-2.97051
G01 X-3.21393 Y-2.97392
G01 X-3.21677 Y-2.97774
G01 X-3.21919 Y-2.98040
G01 X-3.22210 Y-2.98309
G01 X-3.22590 Y-2.98595
G01 X-3.22897 Y-2.98783
G01 X-3.23056 Y-2.98863
G01 X-3.23065 Y-3.18183
G01 X-3.23132 Y-3.18554
G01 X-3.23238 Y-3.18839
G01 X-3.23391 Y-3.19109
G01 X-3.23597 Y-3.19367
G01 X-3.30604 Y-3.26374
G01 X-3.30836 Y-3.26572
G01 X-3.31134 Y-3.26749
G01 X-3.31476 Y-3.26877
G01 X-3.31897 Y-3.26941
G01 X-3.35361 Y-3.26944
G01 X-3.35458 Y-3.27067
G01 X-3.35690 Y-3.27306
G01 X-3.35945 Y-3.27519
G01 X-3.36221 Y-3.27704
G01 X-3.36515 Y-3.27859
G01 X-3.36824 Y-3.27983
G01 X-3.37144 Y-3.28072
G01 X-3.37475 Y-3.28128
G01 X-3.37835 Y-3.28150
G01 X-3.42177 Y-3.28150
G01 X-3.42489 Y-3.28132
G01 X-3.43017 Y-3.28031
G01 X-3.43417 Y-3.27889
G01 X-3.43827 Y-3.27675
G01 X-3.44217 Y-3.27388
G01 X-3.44560 Y-3.27044
G01 X-3.44877 Y-3.26600
G01 X-3.45068 Y-3.26220
G01 X-3.45221 Y-3.25759
G01 X-3.45306 Y-3.25219
G01 X-3.45303 Y-3.24733
G01 X-3.45224 Y-3.24254
G01 X-3.45096 Y-3.23848
G01 X-3.44884 Y-3.23411
G01 X-3.44622 Y-3.23031
G01 X-3.44291 Y-3.22677
G01 X-3.43863 Y-3.22348
G01 X-3.43527 Y-3.22160
G01 X-3.43148 Y-3.22008
G01 X-3.42776 Y-3.21911
G01 X-3.42421 Y-3.21861
G01 X-3.37595 Y-3.21860
G01 X-3.37284 Y-3.21899
G01 X-3.36935 Y-3.21982
G01 X-3.36598 Y-3.22104
G01 X-3.36278 Y-3.22263
G01 X-3.35977 Y-3.22457
G01 X-3.35700 Y-3.22685
G01 X-3.35451 Y-3.22942
G01 X-3.35361 Y-3.23056
G01 X-3.32784 Y-3.23056
G01 X-3.26944 Y-3.17216
G01 X-3.26944 Y-2.98863
G01 X-3.27103 Y-2.98783
G01 X-3.27442 Y-2.98574
G01 X-3.27790 Y-2.98309
G01 X-3.28081 Y-2.98040
G01 X-3.28347 Y-2.97744
G01 X-3.28607 Y-2.97392
G01 X-3.28812 Y-2.97051
G01 X-3.28999 Y-2.96655
G01 X-3.29134 Y-2.96281
G01 X-3.29243 Y-2.95856
G01 X-3.29303 Y-2.95463
G01 X-3.29328 Y-2.95064
G01 X-3.29315 Y-2.94666
G01 X-3.29259 Y-2.94232
G01 X-3.29160 Y-2.93804
G01 X-3.29106 Y-2.93643
G01 X-3.35805 Y-2.86944
G01 X-3.37047 Y-2.86944
G01 X-3.37047 Y-2.87559
G01 X-3.37066 Y-2.87681
G01 X-3.37100 Y-2.87756
G01 X-3.37177 Y-2.87852
G01 X-3.37281 Y-2.87919
G01 X-3.37400 Y-2.87950
G01 X-3.42559 Y-2.87953
G01 X-3.42719 Y-2.87919
G01 X-3.42822 Y-2.87852
G01 X-3.42919 Y-2.87719
G01 X-3.42953 Y-2.87559
G01 X-3.42953 Y-2.82441
G01 X-3.42933 Y-2.82319
G01 X-3.42877 Y-2.82210
G01 X-3.42756 Y-2.82100
G01 X-3.42641 Y-2.82056
G01 X-3.42559 Y-2.82047
G01 X-3.37400 Y-2.82049
G01 X-3.37281 Y-2.82081
G01 X-3.37177 Y-2.82148
G01 X-3.37100 Y-2.82244
G01 X-3.37066 Y-2.82319
G01 X-3.37047 Y-2.82441
G01 X-3.37047 Y-2.83058
G01 X-3.34804 Y-2.83066
G01 X-3.34516 Y-2.83118
G01 X-3.34285 Y-2.83194
G01 X-3.34051 Y-2.83304
G01 X-3.33746 Y-2.83517
G01 X-3.26357 Y-2.90895
G01 X-3.26175 Y-2.90834
G01 X-3.25786 Y-2.90744
G01 X-3.25312 Y-2.90683
G01 X-3.24914 Y-2.90673
G01 X-3.24515 Y-2.90699
G01 X-3.24081 Y-2.90770
G01 X-3.23656 Y-2.90885
G01 X-3.23249 Y-2.91041
G01 X-3.22857 Y-2.91240
G01 X-3.22488 Y-2.91475
G01 X-3.22175 Y-2.91721
G01 X-3.21856 Y-2.92025
G01 X-3.21572 Y-2.92358
G01 X-3.21345 Y-2.92682
G01 X-3.21165 Y-2.92993
G01 X-3.20982 Y-2.93391
G01 X-3.20851 Y-2.93767
G01 X-3.20748 Y-2.94193
G01 X-3.20688 Y-2.94628
G01 X-3.20672 Y-2.95026
G04 P0 ( dwell for no time -- G64 should not smooth over this point )
G00 Z0.08000 ( retract )

G00 X-3.32798 Y-3.17020 ( rapid move to begin. )
G01 F180.00000
( Mill infeed pass 1/1 )
G01 Z-0.04000
G04 P0 ( dwell for no time -- G64 should not smooth over this point )
G01 F360.00000
G01 X-3.32798 Y-3.17020
G01 X-3.32810 Y-3.16761
G01 X-3.32876 Y-3.16235
G01 X-3.32984 Y-3.15761
G01 X-3.33170 Y-3.15219
G01 X-3.33396 Y-3.14740
G01 X-3.33649 Y-3.14324
G01 X-3.33799 Y-3.14112
G01 X-3.34137 Y-3.13704
G01 X-3.34483 Y-3.13362
G01 X-3.34932 Y-3.13006
G01 X-3.35406 Y-3.12710
G01 X-3.35847 Y-3.12498
G01 X-3.36097 Y-3.12398
G01 X-3.36603 Y-3.12240
G01 X-3.37080 Y-3.12143
G01 X-3.37606 Y-3.12092
G01 X-3.42228 Y-3.12087
G01 X-3.42989 Y-3.12154
G01 X-3.43610 Y-3.12299
G01 X-3.44006 Y-3.12435
G01 X-3.44387 Y-3.12604
G01 X-3.44942 Y-3.12921
G01 X-3.45310 Y-3.13188
G01 X-3.45403 Y-3.13267
G01 X-3.45395 Y-3.13294
G01 X-3.45403 Y-3.13267
G01 X-4.02682 Y-3.13267
G01 X-4.02702 Y-3.13315
G01 X-4.02682 Y-3.13267
G01 X-4.26143 Y-2.89807
G01 X-4.26190 Y-2.89827
G01 X-4.26143 Y-2.89807
G01 X-4.26150 Y-2.84835
G01 X-4.26169 Y-2.84541
G01 X-4.26237 Y-2.84146
G01 X-4.26369 Y-2.83695
G01 X-4.26559 Y-2.83269
G01 X-4.26924 Y-2.83061
G01 X-4.27234 Y-2.82907
G01 X-4.27757 Y-2.82684
G01 X-4.27522 Y-2.82938
G01 X-4.27278 Y-2.83266
G01 X-4.27171 Y-2.83450
G01 X-4.26937 Y-2.83980
G01 X-4.26851 Y-2.84287
G01 X-4.26792 Y-2.84640
G01 X-4.26780 Y-2.84836
G01 X-4.26772 Y-2.90068
G01 X-4.26820 Y-2.90088
G01 X-4.26772 Y-2.90068
G01 X-4.02943 Y-3.13897
G01 X-4.02963 Y-3.13945
G01 X-4.02943 Y-3.13897
G01 X-3.45167 Y-3.13897
G01 X-3.45155 Y-3.13932
G01 X-3.45167 Y-3.13897
G01 X-3.44860 Y-3.13636
G01 X-3.44541 Y-3.13411
G01 X-3.44168 Y-3.13198
G01 X-3.43776 Y-3.13021
G01 X-3.43445 Y-3.12908
G01 X-3.42913 Y-3.12780
G01 X-3.42224 Y-3.12717
G01 X-3.37656 Y-3.12720
G01 X-3.37193 Y-3.12764
G01 X-3.36738 Y-3.12856
G01 X-3.36296 Y-3.12995
G01 X-3.36115 Y-3.13068
G01 X-3.35707 Y-3.13264
G01 X-3.35311 Y-3.13510
G01 X-3.34917 Y-3.13820
G01 X-3.34612 Y-3.14119
G01 X-3.34203 Y-3.14626
G01 X-3.33960 Y-3.15021
G01 X-3.33760 Y-3.15440
G01 X-3.33567 Y-3.16023
G01 X-3.33479 Y-3.16440
G01 X-3.33429 Y-3.16939
G01 X-3.33436 Y-3.17440
G01 X-3.33508 Y-3.17974
G01 X-3.33633 Y-3.18462
G01 X-3.33877 Y-3.19069
G01 X-3.34226 Y-3.19661
G01 X-3.34620 Y-3.20142
G01 X-3.35094 Y-3.20577
G01 X-3.35323 Y-3.20745
G01 X-3.43235 Y-3.20750
G01 X-3.43532 Y-3.20650
G01 X-3.43823 Y-3.20521
G01 X-3.44189 Y-3.20318
G01 X-3.44490 Y-3.20106
G01 X-3.44732 Y-3.19899
G01 X-3.44905 Y-3.19725
G01 X-3.44892 Y-3.19687
G01 X-3.44905 Y-3.19725
G01 X-4.04280 Y-3.19725
G01 X-4.04680 Y-3.19693
G01 X-4.05040 Y-3.19611
G01 X-4.05317 Y-3.19509
G01 X-4.05615 Y-3.19355
G01 X-4.05883 Y-3.19171
G01 X-4.06118 Y-3.18963
G01 X-4.26537 Y-2.98544
G01 X-4.26525 Y-2.98330
G01 X-4.26537 Y-2.98544
G01 X-4.26880 Y-2.98854
G01 X-4.27367 Y-2.99202
G01 X-4.27897 Y-2.99490
G01 X-4.28419 Y-2.99700
G01 X-4.29001 Y-2.99857
G01 X-4.29555 Y-2.99938
G01 X-4.30156 Y-2.99956
G01 X-4.30839 Y-2.99885
G01 X-4.31385 Y-2.99761
G01 X-4.31949 Y-2.99558
G01 X-4.32454 Y-2.99309
G01 X-4.32957 Y-2.98980
G01 X-4.33386 Y-2.98622
G01 X-4.33796 Y-2.98190
G01 X-4.34103 Y-2.97785
G01 X-4.34366 Y-2.97351
G01 X-4.34599 Y-2.96854
G01 X-4.34754 Y-2.96409
G01 X-4.34879 Y-2.95885
G01 X-4.34944 Y-2.95382
G01 X-4.34957 Y-2.94869
G01 X-4.34917 Y-2.94359
G01 X-4.34792 Y-2.93728
G01 X-4.34601 Y-2.93151
G01 X-4.34341 Y-2.92603
G01 X-4.34014 Y-2.92092
G01 X-4.33599 Y-2.91589
G01 X-4.33120 Y-2.91146
G01 X-4.32599 Y-2.90778
G01 X-4.32536 Y-2.90808
G01 X-4.32599 Y-2.90778
G01 X-4.32599 Y-2.87599
G01 X-4.32414 Y-2.87414
G01 X-4.32599 Y-2.87599
G01 X-4.42694 Y-2.87599
G01 X-4.42704 Y-2.87567
G01 X-4.42694 Y-2.87599
G01 X-4.42963 Y-2.87832
G01 X-4.43375 Y-2.88108
G01 X-4.43827 Y-2.88326
G01 X-4.44300 Y-2.88478
G01 X-4.44750 Y-2.88559
G01 X-4.45246 Y-2.88581
G01 X-4.45722 Y-2.88537
G01 X-4.46026 Y-2.88476
G01 X-4.46328 Y-2.88385
G01 X-4.46726 Y-2.88221
G01 X-4.47100 Y-2.88010
G01 X-4.47440 Y-2.87760
G01 X-4.47671 Y-2.87553
G01 X-4.47885 Y-2.87321
G01 X-4.48144 Y-2.86978
G01 X-4.48343 Y-2.86639
G01 X-4.48503 Y-2.86281
G01 X-4.48633 Y-2.85871
G01 X-4.48707 Y-2.85485
G01 X-4.48739 Y-2.85056
G01 X-4.48731 Y-2.84741
G01 X-4.48694 Y-2.84433
G01 X-4.48613 Y-2.84057
G01 X-4.48432 Y-2.83552
G01 X-4.48364 Y-2.83407
G01 X-4.48124 Y-2.82991
G01 X-4.47800 Y-2.82582
G01 X-4.47328 Y-2.82150
G01 X-4.47204 Y-2.82068
G01 X-4.47008 Y-2.82009
G01 X-4.46438 Y-2.81878
G01 X-4.45887 Y-2.81796
G01 X-4.45349 Y-2.81760
G01 X-4.44955 Y-2.81759
G01 X-4.44535 Y-2.81785
G01 X-4.44033 Y-2.81850
G01 X-4.43592 Y-2.81936
G01 X-4.43179 Y-2.82044
G01 X-4.43111 Y-2.82066
G01 X-4.42917 Y-2.82205
G01 X-4.42697 Y-2.82401
G01 X-4.42709 Y-2.82437
G01 X-4.42697 Y-2.82401
G01 X-4.29924 Y-2.82402
G01 X-4.29534 Y-2.82443
G01 X-4.29146 Y-2.82546
G01 X-4.28784 Y-2.82703
G01 X-4.28478 Y-2.82894
G01 X-4.28079 Y-2.83250
G01 X-4.27761 Y-2.83680
G01 X-4.27541 Y-2.84159
G01 X-4.27465 Y-2.84429
G01 X-4.27418 Y-2.84709
G01 X-4.27402 Y-2.90329
G01 X-4.27449 Y-2.90349
G01 X-4.27402 Y-2.90329
G01 X-4.03204 Y-3.14527
G01 X-4.03224 Y-3.14575
G01 X-4.03204 Y-3.14527
G01 X-3.44905 Y-3.14527
G01 X-3.44888 Y-3.14570
G01 X-3.44905 Y-3.14527
G01 X-3.44780 Y-3.14397
G01 X-3.44502 Y-3.14155
G01 X-3.44202 Y-3.13942
G01 X-3.43926 Y-3.13782
G01 X-3.43499 Y-3.13590
G01 X-3.43178 Y-3.13485
G01 X-3.42815 Y-3.13403
G01 X-3.42187 Y-3.13347
G01 X-3.37686 Y-3.13349
G01 X-3.37288 Y-3.13386
G01 X-3.36904 Y-3.13464
G01 X-3.36419 Y-3.13622
G01 X-3.36043 Y-3.13799
G01 X-3.35707 Y-3.14004
G01 X-3.35279 Y-3.14343
G01 X-3.35004 Y-3.14621
G01 X-3.34761 Y-3.14927
G01 X-3.34531 Y-3.15291
G01 X-3.34360 Y-3.15642
G01 X-3.34182 Y-3.16159
G01 X-3.34101 Y-3.16541
G01 X-3.34058 Y-3.16969
G01 X-3.34069 Y-3.17437
G01 X-3.34120 Y-3.17825
G01 X-3.34212 Y-3.18202
G01 X-3.34442 Y-3.18793
G01 X-3.34741 Y-3.19298
G01 X-3.35131 Y-3.19767
G01 X-3.35606 Y-3.20178
G01 X-3.36125 Y-3.20496
G01 X-3.36591 Y-3.20695
G01 X-3.36766 Y-3.20745
G01 X-3.44674 Y-3.20748
G01 X-3.44877 Y-3.20603
G01 X-3.45168 Y-3.20354
G01 X-3.45156 Y-3.20319
G01 X-3.45168 Y-3.20354
G01 X-4.04280 Y-3.20354
G01 X-4.04775 Y-3.20316
G01 X-4.05176 Y-3.20228
G01 X-4.05574 Y-3.20084
G01 X-4.05941 Y-3.19894
G01 X-4.06270 Y-3.19669
G01 X-4.06563 Y-3.19409
G01 X-4.26565 Y-2.99407
G01 X-4.26546 Y-2.99233
G01 X-4.26565 Y-2.99407
G01 X-4.26999 Y-2.99714
G01 X-4.27590 Y-3.00042
G01 X-4.28184 Y-3.00284
G01 X-4.28801 Y-3.00456
G01 X-4.28990 Y-3.00495
G01 X-4.29541 Y-3.00569
G01 X-4.30259 Y-3.00582
G01 X-4.30897 Y-3.00516
G01 X-4.31520 Y-3.00378
G01 X-4.32118 Y-3.00171
G01 X-4.32656 Y-2.99915
G01 X-4.32831 Y-2.99816
G01 X-4.33360 Y-2.99465
G01 X-4.33815 Y-2.99083
G01 X-4.34251 Y-2.98627
G01 X-4.34613 Y-2.98155
G01 X-4.34911 Y-2.97667
G01 X-4.35175 Y-2.97110
G01 X-4.35364 Y-2.96570
G01 X-4.35495 Y-2.96017
G01 X-4.35570 Y-2.95450
G01 X-4.35586 Y-2.94834
G01 X-4.35545 Y-2.94308
G01 X-4.35419 Y-2.93646
G01 X-4.35365 Y-2.93443
G01 X-4.35169 Y-2.92876
G01 X-4.34848 Y-2.92222
G01 X-4.34471 Y-2.91647
G01 X-4.34053 Y-2.91152
G01 X-4.33480 Y-2.90627
G01 X-4.33228 Y-2.90449
G01 X-4.33171 Y-2.90475
G01 X-4.33228 Y-2.90449
G01 X-4.33228 Y-2.88228
G01 X-4.33044 Y-2.88044
G01 X-4.33228 Y-2.88228
G01 X-4.42458 Y-2.88228
G01 X-4.42467 Y-2.88200
G01 X-4.42458 Y-2.88228
G01 X-4.42617 Y-2.88360
G01 X-4.43103 Y-2.88678
G01 X-4.43550 Y-2.88894
G01 X-4.44058 Y-2.89066
G01 X-4.44545 Y-2.89166
G01 X-4.44763 Y-2.89192
G01 X-4.45256 Y-2.89211
G01 X-4.45753 Y-2.89170
G01 X-4.46161 Y-2.89091
G01 X-4.46511 Y-2.88988
G01 X-4.47021 Y-2.88778
G01 X-4.47499 Y-2.88500
G01 X-4.47794 Y-2.88286
G01 X-4.48100 Y-2.88015
G01 X-4.48408 Y-2.87680
G01 X-4.48630 Y-2.87382
G01 X-4.48913 Y-2.86908
G01 X-4.49129 Y-2.86400
G01 X-4.49238 Y-2.86045
G01 X-4.49328 Y-2.85592
G01 X-4.49368 Y-2.85132
G01 X-4.49362 Y-2.84761
G01 X-4.49290 Y-2.84189
G01 X-4.49192 Y-2.83788
G01 X-4.49006 Y-2.83290
G01 X-4.48932 Y-2.83133
G01 X-4.48658 Y-2.82657
G01 X-4.47997 Y-2.82349
G01 X-4.47397 Y-2.82126
G01 X-4.46826 Y-2.81962
G01 X-4.46276 Y-2.81849
G01 X-4.45887 Y-2.81796
G01 X-4.45349 Y-2.81760
G01 X-4.44955 Y-2.81759
G01 X-4.44535 Y-2.81785
G01 X-4.44151 Y-2.81831
G01 X-4.43721 Y-2.81908
G01 X-4.43320 Y-2.82004
G01 X-4.42518 Y-2.82253
G01 X-4.29818 Y-2.82252
G01 X-4.29131 Y-2.82314
G01 X-4.28668 Y-2.82402
G01 X-4.28249 Y-2.82512
G01 X-4.27757 Y-2.82684
G01 X-4.28249 Y-2.82512
G01 X-4.28668 Y-2.82402
G01 X-4.29131 Y-2.82314
G01 X-4.29818 Y-2.82252
G01 X-4.42517 Y-2.82248
G01 X-4.42630 Y-2.82227
G01 X-4.43320 Y-2.82004
G01 X-4.44033 Y-2.81850
G01 X-4.44535 Y-2.81785
G01 X-4.45226 Y-2.81757
G01 X-4.45738 Y-2.81782
G01 X-4.46276 Y-2.81849
G01 X-4.46826 Y-2.81962
G01 X-4.47397 Y-2.82126
G01 X-4.47997 Y-2.82349
G01 X-4.48637 Y-2.82646
G01 X-4.48940 Y-2.82807
G01 X-4.49590 Y-2.83199
G01 X-4.49684 Y-2.83778
G01 X-4.49736 Y-2.84287
G01 X-4.49759 Y-2.84752
G01 X-4.49759 Y-2.85274
G01 X-4.49729 Y-2.85800
G01 X-4.49670 Y-2.86331
G01 X-4.49579 Y-2.86872
G01 X-4.49528 Y-2.87080
G01 X-4.49415 Y-2.87303
G01 X-4.49137 Y-2.87756
G01 X-4.48867 Y-2.88112
G01 X-4.48456 Y-2.88544
G01 X-4.48156 Y-2.88802
G01 X-4.47727 Y-2.89104
G01 X-4.47300 Y-2.89343
G01 X-4.46772 Y-2.89565
G01 X-4.46275 Y-2.89712
G01 X-4.45756 Y-2.89804
G01 X-4.45205 Y-2.89842
G01 X-4.44693 Y-2.89818
G01 X-4.44467 Y-2.89792
G01 X-4.43929 Y-2.89684
G01 X-4.43299 Y-2.89472
G01 X-4.42707 Y-2.89176
G01 X-4.42248 Y-2.88871
G01 X-4.42232 Y-2.88858
G01 X-4.42239 Y-2.88832
G01 X-4.42232 Y-2.88858
G01 X-4.33858 Y-2.88858
G01 X-4.33674 Y-2.88674
G01 X-4.33858 Y-2.88858
G01 X-4.33858 Y-2.90124
G01 X-4.33806 Y-2.90146
G01 X-4.33858 Y-2.90124
G01 X-4.33908 Y-2.90163
G01 X-4.34535 Y-2.90746
G01 X-4.35002 Y-2.91305
G01 X-4.35419 Y-2.91950
G01 X-4.35752 Y-2.92638
G01 X-4.35975 Y-2.93281
G01 X-4.36037 Y-2.93522
G01 X-4.36173 Y-2.94258
G01 X-4.36216 Y-2.94816
G01 X-4.36198 Y-2.95499
G01 X-4.36115 Y-2.96132
G01 X-4.35957 Y-2.96783
G01 X-4.35758 Y-2.97349
G01 X-4.35465 Y-2.97966
G01 X-4.35133 Y-2.98510
G01 X-4.34715 Y-2.99054
G01 X-4.34244 Y-2.99545
G01 X-4.33791 Y-2.99926
G01 X-4.33608 Y-3.00063
G01 X-4.33037 Y-3.00426
G01 X-4.32395 Y-3.00739
G01 X-4.31838 Y-3.00938
G01 X-4.31581 Y-3.01011
G01 X-4.30917 Y-3.01150
G01 X-4.30241 Y-3.01214
G01 X-4.29602 Y-3.01203
G01 X-4.29336 Y-3.01181
G01 X-4.28676 Y-3.01075
G01 X-4.28023 Y-3.00896
G01 X-4.27321 Y-3.00611
G01 X-4.26634 Y-3.00229
G01 X-4.26612 Y-3.00075
G01 X-4.26634 Y-3.00229
G01 X-4.06982 Y-3.19880
G01 X-4.06626 Y-3.20190
G01 X-4.06267 Y-3.20433
G01 X-4.05830 Y-3.20659
G01 X-4.05356 Y-3.20831
G01 X-4.04828 Y-3.20945
G01 X-4.04280 Y-3.20984
G01 X-3.46088 Y-3.20984
G01 X-3.45561 Y-3.20776
G01 X-3.45425 Y-3.20740
G01 X-3.45109 Y-3.20752
G01 X-3.34591 Y-3.20747
G01 X-3.34167 Y-3.20580
G01 X-3.33700 Y-3.20007
G01 X-3.33302 Y-3.19328
G01 X-3.33033 Y-3.18654
G01 X-3.32895 Y-3.18117
G01 X-3.32810 Y-3.17507
G01 X-3.32798 Y-3.17020
G01 X-3.34688 Y-3.17001
G01 X-3.34694 Y-3.17359
G01 X-3.34733 Y-3.17670
G01 X-3.34831 Y-3.18071
G01 X-3.35008 Y-3.18516
G01 X-3.35240 Y-3.18909
G01 X-3.35582 Y-3.19327
G01 X-3.35975 Y-3.19666
G01 X-3.36381 Y-3.19920
G01 X-3.36800 Y-3.20100
G01 X-3.37324 Y-3.20234
G01 X-3.37812 Y-3.20275
G01 X-3.42199 Y-3.20275
G01 X-3.42732 Y-3.20224
G01 X-3.43031 Y-3.20154
G01 X-3.43286 Y-3.20069
G01 X-3.43567 Y-3.19946
G01 X-3.43835 Y-3.19796
G01 X-3.44087 Y-3.19621
G01 X-3.44321 Y-3.19422
G01 X-3.44619 Y-3.19095
G01 X-4.04280 Y-3.19095
G01 X-4.04613 Y-3.19066
G01 X-4.04864 Y-3.19005
G01 X-4.05057 Y-3.18934
G01 X-4.05287 Y-3.18817
G01 X-4.05462 Y-3.18700
G01 X-4.05672 Y-3.18518
G01 X-4.26562 Y-2.97629
G01 X-4.26884 Y-2.98004
G01 X-4.27273 Y-2.98361
G01 X-4.27667 Y-2.98645
G01 X-4.28126 Y-2.98901
G01 X-4.28615 Y-2.99100
G01 X-4.29124 Y-2.99238
G01 X-4.29605 Y-2.99310
G01 X-4.30130 Y-2.99326
G01 X-4.30703 Y-2.99270
G01 X-4.31215 Y-2.99154
G01 X-4.31673 Y-2.98991
G01 X-4.32147 Y-2.98758
G01 X-4.32587 Y-2.98470
G01 X-4.32959 Y-2.98158
G01 X-4.33319 Y-2.97778
G01 X-4.33584 Y-2.97427
G01 X-4.33812 Y-2.97049
G01 X-4.34017 Y-2.96612
G01 X-4.34160 Y-2.96196
G01 X-4.34260 Y-2.95768
G01 X-4.34316 Y-2.95330
G01 X-4.34327 Y-2.94890
G01 X-4.34293 Y-2.94449
G01 X-4.34184 Y-2.93894
G01 X-4.34018 Y-2.93391
G01 X-4.33792 Y-2.92914
G01 X-4.33486 Y-2.92434
G01 X-4.33146 Y-2.92028
G01 X-4.32728 Y-2.91640
G01 X-4.32262 Y-2.91310
G01 X-4.31969 Y-2.91154
G01 X-4.31969 Y-2.86969
G01 X-4.42964 Y-2.86969
G01 X-4.43100 Y-2.87117
G01 X-4.43342 Y-2.87328
G01 X-4.43684 Y-2.87558
G01 X-4.44018 Y-2.87723
G01 X-4.44409 Y-2.87855
G01 X-4.44775 Y-2.87927
G01 X-4.45188 Y-2.87952
G01 X-4.45559 Y-2.87925
G01 X-4.45877 Y-2.87863
G01 X-4.46186 Y-2.87767
G01 X-4.46483 Y-2.87638
G01 X-4.46764 Y-2.87477
G01 X-4.47023 Y-2.87288
G01 X-4.47232 Y-2.87101
G01 X-4.47449 Y-2.86861
G01 X-4.47615 Y-2.86635
G01 X-4.47780 Y-2.86356
G01 X-4.47912 Y-2.86061
G01 X-4.48012 Y-2.85753
G01 X-4.48077 Y-2.85436
G01 X-4.48109 Y-2.85071
G01 X-4.48102 Y-2.84790
G01 X-4.48069 Y-2.84512
G01 X-4.47999 Y-2.84199
G01 X-4.47816 Y-2.83718
G01 X-4.47584 Y-2.83319
G01 X-4.47334 Y-2.83006
G01 X-4.46947 Y-2.82653
G01 X-4.46613 Y-2.82432
G01 X-4.46195 Y-2.82237
G01 X-4.45690 Y-2.82097
G01 X-4.45292 Y-2.82051
G01 X-4.44959 Y-2.82054
G01 X-4.44596 Y-2.82102
G01 X-4.44279 Y-2.82181
G01 X-4.43894 Y-2.82332
G01 X-4.43607 Y-2.82488
G01 X-4.43344 Y-2.82671
G01 X-4.43067 Y-2.82916
G01 X-4.42962 Y-2.83031
G01 X-4.29959 Y-2.83032
G01 X-4.29677 Y-2.83059
G01 X-4.29382 Y-2.83132
G01 X-4.29102 Y-2.83249
G01 X-4.28853 Y-2.83400
G01 X-4.28555 Y-2.83663
G01 X-4.28312 Y-2.83987
G01 X-4.28134 Y-2.84373
G01 X-4.28079 Y-2.84573
G01 X-4.28041 Y-2.84805
G01 X-4.28031 Y-2.90591
G01 X-4.03465 Y-3.15157
G01 X-3.44620 Y-3.15157
G01 X-3.44330 Y-3.14839
G01 X-3.44097 Y-3.14639
G01 X-3.43846 Y-3.14463
G01 X-3.43579 Y-3.14312
G01 X-3.43298 Y-3.14187
G01 X-3.43004 Y-3.14091
G01 X-3.42721 Y-3.14026
G01 X-3.42188 Y-3.13976
G01 X-3.37734 Y-3.13978
G01 X-3.37385 Y-3.14009
G01 X-3.37034 Y-3.14080
G01 X-3.36650 Y-3.14208
G01 X-3.36346 Y-3.14351
G01 X-3.36040 Y-3.14539
G01 X-3.35724 Y-3.14789
G01 X-3.35472 Y-3.15044
G01 X-3.35277 Y-3.15289
G01 X-3.35085 Y-3.15591
G01 X-3.34928 Y-3.15914
G01 X-3.34797 Y-3.16294
G01 X-3.34722 Y-3.16645
G01 X-3.34688 Y-3.17001
G04 P0 ( dwell for no time -- G64 should not smooth over this point )
G00 Z0.08000 ( retract )

G00 X-3.43239 Y-3.29252 ( rapid move to begin. )
G01 F180.00000
( Mill infeed pass 1/1 )
G01 Z-0.04000
G04 P0 ( dwell for no time -- G64 should not smooth over this point )
G01 F360.00000
G01 X-3.43239 Y-3.29252
G01 X-3.35326 Y-3.29252
G01 X-3.35144 Y-3.29381
G01 X-3.34856 Y-3.29623
G01 X-3.34494 Y-3.29996
G01 X-3.34190 Y-3.30394
G01 X-3.34004 Y-3.30690
G01 X-3.33844 Y-3.31001
G01 X-3.33653 Y-3.31474
G01 X-3.33528 Y-3.31927
G01 X-3.33453 Y-3.32391
G01 X-3.33427 Y-3.32740
G01 X-3.33430 Y-3.33018
G01 X-3.33800 Y-3.33755
G01 X-3.34211 Y-3.34417
G01 X-3.34652 Y-3.35002
G01 X-3.35147 Y-3.35547
G01 X-3.35698 Y-3.36049
G01 X-3.36323 Y-3.36519
G01 X-3.37023 Y-3.36623
G01 X-3.37725 Y-3.36664
G01 X-3.42174 Y-3.36665
G01 X-3.42804 Y-3.36639
G01 X-3.43314 Y-3.36581
G01 X-3.43974 Y-3.36457
G01 X-3.44540 Y-3.36307
G01 X-3.45274 Y-3.36068
G01 X-3.67238 Y-3.36072
G01 X-3.67518 Y-3.36062
G01 X-3.67836 Y-3.36023
G01 X-3.68233 Y-3.35907
G01 X-3.72049 Y-3.34514
G01 X-3.72053 Y-3.34453
G01 X-3.72049 Y-3.34514
G01 X-3.72419 Y-3.34736
G01 X-3.72781 Y-3.34916
G01 X-3.73158 Y-3.35069
G01 X-3.73896 Y-3.35280
G01 X-3.74613 Y-3.35380
G01 X-3.75023 Y-3.35393
G01 X-3.75385 Y-3.35379
G01 X-3.75909 Y-3.35316
G01 X-3.76270 Y-3.35242
G01 X-3.76852 Y-3.35063
G01 X-3.77312 Y-3.34873
G01 X-3.77742 Y-3.34644
G01 X-3.78048 Y-3.34450
G01 X-3.78307 Y-3.34260
G01 X-3.78678 Y-3.33945
G01 X-3.79016 Y-3.33598
G01 X-3.79201 Y-3.33060
G01 X-3.79319 Y-3.32661
G01 X-3.79501 Y-3.31888
G01 X-3.79617 Y-3.31140
G01 X-3.79679 Y-3.30318
G01 X-3.79670 Y-3.29469
G01 X-3.79627 Y-3.28945
G01 X-3.79556 Y-3.28421
G01 X-3.79462 Y-3.27926
G01 X-3.79330 Y-3.27378
G01 X-3.79177 Y-3.26864
G01 X-3.79017 Y-3.26405
G01 X-3.78673 Y-3.26050
G01 X-3.78193 Y-3.25655
G01 X-3.77792 Y-3.25385
G01 X-3.77402 Y-3.25172
G01 X-3.76880 Y-3.24946
G01 X-3.76289 Y-3.24763
G01 X-3.75773 Y-3.24662
G01 X-3.75212 Y-3.24610
G01 X-3.74686 Y-3.24616
G01 X-3.74054 Y-3.24691
G01 X-3.73649 Y-3.24778
G01 X-3.73163 Y-3.24930
G01 X-3.72778 Y-3.25085
G01 X-3.72366 Y-3.25293
G01 X-3.71973 Y-3.25536
G01 X-3.71617 Y-3.25799
G01 X-3.71232 Y-3.26140
G01 X-3.70931 Y-3.26461
G01 X-3.70556 Y-3.26945
G01 X-3.70334 Y-3.27294
G01 X-3.70112 Y-3.27720
G01 X-3.69931 Y-3.28157
G01 X-3.69838 Y-3.28447
G01 X-3.69876 Y-3.28488
G01 X-3.69838 Y-3.28447
G01 X-3.66557 Y-3.29655
G01 X-3.45167 Y-3.29645
G01 X-3.45155 Y-3.29681
G01 X-3.45167 Y-3.29645
G01 X-3.44891 Y-3.29408
G01 X-3.44675 Y-3.29252
G01 X-3.43239 Y-3.29252
G01 X-3.43535 Y-3.29352
G01 X-3.43833 Y-3.29483
G01 X-3.44202 Y-3.29690
G01 X-3.44502 Y-3.29903
G01 X-3.44743 Y-3.30111
G01 X-3.44905 Y-3.30275
G01 X-3.44892 Y-3.30313
G01 X-3.44905 Y-3.30275
G01 X-3.66668 Y-3.30285
G01 X-3.70362 Y-3.28926
G01 X-3.70410 Y-3.28974
G01 X-3.70362 Y-3.28926
G01 X-3.70411 Y-3.28723
G01 X-3.70539 Y-3.28330
G01 X-3.70718 Y-3.27914
G01 X-3.70889 Y-3.27592
G01 X-3.71110 Y-3.27250
G01 X-3.71362 Y-3.26925
G01 X-3.71708 Y-3.26558
G01 X-3.72050 Y-3.26260
G01 X-3.72344 Y-3.26045
G01 X-3.72692 Y-3.25833
G01 X-3.73057 Y-3.25650
G01 X-3.73436 Y-3.25500
G01 X-3.73827 Y-3.25383
G01 X-3.74228 Y-3.25299
G01 X-3.74667 Y-3.25248
G01 X-3.75136 Y-3.25239
G01 X-3.75697 Y-3.25288
G01 X-3.76118 Y-3.25370
G01 X-3.76536 Y-3.25492
G01 X-3.77072 Y-3.25710
G01 X-3.77450 Y-3.25915
G01 X-3.77839 Y-3.26176
G01 X-3.78259 Y-3.26526
G01 X-3.78655 Y-3.26946
G01 X-3.78904 Y-3.27271
G01 X-3.79141 Y-3.27646
G01 X-3.79381 Y-3.28129
G01 X-3.79531 Y-3.28531
G01 X-3.79611 Y-3.28825
G01 X-3.79670 Y-3.29469
G01 X-3.79684 Y-3.29944
G01 X-3.79654 Y-3.30772
G01 X-3.79581 Y-3.31414
G01 X-3.79501 Y-3.31888
G01 X-3.79350 Y-3.32545
G01 X-3.79240 Y-3.32935
G01 X-3.79064 Y-3.33469
G01 X-3.78792 Y-3.34205
G01 X-3.78613 Y-3.34817
G01 X-3.78385 Y-3.34983
G01 X-3.78039 Y-3.35200
G01 X-3.77607 Y-3.35430
G01 X-3.77046 Y-3.35540
G01 X-3.76534 Y-3.35618
G01 X-3.76015 Y-3.35676
G01 X-3.75131 Y-3.35719
G01 X-3.74453 Y-3.35705
G01 X-3.73625 Y-3.35638
G01 X-3.72858 Y-3.35524
G01 X-3.72403 Y-3.35433
G01 X-3.71981 Y-3.35209
G01 X-3.71985 Y-3.35150
G01 X-3.71981 Y-3.35209
G01 X-3.71387 Y-3.35426
G01 X-3.68316 Y-3.35969
G01 X-3.68005 Y-3.36016
G01 X-3.67518 Y-3.36062
G01 X-3.67238 Y-3.36072
G01 X-3.45275 Y-3.36074
G01 X-3.45166 Y-3.36094
G01 X-3.44540 Y-3.36307
G01 X-3.43974 Y-3.36457
G01 X-3.43314 Y-3.36581
G01 X-3.42804 Y-3.36639
G01 X-3.42174 Y-3.36665
G01 X-3.37725 Y-3.36664
G01 X-3.37263 Y-3.36644
G01 X-3.36666 Y-3.36578
G01 X-3.36323 Y-3.36519
G01 X-3.35979 Y-3.36272
G01 X-3.35515 Y-3.35893
G01 X-3.35147 Y-3.35547
G01 X-3.34727 Y-3.35092
G01 X-3.34427 Y-3.34718
G01 X-3.34211 Y-3.34417
G01 X-3.33876 Y-3.33888
G01 X-3.33670 Y-3.33515
G01 X-3.33484 Y-3.33137
G01 X-3.33297 Y-3.32708
G01 X-3.33118 Y-3.32236
G01 X-3.32939 Y-3.31683
G01 X-3.33056 Y-3.31274
G01 X-3.33235 Y-3.30816
G01 X-3.33457 Y-3.30378
G01 X-3.33701 Y-3.29991
G01 X-3.33998 Y-3.29608
G01 X-3.34176 Y-3.29413
G01 X-3.34586 Y-3.29252
G01 X-3.45130 Y-3.29248
G01 X-3.45425 Y-3.29261
G01 X-3.45545 Y-3.29231
G01 X-3.46087 Y-3.29015
G01 X-3.66445 Y-3.29025
G01 X-3.69332 Y-3.27961
G01 X-3.69367 Y-3.27999
G01 X-3.69332 Y-3.27961
G01 X-3.69586 Y-3.27361
G01 X-3.69812 Y-3.26939
G01 X-3.70140 Y-3.26444
G01 X-3.70415 Y-3.26094
G01 X-3.70808 Y-3.25674
G01 X-3.71238 Y-3.25296
G01 X-3.71724 Y-3.24947
G01 X-3.72099 Y-3.24721
G01 X-3.72455 Y-3.24542
G01 X-3.73041 Y-3.24304
G01 X-3.73497 Y-3.24167
G01 X-3.73966 Y-3.24066
G01 X-3.74642 Y-3.23987
G01 X-3.75236 Y-3.23981
G01 X-3.75798 Y-3.24029
G01 X-3.76358 Y-3.24132
G01 X-3.76892 Y-3.24283
G01 X-3.77122 Y-3.24365
G01 X-3.77667 Y-3.24600
G01 X-3.78119 Y-3.24847
G01 X-3.78611 Y-3.25179
G01 X-3.78743 Y-3.25645
G01 X-3.79177 Y-3.26864
G01 X-3.79330 Y-3.27378
G01 X-3.79462 Y-3.27926
G01 X-3.79576 Y-3.28553
G01 X-3.79640 Y-3.29077
G01 X-3.79684 Y-3.29944
G01 X-3.79676 Y-3.30407
G01 X-3.79617 Y-3.31140
G01 X-3.79551 Y-3.31406
G01 X-3.79433 Y-3.31743
G01 X-3.79290 Y-3.32070
G01 X-3.79123 Y-3.32386
G01 X-3.78911 Y-3.32719
G01 X-3.78721 Y-3.32974
G01 X-3.78513 Y-3.33216
G01 X-3.78235 Y-3.33497
G01 X-3.77934 Y-3.33752
G01 X-3.77677 Y-3.33940
G01 X-3.77407 Y-3.34110
G01 X-3.77059 Y-3.34296
G01 X-3.76699 Y-3.34450
G01 X-3.76097 Y-3.34636
G01 X-3.75749 Y-3.34705
G01 X-3.75433 Y-3.34743
G01 X-3.75038 Y-3.34764
G01 X-3.74647 Y-3.34750
G01 X-3.74025 Y-3.34663
G01 X-3.73421 Y-3.34494
G01 X-3.73022 Y-3.34333
G01 X-3.72737 Y-3.34192
G01 X-3.72397 Y-3.33989
G01 X-3.72140 Y-3.33810
G01 X-3.72146 Y-3.33744
G01 X-3.72140 Y-3.33810
G01 X-3.68017 Y-3.35315
G01 X-3.67699 Y-3.35408
G01 X-3.67321 Y-3.35465
G01 X-3.44905 Y-3.35473
G01 X-3.44889 Y-3.35430
G01 X-3.44905 Y-3.35473
G01 X-3.44769 Y-3.35614
G01 X-3.44490 Y-3.35854
G01 X-3.44189 Y-3.36066
G01 X-3.43912 Y-3.36225
G01 X-3.43485 Y-3.36415
G01 X-3.43182 Y-3.36514
G01 X-3.42827 Y-3.36595
G01 X-3.42516 Y-3.36637
G01 X-3.42176 Y-3.36653
G01 X-3.37722 Y-3.36651
G01 X-3.37344 Y-3.36622
G01 X-3.37012 Y-3.36563
G01 X-3.36684 Y-3.36474
G01 X-3.36342 Y-3.36346
G01 X-3.36077 Y-3.36219
G01 X-3.35747 Y-3.36024
G01 X-3.35510 Y-3.35853
G01 X-3.35163 Y-3.35546
G01 X-3.34948 Y-3.35313
G01 X-3.34740 Y-3.35044
G01 X-3.34559 Y-3.34759
G01 X-3.34404 Y-3.34459
G01 X-3.34276 Y-3.34147
G01 X-3.34176 Y-3.33822
G01 X-3.34102 Y-3.33465
G01 X-3.34063 Y-3.33125
G01 X-3.34057 Y-3.32759
G01 X-3.34081 Y-3.32441
G01 X-3.34163 Y-3.31980
G01 X-3.34251 Y-3.31674
G01 X-3.34384 Y-3.31331
G01 X-3.34551 Y-3.31002
G01 X-3.34740 Y-3.30704
G01 X-3.34984 Y-3.30393
G01 X-3.35217 Y-3.30148
G01 X-3.35571 Y-3.29847
G01 X-3.35863 Y-3.29649
G01 X-3.36173 Y-3.29479
G01 X-3.36537 Y-3.29325
G01 X-3.36770 Y-3.29251
G01 X-3.35326 Y-3.29252
G01 X-3.35144 Y-3.29381
G01 X-3.34856 Y-3.29623
G01 X-3.34549 Y-3.29933
G01 X-3.34262 Y-3.30291
G01 X-3.34024 Y-3.30655
G01 X-3.33826 Y-3.31037
G01 X-3.33681 Y-3.31398
G01 X-3.33537 Y-3.31888
G01 X-3.33457 Y-3.32351
G01 X-3.33427 Y-3.32740
G01 X-3.33430 Y-3.33018
G01 X-3.33484 Y-3.33137
G01 X-3.33408 Y-3.32968
G01 X-3.33427 Y-3.32820
G01 X-3.34686 Y-3.32797
G01 X-3.34694 Y-3.33102
G01 X-3.34727 Y-3.33384
G01 X-3.34791 Y-3.33682
G01 X-3.34875 Y-3.33951
G01 X-3.34983 Y-3.34211
G01 X-3.35114 Y-3.34460
G01 X-3.35246 Y-3.34668
G01 X-3.35417 Y-3.34892
G01 X-3.35624 Y-3.35117
G01 X-3.35853 Y-3.35321
G01 X-3.36080 Y-3.35489
G01 X-3.36321 Y-3.35636
G01 X-3.36573 Y-3.35760
G01 X-3.36859 Y-3.35868
G01 X-3.37132 Y-3.35944
G01 X-3.37444 Y-3.35999
G01 X-3.37722 Y-3.36021
G01 X-3.42176 Y-3.36023
G01 X-3.42442 Y-3.36011
G01 X-3.42697 Y-3.35978
G01 X-3.42994 Y-3.35912
G01 X-3.43286 Y-3.35817
G01 X-3.43567 Y-3.35694
G01 X-3.43835 Y-3.35544
G01 X-3.44087 Y-3.35369
G01 X-3.44321 Y-3.35170
G01 X-3.44619 Y-3.34843
G01 X-3.67303 Y-3.34834
G01 X-3.67589 Y-3.34787
G01 X-3.67801 Y-3.34723
G01 X-3.72270 Y-3.33092
G01 X-3.72527 Y-3.33312
G01 X-3.72782 Y-3.33488
G01 X-3.73049 Y-3.33644
G01 X-3.73300 Y-3.33768
G01 X-3.73627 Y-3.33898
G01 X-3.74128 Y-3.34040
G01 X-3.74696 Y-3.34122
G01 X-3.75048 Y-3.34133
G01 X-3.75357 Y-3.34118
G01 X-3.75664 Y-3.34080
G01 X-3.75980 Y-3.34015
G01 X-3.76477 Y-3.33860
G01 X-3.76773 Y-3.33734
G01 X-3.77073 Y-3.33576
G01 X-3.77311 Y-3.33427
G01 X-3.77561 Y-3.33245
G01 X-3.77796 Y-3.33044
G01 X-3.78017 Y-3.32826
G01 X-3.78238 Y-3.32569
G01 X-3.78405 Y-3.32344
G01 X-3.78571 Y-3.32083
G01 X-3.78716 Y-3.31810
G01 X-3.78841 Y-3.31526
G01 X-3.78954 Y-3.31206
G01 X-3.79026 Y-3.30936
G01 X-3.79085 Y-3.30632
G01 X-3.79121 Y-3.30324
G01 X-3.79133 Y-3.29981
G01 X-3.79116 Y-3.29621
G01 X-3.79044 Y-3.29144
G01 X-3.78930 Y-3.28719
G01 X-3.78788 Y-3.28345
G01 X-3.78610 Y-3.27987
G01 X-3.78398 Y-3.27647
G01 X-3.78156 Y-3.27331
G01 X-3.77855 Y-3.27011
G01 X-3.77486 Y-3.26697
G01 X-3.77120 Y-3.26452
G01 X-3.76767 Y-3.26263
G01 X-3.76358 Y-3.26096
G01 X-3.75974 Y-3.25983
G01 X-3.75581 Y-3.25908
G01 X-3.75185 Y-3.25871
G01 X-3.74745 Y-3.25874
G01 X-3.74347 Y-3.25918
G01 X-3.73998 Y-3.25990
G01 X-3.73659 Y-3.26090
G01 X-3.73329 Y-3.26219
G01 X-3.72983 Y-3.26392
G01 X-3.72682 Y-3.26578
G01 X-3.72396 Y-3.26790
G01 X-3.72099 Y-3.27055
G01 X-3.71854 Y-3.27319
G01 X-3.71635 Y-3.27600
G01 X-3.71425 Y-3.27925
G01 X-3.71259 Y-3.28241
G01 X-3.71108 Y-3.28607
G01 X-3.71003 Y-3.28945
G01 X-3.70914 Y-3.29396
G01 X-3.66778 Y-3.30905
G01 X-3.44620 Y-3.30905
G01 X-3.44330 Y-3.30587
G01 X-3.44097 Y-3.30387
G01 X-3.43846 Y-3.30211
G01 X-3.43577 Y-3.30059
G01 X-3.43311 Y-3.29941
G01 X-3.43018 Y-3.29842
G01 X-3.42719 Y-3.29774
G01 X-3.42187 Y-3.29725
G01 X-3.37649 Y-3.29730
G01 X-3.37344 Y-3.29763
G01 X-3.37043 Y-3.29826
G01 X-3.36749 Y-3.29918
G01 X-3.36444 Y-3.30048
G01 X-3.36176 Y-3.30197
G01 X-3.35922 Y-3.30372
G01 X-3.35699 Y-3.30560
G01 X-3.35483 Y-3.30780
G01 X-3.35253 Y-3.31071
G01 X-3.35089 Y-3.31331
G01 X-3.34952 Y-3.31606
G01 X-3.34842 Y-3.31892
G01 X-3.34761 Y-3.32188
G01 X-3.34709 Y-3.32491
G01 X-3.34686 Y-3.32797
G04 P0 ( dwell for no time -- G64 should not smooth over this point )
G00 Z0.08000 ( retract )

G00 X-3.12981 Y-3.21762 ( rapid move to begin. )
G01 F180.00000
( Mill infeed pass 1/1 )
G01 Z-0.04000
G04 P0 ( dwell for no time -- G64 should not smooth over this point )
G01 F360.00000
G01 X-3.12981 Y-3.21762
G01 X-3.12981 Y-2.81071
G01 X-3.13015 Y-2.80570
G01 X-3.13055 Y-2.80334
G01 X-3.13150 Y-2.79946
G01 X-3.13355 Y-2.79430
G01 X-3.13517 Y-2.79121
G01 X-3.13716 Y-2.78816
G01 X-3.13842 Y-2.78653
G01 X-3.14105 Y-2.78360
G01 X-3.18577 Y-2.73904
G01 X-3.19034 Y-2.73568
G01 X-3.19424 Y-2.73354
G01 X-3.19650 Y-2.73257
G01 X-3.19997 Y-2.73135
G01 X-3.20434 Y-2.73036
G01 X-3.20678 Y-2.73003
G01 X-3.21034 Y-2.72982
G01 X-3.55708 Y-2.72981
G01 X-3.55728 Y-2.73029
G01 X-3.55708 Y-2.72981
G01 X-3.67258 Y-2.61442
G01 X-3.67640 Y-2.61198
G01 X-3.68240 Y-2.60772
G01 X-3.68796 Y-2.60329
G01 X-3.69654 Y-2.59595
G01 X-3.70594 Y-2.58878
G01 X-3.71031 Y-2.58799
G01 X-3.71267 Y-2.58774
G01 X-3.72327 Y-2.58770
G01 X-3.72510 Y-2.58952
G01 X-3.72327 Y-2.58770
G01 X-3.72327 Y-2.55670
G01 X-3.72362 Y-2.55309
G01 X-3.72417 Y-2.55074
G01 X-3.72497 Y-2.54845
G01 X-3.72600 Y-2.54627
G01 X-3.72725 Y-2.54420
G01 X-3.72872 Y-2.54229
G01 X-3.73068 Y-2.54026
G01 X-3.73255 Y-2.53872
G01 X-3.73457 Y-2.53739
G01 X-3.73745 Y-2.53597
G01 X-3.74012 Y-2.53506
G01 X-3.74289 Y-2.53449
G01 X-3.74570 Y-2.53427
G01 X-3.85252 Y-2.53426
G01 X-3.85272 Y-2.53474
G01 X-3.85252 Y-2.53426
G01 X-3.90628 Y-2.48051
G01 X-3.90827 Y-2.47874
G01 X-3.90875 Y-2.47894
G01 X-3.90827 Y-2.47874
G01 X-3.90827 Y-2.44629
G01 X-3.91325 Y-2.44130
G01 X-3.91798 Y-2.43716
G01 X-3.92250 Y-2.43434
G01 X-3.92686 Y-2.43270
G01 X-3.93130 Y-2.43215
G01 X-4.06870 Y-2.43215
G01 X-4.07314 Y-2.43270
G01 X-4.07750 Y-2.43434
G01 X-4.07823 Y-2.43479
G01 X-4.07885 Y-2.43661
G01 X-4.07913 Y-2.43860
G01 X-4.07914 Y-2.57680
G01 X-4.07901 Y-2.57840
G01 X-4.07864 Y-2.57996
G01 X-4.07741 Y-2.58249
G01 X-4.07585 Y-2.58432
G01 X-4.07390 Y-2.58573
G01 X-4.07168 Y-2.58665
G01 X-4.06930 Y-2.58703
G01 X-3.93110 Y-2.58704
G01 X-3.92871 Y-2.58675
G01 X-3.92610 Y-2.58573
G01 X-3.92476 Y-2.58484
G01 X-3.92358 Y-2.58375
G01 X-3.92259 Y-2.58249
G01 X-3.92180 Y-2.58108
G01 X-3.92125 Y-2.57958
G01 X-3.92093 Y-2.57800
G01 X-3.92086 Y-2.55653
G01 X-3.92455 Y-2.54741
G01 X-3.92086 Y-2.55653
G01 X-3.89414 Y-2.58326
G01 X-3.89366 Y-2.58306
G01 X-3.89414 Y-2.58326
G01 X-3.89413 Y-2.69530
G01 X-3.89364 Y-2.69806
G01 X-3.89241 Y-2.70059
G01 X-3.89142 Y-2.70185
G01 X-3.89024 Y-2.70294
G01 X-3.88782 Y-2.70436
G01 X-3.88590 Y-2.70494
G01 X-3.88390 Y-2.70514
G01 X-3.74610 Y-2.70514
G01 X-3.74450 Y-2.70501
G01 X-3.74294 Y-2.70464
G01 X-3.74145 Y-2.70402
G01 X-3.74008 Y-2.70318
G01 X-3.73806 Y-2.70124
G01 X-3.73664 Y-2.69882
G01 X-3.73615 Y-2.69729
G01 X-3.73590 Y-2.69570
G01 X-3.73586 Y-2.65174
G01 X-3.73770 Y-2.64989
G01 X-3.73586 Y-2.65174
G01 X-3.72576 Y-2.65174
G01 X-3.72556 Y-2.65126
G01 X-3.72576 Y-2.65174
G01 X-3.59115 Y-2.78635
G01 X-3.58879 Y-2.78843
G01 X-3.58601 Y-2.79032
G01 X-3.58300 Y-2.79184
G01 X-3.57983 Y-2.79295
G01 X-3.57653 Y-2.79363
G01 X-3.57295 Y-2.79388
G01 X-3.22137 Y-2.79388
G01 X-3.22117 Y-2.79340
G01 X-3.22137 Y-2.79388
G01 X-3.19388 Y-2.82137
G01 X-3.19340 Y-2.82117
G01 X-3.19388 Y-2.82137
G01 X-3.19388 Y-3.20696
G01 X-3.19340 Y-3.20716
G01 X-3.19388 Y-3.20696
G01 X-3.35999 Y-3.37306
G01 X-3.35979 Y-3.37354
G01 X-3.35999 Y-3.37306
G01 X-3.81091 Y-3.37306
G01 X-3.81111 Y-3.37354
G01 X-3.81091 Y-3.37306
G01 X-3.82426 Y-3.35971
G01 X-3.82474 Y-3.35991
G01 X-3.82426 Y-3.35971
G01 X-3.82426 Y-3.34961
G01 X-3.82606 Y-3.34784
G01 X-3.82426 Y-3.34961
G01 X-3.81220 Y-3.34960
G01 X-3.81021 Y-3.34932
G01 X-3.80760 Y-3.34830
G01 X-3.80565 Y-3.34689
G01 X-3.80409 Y-3.34506
G01 X-3.80286 Y-3.34253
G01 X-3.80249 Y-3.34097
G01 X-3.80236 Y-3.33937
G01 X-3.80236 Y-3.31266
G01 X-3.80289 Y-3.30720
G01 X-3.80316 Y-3.30046
G01 X-3.80305 Y-3.29564
G01 X-3.80268 Y-3.29026
G01 X-3.80199 Y-3.28461
G01 X-3.80077 Y-3.27787
G01 X-3.79981 Y-3.27379
G01 X-3.79832 Y-3.26848
G01 X-3.79606 Y-3.26182
G01 X-3.79606 Y-3.26063
G01 X-3.79638 Y-3.25740
G01 X-3.79717 Y-3.25468
G01 X-3.79863 Y-3.25178
G01 X-3.80062 Y-3.24923
G01 X-3.80308 Y-3.24711
G01 X-3.80590 Y-3.24551
G01 X-3.80898 Y-3.24450
G01 X-3.81219 Y-3.24410
G01 X-3.88740 Y-3.24409
G01 X-3.88943 Y-3.24422
G01 X-3.89181 Y-3.24469
G01 X-3.89520 Y-3.24605
G01 X-3.89692 Y-3.24711
G01 X-3.89851 Y-3.24838
G01 X-3.90092 Y-3.25111
G01 X-3.90268 Y-3.25430
G01 X-3.90344 Y-3.25661
G01 X-3.90386 Y-3.25901
G01 X-3.90394 Y-3.26796
G01 X-3.90214 Y-3.26978
G01 X-3.90394 Y-3.26796
G01 X-3.99606 Y-3.26796
G01 X-3.99781 Y-3.26976
G01 X-3.99606 Y-3.26796
G01 X-3.99614 Y-3.25901
G01 X-3.99656 Y-3.25661
G01 X-3.99732 Y-3.25430
G01 X-3.99908 Y-3.25111
G01 X-4.00035 Y-3.24953
G01 X-4.00180 Y-3.24811
G01 X-4.00480 Y-3.24605
G01 X-4.00665 Y-3.24520
G01 X-4.00858 Y-3.24459
G01 X-4.01057 Y-3.24422
G01 X-4.01260 Y-3.24409
G01 X-4.08740 Y-3.24409
G01 X-4.09023 Y-3.24434
G01 X-4.09297 Y-3.24506
G01 X-4.09520 Y-3.24605
G01 X-4.09725 Y-3.24735
G01 X-4.09909 Y-3.24894
G01 X-4.10092 Y-3.25111
G01 X-4.10217 Y-3.25319
G01 X-4.10310 Y-3.25544
G01 X-4.10376 Y-3.25820
G01 X-4.10394 Y-3.26063
G01 X-4.10394 Y-3.26181
G01 X-4.10192 Y-3.26768
G01 X-4.10072 Y-3.27176
G01 X-4.09940 Y-3.27708
G01 X-4.09828 Y-3.28275
G01 X-4.09755 Y-3.28801
G01 X-4.09698 Y-3.29488
G01 X-4.09685 Y-3.30054
G01 X-4.09710 Y-3.30710
G01 X-4.09764 Y-3.31265
G01 X-4.09761 Y-3.34017
G01 X-4.09725 Y-3.34215
G01 X-4.09652 Y-3.34402
G01 X-4.09544 Y-3.34571
G01 X-4.09405 Y-3.34715
G01 X-4.09275 Y-3.34810
G01 X-4.09132 Y-3.34883
G01 X-4.08979 Y-3.34932
G01 X-4.08780 Y-3.34960
G01 X-4.01260 Y-3.34961
G01 X-4.01021 Y-3.34932
G01 X-4.00760 Y-3.34830
G01 X-4.00536 Y-3.34661
G01 X-4.00367 Y-3.34437
G01 X-4.00265 Y-3.34176
G01 X-4.00236 Y-3.33937
G01 X-4.00236 Y-3.32574
G01 X-4.00420 Y-3.32389
G01 X-4.00236 Y-3.32574
G01 X-3.89764 Y-3.32574
G01 X-3.89581 Y-3.32390
G01 X-3.89764 Y-3.32574
G01 X-3.89763 Y-3.33977
G01 X-3.89744 Y-3.34137
G01 X-3.89686 Y-3.34329
G01 X-3.89613 Y-3.34472
G01 X-3.89492 Y-3.34632
G01 X-3.89342 Y-3.34765
G01 X-3.89169 Y-3.34867
G01 X-3.88979 Y-3.34932
G01 X-3.88820 Y-3.34957
G01 X-3.87573 Y-3.34961
G01 X-3.87396 Y-3.34783
G01 X-3.87573 Y-3.34961
G01 X-3.87568 Y-3.37199
G01 X-3.87526 Y-3.37528
G01 X-3.87440 Y-3.37853
G01 X-3.87313 Y-3.38165
G01 X-3.87122 Y-3.38491
G01 X-3.86819 Y-3.38857
G01 X-3.83852 Y-3.41816
G01 X-3.83559 Y-3.42038
G01 X-3.83204 Y-3.42231
G01 X-3.82823 Y-3.42366
G01 X-3.82431 Y-3.42439
G01 X-3.34933 Y-3.42454
G01 X-3.34570 Y-3.42427
G01 X-3.34131 Y-3.42325
G01 X-3.33749 Y-3.42164
G01 X-3.33401 Y-3.41947
G01 X-3.33137 Y-3.41723
G01 X-3.14995 Y-3.23582
G01 X-3.14734 Y-3.23274
G01 X-3.14575 Y-3.23029
G01 X-3.14448 Y-3.22772
G01 X-3.14350 Y-3.22502
G01 X-3.14277 Y-3.22177
G01 X-3.14242 Y-3.21796
G01 X-3.14241 Y-2.81071
G01 X-3.14267 Y-2.80708
G01 X-3.14369 Y-2.80269
G01 X-3.14512 Y-2.79927
G01 X-3.14594 Y-2.79774
G01 X-3.14816 Y-2.79453
G01 X-3.14995 Y-2.79251
G01 X-3.19376 Y-2.74879
G01 X-3.19704 Y-2.74635
G01 X-3.20086 Y-2.74438
G01 X-3.20347 Y-2.74345
G01 X-3.20656 Y-2.74277
G01 X-3.21071 Y-2.74241
G01 X-3.56229 Y-2.74241
G01 X-3.56249 Y-2.74289
G01 X-3.56229 Y-2.74241
G01 X-3.69909 Y-2.60585
G01 X-3.70171 Y-2.60402
G01 X-3.70525 Y-2.60222
G01 X-3.70909 Y-2.60097
G01 X-3.71307 Y-2.60034
G01 X-3.73586 Y-2.60028
G01 X-3.73769 Y-2.60209
G01 X-3.73586 Y-2.60028
G01 X-3.73587 Y-2.55670
G01 X-3.73625 Y-2.55432
G01 X-3.73717 Y-2.55210
G01 X-3.73858 Y-2.55015
G01 X-3.74041 Y-2.54859
G01 X-3.74294 Y-2.54736
G01 X-3.74450 Y-2.54699
G01 X-3.74610 Y-2.54686
G01 X-3.85774 Y-2.54686
G01 X-3.85794 Y-2.54734
G01 X-3.85774 Y-2.54686
G01 X-3.91519 Y-2.48942
G01 X-3.91788 Y-2.48717
G01 X-3.91920 Y-2.48626
G01 X-3.92086 Y-2.48530
G01 X-3.92155 Y-2.48565
G01 X-3.92086 Y-2.48530
G01 X-3.92086 Y-2.43900
G01 X-3.92099 Y-2.43740
G01 X-3.92150 Y-2.43546
G01 X-3.92177 Y-2.43480
G01 X-3.92250 Y-2.43434
G01 X-3.92686 Y-2.43270
G01 X-3.93130 Y-2.43215
G01 X-4.06870 Y-2.43215
G01 X-4.07314 Y-2.43270
G01 X-4.07750 Y-2.43434
G01 X-4.08202 Y-2.43716
G01 X-4.08544 Y-2.44015
G01 X-4.08543 Y-2.57721
G01 X-4.08526 Y-2.57923
G01 X-4.08472 Y-2.58160
G01 X-4.08385 Y-2.58387
G01 X-4.08265 Y-2.58599
G01 X-4.08030 Y-2.58878
G01 X-4.07875 Y-2.59008
G01 X-4.07705 Y-2.59119
G01 X-4.07523 Y-2.59208
G01 X-4.07331 Y-2.59274
G01 X-4.06971 Y-2.59332
G01 X-3.93110 Y-2.59334
G01 X-3.92867 Y-2.59316
G01 X-3.92669 Y-2.59274
G01 X-3.92440 Y-2.59192
G01 X-3.92225 Y-2.59077
G01 X-3.92061 Y-2.58958
G01 X-3.91885 Y-2.58790
G01 X-3.91758 Y-2.58632
G01 X-3.91633 Y-2.58423
G01 X-3.91553 Y-2.58237
G01 X-3.91497 Y-2.58042
G01 X-3.91464 Y-2.57842
G01 X-3.91456 Y-2.57174
G01 X-3.91801 Y-2.56295
G01 X-3.91456 Y-2.57174
G01 X-3.90043 Y-2.58587
G01 X-3.89996 Y-2.58567
G01 X-3.90043 Y-2.58587
G01 X-3.90039 Y-2.69612
G01 X-3.90003 Y-2.69852
G01 X-3.89947 Y-2.70047
G01 X-3.89867 Y-2.70233
G01 X-3.89742 Y-2.70442
G01 X-3.89615 Y-2.70600
G01 X-3.89439 Y-2.70768
G01 X-3.89275 Y-2.70887
G01 X-3.89060 Y-2.71002
G01 X-3.88752 Y-2.71103
G01 X-3.88592 Y-2.71131
G01 X-3.88390 Y-2.71143
G01 X-3.74610 Y-2.71143
G01 X-3.74367 Y-2.71126
G01 X-3.74091 Y-2.71060
G01 X-3.73867 Y-2.70967
G01 X-3.73691 Y-2.70865
G01 X-3.73530 Y-2.70742
G01 X-3.73358 Y-2.70570
G01 X-3.73213 Y-2.70375
G01 X-3.73115 Y-2.70197
G01 X-3.73028 Y-2.69970
G01 X-3.72981 Y-2.69773
G01 X-3.72956 Y-2.69490
G01 X-3.72956 Y-2.65803
G01 X-3.73141 Y-2.65619
G01 X-3.72956 Y-2.65803
G01 X-3.72837 Y-2.65803
G01 X-3.72817 Y-2.65755
G01 X-3.72837 Y-2.65803
G01 X-3.59534 Y-2.79105
G01 X-3.59228 Y-2.79370
G01 X-3.58878 Y-2.79600
G01 X-3.58501 Y-2.79783
G01 X-3.58145 Y-2.79903
G01 X-3.57735 Y-2.79988
G01 X-3.57295 Y-2.80018
G01 X-3.22398 Y-2.80018
G01 X-3.22378 Y-2.79970
G01 X-3.22398 Y-2.80018
G01 X-3.20018 Y-2.82398
G01 X-3.19970 Y-2.82378
G01 X-3.20018 Y-2.82398
G01 X-3.20018 Y-2.91335
G01 X-3.19744 Y-2.92267
G01 X-3.19582 Y-2.93006
G01 X-3.19453 Y-2.93930
G01 X-3.19413 Y-2.94487
G01 X-3.19399 Y-2.94994
G01 X-3.19414 Y-2.95539
G01 X-3.19450 Y-2.96039
G01 X-3.19540 Y-2.96747
G01 X-3.19730 Y-2.97680
G01 X-3.19875 Y-2.98211
G01 X-3.20018 Y-2.98660
G01 X-3.20018 Y-3.20435
G01 X-3.19970 Y-3.20455
G01 X-3.20018 Y-3.20435
G01 X-3.32853 Y-3.33270
G01 X-3.33114 Y-3.33811
G01 X-3.33468 Y-3.34434
G01 X-3.33773 Y-3.34891
G01 X-3.34246 Y-3.35500
G01 X-3.34696 Y-3.35987
G01 X-3.35096 Y-3.36366
G01 X-3.35600 Y-3.36775
G01 X-3.36082 Y-3.37108
G01 X-3.36073 Y-3.37129
G01 X-3.36082 Y-3.37108
G01 X-3.36436 Y-3.37180
G01 X-3.36958 Y-3.37249
G01 X-3.37600 Y-3.37292
G01 X-3.42503 Y-3.37289
G01 X-3.43256 Y-3.37224
G01 X-3.43840 Y-3.37132
G01 X-3.44554 Y-3.36959
G01 X-3.45332 Y-3.36704
G01 X-3.67244 Y-3.36702
G01 X-3.67745 Y-3.36676
G01 X-3.80830 Y-3.36676
G01 X-3.80850 Y-3.36724
G01 X-3.80830 Y-3.36676
G01 X-3.81217 Y-3.36289
G01 X-3.80386 Y-3.36046
G01 X-3.80177 Y-3.35947
G01 X-3.80004 Y-3.35844
G01 X-3.79778 Y-3.35675
G01 X-3.79549 Y-3.35449
G01 X-3.79375 Y-3.35226
G01 X-3.79224 Y-3.34971
G01 X-3.79391 Y-3.34402
G01 X-3.79802 Y-3.33249
G01 X-3.79927 Y-3.32827
G01 X-3.80059 Y-3.32294
G01 X-3.80190 Y-3.31609
G01 X-3.80243 Y-3.31213
