( pcb2gcode 2.5.0 )
( Software-independent Gcode )

G94 ( Inches per minute feed rate. )
G20 ( Units == INCHES. )

G90 ( Absolute coordinates. )
G00 S30000 ( RPM spindle speed. )
G64 P0.00040 ( set maximum deviation from commanded toolpath )
G01 F6.00000 ( Feedrate. )


G00 Z1.00000 (Retract to tool change height)
T1
M5      (Spindle stop.)
G04 P1.00000 (Wait for spindle to stop)
(MSG, Change tool bit to mill diameter 0.10000in)
M6      (Tool change.)
M0      (Temporary machine stop.)
M3 ( Spindle on clockwise. )
G04 P1.00000 (Wait for spindle to get up to speed)
G04 P0 ( dwell for no time -- G64 should not smooth over this point )
G00 Z0.08000 ( retract )

G00 X0.48250 Y-0.48250 ( rapid move to begin. )
G01 F3.00000
( Mill infeed pass 1/1 )
G01 Z-0.00800
G04 P0 ( dwell for no time -- G64 should not smooth over this point )
G01 F6.00000
G01 X0.48250 Y-0.48250
G01 X0.48250 Y10.48250
G01 X-10.48250 Y10.48250
G01 X-10.48250 Y-0.48250
G01 X0.48250 Y-0.48250
G01 X0.43250 Y-0.43250
G01 X0.43250 Y10.43250
G01 X0.44714 Y10.44714
G01 X0.43250 Y10.43250
G01 X-10.43250 Y10.43250
G01 X-10.44714 Y10.44714
G01 X-10.43250 Y10.43250
G01 X-10.43250 Y-0.43250
G01 X-10.44714 Y-0.44714
G01 X-10.43250 Y-0.43250
G01 X0.43250 Y-0.43250
G01 X0.38250 Y-0.38250
G01 X0.38250 Y10.38250
G01 X0.39714 Y10.39714
G01 X0.38250 Y10.38250
G01 X-10.38250 Y10.38250
G01 X-10.39714 Y10.39714
G01 X-10.38250 Y10.38250
G01 X-10.38250 Y-0.38250
G01 X-10.39714 Y-0.39714
G01 X-10.38250 Y-0.38250
G01 X0.38250 Y-0.38250
G04 P0 ( dwell for no time -- G64 should not smooth over this point )
G00 Z0.08000 ( retract )

G00 X-3.90746 Y2.45438 ( rapid move to begin. )
G01 F3.00000
( Mill infeed pass 1/1 )
G01 Z-0.00800
G04 P0 ( dwell for no time -- G64 should not smooth over this point )
G01 F6.00000
G01 X-3.90746 Y2.45438
G01 X-3.77286 Y2.81292
G01 X-3.72912 Y2.93180
G01 X-3.68819 Y3.04785
G01 X-3.65009 Y3.16108
G01 X-3.61481 Y3.27149
G01 X-3.58236 Y3.37908
G01 X-3.55272 Y3.48384
G01 X-3.52591 Y3.58578
G01 X-3.50192 Y3.68490
G01 X-3.48076 Y3.78120
G01 X-3.46241 Y3.87467
G01 X-3.44689 Y3.96533
G01 X-3.43419 Y4.05316
G01 X-3.42431 Y4.13816
G01 X-3.41725 Y4.22035
G01 X-3.41302 Y4.29971
G01 X-3.41161 Y4.37626
G01 X-3.41161 Y4.44482
G01 X-3.42001 Y4.55827
G01 X-3.43062 Y4.69316
G01 X-3.43992 Y4.80242
G01 X-3.44867 Y4.89724
G01 X-3.45798 Y4.99030
G01 X-3.46760 Y5.07975
G01 X-3.47958 Y5.18401
G01 X-3.49517 Y5.31324
G01 X-3.50000 Y5.36421
G01 X-3.50002 Y5.65668
G01 X-3.49608 Y5.70725
G01 X-3.48212 Y5.86284
G01 X-3.46620 Y6.04347
G01 X-3.44284 Y6.31240
G01 X-3.40496 Y6.75462
G01 X-3.34278 Y7.48824
G01 X-3.39659 Y7.44535
G01 X-3.45478 Y6.75885
G01 X-3.49266 Y6.31668
G01 X-3.51601 Y6.04785
G01 X-3.53243 Y5.86164
G01 X-3.54589 Y5.71163
G01 X-3.54987 Y5.66056
G01 X-3.55002 Y5.65673
G01 X-3.55000 Y5.36421
G01 X-3.54978 Y5.35956
G01 X-3.54483 Y5.30746
G01 X-3.52923 Y5.17818
G01 X-3.51730 Y5.07426
G01 X-3.50770 Y4.98509
G01 X-3.49875 Y4.89562
G01 X-3.49002 Y4.80133
G01 X-3.48075 Y4.69274
G01 X-3.47562 Y4.62887
G01 X-3.46986 Y4.55445
G01 X-3.46157 Y4.44301
G01 X-3.46161 Y4.37672
G01 X-3.46299 Y4.30151
G01 X-3.46713 Y4.22382
G01 X-3.47406 Y4.14319
G01 X-3.48377 Y4.05962
G01 X-3.49628 Y3.97312
G01 X-3.51159 Y3.88371
G01 X-3.52971 Y3.79138
G01 X-3.55064 Y3.69615
G01 X-3.57439 Y3.59802
G01 X-3.60096 Y3.49701
G01 X-3.63035 Y3.39310
G01 X-3.66256 Y3.28632
G01 X-3.69760 Y3.17666
G01 X-3.73547 Y3.06414
G01 X-3.77616 Y2.94875
G01 X-3.81973 Y2.83034
G01 X-3.94194 Y2.50479
G01 X-3.93569 Y2.49565
G01 X-3.94194 Y2.50479
G01 X-4.02861 Y2.50581
G01 X-4.11343 Y2.50895
G01 X-4.12102 Y2.49944
G01 X-4.11343 Y2.50895
G01 X-4.30817 Y3.23783
G01 X-4.34156 Y3.36815
G01 X-4.37098 Y3.49423
G01 X-4.39647 Y3.61629
G01 X-4.41810 Y3.73451
G01 X-4.42740 Y3.79186
G01 X-4.43576 Y3.84837
G01 X-4.44314 Y3.90387
G01 X-4.44955 Y3.95835
G01 X-4.45499 Y4.01182
G01 X-4.45946 Y4.06428
G01 X-4.46296 Y4.11572
G01 X-4.46534 Y4.16314
G01 X-4.46546 Y4.16314
G01 X-4.46534 Y4.16314
G01 X-4.45379 Y4.29200
G01 X-4.45012 Y4.33952
G01 X-4.44998 Y4.34327
G01 X-4.44998 Y4.61451
G01 X-4.45001 Y4.63574
G01 X-4.45025 Y4.64063
G01 X-4.45629 Y4.70238
G01 X-4.47031 Y4.81799
G01 X-4.47995 Y4.90127
G01 X-4.48434 Y4.94064
G01 X-4.49256 Y5.01758
G01 X-4.49987 Y5.09017
G01 X-4.50462 Y5.13968
G01 X-4.51022 Y5.20125
G01 X-4.51689 Y5.27857
G01 X-4.52376 Y5.36308
G01 X-4.53126 Y5.46011
G01 X-4.53836 Y5.55654
G01 X-4.54141 Y5.59355
G01 X-4.54556 Y5.63596
G01 X-4.55456 Y5.72001
G04 P0 ( dwell for no time -- G64 should not smooth over this point )
G00 Z0.08000 ( retract )

G00 X-4.55470 Y5.72000 ( rapid move to begin. )
G01 F3.00000
( Mill infeed pass 1/1 )
G01 Z-0.00800
G04 P0 ( dwell for no time -- G64 should not smooth over this point )
G01 F6.00000
G01 X-4.55470 Y5.72000
G01 X-4.55456 Y5.72001
G01 X-4.55245 Y5.76598
G01 X-4.54909 Y5.81639
G01 X-4.54464 Y5.86796
G01 X-4.53909 Y5.92069
G01 X-4.53244 Y5.97457
G01 X-4.52468 Y6.02960
G01 X-4.51582 Y6.08578
G01 X-4.50583 Y6.14330
G01 X-4.26081 Y7.49219
G01 X-4.27013 Y7.50301
G01 X-4.26081 Y7.49219
G01 X-4.18181 Y7.49471
G01 X-4.06305 Y7.49555
G01 X-3.94428 Y7.49345
G01 X-3.82552 Y7.48841
G01 X-3.70675 Y7.48043
G01 X-3.58797 Y7.46950
G01 X-3.46918 Y7.45563
G01 X-3.39659 Y7.44535
G01 X-3.38187 Y7.45708
G01 X-3.45041 Y7.40247
G01 X-3.47559 Y7.40604
G01 X-3.59316 Y7.41977
G01 X-3.71072 Y7.43058
G01 X-3.82826 Y7.43849
G01 X-3.94579 Y7.44347
G01 X-4.06331 Y7.44555
G01 X-4.18084 Y7.44471
G01 X-4.21884 Y7.44350
G01 X-4.22816 Y7.45432
G01 X-4.21884 Y7.44350
G01 X-4.45660 Y6.13455
G01 X-4.46650 Y6.07761
G01 X-4.47523 Y6.02222
G01 X-4.48287 Y5.96802
G01 X-4.48941 Y5.91501
G01 X-4.49487 Y5.86319
G01 X-4.49923 Y5.81258
G01 X-4.50252 Y5.76317
G01 X-4.50444 Y5.72153
G01 X-4.50458 Y5.72152
G01 X-4.50444 Y5.72153
G01 X-4.49585 Y5.64128
G01 X-4.49155 Y5.59723
G01 X-4.48850 Y5.56021
G01 X-4.48141 Y5.46391
G01 X-4.47392 Y5.36699
G01 X-4.46706 Y5.28269
G01 X-4.46042 Y5.20572
G01 X-4.45483 Y5.14428
G01 X-4.45010 Y5.09499
G01 X-4.44259 Y5.02045
G01 X-4.43464 Y4.94613
G01 X-4.43027 Y4.90691
G01 X-4.42065 Y4.82384
G01 X-4.40664 Y4.70829
G01 X-4.40049 Y4.64548
G01 X-4.40001 Y4.63570
G01 X-4.39998 Y4.34322
G01 X-4.40027 Y4.33571
G01 X-4.40359 Y4.29223
G01 X-4.41523 Y4.16218
G01 X-4.41535 Y4.16218
G01 X-4.41523 Y4.16218
G01 X-4.41304 Y4.11867
G01 X-4.40960 Y4.06810
G01 X-4.40520 Y4.01647
G01 X-4.39985 Y3.96380
G01 X-4.39353 Y3.91008
G01 X-4.38624 Y3.85532
G01 X-4.37799 Y3.79953
G01 X-4.36882 Y3.74301
G01 X-4.34740 Y3.62590
G01 X-4.32215 Y3.50502
G01 X-4.29299 Y3.38004
G01 X-4.25980 Y3.25049
G01 X-4.07466 Y2.55755
G01 X-4.08225 Y2.54804
G01 X-4.07466 Y2.55755
G01 X-4.02739 Y2.55580
G01 X-3.97643 Y2.55520
G01 X-3.97017 Y2.54606
G01 X-3.97643 Y2.55520
G01 X-3.86659 Y2.84776
G01 X-3.82320 Y2.96570
G01 X-3.78274 Y3.08043
G01 X-3.74511 Y3.19225
G01 X-3.71032 Y3.30115
G01 X-3.67835 Y3.40713
G01 X-3.64920 Y3.51017
G01 X-3.62287 Y3.61026
G01 X-3.59936 Y3.70740
G01 X-3.57866 Y3.80156
G01 X-3.56077 Y3.89274
G01 X-3.54567 Y3.98092
G01 X-3.53335 Y4.06609
G01 X-3.52381 Y4.14822
G01 X-3.51702 Y4.22729
G01 X-3.51296 Y4.30330
G01 X-3.51161 Y4.37718
G01 X-3.51158 Y4.44120
G01 X-3.51972 Y4.55063
G01 X-3.52516 Y4.62109
G01 X-3.53058 Y4.68862
G01 X-3.53954 Y4.79366
G01 X-3.54851 Y4.89079
G01 X-3.55743 Y4.97988
G01 X-3.56700 Y5.06878
G01 X-3.57889 Y5.17234
G01 X-3.59450 Y5.30168
G01 X-3.59957 Y5.35491
G01 X-3.60000 Y5.36421
G01 X-3.60002 Y5.65678
G01 X-3.59972 Y5.66444
G01 X-3.59570 Y5.71601
G01 X-3.58173 Y5.87166
G01 X-3.56582 Y6.05222
G01 X-3.54248 Y6.32097
G01 X-3.50460 Y6.76308
G01 X-3.45041 Y7.40247
G04 P0 ( dwell for no time -- G64 should not smooth over this point )
G00 Z0.08000 ( retract )

G00 X-3.06754 Y7.49953 ( rapid move to begin. )
G01 F3.00000
( Mill infeed pass 1/1 )
G01 Z-0.00800
G04 P0 ( dwell for no time -- G64 should not smooth over this point )
G01 F6.00000
G01 X-3.06754 Y7.49953
G01 X-2.98224 Y7.51626
G01 X-2.86133 Y7.53762
G01 X-2.84893 Y7.53965
G01 X-2.73068 Y7.55755
G01 X-2.71868 Y7.55922
G01 X-2.60176 Y7.57401
G01 X-2.58936 Y7.57543
G01 X-2.47076 Y7.58748
G01 X-2.40713 Y7.59286
G01 X-2.33371 Y7.52922
G01 X-2.25903 Y7.46295
G01 X-2.19949 Y7.40868
G01 X-2.13112 Y7.34496
G01 X-2.06514 Y7.28165
G01 X-2.01587 Y7.23331
G01 X-1.96778 Y7.18497
G01 X-1.91036 Y7.12597
G01 X-1.85464 Y7.06697
G01 X-1.77397 Y6.97854
G01 X-1.76294 Y6.96614
G01 X-1.69121 Y6.88350
G01 X-1.68105 Y6.87150
G01 X-1.61690 Y6.79389
G01 X-1.60722 Y6.78188
G01 X-1.54801 Y6.70661
G01 X-1.53850 Y6.69421
G01 X-1.48445 Y6.62192
G01 X-1.47571 Y6.60992
G01 X-1.42652 Y6.54068
G01 X-1.41794 Y6.52828
G01 X-1.37242 Y6.46075
G01 X-1.36429 Y6.44835
G01 X-1.32269 Y6.38319
G01 X-1.31498 Y6.37079
G01 X-1.27724 Y6.30831
G01 X-1.26996 Y6.29591
G01 X-1.23590 Y6.23627
G01 X-1.22924 Y6.22427
G01 X-1.19812 Y6.16653
G01 X-1.19163 Y6.15413
G01 X-1.16286 Y6.09746
G01 X-1.15675 Y6.08505
G01 X-1.13084 Y6.03074
G01 X-1.12529 Y6.01874
G01 X-1.10169 Y5.96600
G01 X-1.09633 Y5.95360
G01 X-1.07482 Y5.90222
G01 X-1.06997 Y5.89022
G01 X-1.05041 Y5.84006
G01 X-1.04574 Y5.82766
G01 X-1.02772 Y5.77787
G01 X-1.02340 Y5.76546
G01 X-1.00734 Y5.71745
G01 X-1.00349 Y5.70545
G01 X-0.98905 Y5.65848
G01 X-0.98540 Y5.64607
G01 X-0.97240 Y5.59981
G01 X-0.96919 Y5.58781
G01 X-0.95761 Y5.54235
G01 X-0.95461 Y5.52995
G01 X-0.94422 Y5.48455
G01 X-0.94155 Y5.47215
G01 X-0.93244 Y5.42727
G01 X-0.93009 Y5.41487
G01 X-0.92235 Y5.37121
G01 X-0.92037 Y5.35921
G01 X-0.91380 Y5.31601
G01 X-0.91206 Y5.30361
G01 X-0.90654 Y5.26016
G01 X-0.90512 Y5.24775
G01 X-0.90072 Y5.20462
G01 X-0.89961 Y5.19221
G01 X-0.89630 Y5.14921
G01 X-0.89550 Y5.13681
G01 X-0.89327 Y5.09405
G01 X-0.89278 Y5.08164
G01 X-0.89163 Y5.03972
G01 X-0.89145 Y5.02772
G01 X-0.89133 Y4.98581
G01 X-0.84132 Y4.98596
G01 X-0.84145 Y4.97233
G01 X-0.84237 Y4.92967
G01 X-0.84284 Y4.91604
G01 X-0.84478 Y4.87401
G01 X-0.84551 Y4.86140
G01 X-0.84859 Y4.81798
G01 X-0.84967 Y4.80496
G01 X-0.85379 Y4.76187
G01 X-0.85526 Y4.74824
G01 X-0.86047 Y4.70498
G01 X-0.86215 Y4.69238
G01 X-0.86830 Y4.64998
G01 X-0.87038 Y4.63678
G01 X-0.87776 Y4.59332
G01 X-0.88024 Y4.57970
G01 X-0.88899 Y4.53492
G01 X-0.89170 Y4.52191
G01 X-0.90183 Y4.47607
G01 X-0.90502 Y4.46246
G01 X-0.91653 Y4.41594
G01 X-0.91992 Y4.40295
G01 X-0.93250 Y4.35695
G01 X-0.93628 Y4.34378
G01 X-0.95034 Y4.29694
G01 X-0.95440 Y4.28396
G01 X-0.97045 Y4.23487
G01 X-0.97508 Y4.22130
G01 X-0.99265 Y4.17178
G01 X-0.99765 Y4.15822
G01 X-1.01695 Y4.10780
G01 X-1.02194 Y4.09523
G01 X-1.04293 Y4.04417
G01 X-1.04868 Y4.03064
G01 X-1.07237 Y3.97683
G01 X-1.07827 Y3.96386
G01 X-1.10426 Y3.90857
G01 X-1.11055 Y3.89561
G01 X-1.13857 Y3.83963
G01 X-1.16190 Y3.79504
G01 X-1.16227 Y3.79518
G01 X-1.16190 Y3.79504
G01 X-1.17305 Y3.74739
G01 X-1.18752 Y3.69132
G01 X-1.20303 Y3.63638
G01 X-1.21952 Y3.58250
G01 X-1.23764 Y3.52758
G01 X-1.25744 Y3.47168
G01 X-1.27819 Y3.41683
G01 X-1.29986 Y3.36295
G01 X-1.32077 Y3.31247
G01 X-1.35318 Y3.23718
G01 X-1.38772 Y3.16256
G01 X-1.42405 Y3.08913
G01 X-1.46393 Y3.01346
G01 X-1.50561 Y2.93898
G01 X-1.54965 Y2.86454
G01 X-1.59607 Y2.79014
G01 X-1.64487 Y2.71578
G01 X-1.69541 Y2.64235
G01 X-1.74893 Y2.56803
G01 X-1.80544 Y2.49295
G01 X-1.86370 Y2.41875
G01 X-1.92370 Y2.34532
G01 X-1.98729 Y2.27045
G01 X-2.05263 Y2.19635
G01 X-2.11974 Y2.12292
G01 X-2.12725 Y2.11621
G01 X-2.13595 Y2.11114
G01 X-2.14549 Y2.10791
G01 X-2.15548 Y2.10666
G01 X-2.26620 Y2.10409
G01 X-2.37562 Y2.10435
G01 X-2.48762 Y2.10751
G01 X-2.59705 Y2.11342
G01 X-2.70775 Y2.12224
G01 X-2.81972 Y2.13406
G01 X-2.93039 Y2.14861
G01 X-3.03982 Y2.16581
G01 X-3.15170 Y2.18628
G01 X-3.26112 Y2.20912
G01 X-3.37293 Y2.23534
G01 X-3.48235 Y2.26383
G01 X-3.59407 Y2.29579
G01 X-3.70461 Y2.33028
G01 X-3.81512 Y2.36761
G01 X-3.91655 Y2.40448
G01 X-3.91642 Y2.40519
G01 X-3.91655 Y2.40448
G01 X-4.03168 Y2.40585
G01 X-4.14550 Y2.41007
G01 X-4.14559 Y2.41079
G01 X-4.14550 Y2.41007
G01 X-4.22160 Y2.38636
G01 X-4.30672 Y2.36146
G01 X-4.39185 Y2.33819
G01 X-4.47787 Y2.31634
G01 X-4.56215 Y2.29653
G01 X-4.64732 Y2.27814
G01 X-4.73249 Y2.26139
G01 X-4.81860 Y2.24610
G01 X-4.90380 Y2.23262
G01 X-4.98902 Y2.22076
G01 X-5.07423 Y2.21054
G01 X-5.15946 Y2.20194
G01 X-5.24373 Y2.19505
G01 X-5.32991 Y2.18965
G01 X-5.41419 Y2.18599
G01 X-5.50038 Y2.18389
G01 X-5.58562 Y2.18345
G01 X-5.67085 Y2.18465
G01 X-5.75609 Y2.18748
G01 X-5.84036 Y2.19188
G01 X-5.92654 Y2.19803
G01 X-6.01176 Y2.20576
G01 X-6.09604 Y2.21500
G01 X-6.18126 Y2.22597
G01 X-6.26739 Y2.23871
G01 X-6.35166 Y2.25280
G01 X-6.43776 Y2.26883
G01 X-6.52293 Y2.28634
G01 X-6.60810 Y2.30547
G01 X-6.69325 Y2.32623
G01 X-6.77838 Y2.34862
G01 X-6.85635 Y2.37060
G01 X-6.85628 Y2.37102
G01 X-6.85635 Y2.37060
G01 X-6.96260 Y2.37207
G01 X-7.07660 Y2.37633
G01 X-7.19176 Y2.38337
G01 X-7.29964 Y2.39251
G01 X-7.29965 Y2.39275
G01 X-7.29964 Y2.39251
G01 X-7.36612 Y2.38497
G01 X-7.43679 Y2.37800
G01 X-7.50819 Y2.37201
G01 X-7.57960 Y2.36709
G01 X-7.58955 Y2.36739
G01 X-7.59925 Y2.36967
G01 X-7.60830 Y2.37382
G01 X-7.61635 Y2.37969
G01 X-7.67267 Y2.43002
G01 X-7.72818 Y2.48072
G01 X-7.78249 Y2.53143
G01 X-7.83183 Y2.57856
G01 X-7.83167 Y2.57876
G01 X-7.83183 Y2.57856
G01 X-7.89604 Y2.61852
G01 X-7.97517 Y2.66870
G01 X-7.99410 Y2.68086
G01 X-8.06806 Y2.72903
G01 X-8.08736 Y2.74177
G01 X-8.15620 Y2.78783
G01 X-8.17415 Y2.80000
G01 X-8.23747 Y2.84348
G01 X-8.25580 Y2.85623
G01 X-8.31601 Y2.89867
G01 X-8.33387 Y2.91143
G01 X-8.39028 Y2.95226
G01 X-8.45972 Y3.00367
G01 X-8.47644 Y3.01626
G01 X-8.54050 Y3.06522
G01 X-8.58569 Y3.10054
G01 X-8.64398 Y3.14710
G01 X-8.65973 Y3.15989
G01 X-8.71388 Y3.20456
G01 X-8.75085 Y3.23571
G01 X-8.79993 Y3.27794
G01 X-8.84639 Y3.31891
G01 X-8.86068 Y3.33172
G01 X-8.89125 Y3.35946
G01 X-8.93287 Y3.39800
G01 X-8.94650 Y3.41082
G01 X-8.98698 Y3.44956
G01 X-9.01262 Y3.47461
G01 X-9.04955 Y3.51143
G01 X-9.08409 Y3.54673
G01 X-9.09606 Y3.55917
G01 X-9.12870 Y3.59365
G01 X-9.16041 Y3.62798
G01 X-9.19070 Y3.66161
G01 X-9.21947 Y3.69437
G01 X-9.24701 Y3.72651
G01 X-9.27298 Y3.75759
G01 X-9.29786 Y3.78815
G01 X-9.31178 Y3.80557
G01 X-9.33426 Y3.83427
G01 X-9.36540 Y3.87526
G01 X-9.38651 Y3.90392
G01 X-9.40688 Y3.93232
G01 X-9.41732 Y3.94716
G01 X-9.43562 Y3.97373
G01 X-9.45349 Y4.00034
G01 X-9.47847 Y4.03881
G01 X-9.49477 Y4.06475
G01 X-9.51736 Y4.10198
G01 X-9.53871 Y4.13865
G01 X-9.55893 Y4.17488
G01 X-9.57774 Y4.21009
G01 X-9.59510 Y4.24404
G01 X-9.61223 Y4.27910
G01 X-9.62683 Y4.31044
G01 X-9.64334 Y4.34769
G01 X-9.65634 Y4.37857
G01 X-9.66984 Y4.41239
G01 X-9.67787 Y4.43345
G01 X-9.68567 Y4.45472
G01 X-9.69601 Y4.48424
G01 X-9.70266 Y4.50414
G01 X-9.70937 Y4.52507
G01 X-9.71923 Y4.55768
G01 X-9.72499 Y4.57787
G01 X-9.73026 Y4.59724
G01 X-9.73732 Y4.62473
G01 X-9.74202 Y4.64422
G01 X-9.74650 Y4.66385
G01 X-9.75327 Y4.69594
G01 X-9.75696 Y4.71494
G01 X-9.76047 Y4.73428
G01 X-9.76478 Y4.76010
G01 X-9.76756 Y4.77840
G01 X-9.77020 Y4.79731
G01 X-9.77264 Y4.81643
G01 X-9.77479 Y4.83514
G01 X-9.77793 Y4.86716
G01 X-9.77947 Y4.88610
G01 X-9.78072 Y4.90420
G01 X-9.78210 Y4.92934
G01 X-9.78283 Y4.94738
G01 X-9.78337 Y4.96620
G01 X-9.78374 Y4.99805
G01 X-9.78365 Y5.01686
G01 X-9.78333 Y5.03538
G01 X-9.78254 Y5.06053
G01 X-9.78171 Y5.07852
G01 X-9.78063 Y5.09718
G01 X-9.77933 Y5.11568
G01 X-9.77781 Y5.13415
G01 X-9.77470 Y5.16563
G01 X-9.77252 Y5.18458
G01 X-9.77012 Y5.20334
G01 X-9.76641 Y5.22931
G01 X-9.76339 Y5.24850
G01 X-9.76026 Y5.26694
G01 X-9.75675 Y5.28618
G01 X-9.75050 Y5.31758
G01 X-9.74622 Y5.33738
G01 X-9.74178 Y5.35680
G01 X-9.73691 Y5.37693
G01 X-9.73195 Y5.39637
G01 X-9.72660 Y5.41630
G01 X-9.72092 Y5.43650
G01 X-9.71510 Y5.45628
G01 X-9.70909 Y5.47580
G01 X-9.70252 Y5.49630
G01 X-9.69566 Y5.51680
G01 X-9.68837 Y5.53776
G01 X-9.68160 Y5.55653
G01 X-9.67236 Y5.58109
G01 X-9.66383 Y5.60290
G01 X-9.65538 Y5.62376
G01 X-9.64613 Y5.64581
G01 X-9.63678 Y5.66736
G01 X-9.62682 Y5.68957
G01 X-9.61662 Y5.71161
G01 X-9.60606 Y5.73370
G01 X-9.59492 Y5.75632
G01 X-9.58318 Y5.77943
G01 X-9.56502 Y5.81389
G01 X-9.55161 Y5.83842
G01 X-9.53098 Y5.87481
G01 X-9.51629 Y5.89982
G01 X-9.50987 Y5.91052
G01 X-9.50569 Y5.90996
G01 X-9.50987 Y5.91052
G01 X-9.51581 Y5.93229
G01 X-9.52712 Y5.98101
G01 X-9.52828 Y5.98663
G01 X-9.53688 Y6.03427
G01 X-9.53776 Y6.03991
G01 X-9.54401 Y6.08803
G01 X-9.54819 Y6.13894
G01 X-9.54851 Y6.14461
G01 X-9.54995 Y6.19200
G01 X-9.54908 Y6.24358
G01 X-9.54561 Y6.29575
G01 X-9.53970 Y6.34685
G01 X-9.53889 Y6.35249
G01 X-9.53008 Y6.40436
G01 X-9.51816 Y6.45842
G01 X-9.50306 Y6.51373
G01 X-9.48596 Y6.56637
G01 X-9.48401 Y6.57190
G01 X-9.46336 Y6.62609
G01 X-9.43722 Y6.68602
G01 X-9.43471 Y6.69138
G01 X-9.40764 Y6.74592
G01 X-9.40509 Y6.75077
G01 X-9.37257 Y6.80931
G01 X-9.35085 Y6.84544
G01 X-9.32716 Y6.88258
G01 X-9.30338 Y6.91800
G01 X-9.27528 Y6.95759
G01 X-9.24623 Y6.99651
G01 X-9.21388 Y7.03762
G01 X-9.17988 Y7.07880
G01 X-9.14052 Y7.12408
G01 X-9.09938 Y7.16917
G01 X-9.05220 Y7.21833
G01 X-9.00216 Y7.26801
G01 X-8.94919 Y7.31811
G01 X-8.88267 Y7.37802
G01 X-8.81405 Y7.43667
G01 X-8.73730 Y7.49914
G01 X-8.65614 Y7.56197
G01 X-8.55412 Y7.63706
G01 X-8.45067 Y7.70926
G01 X-8.38415 Y7.75393
G01 X-8.31983 Y7.79589
G01 X-8.25483 Y7.83717
G01 X-8.18758 Y7.87877
G01 X-8.08322 Y7.94140
G01 X-7.98186 Y8.00008
G01 X-7.97274 Y8.00420
G01 X-7.96298 Y8.00642
G01 X-7.95298 Y8.00666
G01 X-7.94312 Y8.00490
G01 X-7.86487 Y7.98259
G01 X-7.76293 Y7.95119
G01 X-7.65982 Y7.91663
G01 X-7.55015 Y7.87688
G01 X-7.43992 Y7.83374
G01 X-7.32845 Y7.78693
G01 X-7.21814 Y7.73738
G01 X-7.14507 Y7.70284
G01 X-7.08973 Y7.67564
G01 X-7.09010 Y7.67299
G01 X-7.08973 Y7.67564
G01 X-7.00647 Y7.69105
G01 X-6.90690 Y7.70732
G01 X-6.80732 Y7.72141
G01 X-6.70881 Y7.73321
G01 X-6.60814 Y7.74307
G01 X-6.50854 Y7.75064
G01 X-6.41003 Y7.75600
G01 X-6.31043 Y7.75925
G01 X-6.20973 Y7.76032
G01 X-6.11013 Y7.75920
G01 X-6.01161 Y7.75596
G01 X-5.91092 Y7.75044
G01 X-5.81133 Y7.74280
G01 X-5.71175 Y7.73298
G01 X-5.61323 Y7.72114
G01 X-5.51785 Y7.70760
G01 X-5.51786 Y7.70742
G01 X-5.51785 Y7.70760
G01 X-5.44597 Y7.70961
G01 X-5.36902 Y7.71050
G01 X-5.29208 Y7.71012
G01 X-5.21431 Y7.70845
G01 X-5.13737 Y7.70551
G01 X-5.06125 Y7.70137
G01 X-4.98431 Y7.69591
G01 X-4.90656 Y7.68910
G01 X-4.83044 Y7.68119
G01 X-4.75352 Y7.67192
G01 X-4.67659 Y7.66139
G01 X-4.59967 Y7.64959
G01 X-4.52197 Y7.63638
G01 X-4.44507 Y7.62204
G01 X-4.36818 Y7.60642
G01 X-4.29815 Y7.59105
G01 X-4.29819 Y7.59067
G01 X-4.29815 Y7.59105
G01 X-4.18438 Y7.59468
G01 X-4.06190 Y7.59555
G01 X-3.94066 Y7.59339
G01 X-3.82066 Y7.58829
G01 X-3.69943 Y7.58016
G01 X-3.57698 Y7.56890
G01 X-3.45577 Y7.55473
G01 X-3.34092 Y7.53847
G01 X-3.34093 Y7.53823
G01 X-3.34092 Y7.53847
G01 X-3.32489 Y7.53953
G01 X-3.20973 Y7.54564
G01 X-3.09572 Y7.54907
G01 X-3.07282 Y7.54946
G01 X-3.07280 Y7.54928
G01 X-3.07282 Y7.54946
G01 X-2.99154 Y7.56538
G01 X-2.87003 Y7.58685
G01 X-2.85641 Y7.58909
G01 X-2.73817 Y7.60699
G01 X-2.72556 Y7.60874
G01 X-2.60804 Y7.62362
G01 X-2.59503 Y7.62510
G01 X-2.47520 Y7.63728
G01 X-2.41130 Y7.64269
G01 X-2.40135 Y7.64253
G01 X-2.39163 Y7.64040
G01 X-2.38252 Y7.63638
G01 X-2.37439 Y7.63065
G01 X-2.30070 Y7.56678
G01 X-2.22580 Y7.50031
G01 X-2.15192 Y7.43281
G01 X-2.09699 Y7.38150
G01 X-2.04295 Y7.32977
G01 X-1.98042 Y7.26858
G01 X-1.93212 Y7.22002
G01 X-1.87448 Y7.16080
G01 X-1.81770 Y7.10066
G01 X-1.73703 Y7.01223
G01 X-1.72558 Y6.99937
G01 X-1.65305 Y6.91581
G01 X-1.64251 Y6.90336
G01 X-1.57798 Y6.82527
G01 X-1.56792 Y6.81280
G01 X-1.50833 Y6.73703
G01 X-1.49846 Y6.72415
G01 X-1.44441 Y6.65187
G01 X-1.43494 Y6.63888
G01 X-1.38540 Y6.56913
G01 X-1.37647 Y6.55623
G01 X-1.33062 Y6.48818
G01 X-1.32215 Y6.47526
G01 X-1.28021 Y6.40957
G01 X-1.27219 Y6.39664
G01 X-1.23445 Y6.33417
G01 X-1.22654 Y6.32070
G01 X-1.19218 Y6.26053
G01 X-1.18523 Y6.24799
G01 X-1.15382 Y6.18971
G01 X-1.14705 Y6.17677
G01 X-1.11800 Y6.11953
G01 X-1.11163 Y6.10659
G01 X-1.08571 Y6.05227
G01 X-1.07991 Y6.03971
G01 X-1.05605 Y5.98642
G01 X-1.05044 Y5.97346
G01 X-1.02870 Y5.92152
G01 X-1.02339 Y5.90839
G01 X-1.00383 Y5.85823
G01 X-0.99873 Y5.84468
G01 X-0.98049 Y5.79430
G01 X-0.97598 Y5.78132
G01 X-0.95993 Y5.73331
G01 X-0.95570 Y5.72015
G01 X-0.94126 Y5.67317
G01 X-0.93726 Y5.65960
G01 X-0.92410 Y5.61275
G01 X-0.92073 Y5.60015
G01 X-0.90901 Y5.55410
G01 X-0.90587 Y5.54110
G01 X-0.89548 Y5.49570
G01 X-0.89254 Y5.48209
G01 X-0.88344 Y5.43721
G01 X-0.88097 Y5.42420
G01 X-0.87312 Y5.37994
G01 X-0.87094 Y5.36673
G01 X-0.86437 Y5.32353
G01 X-0.86255 Y5.31053
G01 X-0.85694 Y5.26646
G01 X-0.85538 Y5.25283
G01 X-0.85098 Y5.20969
G01 X-0.84976 Y5.19605
G01 X-0.84645 Y5.15305
G01 X-0.84560 Y5.14003
G01 X-0.84331 Y5.09603
G01 X-0.84280 Y5.08301
G01 X-0.84164 Y5.04049
G01 X-0.84145 Y5.02787
G01 X-0.84132 Y4.98596
G01 X-0.79132 Y4.98611
G01 X-0.79146 Y4.97125
G01 X-0.79238 Y4.92859
G01 X-0.79289 Y4.91373
G01 X-0.79483 Y4.87170
G01 X-0.79560 Y4.85848
G01 X-0.79876 Y4.81385
G01 X-0.79990 Y4.80021
G01 X-0.80401 Y4.75711
G01 X-0.80562 Y4.74227
G01 X-0.81091 Y4.69839
G01 X-0.81267 Y4.68520
G01 X-0.81882 Y4.64280
G01 X-0.82108 Y4.62841
G01 X-0.82847 Y4.58494
G01 X-0.83117 Y4.57012
G01 X-0.83992 Y4.52533
G01 X-0.84274 Y4.51171
G01 X-0.85301 Y4.46527
G01 X-0.85648 Y4.45046
G01 X-0.86814 Y4.40334
G01 X-0.87169 Y4.38975
G01 X-0.88428 Y4.34376
G01 X-0.88805 Y4.33058
G01 X-0.90244 Y4.28257
G01 X-0.90669 Y4.26900
G01 X-0.92293 Y4.21933
G01 X-0.92755 Y4.20575
G01 X-0.94552 Y4.15506
G01 X-0.95052 Y4.14150
G01 X-0.97003 Y4.09049
G01 X-0.97570 Y4.07622
G01 X-0.99668 Y4.02516
G01 X-1.00242 Y4.01164
G01 X-1.02635 Y3.95725
G01 X-1.03302 Y3.94259
G01 X-1.05875 Y3.88786
G01 X-1.06584 Y3.87324
G01 X-1.09413 Y3.81672
G01 X-1.11467 Y3.77742
G01 X-1.11504 Y3.77756
G01 X-1.11467 Y3.77742
G01 X-1.12491 Y3.73379
G01 X-1.13881 Y3.67991
G01 X-1.15460 Y3.62387
G01 X-1.17237 Y3.56578
G01 X-1.19086 Y3.50987
G01 X-1.21067 Y3.45400
G01 X-1.23180 Y3.39817
G01 X-1.25347 Y3.34429
G01 X-1.27457 Y3.29334
G01 X-1.30780 Y3.21619
G01 X-1.34290 Y3.14039
G01 X-1.38040 Y3.06468
G01 X-1.42029 Y2.98906
G01 X-1.46257 Y2.91352
G01 X-1.50723 Y2.83807
G01 X-1.55303 Y2.76464
G01 X-1.60244 Y2.68928
G01 X-1.65422 Y2.61400
G01 X-1.70960 Y2.53712
G01 X-1.76611 Y2.46208
G01 X-1.82498 Y2.38711
G01 X-1.88620 Y2.31222
G01 X-1.94979 Y2.23739
G01 X-2.01572 Y2.16262
G01 X-2.08283 Y2.08919
G01 X-2.09785 Y2.07577
G01 X-2.11525 Y2.06562
G01 X-2.13433 Y2.05917
G01 X-2.15431 Y2.05668
G01 X-2.26632 Y2.05409
G01 X-2.37832 Y2.05439
G01 X-2.48774 Y2.05748
G01 X-2.59974 Y2.06349
G01 X-2.71173 Y2.07240
G01 X-2.82370 Y2.08418
G01 X-2.93565 Y2.09886
G01 X-3.04758 Y2.11641
G01 X-3.15948 Y2.13685
G01 X-3.27134 Y2.16017
G01 X-3.38552 Y2.18695
G01 X-3.49495 Y2.21544
G01 X-3.60669 Y2.24738
G01 X-3.71839 Y2.28219
G01 X-3.83220 Y2.32062
G01 X-3.92564 Y2.35459
G01 X-3.92551 Y2.35529
G01 X-3.92564 Y2.35459
G01 X-4.03101 Y2.35583
G01 X-4.13879 Y2.35979
G01 X-4.13889 Y2.36051
G01 X-4.13879 Y2.35979
G01 X-4.20673 Y2.33862
G01 X-4.29439 Y2.31299
G01 X-4.38040 Y2.28951
G01 X-4.46468 Y2.26809
G01 X-4.55071 Y2.24786
G01 X-4.63677 Y2.22927
G01 X-4.72285 Y2.21232
G01 X-4.81078 Y2.19672
G01 X-4.89691 Y2.18309
G01 X-4.98305 Y2.17112
G01 X-5.06921 Y2.16079
G01 X-5.15349 Y2.15228
G01 X-5.23966 Y2.14522
G01 X-5.32774 Y2.13970
G01 X-5.41393 Y2.13597
G01 X-5.50012 Y2.13389
G01 X-5.58632 Y2.13346
G01 X-5.67059 Y2.13463
G01 X-5.75678 Y2.13747
G01 X-5.84297 Y2.14195
G01 X-5.92915 Y2.14808
G01 X-6.01533 Y2.15587
G01 X-6.10149 Y2.16530
G01 X-6.18764 Y2.17638
G01 X-6.27378 Y2.18911
G01 X-6.35991 Y2.20348
G01 X-6.44782 Y2.21986
G01 X-6.53210 Y2.23717
G01 X-6.61817 Y2.25648
G01 X-6.70421 Y2.27743
G01 X-6.79195 Y2.30049
G01 X-6.86360 Y2.32070
G01 X-6.86354 Y2.32112
G01 X-6.86360 Y2.32070
G01 X-6.96329 Y2.32208
G01 X-7.07847 Y2.32637
G01 X-7.19598 Y2.33355
G01 X-7.29893 Y2.34227
G01 X-7.29893 Y2.34251
G01 X-7.29893 Y2.34227
G01 X-7.35975 Y2.33536
G01 X-7.43188 Y2.32824
G01 X-7.50549 Y2.32207
G01 X-7.57616 Y2.31720
G01 X-7.59607 Y2.31782
G01 X-7.61546 Y2.32237
G01 X-7.63357 Y2.33068
G01 X-7.64967 Y2.34240
G01 X-7.70599 Y2.39274
G01 X-7.76271 Y2.44455
G01 X-7.81744 Y2.49566
G01 X-7.86261 Y2.53882
G01 X-7.86247 Y2.53901
G01 X-7.86261 Y2.53882
G01 X-7.92307 Y2.57646
G01 X-8.00195 Y2.62647
G01 X-8.02113 Y2.63880
G01 X-8.09535 Y2.68714
G01 X-8.11465 Y2.69988
G01 X-8.18374 Y2.74609
G01 X-8.20246 Y2.75878
G01 X-8.26578 Y2.80226
G01 X-8.28411 Y2.81501
G01 X-8.34481 Y2.85780
G01 X-8.36318 Y2.87093
G01 X-8.41934 Y2.91157
G01 X-8.43725 Y2.92470
G01 X-8.48978 Y2.96372
G01 X-8.55526 Y3.01346
G01 X-8.61672 Y3.06134
G01 X-8.67573 Y3.10848
G01 X-8.73122 Y3.15393
G01 X-8.78284 Y3.19727
G01 X-8.83308 Y3.24051
G01 X-8.87999 Y3.28188
G01 X-8.92508 Y3.32263
G01 X-8.96692 Y3.36138
G01 X-8.98099 Y3.37463
G01 X-9.00863 Y3.40097
G01 X-9.04734 Y3.43863
G01 X-9.06076 Y3.45190
G01 X-9.09738 Y3.48872
G01 X-9.12033 Y3.51228
G01 X-9.15308 Y3.54657
G01 X-9.16557 Y3.55987
G01 X-9.19728 Y3.59421
G01 X-9.21690 Y3.61589
G01 X-9.24636 Y3.64912
G01 X-9.27457 Y3.68173
G01 X-9.30093 Y3.71297
G01 X-9.32613 Y3.74359
G01 X-9.33693 Y3.75694
G01 X-9.36087 Y3.78708
G01 X-9.38349 Y3.81626
G01 X-9.40577 Y3.84575
G01 X-9.42687 Y3.87441
G01 X-9.44743 Y3.90306
G01 X-9.46672 Y3.93066
G01 X-9.48543 Y3.95812
G01 X-9.50315 Y3.98485
G01 X-9.52073 Y4.01208
G01 X-9.53735 Y4.03855
G01 X-9.55264 Y4.06357
G01 X-9.56781 Y4.08907
G01 X-9.58238 Y4.11429
G01 X-9.60289 Y4.15106
G01 X-9.62199 Y4.18680
G01 X-9.63431 Y4.21075
G01 X-9.65081 Y4.24399
G01 X-9.66249 Y4.26842
G01 X-9.67215 Y4.28930
G01 X-9.68379 Y4.31534
G01 X-9.69856 Y4.34984
G01 X-9.70792 Y4.37271
G01 X-9.71972 Y4.40278
G01 X-9.72814 Y4.42521
G01 X-9.73597 Y4.44688
G01 X-9.74744 Y4.48029
G01 X-9.75453 Y4.50205
G01 X-9.76354 Y4.53119
G01 X-9.77302 Y4.56396
G01 X-9.77870 Y4.58481
G01 X-9.78575 Y4.61230
G01 X-9.79081 Y4.63330
G01 X-9.79816 Y4.66612
G01 X-9.80358 Y4.69261
G01 X-9.80963 Y4.72514
G01 X-9.81310 Y4.74568
G01 X-9.81711 Y4.77167
G01 X-9.82140 Y4.80328
G01 X-9.82382 Y4.82364
G01 X-9.82655 Y4.84987
G01 X-9.82830 Y4.86944
G01 X-9.83065 Y4.90147
G01 X-9.83205 Y4.92721
G01 X-9.83319 Y4.95857
G01 X-9.83367 Y4.98444
G01 X-9.83374 Y5.00449
G01 X-9.83332 Y5.03634
G01 X-9.83251 Y5.06211
G01 X-9.83095 Y5.09361
G01 X-9.82963 Y5.11359
G01 X-9.82757 Y5.13907
G01 X-9.82446 Y5.17055
G01 X-9.82214 Y5.19072
G01 X-9.81878 Y5.21657
G01 X-9.81582 Y5.23698
G01 X-9.81069 Y5.26877
G01 X-9.80596 Y5.29504
G01 X-9.80194 Y5.31564
G01 X-9.79514 Y5.34774
G01 X-9.79035 Y5.36867
G01 X-9.78369 Y5.39595
G01 X-9.77846 Y5.41606
G01 X-9.77262 Y5.43746
G01 X-9.76312 Y5.47022
G01 X-9.75429 Y5.49871
G01 X-9.74718 Y5.52049
G01 X-9.73567 Y5.55398
G01 X-9.72847 Y5.57395
G01 X-9.71899 Y5.59912
G01 X-9.70680 Y5.63008
G01 X-9.69755 Y5.65259
G01 X-9.68272 Y5.68709
G01 X-9.67226 Y5.71042
G01 X-9.66180 Y5.73301
G01 X-9.64586 Y5.76614
G01 X-9.62784 Y5.80192
G01 X-9.60911 Y5.83748
G01 X-9.59555 Y5.86228
G01 X-9.58123 Y5.88774
G01 X-9.56373 Y5.91782
G01 X-9.56007 Y5.91728
G01 X-9.56373 Y5.91782
G01 X-9.57583 Y5.96971
G01 X-9.57701 Y5.97533
G01 X-9.58609 Y6.02538
G01 X-9.58699 Y6.03102
G01 X-9.59345 Y6.08035
G01 X-9.59430 Y6.08846
G01 X-9.59838 Y6.14061
G01 X-9.59990 Y6.18923
G01 X-9.59997 Y6.19489
G01 X-9.59911 Y6.24327
G01 X-9.59889 Y6.24893
G01 X-9.59560 Y6.29791
G01 X-9.59510 Y6.30357
G01 X-9.58935 Y6.35270
G01 X-9.58858 Y6.35833
G01 X-9.58023 Y6.40823
G01 X-9.57918 Y6.41385
G01 X-9.56751 Y6.46711
G01 X-9.56610 Y6.47272
G01 X-9.55260 Y6.52245
G01 X-9.55024 Y6.53038
G01 X-9.53351 Y6.58184
G01 X-9.53074 Y6.58969
G01 X-9.51054 Y6.64275
G01 X-9.50834 Y6.64822
G01 X-9.48301 Y6.70608
G01 X-9.47950 Y6.71361
G01 X-9.45243 Y6.76815
G01 X-9.44881 Y6.77504
G01 X-9.41571 Y6.83458
G01 X-9.39238 Y6.87334
G01 X-9.36901 Y6.90994
G01 X-9.34488 Y6.94588
G01 X-9.31876 Y6.98280
G01 X-9.28705 Y7.02544
G01 X-9.25541 Y7.06577
G01 X-9.21684 Y7.11252
G01 X-9.17788 Y7.15730
G01 X-9.13463 Y7.20467
G01 X-9.09186 Y7.24930
G01 X-9.03739 Y7.30350
G01 X-8.98354 Y7.35444
G01 X-8.91703 Y7.41439
G01 X-8.84611 Y7.47504
G01 X-8.76887 Y7.53792
G01 X-8.68157 Y7.60543
G01 X-8.58173 Y7.67879
G01 X-8.47879 Y7.75060
G01 X-8.41201 Y7.79545
G01 X-8.34663 Y7.83810
G01 X-8.28062 Y7.88001
G01 X-8.21339 Y7.92159
G01 X-8.10960 Y7.98389
G01 X-8.00691 Y8.04335
G01 X-7.98867 Y8.05160
G01 X-7.96915 Y8.05604
G01 X-7.94914 Y8.05651
G01 X-7.92944 Y8.05299
G01 X-7.85542 Y8.03193
G01 X-7.74821 Y7.99897
G01 X-7.63957 Y7.96253
G01 X-7.53078 Y7.92301
G01 X-7.42115 Y7.88008
G01 X-7.30797 Y7.83254
G01 X-7.19711 Y7.78274
G01 X-7.12369 Y7.74803
G01 X-7.08255 Y7.72782
G01 X-7.08291 Y7.72518
G01 X-7.08255 Y7.72782
G01 X-7.01454 Y7.74040
G01 X-6.91391 Y7.75682
G01 X-6.81540 Y7.77077
G01 X-6.71261 Y7.78309
G01 X-6.61410 Y7.79274
G01 X-6.51343 Y7.80043
G01 X-6.41057 Y7.80602
G01 X-6.30987 Y7.80927
G01 X-6.20918 Y7.81032
G01 X-6.11066 Y7.80922
G01 X-6.00997 Y7.80593
G01 X-5.90711 Y7.80029
G01 X-5.80643 Y7.79256
G01 X-5.70578 Y7.78263
G01 X-5.60513 Y7.77050
G01 X-5.51501 Y7.75770
G01 X-5.51502 Y7.75752
G01 X-5.51501 Y7.75770
G01 X-5.44736 Y7.75959
G01 X-5.36795 Y7.76050
G01 X-5.29018 Y7.76010
G01 X-5.21241 Y7.75841
G01 X-5.13465 Y7.75544
G01 X-5.05689 Y7.75119
G01 X-4.97914 Y7.74565
G01 X-4.90139 Y7.73884
G01 X-4.82365 Y7.73074
G01 X-4.74592 Y7.72136
G01 X-4.66821 Y7.71070
G01 X-4.59209 Y7.69901
G01 X-4.51281 Y7.68554
G01 X-4.43669 Y7.67134
G01 X-4.35746 Y7.65526
G01 X-4.29352 Y7.64122
G01 X-4.29355 Y7.64084
G01 X-4.29352 Y7.64122
G01 X-4.18597 Y7.64465
G01 X-4.06102 Y7.64554
G01 X-3.93854 Y7.64334
G01 X-3.81608 Y7.63811
G01 X-3.69362 Y7.62985
G01 X-3.57362 Y7.61881
G01 X-3.44877 Y7.60423
G01 X-3.33905 Y7.58870
G01 X-3.33906 Y7.58847
G01 X-3.33905 Y7.58870
G01 X-3.32754 Y7.58946
G01 X-3.21123 Y7.59562
G01 X-3.09723 Y7.59905
G01 X-3.07810 Y7.59938
G01 X-3.07809 Y7.59921
G01 X-3.07810 Y7.59938
G01 X-3.00085 Y7.61451
G01 X-2.87873 Y7.63609
G01 X-2.86510 Y7.63833
G01 X-2.74444 Y7.65660
G01 X-2.73123 Y7.65843
G01 X-2.61431 Y7.67322
G01 X-2.59947 Y7.67492
G01 X-2.48087 Y7.68696
G01 X-2.41547 Y7.69252
G01 X-2.39556 Y7.69219
G01 X-2.37612 Y7.68793
G01 X-2.35791 Y7.67991
G01 X-2.34164 Y7.66843
G01 X-2.26769 Y7.60433
G01 X-2.19257 Y7.53767
G01 X-2.13167 Y7.48216
G01 X-2.06197 Y7.41720
G01 X-2.00792 Y7.36545
G01 X-1.94584 Y7.30470
G01 X-1.88384 Y7.24222
G01 X-1.83775 Y7.19473
G01 X-1.79319 Y7.14766
G01 X-1.78076 Y7.13436
G01 X-1.70009 Y7.04593
G01 X-1.68743 Y7.03169
G01 X-1.61570 Y6.94906
G01 X-1.60397 Y6.93521
G01 X-1.53982 Y6.85759
G01 X-1.52937 Y6.84465
G01 X-1.46941 Y6.76843
G01 X-1.45915 Y6.75506
G01 X-1.40363 Y6.68082
G01 X-1.39418 Y6.66783
G01 X-1.34429 Y6.59759
G01 X-1.33501 Y6.58417
G01 X-1.28881 Y6.51560
G01 X-1.28000 Y6.50216
G01 X-1.23773 Y6.43594
G01 X-1.22939 Y6.42250
G01 X-1.19101 Y6.35895
G01 X-1.18312 Y6.34550
G01 X-1.14846 Y6.28478
G01 X-1.14122 Y6.27172
G01 X-1.11010 Y6.21398
G01 X-1.10303 Y6.20050
G01 X-1.07369 Y6.14273
G01 X-1.06650 Y6.12812
G01 X-1.04059 Y6.07380
G01 X-1.03402 Y6.05958
G01 X-1.00992 Y6.00572
G01 X-1.00408 Y5.99220
G01 X-0.98258 Y5.94083
G01 X-0.97681 Y5.92656
G01 X-0.95681 Y5.87526
G01 X-0.95172 Y5.86170
G01 X-0.93369 Y5.81191
G01 X-0.92896 Y5.79833
G01 X-0.91251 Y5.74917
G01 X-0.90791 Y5.73484
G01 X-0.89311 Y5.68670
G01 X-0.88913 Y5.67312
G01 X-0.87613 Y5.62686
G01 X-0.87228 Y5.61250
G01 X-0.86070 Y5.56705
G01 X-0.85741 Y5.55345
G01 X-0.84674 Y5.50685
G01 X-0.84354 Y5.49203
G01 X-0.83444 Y5.44715
G01 X-0.83162 Y5.43233
G01 X-0.82388 Y5.38867
G01 X-0.82170 Y5.37546
G01 X-0.81476 Y5.32985
G01 X-0.81286 Y5.31622
G01 X-0.80734 Y5.27277
G01 X-0.80564 Y5.25790
G01 X-0.80124 Y5.21476
G01 X-0.80001 Y5.20113
G01 X-0.79651 Y5.15565
G01 X-0.79563 Y5.14201
G01 X-0.79341 Y5.09924
G01 X-0.79282 Y5.08439
G01 X-0.79167 Y5.04246
G01 X-0.79146 Y5.02924
G01 X-0.79132 Y4.98611
G01 X-0.89133 Y4.98581
G01 X-0.94132 Y4.98597
G01 X-0.94144 Y5.02727
G01 X-0.94162 Y5.03866
G01 X-0.94276 Y5.07997
G01 X-0.94322 Y5.09176
G01 X-0.94542 Y5.13390
G01 X-0.94617 Y5.14568
G01 X-0.94944 Y5.18807
G01 X-0.95049 Y5.19985
G01 X-0.95483 Y5.24237
G01 X-0.95618 Y5.25416
G01 X-0.96163 Y5.29699
G01 X-0.96327 Y5.30879
G01 X-0.96976 Y5.35138
G01 X-0.97163 Y5.36278
G01 X-0.97927 Y5.40584
G01 X-0.98150 Y5.41764
G01 X-0.99049 Y5.46191
G01 X-0.99303 Y5.47371
G01 X-1.00328 Y5.51850
G01 X-1.00613 Y5.53031
G01 X-1.01756 Y5.57517
G01 X-1.02062 Y5.58658
G01 X-1.03345 Y5.63226
G01 X-1.03693 Y5.64407
G01 X-1.05120 Y5.69046
G01 X-1.05486 Y5.70189
G01 X-1.07072 Y5.74932
G01 X-1.07483 Y5.76114
G01 X-1.09265 Y5.81035
G01 X-1.09710 Y5.82218
G01 X-1.11644 Y5.87176
G01 X-1.12106 Y5.88320
G01 X-1.14233 Y5.93402
G01 X-1.14746 Y5.94586
G01 X-1.17081 Y5.99804
G01 X-1.17610 Y6.00949
G01 X-1.20175 Y6.06325
G01 X-1.20758 Y6.07510
G01 X-1.23607 Y6.13122
G01 X-1.24228 Y6.14308
G01 X-1.27311 Y6.20028
G01 X-1.27947 Y6.21174
G01 X-1.31323 Y6.27085
G01 X-1.32020 Y6.28273
G01 X-1.35762 Y6.34467
G01 X-1.36499 Y6.35655
G01 X-1.40626 Y6.42119
G01 X-1.41406 Y6.43307
G01 X-1.45923 Y6.50008
G01 X-1.46745 Y6.51198
G01 X-1.51629 Y6.58072
G01 X-1.52468 Y6.59223
G01 X-1.57836 Y6.66402
G01 X-1.58750 Y6.67594
G01 X-1.64634 Y6.75073
G01 X-1.65563 Y6.76227
G01 X-1.71940 Y6.83942
G01 X-1.72917 Y6.85096
G01 X-1.80050 Y6.93313
G01 X-1.81112 Y6.94507
G01 X-1.89137 Y7.03304
G01 X-1.94645 Y7.09137
G01 X-2.00334 Y7.14982
G01 X-2.05110 Y7.19783
G01 X-2.11221 Y7.25764
G01 X-2.16548 Y7.30863
G01 X-2.23329 Y7.37183
G01 X-2.29249 Y7.42579
G01 X-2.36658 Y7.49155
G01 X-2.42396 Y7.54128
G01 X-2.42263 Y7.54536
G01 X-2.42396 Y7.54128
G01 X-2.46602 Y7.53770
G01 X-2.58400 Y7.52571
G01 X-2.59579 Y7.52437
G01 X-2.71210 Y7.50965
G01 X-2.72350 Y7.50807
G01 X-2.84114 Y7.49026
G01 X-2.85294 Y7.48832
G01 X-2.97323 Y7.46707
G01 X-3.00777 Y7.46036
G01 X-3.02572 Y7.47218
G01 X-3.00777 Y7.46036
G01 X-2.95714 Y7.22899
G01 X-2.86904 Y6.82178
G01 X-2.80105 Y6.50360
G01 X-2.74561 Y6.23906
G01 X-2.71608 Y6.09514
G01 X-2.68263 Y5.92807
G01 X-2.66055 Y5.81403
G01 X-2.64673 Y5.74058
G01 X-2.63180 Y5.65850
G01 X-2.61613 Y5.56802
G01 X-2.60592 Y5.50545
G01 X-2.59723 Y5.44935
G01 X-2.59003 Y5.39960
G01 X-2.58455 Y5.35901
G01 X-2.57850 Y5.31029
G01 X-2.57556 Y5.28465
G01 X-2.57381 Y5.26767
G01 X-2.56724 Y5.23671
G01 X-2.56225 Y5.21483
G01 X-2.55909 Y5.20174
G01 X-2.55058 Y5.16885
G01 X-2.54146 Y5.13686
G01 X-2.53186 Y5.10611
G01 X-2.52215 Y5.07745
G01 X-2.51194 Y5.04968
G01 X-2.50133 Y5.02286
G01 X-2.49070 Y4.99779
G01 X-2.48489 Y4.98479
G01 X-2.47366 Y4.96085
G01 X-2.46214 Y4.93781
G01 X-2.45641 Y4.92685
G01 X-2.44441 Y4.90491
G01 X-2.43215 Y4.88375
G01 X-2.42610 Y4.87375
G01 X-2.41382 Y4.85424
G01 X-2.40096 Y4.83488
G01 X-2.38782 Y4.81613
G01 X-2.38079 Y4.80648
G01 X-2.37448 Y4.79805
G01 X-2.36109 Y4.78079
G01 X-2.35364 Y4.77156
G01 X-2.33977 Y4.75499
G01 X-2.32530 Y4.73857
G01 X-2.31845 Y4.73107
G01 X-2.30352 Y4.71526
G01 X-2.28847 Y4.70016
G01 X-2.28000 Y4.69195
G01 X-2.26440 Y4.67736
G01 X-2.24806 Y4.66287
G01 X-2.24027 Y4.65621
G01 X-2.22326 Y4.64213
G01 X-2.20605 Y4.62864
G01 X-2.18792 Y4.61509
G01 X-2.17820 Y4.60813
G01 X-2.15925 Y4.59505
G01 X-2.13969 Y4.58229
G01 X-2.12000 Y4.57008
G01 X-2.09925 Y4.55795
G01 X-2.08862 Y4.55198
G01 X-2.04251 Y4.52722
G01 X-2.03030 Y4.52040
G01 X-2.00465 Y4.50554
G01 X-1.97731 Y4.48891
G01 X-1.96137 Y4.47886
G01 X-1.93207 Y4.45977
G01 X-1.91854 Y4.45070
G01 X-1.88601 Y4.42830
G01 X-1.86442 Y4.41301
G01 X-1.84963 Y4.40236
G01 X-1.80945 Y4.37276
G01 X-1.76489 Y4.33897
G01 X-1.73114 Y4.31283
G01 X-1.67161 Y4.26574
G01 X-1.65174 Y4.24979
G01 X-1.57989 Y4.19135
G01 X-1.49069 Y4.11749
G01 X-1.37812 Y4.02281
G01 X-1.26054 Y3.92274
G01 X-1.22432 Y3.89172
G01 X-1.21807 Y3.86114
G01 X-1.22432 Y3.89172
G01 X-1.20012 Y3.94009
G01 X-1.19437 Y3.95194
G01 X-1.16891 Y4.00611
G01 X-1.16352 Y4.01795
G01 X-1.14034 Y4.07063
G01 X-1.13530 Y4.08247
G01 X-1.11455 Y4.13296
G01 X-1.11001 Y4.14439
G01 X-1.09115 Y4.19369
G01 X-1.08678 Y4.20551
G01 X-1.06942 Y4.25444
G01 X-1.06540 Y4.26626
G01 X-1.04973 Y4.31416
G01 X-1.04603 Y4.32597
G01 X-1.03215 Y4.37222
G01 X-1.02888 Y4.38364
G01 X-1.01645 Y4.42904
G01 X-1.01337 Y4.44085
G01 X-1.00216 Y4.48617
G01 X-0.99940 Y4.49797
G01 X-0.98953 Y4.54260
G01 X-0.98708 Y4.55439
G01 X-0.97844 Y4.59857
G01 X-0.97630 Y4.61036
G01 X-0.96901 Y4.65323
G01 X-0.96722 Y4.66463
G01 X-0.96116 Y4.70643
G01 X-0.95964 Y4.71784
G01 X-0.95458 Y4.75990
G01 X-0.95330 Y4.77169
G01 X-0.94924 Y4.81417
G01 X-0.94827 Y4.82595
G01 X-0.94532 Y4.86754
G01 X-0.94466 Y4.87894
G01 X-0.94274 Y4.92035
G01 X-0.94234 Y4.93214
G01 X-0.94143 Y4.97418
G01 X-0.94132 Y4.98597
G01 X-0.99133 Y4.98612
G01 X-0.99145 Y5.02681
G01 X-0.99161 Y5.03759
G01 X-0.99272 Y5.07830
G01 X-0.99317 Y5.08947
G01 X-0.99533 Y5.13099
G01 X-0.99605 Y5.14216
G01 X-0.99926 Y5.18392
G01 X-1.00027 Y5.19508
G01 X-1.00454 Y5.23699
G01 X-1.00582 Y5.24816
G01 X-1.01118 Y5.29038
G01 X-1.01275 Y5.30157
G01 X-1.01914 Y5.34356
G01 X-1.02092 Y5.35436
G01 X-1.02844 Y5.39682
G01 X-1.03057 Y5.40801
G01 X-1.03942 Y5.45167
G01 X-1.04184 Y5.46286
G01 X-1.05195 Y5.50705
G01 X-1.05466 Y5.51826
G01 X-1.06594 Y5.56253
G01 X-1.06884 Y5.57335
G01 X-1.08150 Y5.61844
G01 X-1.08481 Y5.62967
G01 X-1.09889 Y5.67548
G01 X-1.10238 Y5.68632
G01 X-1.11804 Y5.73317
G01 X-1.12196 Y5.74441
G01 X-1.13956 Y5.79304
G01 X-1.14379 Y5.80429
G01 X-1.16291 Y5.85331
G01 X-1.16730 Y5.86418
G01 X-1.18834 Y5.91443
G01 X-1.19322 Y5.92572
G01 X-1.21632 Y5.97734
G01 X-1.22135 Y5.98823
G01 X-1.24675 Y6.04144
G01 X-1.25230 Y6.05274
G01 X-1.28052 Y6.10832
G01 X-1.28644 Y6.11963
G01 X-1.31698 Y6.17628
G01 X-1.32304 Y6.18722
G01 X-1.35650 Y6.24580
G01 X-1.36315 Y6.25714
G01 X-1.40026 Y6.31856
G01 X-1.40731 Y6.32990
G01 X-1.44824 Y6.39402
G01 X-1.45569 Y6.40538
G01 X-1.50052 Y6.47188
G01 X-1.50840 Y6.48327
G01 X-1.55688 Y6.55152
G01 X-1.56490 Y6.56253
G01 X-1.61822 Y6.63383
G01 X-1.62699 Y6.64527
G01 X-1.68545 Y6.71959
G01 X-1.69436 Y6.73065
G01 X-1.75775 Y6.80734
G01 X-1.76713 Y6.81842
G01 X-1.83806 Y6.90013
G01 X-1.84827 Y6.91161
G01 X-1.92810 Y6.99912
G01 X-1.93906 Y7.01084
G01 X-1.98255 Y7.05677
G01 X-2.02714 Y7.10270
G01 X-2.08633 Y7.16235
G01 X-2.14690 Y7.22163
G01 X-2.19983 Y7.27230
G01 X-2.26709 Y7.33498
G01 X-2.32594 Y7.38863
G01 X-2.38628 Y7.44230
G01 X-2.44079 Y7.48970
G01 X-2.43944 Y7.49395
G01 X-2.44079 Y7.48970
G01 X-2.46128 Y7.48792
G01 X-2.57863 Y7.47600
G01 X-2.58981 Y7.47473
G01 X-2.70552 Y7.46009
G01 X-2.71632 Y7.45859
G01 X-2.83336 Y7.44087
G01 X-2.84455 Y7.43903
G01 X-2.94790 Y7.42077
G01 X-2.96631 Y7.43314
G01 X-2.94790 Y7.42077
G01 X-2.90825 Y7.23950
G01 X-2.81005 Y6.78516
G01 X-2.75211 Y6.51385
G01 X-2.69668 Y6.24936
G01 X-2.66708 Y6.10506
G01 X-2.63361 Y5.93793
G01 X-2.61138 Y5.82312
G01 X-2.59756 Y5.74962
G01 X-2.58261 Y5.66743
G01 X-2.56680 Y5.57616
G01 X-2.55654 Y5.51332
G01 X-2.54779 Y5.45681
G01 X-2.54045 Y5.40605
G01 X-2.53498 Y5.36561
G01 X-2.52886 Y5.31619
G01 X-2.52581 Y5.28968
G01 X-2.52431 Y5.27524
G01 X-2.51843 Y5.24754
G01 X-2.51057 Y5.21375
G01 X-2.50235 Y5.18203
G01 X-2.49358 Y5.15122
G01 X-2.48433 Y5.12165
G01 X-2.47502 Y5.09415
G01 X-2.46523 Y5.06753
G01 X-2.45508 Y5.04185
G01 X-2.44492 Y5.01790
G01 X-2.43936 Y5.00546
G01 X-2.42866 Y4.98264
G01 X-2.41769 Y4.96071
G01 X-2.40650 Y4.93964
G01 X-2.40084 Y4.92945
G01 X-2.38920 Y4.90935
G01 X-2.38347 Y4.89988
G01 X-2.37184 Y4.88140
G01 X-2.35966 Y4.86307
G01 X-2.34725 Y4.84532
G01 X-2.34057 Y4.83618
G01 X-2.33463 Y4.82824
G01 X-2.32198 Y4.81195
G01 X-2.31493 Y4.80317
G01 X-2.30182 Y4.78756
G01 X-2.29561 Y4.78041
G01 X-2.28175 Y4.76500
G01 X-2.26763 Y4.75011
G01 X-2.26007 Y4.74242
G01 X-2.24544 Y4.72806
G01 X-2.23070 Y4.71434
G01 X-2.22370 Y4.70803
G01 X-2.20799 Y4.69437
G01 X-2.19190 Y4.68110
G01 X-2.17567 Y4.66833
G01 X-2.15851 Y4.65554
G01 X-2.14079 Y4.64297
G01 X-2.13137 Y4.63657
G01 X-2.11285 Y4.62448
G01 X-2.09419 Y4.61292
G01 X-2.07450 Y4.60139
G01 X-2.06441 Y4.59572
G01 X-2.01815 Y4.57088
G01 X-2.00545 Y4.56379
G01 X-1.97933 Y4.54866
G01 X-1.96335 Y4.53904
G01 X-1.93511 Y4.52141
G01 X-1.90384 Y4.50105
G01 X-1.88994 Y4.49172
G01 X-1.85677 Y4.46887
G01 X-1.82073 Y4.44316
G01 X-1.79557 Y4.42475
G01 X-1.77904 Y4.41246
G01 X-1.73452 Y4.37869
G01 X-1.68180 Y4.33767
G01 X-1.62064 Y4.28895
G01 X-1.56925 Y4.24726
G01 X-1.48338 Y4.17648
G01 X-1.37272 Y4.08372
G01 X-1.24052 Y3.97136
G01 X-1.23363 Y3.93970
G01 X-1.24052 Y3.97136
G01 X-1.21429 Y4.02710
G01 X-1.20916 Y4.03837
G01 X-1.18623 Y4.09049
G01 X-1.18143 Y4.10175
G01 X-1.16091 Y4.15168
G01 X-1.15660 Y4.16255
G01 X-1.13795 Y4.21127
G01 X-1.13380 Y4.22252
G01 X-1.11665 Y4.27087
G01 X-1.11282 Y4.28209
G01 X-1.09735 Y4.32941
G01 X-1.09383 Y4.34063
G01 X-1.08013 Y4.38630
G01 X-1.07702 Y4.39713
G01 X-1.06476 Y4.44194
G01 X-1.06184 Y4.45316
G01 X-1.05077 Y4.49788
G01 X-1.04816 Y4.50907
G01 X-1.03841 Y4.55309
G01 X-1.03609 Y4.56428
G01 X-1.02758 Y4.60785
G01 X-1.02553 Y4.61904
G01 X-1.01836 Y4.66130
G01 X-1.01666 Y4.67210
G01 X-1.01068 Y4.71331
G01 X-1.00924 Y4.72412
G01 X-1.00425 Y4.76557
G01 X-1.00305 Y4.77675
G01 X-0.99904 Y4.81861
G01 X-0.99812 Y4.82979
G01 X-0.99522 Y4.87077
G01 X-0.99459 Y4.88155
G01 X-0.99270 Y4.92236
G01 X-0.99232 Y4.93353
G01 X-0.99143 Y4.97495
G01 X-0.99133 Y4.98612
G01 X-0.89133 Y4.98581
G01 X-0.89144 Y4.97341
G01 X-0.89236 Y4.93075
G01 X-0.89278 Y4.91835
G01 X-0.89473 Y4.87632
G01 X-0.89543 Y4.86432
G01 X-0.89841 Y4.82212
G01 X-0.89944 Y4.80972
G01 X-0.90356 Y4.76662
G01 X-0.90490 Y4.75422
G01 X-0.91004 Y4.71156
G01 X-0.91163 Y4.69956
G01 X-0.91778 Y4.65716
G01 X-0.91967 Y4.64515
G01 X-0.92705 Y4.60169
G01 X-0.92932 Y4.58929
G01 X-0.93806 Y4.54450
G01 X-0.94064 Y4.53210
G01 X-0.95065 Y4.48687
G01 X-0.95355 Y4.47447
G01 X-0.96491 Y4.42854
G01 X-0.96815 Y4.41614
G01 X-0.98073 Y4.37015
G01 X-0.98417 Y4.35815
G01 X-0.99823 Y4.31131
G01 X-1.00211 Y4.29891
G01 X-1.01797 Y4.25042
G01 X-1.02220 Y4.23801
G01 X-1.03977 Y4.18850
G01 X-1.04434 Y4.17610
G01 X-1.06343 Y4.12624
G01 X-1.06819 Y4.11424
G01 X-1.08917 Y4.06318
G01 X-1.09445 Y4.05078
G01 X-1.11788 Y3.99753
G01 X-1.12352 Y3.98513
G01 X-1.14925 Y3.93039
G01 X-1.15527 Y3.91799
G01 X-1.18301 Y3.86255
G01 X-1.20913 Y3.81266
G01 X-1.22174 Y3.75878
G01 X-1.23564 Y3.70490
G01 X-1.25084 Y3.65102
G01 X-1.26733 Y3.59713
G01 X-1.28512 Y3.54325
G01 X-1.30420 Y3.48937
G01 X-1.32458 Y3.43549
G01 X-1.34625 Y3.38161
G01 X-1.36696 Y3.33161
G01 X-1.39856 Y3.25817
G01 X-1.43253 Y3.18474
G01 X-1.46887 Y3.11130
G01 X-1.50757 Y3.03787
G01 X-1.54864 Y2.96443
G01 X-1.59208 Y2.89100
G01 X-1.63788 Y2.81756
G01 X-1.68606 Y2.74413
G01 X-1.73659 Y2.67069
G01 X-1.78950 Y2.59726
G01 X-1.84477 Y2.52382
G01 X-1.90241 Y2.45039
G01 X-1.96242 Y2.37695
G01 X-2.02480 Y2.30352
G01 X-2.08954 Y2.23008
G01 X-2.15665 Y2.15665
G01 X-2.26607 Y2.15409
G01 X-2.37550 Y2.15435
G01 X-2.48493 Y2.15744
G01 X-2.59435 Y2.16335
G01 X-2.70378 Y2.17208
G01 X-2.81320 Y2.18363
G01 X-2.92263 Y2.19801
G01 X-3.03206 Y2.21520
G01 X-3.14148 Y2.23522
G01 X-3.25091 Y2.25806
G01 X-3.36033 Y2.28373
G01 X-3.46976 Y2.31221
G01 X-3.57918 Y2.34352
G01 X-3.68861 Y2.37765
G01 X-3.79804 Y2.41460
G01 X-3.90746 Y2.45438
G01 X-4.02983 Y2.45582
G01 X-4.15220 Y2.46035
G01 X-4.23648 Y2.43410
G01 X-4.32075 Y2.40945
G01 X-4.40503 Y2.38643
G01 X-4.48931 Y2.36501
G01 X-4.57359 Y2.34521
G01 X-4.65787 Y2.32702
G01 X-4.74214 Y2.31045
G01 X-4.82642 Y2.29548
G01 X-4.91070 Y2.28214
G01 X-4.99498 Y2.27040
G01 X-5.07925 Y2.26028
G01 X-5.16353 Y2.25178
G01 X-5.24781 Y2.24488
G01 X-5.33209 Y2.23961
G01 X-5.41637 Y2.23594
G01 X-5.50064 Y2.23389
G01 X-5.58492 Y2.23345
G01 X-5.66920 Y2.23462
G01 X-5.75348 Y2.23741
G01 X-5.83776 Y2.24181
G01 X-5.92203 Y2.24783
G01 X-6.00631 Y2.25546
G01 X-6.09059 Y2.26470
G01 X-6.17487 Y2.27556
G01 X-6.25915 Y2.28803
G01 X-6.34342 Y2.30211
G01 X-6.42770 Y2.31781
G01 X-6.51198 Y2.33512
G01 X-6.59626 Y2.35405
G01 X-6.68053 Y2.37459
G01 X-6.76481 Y2.39674
G01 X-6.84909 Y2.42050
G01 X-6.96191 Y2.42207
G01 X-7.07472 Y2.42630
G01 X-7.18754 Y2.43319
G01 X-7.30036 Y2.44275
G01 X-7.37103 Y2.43473
G01 X-7.44170 Y2.42775
G01 X-7.51236 Y2.42184
G01 X-7.58303 Y2.41697
G01 X-7.63935 Y2.46730
G01 X-7.69446 Y2.51763
G01 X-7.74836 Y2.56797
G01 X-7.80105 Y2.61830
G01 X-7.86952 Y2.66091
G01 X-7.94839 Y2.71092
G01 X-7.92149 Y2.75307
G01 X-7.93990 Y2.76490
G01 X-8.01335 Y2.81274
G01 X-8.03188 Y2.82497
G01 X-8.10022 Y2.87068
G01 X-8.18074 Y2.92583
G01 X-8.19831 Y2.93805
G01 X-8.25826 Y2.98031
G01 X-8.27537 Y2.99253
G01 X-8.34794 Y3.04521
G01 X-8.39972 Y3.08367
G01 X-8.46373 Y3.13230
G01 X-8.52374 Y3.17905
G01 X-8.58131 Y3.22504
G01 X-8.59635 Y3.23724
G01 X-8.64957 Y3.28113
G01 X-8.68607 Y3.31188
G01 X-8.73446 Y3.35352
G01 X-8.77999 Y3.39369
G01 X-8.79360 Y3.40589
G01 X-8.82372 Y3.43321
G01 X-8.86467 Y3.47114
G01 X-8.90459 Y3.50902
G01 X-8.91722 Y3.52120
G01 X-8.95473 Y3.55800
G01 X-8.99047 Y3.59394
G01 X-9.01236 Y3.61641
G01 X-9.04427 Y3.64982
G01 X-9.07542 Y3.68325
G01 X-9.10515 Y3.71596
G01 X-9.13338 Y3.74779
G01 X-9.16038 Y3.77899
G01 X-9.18595 Y3.80931
G01 X-9.21983 Y3.85067
G01 X-9.24264 Y3.87939
G01 X-9.26415 Y3.90713
G01 X-9.28532 Y3.93515
G01 X-9.29681 Y3.95066
G01 X-9.31651 Y3.97781
G01 X-9.33525 Y4.00430
G01 X-9.36107 Y4.04201
G01 X-9.37778 Y4.06721
G01 X-9.40211 Y4.10515
G01 X-9.41721 Y4.12952
G01 X-9.43826 Y4.16469
G01 X-9.45836 Y4.19969
G01 X-9.47745 Y4.23440
G01 X-9.49448 Y4.26674
G01 X-9.51153 Y4.30061
G01 X-9.52661 Y4.33195
G01 X-9.54221 Y4.36605
G01 X-9.55531 Y4.39615
G01 X-9.56868 Y4.42848
G01 X-9.57970 Y4.45657
G01 X-9.59166 Y4.48879
G01 X-9.60129 Y4.51628
G01 X-9.61155 Y4.54742
G01 X-9.61975 Y4.57392
G01 X-9.62522 Y4.59253
G01 X-9.63052 Y4.61142
G01 X-9.63542 Y4.62978
G01 X-9.64019 Y4.64853
G01 X-9.64746 Y4.67922
G01 X-9.65273 Y4.70345
G01 X-9.65642 Y4.72166
G01 X-9.65979 Y4.73939
G01 X-9.66301 Y4.75750
G01 X-9.66597 Y4.77549
G01 X-9.66862 Y4.79289
G01 X-9.67105 Y4.81030
G01 X-9.67333 Y4.82820
G01 X-9.67538 Y4.84598
G01 X-9.67830 Y4.87584
G01 X-9.67975 Y4.89355
G01 X-9.68093 Y4.91075
G01 X-9.68193 Y4.92831
G01 X-9.68269 Y4.94545
G01 X-9.68326 Y4.96297
G01 X-9.68361 Y4.98055
G01 X-9.68374 Y5.00362
G01 X-9.68358 Y5.02121
G01 X-9.68321 Y5.03880
G01 X-9.68262 Y5.05630
G01 X-9.68184 Y5.07339
G01 X-9.68085 Y5.09054
G01 X-9.67962 Y5.10813
G01 X-9.67820 Y5.12537
G01 X-9.67653 Y5.14304
G01 X-9.67467 Y5.16037
G01 X-9.67254 Y5.17821
G01 X-9.67017 Y5.19616
G01 X-9.66757 Y5.21412
G01 X-9.66474 Y5.23210
G01 X-9.66176 Y5.24965
G01 X-9.65620 Y5.27950
G01 X-9.65258 Y5.29730
G01 X-9.64862 Y5.31561
G01 X-9.64438 Y5.33412
G01 X-9.63987 Y5.35275
G01 X-9.63522 Y5.37101
G01 X-9.63019 Y5.38975
G01 X-9.62284 Y5.41567
G01 X-9.61725 Y5.43433
G01 X-9.61134 Y5.45326
G01 X-9.60104 Y5.48445
G01 X-9.59133 Y5.51216
G01 X-9.57902 Y5.54518
G01 X-9.57096 Y5.56582
G01 X-9.56285 Y5.58583
G01 X-9.55419 Y5.60648
G01 X-9.54533 Y5.62690
G01 X-9.53587 Y5.64800
G01 X-9.52618 Y5.66894
G01 X-9.51142 Y5.69962
G01 X-9.49436 Y5.73349
G01 X-9.47691 Y5.76660
G01 X-9.45746 Y5.80190
G01 X-9.44437 Y5.82483
G01 X-9.43243 Y5.84518
G01 X-9.43736 Y5.85662
G01 X-9.43243 Y5.84518
G01 X-9.39737 Y5.83644
G01 X-9.36917 Y5.82977
G01 X-9.34110 Y5.82350
G01 X-9.31440 Y5.81787
G01 X-9.28885 Y5.81283
G01 X-9.26356 Y5.80817
G01 X-9.23866 Y5.80394
G01 X-9.21500 Y5.80024
G01 X-9.19006 Y5.79674
G01 X-9.16845 Y5.79399
G01 X-9.13264 Y5.79015
G01 X-9.11024 Y5.78820
G01 X-9.08933 Y5.78667
G01 X-9.06978 Y5.78554
G01 X-9.04667 Y5.78454
G01 X-9.01649 Y5.78384
G01 X-9.00316 Y5.78375
G01 X-8.98178 Y5.78387
G01 X-8.96115 Y5.78431
G01 X-8.93983 Y5.78507
G01 X-8.91915 Y5.78615
G01 X-8.89615 Y5.78769
G01 X-8.86452 Y5.79042
G01 X-8.83956 Y5.79307
G01 X-8.81962 Y5.79546
G01 X-8.79376 Y5.79897
G01 X-8.77298 Y5.80207
G01 X-8.74918 Y5.80596
G01 X-8.72441 Y5.81034
G01 X-8.69892 Y5.81520
G01 X-8.67237 Y5.82062
G01 X-8.64469 Y5.82663
G01 X-8.61688 Y5.83302
G01 X-8.57097 Y5.84429
G01 X-8.54025 Y5.85231
G01 X-8.50737 Y5.86122
G01 X-8.47313 Y5.87091
G01 X-8.45376 Y5.87655
G01 X-8.41540 Y5.88798
G01 X-8.36293 Y5.90427
G01 X-8.31218 Y5.92057
G01 X-8.26224 Y5.93716
G01 X-8.22275 Y5.97804
G01 X-8.26224 Y5.93716
G01 X-8.28238 Y5.86867
G01 X-8.29945 Y5.80828
G01 X-8.30741 Y5.77922
G01 X-8.32053 Y5.72973
G01 X-8.33190 Y5.68477
G01 X-8.33728 Y5.66262
G01 X-8.34652 Y5.62282
G01 X-8.35034 Y5.60555
G01 X-8.35777 Y5.57017
G01 X-8.36164 Y5.55053
G01 X-8.36748 Y5.51881
G01 X-8.37242 Y5.48901
G01 X-8.37426 Y5.47694
G01 X-8.37802 Y5.44989
G01 X-8.38106 Y5.42429
G01 X-8.38349 Y5.39938
G01 X-8.38529 Y5.37538
G01 X-8.38648 Y5.35240
G01 X-8.38786 Y5.31139
G01 X-8.38883 Y5.29200
G01 X-8.38997 Y5.27339
G01 X-8.39244 Y5.24179
G01 X-8.39461 Y5.21929
G01 X-8.39657 Y5.20153
G01 X-8.39872 Y5.18408
G01 X-8.40104 Y5.16700
G01 X-8.40548 Y5.13780
G01 X-8.41119 Y5.10554
G01 X-8.41839 Y5.06953
G01 X-8.42139 Y5.05134
G01 X-8.42305 Y5.03763
G01 X-8.42358 Y5.03202
G01 X-8.42468 Y5.01529
G01 X-8.42500 Y5.00089
G01 X-8.42467 Y4.98468
G01 X-8.42440 Y4.97919
G01 X-8.42305 Y4.96235
G01 X-8.42121 Y4.94743
G01 X-8.41826 Y4.92975
G01 X-8.41107 Y4.89387
G01 X-8.40540 Y4.86160
G01 X-8.40276 Y4.84481
G01 X-8.40029 Y4.82773
G01 X-8.39649 Y4.79777
G01 X-8.39455 Y4.78006
G01 X-8.39278 Y4.76195
G01 X-8.39125 Y4.74402
G01 X-8.38952 Y4.71969
G01 X-8.38781 Y4.68715
G01 X-8.38611 Y4.63912
G01 X-8.38472 Y4.61610
G01 X-8.38266 Y4.59143
G01 X-8.37991 Y4.56551
G01 X-8.37780 Y4.54839
G01 X-8.37408 Y4.52183
G01 X-8.36936 Y4.49217
G01 X-8.36404 Y4.46213
G01 X-8.36158 Y4.44914
G01 X-8.35435 Y4.41331
G01 X-8.34688 Y4.37885
G01 X-8.34113 Y4.35365
G01 X-8.33108 Y4.31188
G01 X-8.31946 Y4.26613
G01 X-8.30596 Y4.21542
G01 X-8.29021 Y4.15875
G01 X-8.28050 Y4.12484
G01 X-8.26065 Y4.05731
G01 X-8.25161 Y4.02726
G01 X-8.22667 Y3.94601
G01 X-8.20891 Y3.88939
G01 X-8.19798 Y3.85494
G01 X-8.16433 Y3.75034
G01 X-8.13861 Y3.66902
G01 X-8.12630 Y3.62927
G01 X-8.09692 Y3.53222
G01 X-8.08461 Y3.49064
G01 X-8.05214 Y3.37844
G01 X-8.04022 Y3.33631
G01 X-8.00369 Y3.20404
G01 X-7.99137 Y3.15837
G01 X-7.94972 Y3.00000
G01 X-7.92347 Y2.89723
G01 X-7.88043 Y2.72703
G01 X-7.83021 Y2.65762
G01 X-7.88043 Y2.72703
G01 X-7.92149 Y2.75307
G01 X-7.90865 Y2.76505
G01 X-7.95999 Y2.83766
G01 X-7.99812 Y2.98743
G01 X-8.03969 Y3.14550
G01 X-8.05193 Y3.19088
G01 X-8.08838 Y3.32285
G01 X-8.10021 Y3.36468
G01 X-8.13259 Y3.47659
G01 X-8.14482 Y3.51788
G01 X-8.17411 Y3.61463
G01 X-8.18633 Y3.65409
G01 X-8.21196 Y3.73511
G01 X-8.24559 Y3.83966
G01 X-8.25662 Y3.87443
G01 X-8.28455 Y3.96390
G01 X-8.29949 Y4.01286
G01 X-8.32043 Y4.08312
G01 X-8.33828 Y4.14499
G01 X-8.34591 Y4.17216
G01 X-8.36086 Y4.22700
G01 X-8.37384 Y4.27685
G01 X-8.38498 Y4.32186
G01 X-8.39553 Y4.36730
G01 X-8.40325 Y4.40289
G01 X-8.41071 Y4.43983
G01 X-8.41324 Y4.45323
G01 X-8.41864 Y4.48369
G01 X-8.42357 Y4.51472
G01 X-8.42735 Y4.54175
G01 X-8.43065 Y4.56918
G01 X-8.43245 Y4.58690
G01 X-8.43452 Y4.61156
G01 X-8.43606 Y4.63689
G01 X-8.43753 Y4.67926
G01 X-8.43864 Y4.70336
G01 X-8.44071 Y4.73507
G01 X-8.44215 Y4.75263
G01 X-8.44380 Y4.77029
G01 X-8.44615 Y4.79193
G01 X-8.45038 Y4.82485
G01 X-8.45533 Y4.85709
G01 X-8.45803 Y4.87276
G01 X-8.46119 Y4.88972
G01 X-8.45816 Y4.90562
G01 X-8.45603 Y4.91867
G01 X-8.45415 Y4.93258
G01 X-8.45267 Y4.94572
G01 X-8.45154 Y4.95890
G01 X-8.45067 Y4.97250
G01 X-8.45017 Y4.98612
G01 X-8.44998 Y4.99974
G01 X-8.45015 Y5.01295
G01 X-8.45063 Y5.02658
G01 X-8.45147 Y5.04019
G01 X-8.45262 Y5.05378
G01 X-8.45414 Y5.06734
G01 X-8.45596 Y5.08085
G01 X-8.45807 Y5.09390
G01 X-8.46119 Y5.11027
G01 X-8.45813 Y5.12668
G01 X-8.45542 Y5.14234
G01 X-8.45230 Y5.16192
G01 X-8.45053 Y5.17410
G01 X-8.44830 Y5.19056
G01 X-8.44623 Y5.20740
G01 X-8.44433 Y5.22455
G01 X-8.44267 Y5.24154
G01 X-8.44080 Y5.26369
G01 X-8.43875 Y5.29483
G01 X-8.43757 Y5.31951
G01 X-8.43641 Y5.35511
G01 X-8.43514 Y5.37936
G01 X-8.43254 Y5.41216
G01 X-8.42973 Y5.43893
G01 X-8.42758 Y5.45646
G01 X-8.42376 Y5.48400
G01 X-8.41897 Y5.51433
G01 X-8.41332 Y5.54637
G01 X-8.40675 Y5.58024
G01 X-8.39924 Y5.61599
G01 X-8.39059 Y5.65436
G01 X-8.38049 Y5.69656
G01 X-8.37490 Y5.71896
G01 X-8.36240 Y5.76720
G01 X-8.35571 Y5.79218
G01 X-8.34754 Y5.82198
G01 X-8.33681 Y5.86011
G01 X-8.29917 Y5.89893
G01 X-8.33681 Y5.86011
G01 X-8.38231 Y5.84582
G01 X-8.42206 Y5.83377
G01 X-8.45938 Y5.82283
G01 X-8.49361 Y5.81315
G01 X-8.52748 Y5.80397
G01 X-8.55849 Y5.79587
G01 X-8.60486 Y5.78449
G01 X-8.64766 Y5.77479
G01 X-8.67429 Y5.76915
G01 X-8.68984 Y5.76603
G01 X-8.71549 Y5.76114
G01 X-8.74066 Y5.75670
G01 X-8.76506 Y5.75271
G01 X-8.78654 Y5.74950
G01 X-8.81311 Y5.74589
G01 X-8.83012 Y5.74382
G01 X-8.84710 Y5.74193
G01 X-8.87204 Y5.73951
G01 X-8.90522 Y5.73693
G01 X-8.93791 Y5.73511
G01 X-8.97282 Y5.73400
G01 X-8.99140 Y5.73378
G01 X-9.01638 Y5.73384
G01 X-9.04864 Y5.73458
G01 X-9.07211 Y5.73560
G01 X-9.09196 Y5.73673
G01 X-9.12839 Y5.73954
G01 X-9.16126 Y5.74284
G01 X-9.18436 Y5.74557
G01 X-9.20818 Y5.74874
G01 X-9.23236 Y5.75232
G01 X-9.25812 Y5.75648
G01 X-9.28623 Y5.76147
G01 X-9.31025 Y5.76604
G01 X-9.33849 Y5.77182
G01 X-9.36452 Y5.77745
G01 X-9.40810 Y5.78759
G01 X-9.41321 Y5.79903
G01 X-9.40810 Y5.78759
G01 X-9.42646 Y5.75474
G01 X-9.44473 Y5.72056
G01 X-9.46068 Y5.68939
G01 X-9.47114 Y5.66814
G01 X-9.48092 Y5.64767
G01 X-9.49571 Y5.61545
G01 X-9.50457 Y5.59531
G01 X-9.51319 Y5.57504
G01 X-9.52449 Y5.54736
G01 X-9.53778 Y5.51292
G01 X-9.54429 Y5.49521
G01 X-9.55370 Y5.46835
G01 X-9.56372 Y5.43802
G01 X-9.57147 Y5.41300
G01 X-9.58014 Y5.38316
G01 X-9.58683 Y5.35840
G01 X-9.59422 Y5.32893
G01 X-9.59980 Y5.30480
G01 X-9.60597 Y5.27569
G01 X-9.61047 Y5.25234
G01 X-9.61350 Y5.23538
G01 X-9.61631 Y5.21840
G01 X-9.62065 Y5.18925
G01 X-9.62361 Y5.16648
G01 X-9.62678 Y5.13797
G01 X-9.62885 Y5.11566
G01 X-9.63015 Y5.09908
G01 X-9.63128 Y5.08214
G01 X-9.63286 Y5.04916
G01 X-9.63359 Y5.02041
G01 X-9.63374 Y4.99827
G01 X-9.63362 Y4.98130
G01 X-9.63328 Y4.96433
G01 X-9.63225 Y4.93603
G01 X-9.63135 Y4.91911
G01 X-9.63027 Y4.90255
G01 X-9.62850 Y4.88026
G01 X-9.62566 Y4.85133
G01 X-9.62301 Y4.82867
G01 X-9.62075 Y4.81147
G01 X-9.61833 Y4.79466
G01 X-9.61371 Y4.76588
G01 X-9.61061 Y4.74837
G01 X-9.60735 Y4.73124
G01 X-9.60378 Y4.71363
G01 X-9.60006 Y4.69633
G01 X-9.59452 Y4.67231
G01 X-9.58703 Y4.64236
G01 X-9.58049 Y4.61810
G01 X-9.57185 Y4.58826
G01 X-9.56393 Y4.56264
G01 X-9.55395 Y4.53237
G01 X-9.54462 Y4.50575
G01 X-9.53298 Y4.47440
G01 X-9.52230 Y4.44717
G01 X-9.50928 Y4.41568
G01 X-9.49655 Y4.38644
G01 X-9.48576 Y4.36265
G01 X-9.47099 Y4.33153
G01 X-9.45608 Y4.30149
G01 X-9.43883 Y4.26823
G01 X-9.42139 Y4.23605
G01 X-9.40167 Y4.20121
G01 X-9.38151 Y4.16708
G01 X-9.36717 Y4.14362
G01 X-9.35186 Y4.11923
G01 X-9.32837 Y4.08309
G01 X-9.31152 Y4.05799
G01 X-9.29425 Y4.03293
G01 X-9.27587 Y4.00694
G01 X-9.26523 Y3.99219
G01 X-9.24523 Y3.96503
G01 X-9.22443 Y3.93751
G01 X-9.20329 Y3.91023
G01 X-9.17121 Y3.87007
G01 X-9.14756 Y3.84134
G01 X-9.12238 Y3.81149
G01 X-9.10619 Y3.79269
G01 X-9.07864 Y3.76133
G01 X-9.04960 Y3.72908
G01 X-9.01916 Y3.69612
G01 X-8.98757 Y3.66275
G01 X-8.95477 Y3.62894
G01 X-8.91946 Y3.59344
G01 X-8.88239 Y3.55708
G01 X-8.84324 Y3.51963
G01 X-8.83052 Y3.50765
G01 X-8.79001 Y3.47014
G01 X-8.74674 Y3.43103
G01 X-8.70166 Y3.39127
G01 X-8.66780 Y3.36203
G01 X-8.61746 Y3.31946
G01 X-8.56472 Y3.27597
G01 X-8.50802 Y3.23037
G01 X-8.49283 Y3.21835
G01 X-8.43331 Y3.17197
G01 X-8.38577 Y3.13575
G01 X-8.31824 Y3.08544
G01 X-8.30183 Y3.07341
G01 X-8.22932 Y3.02109
G01 X-8.16963 Y2.97901
G01 X-8.15231 Y2.96696
G01 X-8.07229 Y2.91216
G01 X-8.00421 Y2.86662
G01 X-7.95999 Y2.83766
G01 X-7.90865 Y2.76505
G01 X-7.92149 Y2.75307
G01 X-7.94839 Y2.71092
G01 X-7.96707 Y2.72292
G01 X-8.04077 Y2.77093
G01 X-8.05955 Y2.78333
G01 X-8.12814 Y2.82921
G01 X-8.14585 Y2.84121
G01 X-8.20917 Y2.88470
G01 X-8.22699 Y2.89710
G01 X-8.28720 Y2.93954
G01 X-8.36072 Y2.99258
G01 X-8.37763 Y3.00498
G01 X-8.44614 Y3.05603
G01 X-8.49416 Y3.09262
G01 X-8.55466 Y3.13975
G01 X-8.57032 Y3.15215
G01 X-8.62798 Y3.19852
G01 X-8.66725 Y3.23079
G01 X-8.71840 Y3.27375
G01 X-8.73294 Y3.28615
G01 X-8.78098 Y3.32779
G01 X-8.82709 Y3.36875
G01 X-8.87050 Y3.40828
G01 X-8.89883 Y3.43462
G01 X-8.93919 Y3.47293
G01 X-8.97746 Y3.51016
G01 X-9.01395 Y3.54654
G01 X-9.04828 Y3.58162
G01 X-9.08061 Y3.61548
G01 X-9.11218 Y3.64936
G01 X-9.14233 Y3.68252
G01 X-9.17097 Y3.71482
G01 X-9.19837 Y3.74649
G01 X-9.22434 Y3.77727
G01 X-9.24877 Y3.80695
G01 X-9.27252 Y3.83654
G01 X-9.30387 Y3.87676
G01 X-9.32541 Y3.90527
G01 X-9.33708 Y3.92103
G01 X-9.35715 Y3.94868
G01 X-9.37624 Y3.97567
G01 X-9.40258 Y4.01413
G01 X-9.41963 Y4.03984
G01 X-9.44445 Y4.07855
G01 X-9.46715 Y4.11545
G01 X-9.48823 Y4.15115
G01 X-9.50887 Y4.18760
G01 X-9.52718 Y4.22138
G01 X-9.54527 Y4.25625
G01 X-9.56096 Y4.28789
G01 X-9.57653 Y4.32068
G01 X-9.59210 Y4.35524
G01 X-9.60639 Y4.38862
G01 X-9.61848 Y4.41836
G01 X-9.62641 Y4.43873
G01 X-9.63418 Y4.45943
G01 X-9.64593 Y4.49233
G01 X-9.65517 Y4.51980
G01 X-9.66160 Y4.53985
G01 X-9.66765 Y4.55958
G01 X-9.67680 Y4.59118
G01 X-9.68199 Y4.61026
G01 X-9.68700 Y4.62960
G01 X-9.69336 Y4.65575
G01 X-9.69771 Y4.67478
G01 X-9.70169 Y4.69327
G01 X-9.70550 Y4.71207
G01 X-9.70898 Y4.73041
G01 X-9.71437 Y4.76153
G01 X-9.71721 Y4.77972
G01 X-9.71980 Y4.79772
G01 X-9.72298 Y4.82224
G01 X-9.72509 Y4.84064
G01 X-9.72697 Y4.85902
G01 X-9.72862 Y4.87735
G01 X-9.73003 Y4.89555
G01 X-9.73186 Y4.92573
G01 X-9.73265 Y4.94347
G01 X-9.73324 Y4.96160
G01 X-9.73367 Y4.98562
G01 X-9.73374 Y5.00381
G01 X-9.73358 Y5.02202
G01 X-9.73280 Y5.05263
G01 X-9.73206 Y5.07034
G01 X-9.73110 Y5.08803
G01 X-9.72990 Y5.10618
G01 X-9.72851 Y5.12398
G01 X-9.72627 Y5.14811
G01 X-9.72435 Y5.16605
G01 X-9.72214 Y5.18450
G01 X-9.71792 Y5.21547
G01 X-9.71408 Y5.24022
G01 X-9.71100 Y5.25837
G01 X-9.70765 Y5.27671
G01 X-9.70399 Y5.29552
G01 X-9.70014 Y5.31402
G01 X-9.69306 Y5.34554
G01 X-9.68669 Y5.37162
G01 X-9.67842 Y5.40295
G01 X-9.67081 Y5.42975
G01 X-9.66506 Y5.44899
G01 X-9.65895 Y5.46851
G01 X-9.64837 Y5.50056
G01 X-9.63837 Y5.52912
G01 X-9.62572 Y5.56306
G01 X-9.61398 Y5.59286
G01 X-9.60019 Y5.62607
G01 X-9.58698 Y5.65632
G01 X-9.57143 Y5.69020
G01 X-9.55628 Y5.72170
G01 X-9.53880 Y5.75639
G01 X-9.52682 Y5.77930
G01 X-9.50796 Y5.81403
G01 X-9.49454 Y5.83788
G01 X-9.47341 Y5.87410
G01 X-9.45590 Y5.90304
G01 X-9.46711 Y5.94360
G01 X-9.47841 Y5.99231
G01 X-9.48768 Y6.04316
G01 X-9.49428 Y6.09326
G01 X-9.49853 Y6.14614
G01 X-9.49997 Y6.19550
G01 X-9.49912 Y6.24143
G01 X-9.49583 Y6.29113
G01 X-9.48958 Y6.34421
G01 X-9.48099 Y6.39487
G01 X-9.46959 Y6.44653
G01 X-9.45514 Y6.49946
G01 X-9.43728 Y6.55411
G01 X-9.41708 Y6.60717
G01 X-9.38992 Y6.66915
G01 X-9.36138 Y6.72649
G01 X-9.32942 Y6.78404
G01 X-9.30803 Y6.81963
G01 X-9.28531 Y6.85523
G01 X-9.26187 Y6.89011
G01 X-9.23484 Y6.92820
G01 X-9.20690 Y6.96563
G01 X-9.17493 Y7.00628
G01 X-9.14133 Y7.04696
G01 X-9.10316 Y7.09085
G01 X-9.06244 Y7.13547
G01 X-9.01967 Y7.18010
G01 X-8.96694 Y7.23253
G01 X-8.91138 Y7.28497
G01 X-8.85016 Y7.34004
G01 X-8.78582 Y7.39510
G01 X-8.70574 Y7.46037
G01 X-8.62130 Y7.52563
G01 X-8.52451 Y7.59678
G01 X-8.41783 Y7.67113
G01 X-8.35630 Y7.71241
G01 X-8.29303 Y7.75369
G01 X-8.22802 Y7.79497
G01 X-8.15603 Y7.83945
G01 X-8.05817 Y7.89813
G01 X-7.95681 Y7.95681
G01 X-7.87959 Y7.93480
G01 X-7.77765 Y7.90340
G01 X-7.67252 Y7.86811
G01 X-7.56721 Y7.82988
G01 X-7.45870 Y7.78740
G01 X-7.34894 Y7.74132
G01 X-7.23598 Y7.69053
G01 X-7.16645 Y7.65764
G01 X-7.09692 Y7.62346
G01 X-6.99840 Y7.64171
G01 X-6.89989 Y7.65781
G01 X-6.80138 Y7.67176
G01 X-6.70286 Y7.68356
G01 X-6.60435 Y7.69322
G01 X-6.50583 Y7.70072
G01 X-6.40732 Y7.70607
G01 X-6.30880 Y7.70927
G01 X-6.21029 Y7.71033
G01 X-6.11177 Y7.70923
G01 X-6.01326 Y7.70598
G01 X-5.91474 Y7.70059
G01 X-5.81623 Y7.69304
G01 X-5.71772 Y7.68334
G01 X-5.61920 Y7.67150
G01 X-5.52069 Y7.65750
G01 X-5.44457 Y7.65963
G01 X-5.36845 Y7.66050
G01 X-5.29233 Y7.66012
G01 X-5.21621 Y7.65848
G01 X-5.14009 Y7.65559
G01 X-5.06397 Y7.65144
G01 X-4.98785 Y7.64603
G01 X-4.91174 Y7.63937
G01 X-4.83562 Y7.63146
G01 X-4.75950 Y7.62228
G01 X-4.68338 Y7.61186
G01 X-4.60726 Y7.60017
G01 X-4.53114 Y7.58723
G01 X-4.45502 Y7.57303
G01 X-4.37890 Y7.55758
G01 X-4.30278 Y7.54088
G01 X-4.18278 Y7.54470
G01 X-4.06278 Y7.54555
G01 X-3.94278 Y7.54343
G01 X-3.82278 Y7.53834
G01 X-3.70278 Y7.53027
G01 X-3.58278 Y7.51923
G01 X-3.46278 Y7.50522
G01 X-3.34278 Y7.48824
G01 X-3.32223 Y7.48960
G01 X-3.20822 Y7.49566
G01 X-3.09422 Y7.49910
G01 X-3.06754 Y7.49953
G01 X-3.00599 Y7.21835
G01 X-2.91791 Y6.81121
G01 X-2.84995 Y6.49316
G01 X-2.79459 Y6.22901
G01 X-2.76509 Y6.08523
G01 X-2.73699 Y5.94529
G01 X-2.71352 Y5.82480
G01 X-2.69591 Y5.73154
G01 X-2.68100 Y5.64957
G01 X-2.66547 Y5.55989
G01 X-2.65814 Y5.51544
G01 X-2.64922 Y5.45876
G01 X-2.63954 Y5.39256
G01 X-2.63459 Y5.35611
G01 X-2.62990 Y5.31909
G01 X-2.62523 Y5.27891
G01 X-2.62323 Y5.26013
G01 X-2.61606 Y5.22588
G01 X-2.61093 Y5.20340
G01 X-2.60763 Y5.18973
G01 X-2.60238 Y5.16907
G01 X-2.59881 Y5.15567
G01 X-2.59333 Y5.13607
G01 X-2.58935 Y5.12251
G01 X-2.58364 Y5.10386
G01 X-2.57364 Y5.07337
G01 X-2.56343 Y5.04460
G01 X-2.55865 Y5.03184
G01 X-2.54759 Y5.00387
G01 X-2.54159 Y4.98953
G01 X-2.53042 Y4.96412
G01 X-2.52488 Y4.95212
G01 X-2.51288 Y4.92731
G01 X-2.50057 Y4.90340
G01 X-2.48798 Y4.88037
G01 X-2.47509 Y4.85815
G01 X-2.46223 Y4.83716
G01 X-2.44886 Y4.81649
G01 X-2.43508 Y4.79632
G01 X-2.42101 Y4.77678
G01 X-2.40698 Y4.75826
G01 X-2.39236 Y4.73993
G01 X-2.37770 Y4.72243
G01 X-2.36243 Y4.70508
G01 X-2.34668 Y4.68807
G01 X-2.33096 Y4.67189
G01 X-2.32348 Y4.66446
G01 X-2.30689 Y4.64857
G01 X-2.29016 Y4.63331
G01 X-2.27257 Y4.61803
G01 X-2.26301 Y4.61005
G01 X-2.24514 Y4.59568
G01 X-2.22645 Y4.58138
G01 X-2.21731 Y4.57465
G01 X-2.19755 Y4.56065
G01 X-2.18711 Y4.55355
G01 X-2.16653 Y4.54010
G01 X-2.14579 Y4.52726
G01 X-2.12400 Y4.51450
G01 X-2.10186 Y4.50224
G01 X-2.06686 Y4.48355
G01 X-2.04193 Y4.46945
G01 X-2.02997 Y4.46242
G01 X-2.00354 Y4.44634
G01 X-1.98843 Y4.43682
G01 X-1.95953 Y4.41799
G01 X-1.92787 Y4.39652
G01 X-1.89364 Y4.37244
G01 X-1.85465 Y4.34406
G01 X-1.81119 Y4.31144
G01 X-1.76176 Y4.27330
G01 X-1.74398 Y4.25935
G01 X-1.68324 Y4.21096
G01 X-1.61174 Y4.15281
G01 X-1.54707 Y4.09939
G01 X-1.52284 Y4.07920
G01 X-1.41040 Y3.98463
G01 X-1.29294 Y3.88466
G01 X-1.20913 Y3.81266
G01 X-1.22174 Y3.75878
G01 X-1.27029 Y3.77072
G01 X-1.26472 Y3.79454
G01 X-1.25631 Y3.79723
G01 X-1.26472 Y3.79454
G01 X-1.32540 Y3.84663
G01 X-1.44275 Y3.94650
G01 X-1.55492 Y4.04085
G01 X-1.57900 Y4.06090
G01 X-1.64350 Y4.11419
G01 X-1.71463 Y4.17205
G01 X-1.77495 Y4.22010
G01 X-1.79250 Y4.23387
G01 X-1.84143 Y4.27162
G01 X-1.86925 Y4.29261
G01 X-1.90855 Y4.32156
G01 X-1.94330 Y4.34634
G01 X-1.97441 Y4.36777
G01 X-1.98718 Y4.37633
G01 X-2.01530 Y4.39465
G01 X-2.02998 Y4.40390
G01 X-2.04182 Y4.41119
G01 X-2.06701 Y4.42620
G01 X-2.09097 Y4.43974
G01 X-2.12581 Y4.45835
G01 X-2.14848 Y4.47090
G01 X-2.16065 Y4.47794
G01 X-2.18291 Y4.49135
G01 X-2.20481 Y4.50530
G01 X-2.22619 Y4.51967
G01 X-2.24696 Y4.53439
G01 X-2.26658 Y4.54904
G01 X-2.27625 Y4.55653
G01 X-2.29460 Y4.57129
G01 X-2.31335 Y4.58713
G01 X-2.33197 Y4.60368
G01 X-2.34892 Y4.61950
G01 X-2.36619 Y4.63641
G01 X-2.38277 Y4.65346
G01 X-2.39935 Y4.67137
G01 X-2.41545 Y4.68964
G01 X-2.43090 Y4.70807
G01 X-2.44627 Y4.72734
G01 X-2.46105 Y4.74684
G01 X-2.47585 Y4.76737
G01 X-2.49033 Y4.78856
G01 X-2.49795 Y4.80018
G01 X-2.51152 Y4.82176
G01 X-2.52500 Y4.84439
G01 X-2.53796 Y4.86739
G01 X-2.55090 Y4.89174
G01 X-2.55775 Y4.90524
G01 X-2.57002 Y4.93061
G01 X-2.57607 Y4.94373
G01 X-2.58773 Y4.97026
G01 X-2.59899 Y4.99766
G01 X-2.60547 Y5.01429
G01 X-2.61630 Y5.04379
G01 X-2.62107 Y5.05754
G01 X-2.63126 Y5.08861
G01 X-2.63733 Y5.10844
G01 X-2.64148 Y5.12260
G01 X-2.64696 Y5.14220
G01 X-2.65085 Y5.15677
G01 X-2.65609 Y5.17743
G01 X-2.65953 Y5.19168
G01 X-2.66493 Y5.21534
G01 X-2.67221 Y5.25009
G01 X-2.67298 Y5.25511
G01 X-2.67492 Y5.27335
G01 X-2.67953 Y5.31302
G01 X-2.68416 Y5.34956
G01 X-2.68906 Y5.38568
G01 X-2.69864 Y5.45116
G01 X-2.70750 Y5.50744
G01 X-2.71798 Y5.57046
G01 X-2.73022 Y5.64074
G01 X-2.74506 Y5.72240
G01 X-2.76261 Y5.81532
G01 X-2.78603 Y5.93552
G01 X-2.81408 Y6.07525
G01 X-2.84356 Y6.21890
G01 X-2.89080 Y6.44468
G01 X-2.96679 Y6.80068
G01 X-3.05485 Y7.20775
G01 X-3.10758 Y7.44867
G01 X-3.09833 Y7.46050
G01 X-3.10758 Y7.44867
G01 X-3.20614 Y7.44570
G01 X-3.29661 Y7.44089
G01 X-3.30795 Y7.45259
G01 X-3.29661 Y7.44089
G01 X-3.35514 Y6.75039
G01 X-3.39303 Y6.30813
G01 X-3.41639 Y6.03911
G01 X-3.43232 Y5.85845
G01 X-3.44625 Y5.70311
G01 X-3.45006 Y5.65473
G01 X-3.45005 Y5.36654
G01 X-3.44548 Y5.31886
G01 X-3.42991 Y5.18980
G01 X-3.41790 Y5.08519
G01 X-3.40825 Y4.99555
G01 X-3.39921 Y4.90525
G01 X-3.39011 Y4.80676
G01 X-3.38109 Y4.70095
G01 X-3.37593 Y4.63676
G01 X-3.37015 Y4.56205
G01 X-3.36174 Y4.44846
G01 X-3.36161 Y4.44482
G01 X-3.36162 Y4.37533
G01 X-3.36309 Y4.29705
G01 X-3.36744 Y4.21607
G01 X-3.37465 Y4.13239
G01 X-3.38470 Y4.04600
G01 X-3.39761 Y3.95689
G01 X-3.41335 Y3.86504
G01 X-3.43192 Y3.77047
G01 X-3.45333 Y3.67314
G01 X-3.47731 Y3.57402
G01 X-3.50437 Y3.47112
G01 X-3.53449 Y3.36464
G01 X-3.56719 Y3.25627
G01 X-3.60270 Y3.14514
G01 X-3.64104 Y3.03122
G01 X-3.68196 Y2.91517
G01 X-3.72594 Y2.79566
G01 X-3.84289 Y2.48411
G01 X-3.86204 Y2.47529
G01 X-3.84289 Y2.48411
G01 X-3.78149 Y2.46179
G01 X-3.67316 Y2.42521
G01 X-3.56486 Y2.39143
G01 X-3.45658 Y2.36045
G01 X-3.34832 Y2.33227
G01 X-3.24009 Y2.30688
G01 X-3.13187 Y2.28429
G01 X-3.02367 Y2.26450
G01 X-2.91549 Y2.24750
G01 X-2.80732 Y2.23329
G01 X-2.69916 Y2.22187
G01 X-2.59102 Y2.21324
G01 X-2.48287 Y2.20740
G01 X-2.37473 Y2.20435
G01 X-2.26660 Y2.20409
G01 X-2.17916 Y2.20614
G01 X-2.17735 Y2.20216
G01 X-2.17916 Y2.20614
G01 X-2.12675 Y2.26348
G01 X-2.06261 Y2.33624
G01 X-2.00084 Y2.40896
G01 X-1.94144 Y2.48164
G01 X-1.88441 Y2.55430
G01 X-1.82976 Y2.62691
G01 X-1.77747 Y2.69948
G01 X-1.72755 Y2.77202
G01 X-1.68000 Y2.84451
G01 X-1.63481 Y2.91696
G01 X-1.59198 Y2.98936
G01 X-1.55151 Y3.06173
G01 X-1.51340 Y3.13405
G01 X-1.47763 Y3.20632
G01 X-1.44422 Y3.27855
G01 X-1.41302 Y3.35106
G01 X-1.39254 Y3.40050
G01 X-1.37116 Y3.45366
G01 X-1.35116 Y3.50656
G01 X-1.33243 Y3.55944
G01 X-1.31498 Y3.61229
G01 X-1.29881 Y3.66512
G01 X-1.28391 Y3.71793
G01 X-1.27029 Y3.77072
G01 X-1.31196 Y3.77919
G01 X-1.32043 Y3.77653
G01 X-1.33219 Y3.73097
G01 X-1.34678 Y3.67923
G01 X-1.36263 Y3.62744
G01 X-1.37974 Y3.57562
G01 X-1.39811 Y3.52375
G01 X-1.41774 Y3.47184
G01 X-1.43884 Y3.41940
G01 X-1.45909 Y3.37051
G01 X-1.48988 Y3.29893
G01 X-1.52274 Y3.22791
G01 X-1.55793 Y3.15679
G01 X-1.59545 Y3.08559
G01 X-1.63532 Y3.01430
G01 X-1.67755 Y2.94292
G01 X-1.72212 Y2.87146
G01 X-1.76906 Y2.79990
G01 X-1.81836 Y2.72827
G01 X-1.87002 Y2.65656
G01 X-1.92406 Y2.58477
G01 X-1.98047 Y2.51290
G01 X-2.03925 Y2.44096
G01 X-2.10042 Y2.36896
G01 X-2.16396 Y2.29688
G01 X-2.20167 Y2.25562
G01 X-2.19986 Y2.25165
G01 X-2.20167 Y2.25562
G01 X-2.26712 Y2.25409
G01 X-2.37397 Y2.25435
G01 X-2.48082 Y2.25736
G01 X-2.58768 Y2.26313
G01 X-2.69455 Y2.27166
G01 X-2.80144 Y2.28294
G01 X-2.90835 Y2.29699
G01 X-3.01529 Y2.31379
G01 X-3.12226 Y2.33337
G01 X-3.22927 Y2.35570
G01 X-3.33631 Y2.38081
G01 X-3.44340 Y2.40869
G01 X-3.55054 Y2.43934
G01 X-3.65772 Y2.47277
G01 X-3.76495 Y2.50898
G01 X-3.77832 Y2.51384
G01 X-3.79806 Y2.50451
G01 X-3.77832 Y2.51384
G01 X-3.67901 Y2.77839
G01 X-3.63527 Y2.89726
G01 X-3.59388 Y3.01460
G01 X-3.55531 Y3.12919
G01 X-3.51956 Y3.24105
G01 X-3.48613 Y3.35186
G01 X-3.45650 Y3.45662
G01 X-3.42872 Y3.56226
G01 X-3.40473 Y3.66138
G01 X-3.38263 Y3.76194
G01 X-3.36428 Y3.85542
G01 X-3.34832 Y3.94845
G01 X-3.33522 Y4.03885
G01 X-3.32498 Y4.12662
G01 X-3.31762 Y4.21180
G01 X-3.31316 Y4.29439
G01 X-3.31161 Y4.37625
G01 X-3.31161 Y4.44482
G01 X-3.31188 Y4.45209
G01 X-3.32030 Y4.56598
G01 X-3.33096 Y4.70133
G01 X-3.34030 Y4.81109
G01 X-3.34911 Y4.90663
G01 X-3.35818 Y4.99743
G01 X-3.36822 Y5.09081
G01 X-3.38027 Y5.19576
G01 X-3.39580 Y5.32448
G01 X-3.40005 Y5.36888
G01 X-3.40006 Y5.65278
G01 X-3.39642 Y5.69898
G01 X-3.38251 Y5.85406
G01 X-3.36658 Y6.03476
G01 X-3.34321 Y6.30386
G01 X-3.30532 Y6.74617
G01 X-3.25047 Y7.39327
G01 X-3.26181 Y7.40498
G01 X-3.25047 Y7.39327
G01 X-3.20406 Y7.39574
G01 X-3.14754 Y7.39745
G01 X-3.13829 Y7.40928
G01 X-3.14754 Y7.39745
G01 X-3.10372 Y7.19714
G01 X-3.01567 Y6.79015
G01 X-2.93973 Y6.43438
G01 X-2.89253 Y6.20878
G01 X-2.86308 Y6.06527
G01 X-2.83507 Y5.92575
G01 X-2.81170 Y5.80585
G01 X-2.79422 Y5.71325
G01 X-2.77943 Y5.63192
G01 X-2.76726 Y5.56196
G01 X-2.75685 Y5.49943
G01 X-2.74805 Y5.44355
G01 X-2.73858 Y5.37879
G01 X-2.73373 Y5.34301
G01 X-2.72916 Y5.30695
G01 X-2.72461 Y5.26779
G01 X-2.72272 Y5.25008
G01 X-2.72119 Y5.24005
G01 X-2.71692 Y5.21924
G01 X-2.71355 Y5.20363
G01 X-2.70814 Y5.17996
G01 X-2.70456 Y5.16512
G01 X-2.69931 Y5.14447
G01 X-2.69511 Y5.12873
G01 X-2.68929 Y5.10795
G01 X-2.68496 Y5.09320
G01 X-2.67925 Y5.07456
G01 X-2.67424 Y5.05893
G01 X-2.66373 Y5.02796
G01 X-2.65707 Y5.00950
G01 X-2.64582 Y4.98011
G01 X-2.63986 Y4.96533
G01 X-2.62827 Y4.93801
G01 X-2.62122 Y4.92223
G01 X-2.60894 Y4.89605
G01 X-2.60206 Y4.88207
G01 X-2.58860 Y4.85596
G01 X-2.57541 Y4.83184
G01 X-2.56779 Y4.81851
G01 X-2.55368 Y4.79485
G01 X-2.53943 Y4.77225
G01 X-2.52520 Y4.75082
G01 X-2.50994 Y4.72902
G01 X-2.49443 Y4.70797
G01 X-2.47803 Y4.68685
G01 X-2.46256 Y4.66789
G01 X-2.44618 Y4.64877
G01 X-2.42901 Y4.62970
G01 X-2.41154 Y4.61123
G01 X-2.39393 Y4.59350
G01 X-2.37560 Y4.57591
G01 X-2.35707 Y4.55899
G01 X-2.33763 Y4.54209
G01 X-2.32619 Y4.53253
G01 X-2.30736 Y4.51739
G01 X-2.28574 Y4.50086
G01 X-2.26540 Y4.48608
G01 X-2.25483 Y4.47869
G01 X-2.23242 Y4.46361
G01 X-2.20949 Y4.44900
G01 X-2.18514 Y4.43433
G01 X-2.16074 Y4.42045
G01 X-2.14870 Y4.41389
G01 X-2.12637 Y4.40207
G01 X-2.10434 Y4.38996
G01 X-2.08108 Y4.37647
G01 X-2.06782 Y4.36849
G01 X-2.04216 Y4.35248
G01 X-2.01483 Y4.33467
G01 X-2.00244 Y4.32637
G01 X-1.97203 Y4.30542
G01 X-1.93793 Y4.28110
G01 X-1.89922 Y4.25260
G01 X-1.85626 Y4.22002
G01 X-1.80592 Y4.18085
G01 X-1.74603 Y4.13314
G01 X-1.67525 Y4.07557
G01 X-1.58700 Y4.00249
G01 X-1.50172 Y3.93088
G01 X-1.35787 Y3.80860
G01 X-1.32043 Y3.77653
G04 P0 ( dwell for no time -- G64 should not smooth over this point )
G00 Z0.08000 ( retract )

G00 X-4.30278 Y7.54088 ( rapid move to begin. )
G01 F3.00000
( Mill infeed pass 1/1 )
G01 Z-0.00800
G04 P0 ( dwell for no time -- G64 should not smooth over this point )
G01 F6.00000
G01 X-4.30278 Y7.54088
G01 X-4.55506 Y6.15205
G01 X-4.56515 Y6.09396
G01 X-4.57414 Y6.03698
G01 X-4.58201 Y5.98112
G01 X-4.58877 Y5.92637
G01 X-4.59441 Y5.87273
G01 X-4.59895 Y5.82020
G01 X-4.60237 Y5.76879
G01 X-4.60468 Y5.71848
G01 X-4.59528 Y5.63063
G01 X-4.59121 Y5.58902
G01 X-4.58823 Y5.55287
G01 X-4.58112 Y5.45630
G01 X-4.57361 Y5.35918
G01 X-4.56672 Y5.27445
G01 X-4.56002 Y5.19677
G01 X-4.55441 Y5.13508
G01 X-4.54963 Y5.08535
G01 X-4.54230 Y5.01245
G01 X-4.53403 Y4.93514
G01 X-4.52963 Y4.89562
G01 X-4.51996 Y4.81214
G01 X-4.50594 Y4.69648
G01 X-4.50001 Y4.63577
G01 X-4.49998 Y4.34332
G01 X-4.50360 Y4.29636
G01 X-4.51545 Y4.16410
G01 X-4.51287 Y4.11277
G01 X-4.50931 Y4.06046
G01 X-4.50477 Y4.00717
G01 X-4.49925 Y3.95290
G01 X-4.49275 Y3.89765
G01 X-4.48527 Y3.84142
G01 X-4.47681 Y3.78420
G01 X-4.46737 Y3.72601
G01 X-4.44555 Y3.60668
G01 X-4.41980 Y3.48344
G01 X-4.39013 Y3.35627
G01 X-4.35654 Y3.22517
G01 X-4.15220 Y2.46035
G01 X-4.23648 Y2.43410
G01 X-4.25093 Y2.48196
G01 X-4.21289 Y2.49381
G01 X-4.19598 Y2.48449
G01 X-4.21289 Y2.49381
G01 X-4.40485 Y3.21227
G01 X-4.43857 Y3.34386
G01 X-4.46849 Y3.47207
G01 X-4.49449 Y3.59646
G01 X-4.51655 Y3.71701
G01 X-4.52627 Y3.77689
G01 X-4.53474 Y3.83410
G01 X-4.54232 Y3.89105
G01 X-4.54891 Y3.94706
G01 X-4.55452 Y4.00211
G01 X-4.55920 Y4.05707
G01 X-4.56281 Y4.11026
G01 X-4.56539 Y4.16159
G01 X-4.56526 Y4.16852
G01 X-4.55341 Y4.30065
G01 X-4.54994 Y4.34523
G01 X-4.54995 Y4.63335
G01 X-4.55565 Y4.69109
G01 X-4.56962 Y4.80633
G01 X-4.57932 Y4.89001
G01 X-4.58373 Y4.92961
G01 X-4.59178 Y5.00482
G01 X-4.59940 Y5.08056
G01 X-4.60420 Y5.13055
G01 X-4.60982 Y5.19224
G01 X-4.61655 Y5.27039
G01 X-4.62345 Y5.35522
G01 X-4.63098 Y5.45254
G01 X-4.63808 Y5.54899
G01 X-4.64102 Y5.58469
G01 X-4.64502 Y5.62551
G01 X-4.65440 Y5.71316
G01 X-4.65463 Y5.72078
G01 X-4.65226 Y5.77211
G01 X-4.64876 Y5.82450
G01 X-4.64414 Y5.87796
G01 X-4.63839 Y5.93249
G01 X-4.63152 Y5.98810
G01 X-4.62353 Y6.04477
G01 X-4.61441 Y6.10252
G01 X-4.60425 Y6.16099
G01 X-4.36059 Y7.50237
G01 X-4.34414 Y7.51347
G01 X-4.36059 Y7.50237
G01 X-4.38924 Y7.50866
G01 X-4.46458 Y7.52396
G01 X-4.53991 Y7.53801
G01 X-4.61524 Y7.55081
G01 X-4.69056 Y7.56237
G01 X-4.76588 Y7.57269
G01 X-4.84119 Y7.58177
G01 X-4.91650 Y7.58960
G01 X-4.99180 Y7.59619
G01 X-5.06710 Y7.60154
G01 X-5.14240 Y7.60564
G01 X-5.21770 Y7.60850
G01 X-5.29299 Y7.61012
G01 X-5.36829 Y7.61050
G01 X-5.44358 Y7.60964
G01 X-5.47601 Y7.60873
G01 X-5.48707 Y7.62094
G01 X-5.47601 Y7.60873
G01 X-5.69333 Y5.73722
G01 X-5.69848 Y5.69768
G01 X-5.70490 Y5.65765
G01 X-5.78223 Y5.21912
G01 X-5.78253 Y5.21913
G01 X-5.78223 Y5.21912
G01 X-5.78175 Y5.21084
G01 X-5.78077 Y5.18631
G01 X-5.78067 Y5.16168
G01 X-5.78085 Y5.15224
G01 X-5.78278 Y5.11563
G01 X-5.78368 Y5.10572
G01 X-5.78772 Y5.07435
G01 X-5.78900 Y5.06682
G01 X-5.79371 Y5.04352
G01 X-5.79530 Y5.03673
G01 X-5.80172 Y5.01359
G01 X-5.80393 Y5.00672
G01 X-5.81088 Y4.98735
G01 X-5.81352 Y4.98082
G01 X-5.82106 Y4.96388
G01 X-5.82412 Y4.95769
G01 X-5.82871 Y4.94911
G01 X-5.94913 Y4.82869
G01 X-5.95862 Y4.82365
G01 X-5.96483 Y4.82061
G01 X-5.98588 Y4.81107
G01 X-6.00381 Y4.80267
G01 X-6.00433 Y4.80340
G01 X-6.00381 Y4.80267
G01 X-6.00795 Y4.79843
G01 X-6.01696 Y4.78783
G01 X-6.02581 Y4.77634
G01 X-6.03439 Y4.76385
G01 X-6.04269 Y4.75037
G01 X-6.05054 Y4.73637
G01 X-6.06601 Y4.70393
G01 X-6.07998 Y4.66795
G01 X-6.09257 Y4.62793
G01 X-6.10370 Y4.58389
G01 X-6.11339 Y4.53533
G01 X-6.16196 Y4.25990
G01 X-6.17686 Y4.18365
G01 X-6.19479 Y4.10566
G01 X-6.21683 Y4.02149
G01 X-6.24190 Y3.93554
G01 X-6.26998 Y3.84739
G01 X-6.30216 Y3.75380
G01 X-6.33735 Y3.65799
G01 X-6.37558 Y3.55969
G01 X-6.70378 Y2.73791
G01 X-6.78687 Y2.45491
G01 X-6.80534 Y2.44470
G01 X-6.78687 Y2.45491
G01 X-6.75167 Y2.44498
G01 X-6.66826 Y2.42306
G01 X-6.58486 Y2.40273
G01 X-6.50147 Y2.38401
G01 X-6.41809 Y2.36688
G01 X-6.33472 Y2.35135
G01 X-6.25136 Y2.33742
G01 X-6.16801 Y2.32509
G01 X-6.08467 Y2.31435
G01 X-6.00133 Y2.30521
G01 X-5.91800 Y2.29767
G01 X-5.83467 Y2.29172
G01 X-5.75135 Y2.28737
G01 X-5.66802 Y2.28461
G01 X-5.58470 Y2.28345
G01 X-5.50138 Y2.28388
G01 X-5.41806 Y2.28591
G01 X-5.33474 Y2.28953
G01 X-5.25141 Y2.29475
G01 X-5.16808 Y2.30157
G01 X-5.08475 Y2.30998
G01 X-5.00141 Y2.31999
G01 X-4.91806 Y2.33159
G01 X-4.83470 Y2.34479
G01 X-4.75134 Y2.35959
G01 X-4.66796 Y2.37599
G01 X-4.58458 Y2.39398
G01 X-4.50118 Y2.41358
G01 X-4.41778 Y2.43477
G01 X-4.33436 Y2.45757
G01 X-4.25093 Y2.48196
G01 X-4.25628 Y2.51766
G01 X-4.27362 Y2.52742
G01 X-4.45316 Y3.19936
G01 X-4.48700 Y3.33144
G01 X-4.51719 Y3.46072
G01 X-4.54392 Y3.58869
G01 X-4.56608 Y3.71000
G01 X-4.57574 Y3.76957
G01 X-4.58440 Y3.82823
G01 X-4.59207 Y3.88596
G01 X-4.59874 Y3.94278
G01 X-4.60426 Y3.99705
G01 X-4.60908 Y4.05367
G01 X-4.61275 Y4.10775
G01 X-4.61533 Y4.15908
G01 X-4.61506 Y4.17294
G01 X-4.60323 Y4.30494
G01 X-4.59993 Y4.34714
G01 X-4.59995 Y4.63090
G01 X-4.60536 Y4.68571
G01 X-4.61928 Y4.80051
G01 X-4.62900 Y4.88440
G01 X-4.63372 Y4.92681
G01 X-4.63788 Y4.96520
G01 X-4.64527 Y5.03632
G01 X-4.65353 Y5.12104
G01 X-4.65963 Y5.18795
G01 X-4.66595 Y5.26117
G01 X-4.67285 Y5.34568
G01 X-4.68082 Y5.44859
G01 X-4.68793 Y5.54510
G01 X-4.69083 Y5.58037
G01 X-4.69475 Y5.62038
G01 X-4.70411 Y5.70784
G01 X-4.70458 Y5.72307
G01 X-4.70215 Y5.77543
G01 X-4.69858 Y5.82880
G01 X-4.69386 Y5.88320
G01 X-4.68822 Y5.93684
G01 X-4.68103 Y5.99507
G01 X-4.67292 Y6.05256
G01 X-4.66367 Y6.11109
G01 X-4.65345 Y6.16992
G01 X-4.41846 Y7.46357
G01 X-4.40191 Y7.47479
G01 X-4.41846 Y7.46357
G01 X-4.47414 Y7.47488
G01 X-4.54869 Y7.48878
G01 X-4.62322 Y7.50145
G01 X-4.69775 Y7.51289
G01 X-4.77227 Y7.52310
G01 X-4.84677 Y7.53208
G01 X-4.92127 Y7.53983
G01 X-4.99575 Y7.54634
G01 X-5.07024 Y7.55163
G01 X-5.14471 Y7.55569
G01 X-5.21919 Y7.55852
G01 X-5.29366 Y7.56013
G01 X-5.36813 Y7.56050
G01 X-5.43136 Y7.55977
G01 X-5.44248 Y7.57212
G01 X-5.43136 Y7.55977
G01 X-5.64366 Y5.73146
G01 X-5.64891 Y5.69121
G01 X-5.65566 Y5.64897
G01 X-5.73197 Y5.21618
G01 X-5.73227 Y5.21620
G01 X-5.73197 Y5.21618
G01 X-5.73183 Y5.21369
G01 X-5.73081 Y5.18829
G01 X-5.73067 Y5.16182
G01 X-5.73092 Y5.14961
G01 X-5.73285 Y5.11300
G01 X-5.73408 Y5.09940
G01 X-5.73839 Y5.06614
G01 X-5.73999 Y5.05692
G01 X-5.74484 Y5.03298
G01 X-5.95462 Y4.82324
G01 X-5.95705 Y4.82058
G01 X-5.95907 Y4.81809
G01 X-5.95916 Y4.81816
G01 X-5.95907 Y4.81809
G01 X-5.96114 Y4.81514
G01 X-5.96280 Y4.81240
G01 X-5.96291 Y4.81246
G01 X-5.96280 Y4.81240
G01 X-5.96446 Y4.80920
G01 X-5.96588 Y4.80589
G01 X-5.96599 Y4.80593
G01 X-5.96588 Y4.80589
G01 X-5.96694 Y4.80286
G01 X-5.96789 Y4.79938
G01 X-5.96801 Y4.79941
G01 X-5.96789 Y4.79938
G01 X-5.96853 Y4.79624
G01 X-5.96901 Y4.79267
G01 X-5.96912 Y4.79268
G01 X-5.96901 Y4.79267
G01 X-5.96921 Y4.78947
G01 X-5.96920 Y4.78586
G01 X-5.96931 Y4.78586
G01 X-5.96920 Y4.78586
G01 X-5.96892 Y4.78227
G01 X-5.96846 Y4.77910
G01 X-5.96858 Y4.77908
G01 X-5.96846 Y4.77910
G01 X-5.96770 Y4.77557
G01 X-5.96682 Y4.77249
G01 X-5.96693 Y4.77246
G01 X-5.96682 Y4.77249
G01 X-5.96558 Y4.76910
G01 X-5.96420 Y4.76600
G01 X-5.97358 Y4.76162
G01 X-5.97442 Y4.76269
G01 X-5.97358 Y4.76162
G01 X-5.97809 Y4.75635
G01 X-5.98535 Y4.74696
G01 X-5.99247 Y4.73650
G01 X-5.99959 Y4.72505
G01 X-6.00608 Y4.71340
G01 X-6.02008 Y4.68408
G01 X-6.03277 Y4.65138
G01 X-6.04444 Y4.61429
G01 X-6.05491 Y4.57286
G01 X-6.06425 Y4.52609
G01 X-6.11289 Y4.25033
G01 X-6.12813 Y4.17245
G01 X-6.14606 Y4.09445
G01 X-6.16883 Y4.00750
G01 X-6.19426 Y3.92036
G01 X-6.22234 Y3.83221
G01 X-6.25522 Y3.73657
G01 X-6.29075 Y3.63987
G01 X-6.32898 Y3.54157
G01 X-6.65648 Y2.72156
G01 X-6.72458 Y2.48956
G01 X-6.74352 Y2.47887
G01 X-6.72458 Y2.48956
G01 X-6.65598 Y2.47153
G01 X-6.57346 Y2.45142
G01 X-6.49096 Y2.43289
G01 X-6.40848 Y2.41595
G01 X-6.32602 Y2.40059
G01 X-6.24358 Y2.38682
G01 X-6.16116 Y2.37462
G01 X-6.07875 Y2.36400
G01 X-5.99635 Y2.35497
G01 X-5.91397 Y2.34751
G01 X-5.83159 Y2.34163
G01 X-5.74922 Y2.33733
G01 X-5.66685 Y2.33460
G01 X-5.58448 Y2.33345
G01 X-5.50212 Y2.33388
G01 X-5.41976 Y2.33588
G01 X-5.33739 Y2.33947
G01 X-5.25501 Y2.34463
G01 X-5.17263 Y2.35136
G01 X-5.09024 Y2.35968
G01 X-5.00783 Y2.36958
G01 X-4.92542 Y2.38105
G01 X-4.84298 Y2.39411
G01 X-4.76053 Y2.40874
G01 X-4.67806 Y2.42496
G01 X-4.59557 Y2.44276
G01 X-4.51306 Y2.46215
G01 X-4.43053 Y2.48312
G01 X-4.34797 Y2.50568
G01 X-4.27362 Y2.52742
G04 P0 ( dwell for no time -- G64 should not smooth over this point )
G00 Z0.08000 ( retract )

G00 X-6.62030 Y3.35133 ( rapid move to begin. )
G01 F3.00000
( Mill infeed pass 1/1 )
G01 Z-0.00800
G04 P0 ( dwell for no time -- G64 should not smooth over this point )
G01 F6.00000
G01 X-6.62030 Y3.35133
G01 X-6.51522 Y3.61449
G01 X-6.47748 Y3.71148
G01 X-6.44332 Y3.80453
G01 X-6.41256 Y3.89400
G01 X-6.38519 Y3.97989
G01 X-6.36122 Y4.06214
G01 X-6.34063 Y4.14074
G01 X-6.32341 Y4.21564
G01 X-6.30936 Y4.28773
G01 X-6.26101 Y4.56194
G01 X-6.25052 Y4.61453
G01 X-6.24941 Y4.61943
G01 X-6.23762 Y4.66608
G01 X-6.23606 Y4.67159
G01 X-6.22254 Y4.71454
G01 X-6.22037 Y4.72072
G01 X-6.20513 Y4.75997
G01 X-6.20216 Y4.76684
G01 X-6.18519 Y4.80239
G01 X-6.18230 Y4.80799
G01 X-6.17317 Y4.82437
G01 X-6.16130 Y4.84376
G01 X-6.15865 Y4.84781
G01 X-6.14866 Y4.86235
G01 X-6.14565 Y4.86650
G01 X-6.13306 Y4.88278
G01 X-6.03824 Y4.92700
G01 X-6.03143 Y4.92363
G01 X-6.02220 Y4.92055
G01 X-6.02223 Y4.92042
G01 X-6.02220 Y4.92055
G01 X-6.01821 Y4.91956
G01 X-6.01188 Y4.91840
G01 X-6.00740 Y4.91784
G01 X-6.00741 Y4.91769
G01 X-6.00740 Y4.91784
G01 X-5.99726 Y4.91745
G01 X-5.98677 Y4.91859
G01 X-5.98154 Y4.91963
G01 X-5.97258 Y4.92219
G01 X-5.96362 Y4.92598
G01 X-5.95962 Y4.92807
G01 X-5.95415 Y4.93148
G01 X-5.94915 Y4.93506
G01 X-5.94394 Y4.93952
G01 X-5.94155 Y4.94177
G01 X-5.93461 Y4.94971
G01 X-5.93243 Y4.95270
G01 X-5.92896 Y4.95813
G01 X-5.92603 Y4.96354
G01 X-5.92341 Y4.96943
G01 X-5.92222 Y4.97249
G01 X-5.91944 Y4.98224
G01 X-5.91861 Y4.98668
G01 X-5.91751 Y4.99593
G01 X-5.91770 Y5.00525
G01 X-5.91758 Y5.00526
G01 X-5.91770 Y5.00525
G01 X-5.91833 Y5.01137
G01 X-5.91995 Y5.01997
G01 X-5.91975 Y5.02002
G01 X-5.91995 Y5.01997
G01 X-5.92254 Y5.02831
G01 X-5.92478 Y5.03377
G01 X-5.92467 Y5.03381
G01 X-5.92478 Y5.03377
G01 X-5.92873 Y5.04173
G01 X-5.93399 Y5.04943
G01 X-5.93389 Y5.04951
G01 X-5.93399 Y5.04943
G01 X-5.93787 Y5.05421
G01 X-5.94425 Y5.06081
G01 X-5.94072 Y5.07343
G01 X-5.93637 Y5.09484
G01 X-5.93596 Y5.09708
G01 X-5.93244 Y5.12543
G01 X-5.93074 Y5.15835
G01 X-5.93066 Y5.16226
G01 X-5.93071 Y5.18222
G01 X-5.93156 Y5.20316
G01 X-5.93231 Y5.21580
G01 X-5.93098 Y5.23932
G01 X-5.85275 Y5.68295
G01 X-5.84703 Y5.71857
G01 X-5.84224 Y5.75523
G01 X-5.63126 Y7.57221
G01 X-5.72858 Y7.58393
G01 X-5.82495 Y7.59342
G01 X-5.92130 Y7.60080
G01 X-6.01764 Y7.60607
G01 X-6.11398 Y7.60925
G01 X-6.21031 Y7.61032
G01 X-6.30664 Y7.60929
G01 X-6.40298 Y7.60616
G01 X-6.49932 Y7.60093
G01 X-6.59567 Y7.59359
G01 X-6.69204 Y7.58415
G01 X-6.78842 Y7.57260
G01 X-6.88481 Y7.55895
G01 X-6.98123 Y7.54319
G01 X-7.01727 Y7.53651
G01 X-7.02332 Y7.54312
G01 X-7.01727 Y7.53651
G01 X-7.04769 Y7.42679
G01 X-7.07820 Y7.32078
G01 X-7.08022 Y7.32079
G01 X-7.07820 Y7.32078
G01 X-7.04118 Y7.19151
G01 X-6.99867 Y7.03928
G01 X-6.95911 Y6.89358
G01 X-6.92254 Y6.75461
G01 X-6.88831 Y6.61987
G01 X-6.85706 Y6.49183
G01 X-6.82884 Y6.37076
G01 X-6.80288 Y6.25329
G01 X-6.78022 Y6.14417
G01 X-6.76006 Y6.03960
G01 X-6.74268 Y5.94081
G01 X-6.72807 Y5.84776
G01 X-6.71594 Y5.75798
G01 X-6.70720 Y5.67869
G01 X-6.70097 Y5.60252
G01 X-6.69758 Y5.53178
G01 X-6.69071 Y5.28440
G01 X-6.69387 Y5.28228
G01 X-6.69701 Y5.27980
G01 X-6.69711 Y5.27991
G01 X-6.69701 Y5.27980
G01 X-6.69966 Y5.27736
G01 X-6.70239 Y5.27442
G01 X-6.70250 Y5.27452
G01 X-6.70239 Y5.27442
G01 X-6.70488 Y5.27128
G01 X-6.70689 Y5.26830
G01 X-6.70702 Y5.26837
G01 X-6.70689 Y5.26830
G01 X-6.70887 Y5.26481
G01 X-6.71041 Y5.26155
G01 X-6.71055 Y5.26161
G01 X-6.71041 Y5.26155
G01 X-6.71185 Y5.25781
G01 X-6.71287 Y5.25436
G01 X-6.71301 Y5.25439
G01 X-6.71287 Y5.25436
G01 X-6.71365 Y5.25083
G01 X-6.71421 Y5.24687
G01 X-6.71435 Y5.24688
G01 X-6.71421 Y5.24687
G01 X-6.71445 Y5.24287
G01 X-6.71440 Y5.23926
G01 X-6.71454 Y5.23926
G01 X-6.71440 Y5.23926
G01 X-6.71408 Y5.23567
G01 X-6.71343 Y5.23172
G01 X-6.71364 Y5.23167
G01 X-6.71343 Y5.23172
G01 X-6.71211 Y5.22668
G01 X-6.71003 Y5.22104
G01 X-6.62952 Y5.04860
G01 X-6.57281 Y4.86873
G01 X-6.56610 Y4.84518
G01 X-6.56111 Y4.82364
G01 X-6.55712 Y4.80182
G01 X-6.55465 Y4.78419
G01 X-6.55394 Y4.77755
G01 X-6.55130 Y4.74122
G01 X-6.55105 Y4.73282
G01 X-6.55161 Y4.69109
G01 X-6.62030 Y3.35133
G01 X-6.75104 Y2.75425
G01 X-6.65148 Y4.69621
G01 X-6.65104 Y4.73397
G01 X-6.75108 Y4.73092
G01 X-6.75144 Y4.69935
G01 X-6.85031 Y2.77113
G01 X-6.84997 Y2.77107
G01 X-6.85031 Y2.77113
G01 X-6.92363 Y2.52155
G01 X-6.91605 Y2.51126
G01 X-6.92363 Y2.52155
G01 X-6.95934 Y2.52204
G01 X-7.06980 Y2.52618
G01 X-7.18027 Y2.53293
G01 X-7.20255 Y2.53482
G01 X-7.21505 Y2.52305
G01 X-7.20255 Y2.53482
G01 X-7.22526 Y3.47582
G01 X-7.23029 Y3.62367
G01 X-7.23796 Y3.76288
G01 X-7.24283 Y3.83011
G01 X-7.24827 Y3.89430
G01 X-7.25449 Y3.95795
G01 X-7.26140 Y4.01986
G01 X-7.26921 Y4.08155
G01 X-7.27754 Y4.14007
G01 X-7.28630 Y4.19515
G01 X-7.29600 Y4.25012
G01 X-7.30682 Y4.30530
G01 X-7.31756 Y4.35491
G01 X-7.32944 Y4.40475
G01 X-7.34236 Y4.45403
G01 X-7.37622 Y4.57704
G01 X-7.38645 Y4.61683
G01 X-7.39469 Y4.65449
G01 X-7.40119 Y4.69080
G01 X-7.40597 Y4.72574
G01 X-7.40905 Y4.75932
G01 X-7.41049 Y4.79151
G01 X-7.41033 Y4.82234
G01 X-7.40851 Y4.85322
G01 X-7.38341 Y5.14444
G01 X-7.37985 Y5.17707
G01 X-7.37460 Y5.21087
G01 X-7.33135 Y5.45616
G01 X-7.32435 Y5.49972
G01 X-7.31865 Y5.54289
G01 X-7.31400 Y5.58709
G01 X-7.31039 Y5.63233
G01 X-7.30782 Y5.67861
G01 X-7.30631 Y5.72376
G01 X-7.30573 Y5.77225
G01 X-7.30618 Y5.82278
G01 X-7.32471 Y6.78935
G01 X-7.32605 Y6.78964
G01 X-7.32471 Y6.78935
G01 X-7.20611 Y7.03852
G01 X-7.19782 Y7.13175
G01 X-7.20611 Y7.03852
G01 X-7.19159 Y6.98652
G01 X-7.15243 Y6.84230
G01 X-7.11606 Y6.70413
G01 X-7.08249 Y6.57199
G01 X-7.05172 Y6.44592
G01 X-7.02375 Y6.32592
G01 X-6.99857 Y6.21201
G01 X-6.97619 Y6.10421
G01 X-6.95660 Y6.00256
G01 X-6.93982 Y5.90708
G01 X-6.92582 Y5.81783
G01 X-6.91460 Y5.73484
G01 X-6.90615 Y5.65821
G01 X-6.90044 Y5.58802
G01 X-6.89740 Y5.52334
G01 X-6.89063 Y5.27886
G01 X-6.88652 Y5.27636
G01 X-6.88235 Y5.27323
G01 X-6.88219 Y5.27343
G01 X-6.88235 Y5.27323
G01 X-6.87854 Y5.26967
G01 X-6.87512 Y5.26574
G01 X-6.87490 Y5.26591
G01 X-6.87512 Y5.26574
G01 X-6.87212 Y5.26147
G01 X-6.86959 Y5.25691
G01 X-6.86935 Y5.25703
G01 X-6.86959 Y5.25691
G01 X-6.86754 Y5.25212
G01 X-6.86601 Y5.24714
G01 X-6.86582 Y5.24719
G01 X-6.86601 Y5.24714
G01 X-6.86525 Y5.24360
G01 X-6.82027 Y4.98846
G01 X-6.76392 Y4.80975
G01 X-6.76012 Y4.79670
G01 X-6.75721 Y4.78444
G01 X-6.75486 Y4.77175
G01 X-6.75312 Y4.75973
G01 X-6.75108 Y4.73092
G01 X-6.70106 Y4.73245
G01 X-6.70145 Y4.69778
G01 X-6.80067 Y2.76269
G01 X-6.80033 Y2.76263
G01 X-6.80067 Y2.76269
G01 X-6.88636 Y2.47103
G01 X-6.87877 Y2.46074
G01 X-6.88636 Y2.47103
G01 X-6.96063 Y2.47205
G01 X-7.07226 Y2.47624
G01 X-7.18391 Y2.48306
G01 X-7.25145 Y2.48878
G01 X-7.26395 Y2.47702
G01 X-7.25145 Y2.48878
G01 X-7.27525 Y3.47461
G01 X-7.28022 Y3.62092
G01 X-7.28783 Y3.75927
G01 X-7.29265 Y3.82589
G01 X-7.29809 Y3.89007
G01 X-7.30433 Y3.95377
G01 X-7.31109 Y4.01431
G01 X-7.31860 Y4.07375
G01 X-7.32692 Y4.13222
G01 X-7.33568 Y4.18730
G01 X-7.34524 Y4.24141
G01 X-7.35569 Y4.29472
G01 X-7.36643 Y4.34432
G01 X-7.37807 Y4.39314
G01 X-7.39057 Y4.44076
G01 X-7.42454 Y4.56418
G01 X-7.43510 Y4.60526
G01 X-7.44374 Y4.64474
G01 X-7.45059 Y4.68302
G01 X-7.45566 Y4.72007
G01 X-7.45895 Y4.75591
G01 X-7.46050 Y4.79053
G01 X-7.46032 Y4.82393
G01 X-7.45838 Y4.85682
G01 X-7.43318 Y5.14931
G01 X-7.42943 Y5.18363
G01 X-7.42394 Y5.21903
G01 X-7.38059 Y5.46484
G01 X-7.37392 Y5.50631
G01 X-7.36837 Y5.54815
G01 X-7.36384 Y5.59110
G01 X-7.36031 Y5.63514
G01 X-7.35779 Y5.68027
G01 X-7.35626 Y5.72652
G01 X-7.35572 Y5.77282
G01 X-7.35617 Y5.82182
G01 X-7.37493 Y6.80017
G01 X-7.37627 Y6.80046
G01 X-7.37493 Y6.80017
G01 X-7.19397 Y7.18020
G01 X-7.18608 Y7.27222
G01 X-7.19397 Y7.18020
G01 X-7.18543 Y7.15038
G01 X-7.14338 Y6.99980
G01 X-7.10412 Y6.85522
G01 X-7.06765 Y6.71664
G01 X-7.03397 Y6.58408
G01 X-7.00309 Y6.45752
G01 X-6.97499 Y6.33699
G01 X-6.94968 Y6.22249
G01 X-6.92716 Y6.11403
G01 X-6.90743 Y6.01162
G01 X-6.89049 Y5.91529
G01 X-6.87634 Y5.82505
G01 X-6.86497 Y5.74093
G01 X-6.85637 Y5.66297
G01 X-6.85054 Y5.59122
G01 X-6.84743 Y5.52521
G01 X-6.83989 Y5.25378
G01 X-6.83882 Y5.23641
G01 X-6.83621 Y5.21579
G01 X-6.83563 Y5.21235
G01 X-6.83217 Y5.19539
G01 X-6.83136 Y5.19201
G01 X-6.82622 Y5.17362
G01 X-6.71605 Y4.82421
G01 X-6.71174 Y4.80941
G01 X-6.70829 Y4.79482
G01 X-6.70551 Y4.77984
G01 X-6.70338 Y4.76502
G01 X-6.70106 Y4.73245
G01 X-6.65104 Y4.73397
G01 X-6.65368 Y4.77030
G01 X-6.65615 Y4.78793
G01 X-6.65939 Y4.80520
G01 X-6.66340 Y4.82211
G01 X-6.66818 Y4.83866
G01 X-6.77853 Y5.18865
G01 X-6.78318 Y5.20539
G01 X-6.78664 Y5.22234
G01 X-6.78891 Y5.23951
G01 X-6.78999 Y5.25688
G01 X-6.79747 Y5.52708
G01 X-6.80064 Y5.59442
G01 X-6.80660 Y5.66774
G01 X-6.81534 Y5.74702
G01 X-6.82686 Y5.83227
G01 X-6.84117 Y5.92349
G01 X-6.85826 Y6.02068
G01 X-6.87813 Y6.12384
G01 X-6.90079 Y6.23297
G01 X-6.92623 Y6.34806
G01 X-6.95445 Y6.46913
G01 X-6.98546 Y6.59616
G01 X-7.01925 Y6.72916
G01 X-7.05582 Y6.86813
G01 X-7.09518 Y7.01307
G01 X-7.13732 Y7.16398
G01 X-7.18224 Y7.32086
G01 X-7.14406 Y7.45345
G01 X-7.09692 Y7.62346
G01 X-7.16645 Y7.65764
G01 X-7.18817 Y7.61260
G01 X-7.15618 Y7.59688
G01 X-7.14232 Y7.60319
G01 X-7.15618 Y7.59688
G01 X-7.19218 Y7.46704
G01 X-7.22914 Y7.33867
G01 X-7.22899 Y7.33861
G01 X-7.22914 Y7.33867
G01 X-7.30137 Y7.18734
G01 X-7.42927 Y6.91881
G01 X-7.46713 Y6.83914
G01 X-7.46668 Y6.83884
G01 X-7.46713 Y6.83914
G01 X-7.60491 Y6.68754
G01 X-7.77099 Y6.50442
G01 X-7.91194 Y6.34858
G01 X-7.95887 Y6.29768
G01 X-8.00576 Y6.24908
G01 X-8.05444 Y6.20089
G01 X-8.10298 Y6.15527
G01 X-8.15792 Y6.10642
G01 X-8.21154 Y6.06020
G01 X-8.21108 Y6.05940
G01 X-8.21154 Y6.06020
G01 X-8.24683 Y6.04798
G01 X-8.29659 Y6.03110
G01 X-8.36169 Y6.00964
G01 X-8.39307 Y5.99961
G01 X-8.42683 Y5.98906
G01 X-8.46510 Y5.97746
G01 X-8.51675 Y5.96244
G01 X-8.56593 Y5.94895
G01 X-8.59577 Y5.94116
G01 X-8.61088 Y5.93738
G01 X-8.63977 Y5.93037
G01 X-8.66660 Y5.92420
G01 X-8.70465 Y5.91604
G01 X-8.72938 Y5.91117
G01 X-8.75282 Y5.90682
G01 X-8.78864 Y5.90084
G01 X-8.80804 Y5.89795
G01 X-8.83246 Y5.89464
G01 X-8.85086 Y5.89243
G01 X-8.87440 Y5.88993
G01 X-8.89507 Y5.88809
G01 X-8.91552 Y5.88656
G01 X-8.93590 Y5.88537
G01 X-8.95589 Y5.88452
G01 X-8.97545 Y5.88398
G01 X-8.99194 Y5.88377
G01 X-9.01509 Y5.88383
G01 X-9.03497 Y5.88424
G01 X-9.05497 Y5.88495
G01 X-9.07470 Y5.88595
G01 X-9.10259 Y5.88790
G01 X-9.12322 Y5.88970
G01 X-9.14440 Y5.89189
G01 X-9.16587 Y5.89443
G01 X-9.20011 Y5.89913
G01 X-9.22258 Y5.90264
G01 X-9.24592 Y5.90660
G01 X-9.28092 Y5.91315
G01 X-9.31132 Y5.91939
G01 X-9.34655 Y5.92718
G01 X-9.38759 Y5.93699
G01 X-9.41541 Y5.94406
G01 X-9.42147 Y5.93802
G01 X-9.41541 Y5.94406
G01 X-9.41854 Y5.95549
G01 X-9.42959 Y6.00301
G01 X-9.43869 Y6.05343
G01 X-9.44464 Y6.09910
G01 X-9.44848 Y6.14633
G01 X-9.44998 Y6.19519
G01 X-9.44907 Y6.24186
G01 X-9.44600 Y6.28713
G01 X-9.44047 Y6.33456
G01 X-9.43242 Y6.38278
G01 X-9.42168 Y6.43203
G01 X-9.40742 Y6.48459
G01 X-9.39034 Y6.53691
G01 X-9.36974 Y6.59089
G01 X-9.34588 Y6.64533
G01 X-9.31740 Y6.70273
G01 X-9.28599 Y6.75927
G01 X-9.26552 Y6.79330
G01 X-9.24363 Y6.82761
G01 X-9.22072 Y6.86171
G01 X-9.19654 Y6.89585
G01 X-9.16719 Y6.93524
G01 X-9.13617 Y6.97468
G01 X-9.10317 Y7.01465
G01 X-9.06845 Y7.05464
G01 X-9.02592 Y7.10132
G01 X-8.98107 Y7.14804
G01 X-8.93214 Y7.19662
G01 X-8.88072 Y7.24523
G01 X-8.81718 Y7.30245
G01 X-8.75353 Y7.35692
G01 X-8.67465 Y7.42120
G01 X-8.59143 Y7.48553
G01 X-8.49539 Y7.55612
G01 X-8.39417 Y7.62675
G01 X-8.32871 Y7.67070
G01 X-8.26597 Y7.71164
G01 X-8.20147 Y7.75260
G01 X-8.13015 Y7.79667
G01 X-8.03279 Y7.85505
G01 X-7.95010 Y7.90292
G01 X-7.95063 Y7.90719
G01 X-7.95010 Y7.90292
G01 X-7.89401 Y7.88693
G01 X-7.79296 Y7.85580
G01 X-7.68928 Y7.82101
G01 X-7.58485 Y7.78310
G01 X-7.47777 Y7.74118
G01 X-7.36886 Y7.69546
G01 X-7.25994 Y7.64654
G01 X-7.18817 Y7.61260
G01 X-7.20151 Y7.57660
G01 X-7.21547 Y7.57021
G01 X-7.28071 Y7.60105
G01 X-7.38879 Y7.64959
G01 X-7.49683 Y7.69496
G01 X-7.60249 Y7.73631
G01 X-7.70605 Y7.77390
G01 X-7.80827 Y7.80820
G01 X-7.90843 Y7.83905
G01 X-7.94340 Y7.84902
G01 X-7.94393 Y7.85330
G01 X-7.94340 Y7.84902
G01 X-8.00740 Y7.81197
G01 X-8.10892 Y7.75105
G01 X-8.17492 Y7.71023
G01 X-8.23890 Y7.66960
G01 X-8.30112 Y7.62901
G01 X-8.36580 Y7.58558
G01 X-8.46627 Y7.51547
G01 X-8.56155 Y7.44544
G01 X-8.64357 Y7.38203
G01 X-8.71836 Y7.32115
G01 X-8.78420 Y7.26486
G01 X-8.84402 Y7.21105
G01 X-8.89735 Y7.16070
G01 X-8.94561 Y7.11279
G01 X-8.98940 Y7.06716
G01 X-9.02886 Y7.02392
G01 X-9.06501 Y6.98233
G01 X-9.09742 Y6.94309
G01 X-9.12749 Y6.90485
G01 X-9.15431 Y6.86890
G01 X-9.17956 Y6.83331
G01 X-9.20337 Y6.79781
G01 X-9.22301 Y6.76696
G01 X-9.24255 Y6.73449
G01 X-9.27379 Y6.67821
G01 X-9.30033 Y6.62470
G01 X-9.32406 Y6.57046
G01 X-9.34370 Y6.51882
G01 X-9.35967 Y6.46972
G01 X-9.37277 Y6.42153
G01 X-9.38306 Y6.37468
G01 X-9.39077 Y6.32887
G01 X-9.39609 Y6.28388
G01 X-9.39915 Y6.23909
G01 X-9.39998 Y6.19489
G01 X-9.39863 Y6.15045
G01 X-9.39505 Y6.10569
G01 X-9.38919 Y6.06049
G01 X-9.38090 Y6.01450
G01 X-9.37410 Y5.98516
G01 X-9.38043 Y5.97883
G01 X-9.37410 Y5.98516
G01 X-9.33532 Y5.97591
G01 X-9.30093 Y5.96829
G01 X-9.28418 Y5.96480
G01 X-9.26061 Y5.96015
G01 X-9.22438 Y5.95361
G01 X-9.19276 Y5.94859
G01 X-9.17010 Y5.94539
G01 X-9.15095 Y5.94297
G01 X-9.11838 Y5.93947
G01 X-9.09053 Y5.93712
G01 X-9.06242 Y5.93536
G01 X-9.03357 Y5.93422
G01 X-9.00304 Y5.93375
G01 X-8.97648 Y5.93397
G01 X-8.94605 Y5.93494
G01 X-8.91881 Y5.93646
G01 X-8.89299 Y5.93844
G01 X-8.86772 Y5.94085
G01 X-8.83877 Y5.94424
G01 X-8.80552 Y5.94883
G01 X-8.77436 Y5.95384
G01 X-8.73881 Y5.96026
G01 X-8.70326 Y5.96740
G01 X-8.66391 Y5.97607
G01 X-8.62289 Y5.98592
G01 X-8.59361 Y5.99335
G01 X-8.54724 Y6.00583
G01 X-8.51463 Y6.01505
G01 X-8.47936 Y6.02539
G01 X-8.44159 Y6.03683
G01 X-8.37703 Y6.05723
G01 X-8.33233 Y6.07187
G01 X-8.28308 Y6.08844
G01 X-8.23698 Y6.10429
G01 X-8.23652 Y6.10348
G01 X-8.23698 Y6.10429
G01 X-8.19084 Y6.14405
G01 X-8.13650 Y6.19238
G01 X-8.08915 Y6.23688
G01 X-8.04154 Y6.28401
G01 X-7.99524 Y6.33199
G01 X-7.94889 Y6.38227
G01 X-7.80804 Y6.53799
G01 X-7.64194 Y6.72113
G01 X-7.50911 Y6.86728
G01 X-7.50866 Y6.86699
G01 X-7.50911 Y6.86728
G01 X-7.47442 Y6.94029
G01 X-7.34650 Y7.20885
G01 X-7.27605 Y7.35647
G01 X-7.27589 Y7.35641
G01 X-7.27605 Y7.35647
G01 X-7.24030 Y7.48062
G01 X-7.21547 Y7.57021
G04 P0 ( dwell for no time -- G64 should not smooth over this point )
G00 Z0.08000 ( retract )

G00 X-5.63126 Y7.57221 ( rapid move to begin. )
G01 F3.00000
( Mill infeed pass 1/1 )
G01 Z-0.00800
G04 P0 ( dwell for no time -- G64 should not smooth over this point )
G01 F6.00000
G01 X-5.63126 Y7.57221
G01 X-5.61512 Y7.58493
G01 X-5.62570 Y7.62192
G01 X-5.57597 Y7.61485
G01 X-5.56028 Y7.62696
G01 X-5.57597 Y7.61485
G01 X-5.79262 Y5.74911
G01 X-5.79754 Y5.71136
G01 X-5.80345 Y5.67464
G01 X-5.88174 Y5.23064
G01 X-5.88240 Y5.21888
G01 X-5.88161 Y5.20558
G01 X-5.88072 Y5.18328
G01 X-5.88065 Y5.16190
G01 X-5.88076 Y5.15661
G01 X-5.88259 Y5.12185
G01 X-5.88296 Y5.11747
G01 X-5.88649 Y5.08981
G01 X-5.89152 Y5.06421
G01 X-5.89729 Y5.04289
G01 X-5.90408 Y5.02360
G01 X-5.90530 Y5.02046
G01 X-5.91131 Y5.00691
G01 X-5.91767 Y4.99481
G01 X-5.91867 Y4.98627
G01 X-5.91985 Y4.98064
G01 X-5.91974 Y4.98062
G01 X-5.91985 Y4.98064
G01 X-5.92227 Y4.97207
G01 X-5.92620 Y4.96317
G01 X-5.92608 Y4.96311
G01 X-5.92620 Y4.96317
G01 X-5.92896 Y4.95813
G01 X-5.93221 Y4.95304
G01 X-5.93410 Y4.95036
G01 X-5.93393 Y4.95023
G01 X-5.93410 Y4.95036
G01 X-5.93986 Y4.94357
G01 X-5.94425 Y4.93925
G01 X-5.94415 Y4.93914
G01 X-5.94425 Y4.93925
G01 X-5.94915 Y4.93506
G01 X-5.95244 Y4.93260
G01 X-5.95235 Y4.93249
G01 X-5.95244 Y4.93260
G01 X-5.95927 Y4.92828
G01 X-5.96400 Y4.92581
G01 X-5.96395 Y4.92571
G01 X-5.96400 Y4.92581
G01 X-5.97255 Y4.92211
G01 X-5.98114 Y4.91973
G01 X-5.98111 Y4.91962
G01 X-5.98114 Y4.91973
G01 X-5.98677 Y4.91859
G01 X-5.99477 Y4.91768
G01 X-6.00802 Y4.91079
G01 X-6.02802 Y4.90176
G01 X-6.05576 Y4.88862
G01 X-6.06321 Y4.88411
G01 X-6.06976 Y4.87838
G01 X-6.08296 Y4.86450
G01 X-6.09553 Y4.84971
G01 X-6.10746 Y4.83402
G01 X-6.11877 Y4.81746
G01 X-6.12949 Y4.80004
G01 X-6.13862 Y4.78365
G01 X-6.15703 Y4.74530
G01 X-6.15852 Y4.74187
G01 X-6.17485 Y4.69953
G01 X-6.18915 Y4.65382
G01 X-6.20094 Y4.60718
G01 X-6.21177 Y4.55326
G01 X-6.26020 Y4.27860
G01 X-6.27449 Y4.20525
G01 X-6.29207 Y4.12880
G01 X-6.31303 Y4.04881
G01 X-6.33736 Y3.96530
G01 X-6.36509 Y3.87828
G01 X-6.39620 Y3.78778
G01 X-6.43071 Y3.69380
G01 X-6.46870 Y3.59615
G01 X-6.68567 Y3.05279
G01 X-6.60154 Y4.69365
G01 X-6.60104 Y4.73340
G01 X-6.60117 Y4.73759
G01 X-6.60381 Y4.77392
G01 X-6.60664 Y4.79487
G01 X-6.61025 Y4.81442
G01 X-6.61475 Y4.83364
G01 X-6.62014 Y4.85253
G01 X-6.73059 Y5.20287
G01 X-6.73457 Y5.21709
G01 X-6.73733 Y5.23063
G01 X-6.73914 Y5.24434
G01 X-6.74003 Y5.25912
G01 X-6.74753 Y5.52943
G01 X-6.75081 Y5.59847
G01 X-6.75690 Y5.67321
G01 X-6.76579 Y5.75372
G01 X-6.77747 Y5.84002
G01 X-6.79177 Y5.93124
G01 X-6.80916 Y6.03014
G01 X-6.82918 Y6.13400
G01 X-6.85197 Y6.24376
G01 X-6.87753 Y6.35941
G01 X-6.90576 Y6.48048
G01 X-6.93688 Y6.60801
G01 X-6.97079 Y6.74147
G01 X-7.00747 Y6.88086
G01 X-7.04702 Y7.02652
G01 X-7.08916 Y7.17743
G01 X-7.13022 Y7.32082
G01 X-7.13224 Y7.32082
G01 X-7.13022 Y7.32082
G01 X-7.09602 Y7.43962
G01 X-7.05709 Y7.57998
G01 X-7.06315 Y7.58659
G01 X-7.05709 Y7.57998
G01 X-6.98982 Y7.59245
G01 X-6.89235 Y7.60838
G01 X-6.79490 Y7.62218
G01 X-6.69745 Y7.63385
G01 X-6.60001 Y7.64340
G01 X-6.50258 Y7.65082
G01 X-6.40515 Y7.65611
G01 X-6.30772 Y7.65928
G01 X-6.21030 Y7.66033
G01 X-6.11288 Y7.65924
G01 X-6.01545 Y7.65603
G01 X-5.91802 Y7.65069
G01 X-5.82059 Y7.64323
G01 X-5.72315 Y7.63364
G01 X-5.62570 Y7.62192
G01 X-5.61920 Y7.67150
G01 X-5.52069 Y7.65750
G01 X-5.74299 Y5.74299
G01 X-5.74806 Y5.70416
G01 X-5.75414 Y5.66633
G01 X-5.83250 Y5.22196
G01 X-5.83167 Y5.20799
G01 X-5.83073 Y5.18433
G01 X-5.83067 Y5.16155
G01 X-5.83078 Y5.15487
G01 X-5.83271 Y5.11826
G01 X-5.83328 Y5.11204
G01 X-5.83704 Y5.08255
G01 X-5.83801 Y5.07673
G01 X-5.84272 Y5.05342
G01 X-5.84392 Y5.04840
G01 X-5.84939 Y5.02868
G01 X-5.85102 Y5.02352
G01 X-5.85730 Y5.00591
G01 X-5.85924 Y5.00106
G01 X-5.86599 Y4.98582
G01 X-5.86822 Y4.98126
G01 X-5.87538 Y4.96787
G01 X-5.87788 Y4.96358
G01 X-5.88546 Y4.95162
G01 X-5.88823 Y4.94759
G01 X-5.89623 Y4.93682
G01 X-5.89925 Y4.93305
G01 X-5.90778 Y4.92319
G01 X-5.91105 Y4.91967
G01 X-5.92021 Y4.91054
G01 X-5.92374 Y4.90728
G01 X-5.93362 Y4.89879
G01 X-5.93740 Y4.89578
G01 X-5.94824 Y4.88777
G01 X-5.95228 Y4.88502
G01 X-5.96427 Y4.87747
G01 X-5.96857 Y4.87498
G01 X-5.98205 Y4.86782
G01 X-5.99370 Y4.86233
G01 X-6.00683 Y4.85647
G01 X-6.03369 Y4.84376
G01 X-6.04497 Y4.83199
G01 X-6.05583 Y4.81931
G01 X-6.06626 Y4.80570
G01 X-6.07625 Y4.79116
G01 X-6.08581 Y4.77570
G01 X-6.09494 Y4.75931
G01 X-6.11191 Y4.72377
G01 X-6.12715 Y4.68452
G01 X-6.14067 Y4.64157
G01 X-6.15246 Y4.59492
G01 X-6.16253 Y4.54458
G01 X-6.21104 Y4.26947
G01 X-6.22559 Y4.19486
G01 X-6.24352 Y4.11686
G01 X-6.26484 Y4.03548
G01 X-6.28954 Y3.95072
G01 X-6.31762 Y3.86257
G01 X-6.34909 Y3.77103
G01 X-6.38394 Y3.67612
G01 X-6.42218 Y3.57782
G01 X-6.75104 Y2.75425
G01 X-6.84909 Y2.42050
G04 P0 ( dwell for no time -- G64 should not smooth over this point )
G00 Z0.08000 ( retract )

G00 X-7.40254 Y2.53210 ( rapid move to begin. )
G01 F3.00000
( Mill infeed pass 1/1 )
G01 Z-0.00800
G04 P0 ( dwell for no time -- G64 should not smooth over this point )
G01 F6.00000
G01 X-7.40254 Y2.53210
G01 X-7.42519 Y3.47051
G01 X-7.43004 Y3.61374
G01 X-7.43750 Y3.74931
G01 X-7.44217 Y3.81384
G01 X-7.44750 Y3.87676
G01 X-7.45347 Y3.93779
G01 X-7.46008 Y3.99693
G01 X-7.46732 Y4.05416
G01 X-7.47519 Y4.10948
G01 X-7.48368 Y4.16289
G01 X-7.49278 Y4.21438
G01 X-7.50249 Y4.26393
G01 X-7.51281 Y4.31154
G01 X-7.52371 Y4.35721
G01 X-7.53535 Y4.40152
G01 X-7.56972 Y4.52643
G01 X-7.58061 Y4.56880
G01 X-7.59048 Y4.61361
G01 X-7.59842 Y4.65763
G01 X-7.60441 Y4.70088
G01 X-7.60841 Y4.74336
G01 X-7.61039 Y4.78509
G01 X-7.61049 Y4.79008
G01 X-7.61029 Y4.82606
G01 X-7.61013 Y4.83135
G01 X-7.60789 Y4.86902
G01 X-7.58257 Y5.16277
G01 X-7.57840 Y5.20108
G01 X-7.57175 Y5.24456
G01 X-7.52844 Y5.49017
G01 X-7.52242 Y5.52745
G01 X-7.51739 Y5.56527
G01 X-7.51325 Y5.60438
G01 X-7.51001 Y5.64476
G01 X-7.50766 Y5.68641
G01 X-7.50623 Y5.72933
G01 X-7.50572 Y5.77352
G01 X-7.50615 Y5.81945
G01 X-7.52030 Y6.55755
G01 X-7.49027 Y6.63774
G01 X-7.52030 Y6.55755
G01 X-7.66346 Y6.39969
G01 X-7.80148 Y6.24710
G01 X-7.85053 Y6.19394
G01 X-7.89802 Y6.14472
G01 X-7.94942 Y6.09379
G01 X-8.00186 Y6.04448
G01 X-8.05855 Y5.99406
G01 X-8.09885 Y5.95933
G01 X-8.10061 Y5.96047
G01 X-8.09885 Y5.95933
G01 X-8.11589 Y5.90307
G01 X-8.12869 Y5.85998
G01 X-8.13828 Y5.82704
G01 X-8.15485 Y5.76838
G01 X-8.16901 Y5.71621
G01 X-8.18093 Y5.67023
G01 X-8.19136 Y5.62788
G01 X-8.20014 Y5.59006
G01 X-8.20778 Y5.55485
G01 X-8.21432 Y5.52231
G01 X-8.21671 Y5.50968
G01 X-8.22162 Y5.48189
G01 X-8.22583 Y5.45528
G01 X-8.22807 Y5.43959
G01 X-8.23105 Y5.41612
G01 X-8.23340 Y5.39365
G01 X-8.23558 Y5.36641
G01 X-8.23658 Y5.34689
G01 X-8.23773 Y5.31155
G01 X-8.23905 Y5.28380
G01 X-8.24035 Y5.26275
G01 X-8.24299 Y5.22903
G01 X-8.24548 Y5.20322
G01 X-8.24935 Y5.16961
G01 X-8.25260 Y5.14542
G01 X-8.25530 Y5.12722
G01 X-8.25815 Y5.10942
G01 X-8.26128 Y5.09134
G01 X-8.26425 Y5.07533
G01 X-8.29330 Y5.02500
G01 X-8.29516 Y5.02146
G01 X-8.29536 Y5.02155
G01 X-8.29516 Y5.02146
G01 X-8.29727 Y5.01628
G01 X-8.29871 Y5.01129
G01 X-8.29900 Y5.01136
G01 X-8.29871 Y5.01129
G01 X-8.29966 Y5.00578
G01 X-8.30000 Y5.00020
G01 X-8.30028 Y5.00020
G01 X-8.30000 Y5.00020
G01 X-8.29975 Y4.99501
G01 X-8.29904 Y4.99027
G01 X-8.29929 Y4.99022
G01 X-8.29904 Y4.99027
G01 X-8.29777 Y4.98523
G01 X-8.29614 Y4.98073
G01 X-8.29642 Y4.98060
G01 X-8.29614 Y4.98073
G01 X-8.29350 Y4.97535
G01 X-8.26425 Y4.92467
G01 X-8.26116 Y4.90801
G01 X-8.25804 Y4.88992
G01 X-8.25519 Y4.87211
G01 X-8.25163 Y4.84767
G01 X-8.24920 Y4.82916
G01 X-8.24693 Y4.81015
G01 X-8.24345 Y4.77611
G01 X-8.24124 Y4.74960
G01 X-8.23897 Y4.71480
G01 X-8.23768 Y4.68706
G01 X-8.23655 Y4.65240
G01 X-8.23512 Y4.62685
G01 X-8.23333 Y4.60557
G01 X-8.23185 Y4.59111
G01 X-8.22786 Y4.55885
G01 X-8.22413 Y4.53360
G01 X-8.21952 Y4.50589
