( pcb2gcode 2.5.0 )
( Software-independent Gcode )

G94 ( Inches per minute feed rate. )
G20 ( Units == INCHES. )

G90 ( Absolute coordinates. )
G00 S30000 ( RPM spindle speed. )
G64 P0.00040 ( set maximum deviation from commanded toolpath )
G01 F6.00000 ( Feedrate. )


G00 Z1.00000 (Retract to tool change height)
T1
M5      (Spindle stop.)
G04 P1.00000 (Wait for spindle to stop)
(MSG, Change tool bit to mill diameter 0.20000in)
M6      (Tool change.)
M0      (Temporary machine stop.)
M3 ( Spindle on clockwise. )
G04 P1.00000 (Wait for spindle to get up to speed)
G04 P0 ( dwell for no time -- G64 should not smooth over this point )
G00 Z0.08000 ( retract )

G00 X0.33250 Y-0.33250 ( rapid move to begin. )
G01 F3.00000
( Mill infeed pass 1/1 )
G01 Z-0.00800
G04 P0 ( dwell for no time -- G64 should not smooth over this point )
G01 F6.00000
G01 X0.33250 Y-0.33250
G01 X0.33250 Y10.33250
G01 X-10.33250 Y10.33250
G01 X-10.33250 Y-0.33250
G01 X0.33250 Y-0.33250
G04 P0 ( dwell for no time -- G64 should not smooth over this point )
G00 Z0.08000 ( retract )

G00 X-1.20913 Y3.81267 ( rapid move to begin. )
G01 F3.00000
( Mill infeed pass 1/1 )
G01 Z-0.00800
G04 P0 ( dwell for no time -- G64 should not smooth over this point )
G01 F6.00000
G01 X-1.20913 Y3.81267
G01 X-1.28376 Y3.87680
G01 X-1.40372 Y3.97898
G01 X-1.51966 Y4.07655
G01 X-1.54399 Y4.09682
G01 X-1.61001 Y4.15140
G01 X-1.68324 Y4.21096
G01 X-1.74398 Y4.25935
G01 X-1.76176 Y4.27330
G01 X-1.81119 Y4.31144
G01 X-1.85465 Y4.34406
G01 X-1.89364 Y4.37244
G01 X-1.92787 Y4.39652
G01 X-1.95953 Y4.41799
G01 X-1.98843 Y4.43682
G01 X-2.00354 Y4.44634
G01 X-2.02997 Y4.46242
G01 X-2.04193 Y4.46945
G01 X-2.06686 Y4.48355
G01 X-2.10186 Y4.50224
G01 X-2.12400 Y4.51450
G01 X-2.14579 Y4.52726
G01 X-2.16653 Y4.54010
G01 X-2.18711 Y4.55355
G01 X-2.19755 Y4.56065
G01 X-2.21683 Y4.57430
G01 X-2.23537 Y4.58811
G01 X-2.24409 Y4.59486
G01 X-2.26242 Y4.60956
G01 X-2.27198 Y4.61754
G01 X-2.28961 Y4.63282
G01 X-2.30676 Y4.64845
G01 X-2.31444 Y4.65571
G01 X-2.33056 Y4.67149
G01 X-2.34668 Y4.68807
G01 X-2.36243 Y4.70508
G01 X-2.37770 Y4.72243
G01 X-2.39236 Y4.73993
G01 X-2.40698 Y4.75826
G01 X-2.42101 Y4.77678
G01 X-2.43508 Y4.79632
G01 X-2.44886 Y4.81649
G01 X-2.46223 Y4.83716
G01 X-2.47509 Y4.85815
G01 X-2.48787 Y4.88019
G01 X-2.50007 Y4.90246
G01 X-2.51209 Y4.92573
G01 X-2.51789 Y4.93747
G01 X-2.52967 Y4.96247
G01 X-2.54114 Y4.98846
G01 X-2.54722 Y5.00298
G01 X-2.55227 Y5.01547
G01 X-2.56284 Y5.04300
G01 X-2.57321 Y5.07212
G01 X-2.58331 Y5.10283
G01 X-2.58904 Y5.12147
G01 X-2.59302 Y5.13502
G01 X-2.59860 Y5.15490
G01 X-2.60230 Y5.16874
G01 X-2.60763 Y5.18973
G01 X-2.61093 Y5.20340
G01 X-2.61606 Y5.22588
G01 X-2.62323 Y5.26013
G01 X-2.62523 Y5.27891
G01 X-2.62990 Y5.31909
G01 X-2.63459 Y5.35611
G01 X-2.63954 Y5.39256
G01 X-2.64905 Y5.45763
G01 X-2.65783 Y5.51350
G01 X-2.66499 Y5.55700
G01 X-2.68039 Y5.64618
G01 X-2.69536 Y5.72859
G01 X-2.71326 Y5.82337
G01 X-2.73538 Y5.93714
G01 X-2.76366 Y6.07819
G01 X-2.79267 Y6.21971
G01 X-2.84737 Y6.48101
G01 X-2.91535 Y6.79928
G01 X-3.00362 Y7.20753
G01 X-3.06754 Y7.49953
G01 X-3.09422 Y7.49910
G01 X-3.20822 Y7.49566
G01 X-3.32223 Y7.48960
G01 X-3.34278 Y7.48824
G01 X-3.46278 Y7.50522
G01 X-3.58278 Y7.51923
G01 X-3.70278 Y7.53027
G01 X-3.82278 Y7.53834
G01 X-3.94278 Y7.54343
G01 X-4.06278 Y7.54555
G01 X-4.18278 Y7.54470
G01 X-4.30278 Y7.54088
G01 X-4.37890 Y7.55758
G01 X-4.45502 Y7.57303
G01 X-4.53114 Y7.58723
G01 X-4.60726 Y7.60017
G01 X-4.68338 Y7.61186
G01 X-4.75950 Y7.62228
G01 X-4.83562 Y7.63146
G01 X-4.91174 Y7.63937
G01 X-4.98785 Y7.64603
G01 X-5.06397 Y7.65144
G01 X-5.14009 Y7.65559
G01 X-5.21621 Y7.65848
G01 X-5.29233 Y7.66012
G01 X-5.36845 Y7.66050
G01 X-5.44457 Y7.65963
G01 X-5.52069 Y7.65750
G01 X-5.59149 Y7.66778
G01 X-5.66230 Y7.67694
G01 X-5.73310 Y7.68500
G01 X-5.80391 Y7.69194
G01 X-5.87472 Y7.69778
G01 X-5.94552 Y7.70250
G01 X-6.01633 Y7.70611
G01 X-6.08713 Y7.70862
G01 X-6.15794 Y7.71001
G01 X-6.22875 Y7.71029
G01 X-6.29955 Y7.70946
G01 X-6.37036 Y7.70752
G01 X-6.44117 Y7.70447
G01 X-6.51197 Y7.70031
G01 X-6.58278 Y7.69504
G01 X-6.65358 Y7.68866
G01 X-6.70823 Y7.71836
G01 X-6.77471 Y7.75354
G01 X-6.85259 Y7.79344
G01 X-6.90452 Y7.81926
G01 X-6.96766 Y7.84980
G01 X-7.04319 Y7.88509
G01 X-7.09374 Y7.90798
G01 X-7.15573 Y7.93522
G01 X-7.21723 Y7.96135
G01 X-7.27698 Y7.98590
G01 X-7.34959 Y8.01459
G01 X-7.40878 Y8.03707
G01 X-7.46823 Y8.05883
G01 X-7.51461 Y8.07522
G01 X-7.57174 Y8.09473
G01 X-7.62835 Y8.11330
G01 X-7.68539 Y8.13125
G01 X-7.75430 Y8.15192
G01 X-7.81086 Y8.16806
G01 X-7.86662 Y8.18323
G01 X-7.90942 Y8.19438
G01 X-7.96366 Y8.20790
G01 X-8.01776 Y8.22069
G01 X-8.07215 Y8.23287
G01 X-8.12679 Y8.24440
G01 X-8.17996 Y8.25495
G01 X-8.23287 Y8.26478
G01 X-8.27158 Y8.27158
G01 X-8.30809 Y8.24553
G01 X-8.36218 Y8.20635
G01 X-8.42978 Y8.15628
G01 X-8.49421 Y8.10734
G01 X-8.55453 Y8.06035
G01 X-8.61227 Y8.01424
G01 X-8.66608 Y7.97017
G01 X-8.71781 Y7.92675
G01 X-8.76639 Y7.88497
G01 X-8.78058 Y7.87256
G01 X-8.82614 Y7.83210
G01 X-8.85600 Y7.80503
G01 X-8.89759 Y7.76654
G01 X-8.91077 Y7.75414
G01 X-8.94997 Y7.71668
G01 X-8.97471 Y7.69255
G01 X-9.01014 Y7.65730
G01 X-9.04386 Y7.62294
G01 X-9.05544 Y7.61094
G01 X-9.07648 Y7.58889
G01 X-9.10796 Y7.55523
G01 X-9.14801 Y7.51113
G01 X-9.16559 Y7.49132
G01 X-9.19291 Y7.45988
G01 X-9.22856 Y7.41765
G01 X-9.25291 Y7.38794
G01 X-9.26952 Y7.36722
G01 X-9.28549 Y7.34699
G01 X-9.30754 Y7.31842
G01 X-9.32840 Y7.29070
G01 X-9.34867 Y7.26309
G01 X-9.36767 Y7.23653
G01 X-9.38601 Y7.21023
G01 X-9.40384 Y7.18399
G01 X-9.42057 Y7.15872
G01 X-9.43659 Y7.13387
G01 X-9.45193 Y7.10945
G01 X-9.46670 Y7.08530
G01 X-9.48095 Y7.06135
G01 X-9.49484 Y7.03736
G01 X-9.50786 Y7.01422
G01 X-9.52676 Y6.97940
G01 X-9.53883 Y6.95634
G01 X-9.55020 Y6.93395
G01 X-9.56104 Y6.91195
G01 X-9.57138 Y6.89030
G01 X-9.58582 Y6.85889
G01 X-9.59508 Y6.83793
G01 X-9.60404 Y6.81699
G01 X-9.61275 Y6.79591
G01 X-9.62554 Y6.76354
G01 X-9.63315 Y6.74336
G01 X-9.64323 Y6.71540
G01 X-9.65017 Y6.69525
G01 X-9.66063 Y6.66324
G01 X-9.66881 Y6.63656
G01 X-9.67438 Y6.61740
G01 X-9.67979 Y6.59795
G01 X-9.68476 Y6.57914
G01 X-9.68948 Y6.56043
G01 X-9.69678 Y6.52936
G01 X-9.70084 Y6.51076
G01 X-9.70462 Y6.49238
G01 X-9.70941 Y6.46726
G01 X-9.71260 Y6.44912
G01 X-9.71555 Y6.43108
G01 X-9.72004 Y6.40057
G01 X-9.72311 Y6.37666
G01 X-9.72515 Y6.35884
G01 X-9.72697 Y6.34097
G01 X-9.72861 Y6.32272
G01 X-9.72999 Y6.30502
G01 X-9.73114 Y6.28735
G01 X-9.73209 Y6.26959
G01 X-9.73323 Y6.23897
G01 X-9.73359 Y6.22126
G01 X-9.73374 Y6.20362
G01 X-9.73368 Y6.18603
G01 X-9.73340 Y6.16840
G01 X-9.73292 Y6.15079
G01 X-9.73222 Y6.13317
G01 X-9.73094 Y6.10924
G01 X-9.72973 Y6.09144
G01 X-9.72827 Y6.07322
G01 X-9.72537 Y6.04319
G01 X-9.72299 Y6.02238
G01 X-9.72068 Y6.00422
G01 X-9.71817 Y5.98623
G01 X-9.71542 Y5.96810
G01 X-9.71236 Y5.94949
G01 X-9.70914 Y5.93129
G01 X-9.70319 Y5.90053
G01 X-9.69930 Y5.88204
G01 X-9.69518 Y5.86358
G01 X-9.69082 Y5.84505
G01 X-9.68618 Y5.82638
G01 X-9.67925 Y5.80008
G01 X-9.67394 Y5.78105
G01 X-9.66835 Y5.76190
G01 X-9.65851 Y5.73009
G01 X-9.64933 Y5.70225
G01 X-9.64249 Y5.68248
G01 X-9.63533 Y5.66255
G01 X-9.62321 Y5.63043
G01 X-9.61107 Y5.59999
G01 X-9.61742 Y5.58429
G01 X-9.62572 Y5.56306
G01 X-9.63473 Y5.53912
G01 X-9.64128 Y5.52095
G01 X-9.64837 Y5.50056
G01 X-9.65494 Y5.48091
G01 X-9.66133 Y5.46099
G01 X-9.67081 Y5.42975
G01 X-9.67642 Y5.41016
G01 X-9.68177 Y5.39055
G01 X-9.68669 Y5.37162
G01 X-9.69144 Y5.35237
G01 X-9.69593 Y5.33314
G01 X-9.70014 Y5.31402
G01 X-9.70399 Y5.29552
G01 X-9.70884 Y5.27037
G01 X-9.71408 Y5.24022
G01 X-9.71701 Y5.22164
G01 X-9.71969 Y5.20306
G01 X-9.72214 Y5.18450
G01 X-9.72435 Y5.16605
G01 X-9.72627 Y5.14811
G01 X-9.72800 Y5.12984
G01 X-9.72990 Y5.10618
G01 X-9.73110 Y5.08803
G01 X-9.73258 Y5.05834
G01 X-9.73319 Y5.04023
G01 X-9.73365 Y5.01621
G01 X-9.73374 Y4.99802
G01 X-9.73360 Y4.97981
G01 X-9.73324 Y4.96160
G01 X-9.73214 Y4.93147
G01 X-9.73118 Y4.91333
G01 X-9.72960 Y4.88975
G01 X-9.72811 Y4.87142
G01 X-9.72638 Y4.85304
G01 X-9.72443 Y4.83464
G01 X-9.72222 Y4.81613
G01 X-9.71980 Y4.79772
G01 X-9.71536 Y4.76772
G01 X-9.71230 Y4.74913
G01 X-9.70898 Y4.73041
G01 X-9.70423 Y4.70567
G01 X-9.70032 Y4.68678
G01 X-9.69336 Y4.65575
G01 X-9.68874 Y4.63655
G01 X-9.68381 Y4.61720
G01 X-9.67875 Y4.59826
G01 X-9.67329 Y4.57878
G01 X-9.66543 Y4.55225
G01 X-9.65918 Y4.53220
G01 X-9.65266 Y4.51219
G01 X-9.64593 Y4.49233
G01 X-9.63869 Y4.47183
G01 X-9.63110 Y4.45113
G01 X-9.62318 Y4.43037
G01 X-9.61506 Y4.40980
G01 X-9.60639 Y4.38862
G01 X-9.59750 Y4.36764
G01 X-9.58786 Y4.34567
G01 X-9.57186 Y4.31068
G01 X-9.56096 Y4.28789
G01 X-9.55044 Y4.26653
G01 X-9.53350 Y4.23338
G01 X-9.52148 Y4.21071
G01 X-9.50887 Y4.18760
G01 X-9.49535 Y4.16355
G01 X-9.48139 Y4.13940
G01 X-9.45987 Y4.10345
G01 X-9.44445 Y4.07855
G01 X-9.42826 Y4.05313
G01 X-9.41173 Y4.02784
G01 X-9.39420 Y4.00173
G01 X-9.37624 Y3.97567
G01 X-9.35715 Y3.94868
G01 X-9.33708 Y3.92103
G01 X-9.31610 Y3.89287
G01 X-9.29463 Y3.86476
G01 X-9.28199 Y3.84854
G01 X-9.25880 Y3.81935
G01 X-9.23429 Y3.78927
G01 X-9.19837 Y3.74649
G01 X-9.17097 Y3.71482
G01 X-9.15342 Y3.69493
G01 X-9.12355 Y3.66176
G01 X-9.11218 Y3.64936
G01 X-9.08061 Y3.61548
G01 X-9.05983 Y3.59362
G01 X-9.02618 Y3.55894
G01 X-9.01395 Y3.54654
G01 X-8.97746 Y3.51016
G01 X-8.95205 Y3.48533
G01 X-8.91201 Y3.44702
G01 X-8.89883 Y3.43462
G01 X-8.85743 Y3.39628
G01 X-8.82709 Y3.36875
G01 X-8.78098 Y3.32779
G01 X-8.73294 Y3.28615
G01 X-8.68167 Y3.24279
G01 X-8.62798 Y3.19852
G01 X-8.61271 Y3.18612
G01 X-8.55466 Y3.13975
G01 X-8.49416 Y3.09262
G01 X-8.42966 Y3.04363
G01 X-8.36072 Y2.99258
G01 X-8.28720 Y2.93954
G01 X-8.22699 Y2.89710
G01 X-8.20917 Y2.88470
G01 X-8.14585 Y2.84121
G01 X-8.12814 Y2.82921
G01 X-8.05955 Y2.78333
G01 X-8.04077 Y2.77093
G01 X-7.96707 Y2.72292
G01 X-7.94839 Y2.71092
G01 X-7.86952 Y2.66091
G01 X-7.80105 Y2.61830
G01 X-7.74836 Y2.56797
G01 X-7.69446 Y2.51763
G01 X-7.63935 Y2.46730
G01 X-7.58303 Y2.41697
G01 X-7.51236 Y2.42184
G01 X-7.44170 Y2.42775
G01 X-7.37103 Y2.43473
G01 X-7.30036 Y2.44275
G01 X-7.18754 Y2.43319
G01 X-7.07472 Y2.42630
G01 X-6.96191 Y2.42207
G01 X-6.84909 Y2.42050
G01 X-6.76481 Y2.39674
G01 X-6.68053 Y2.37459
G01 X-6.59626 Y2.35405
G01 X-6.51198 Y2.33512
G01 X-6.42770 Y2.31781
G01 X-6.34342 Y2.30211
G01 X-6.25915 Y2.28803
G01 X-6.17487 Y2.27556
G01 X-6.09059 Y2.26470
G01 X-6.00631 Y2.25546
G01 X-5.92203 Y2.24783
G01 X-5.83776 Y2.24181
G01 X-5.75348 Y2.23741
G01 X-5.66920 Y2.23462
G01 X-5.58492 Y2.23345
G01 X-5.50064 Y2.23389
G01 X-5.41637 Y2.23594
G01 X-5.33209 Y2.23961
G01 X-5.24781 Y2.24488
G01 X-5.16353 Y2.25178
G01 X-5.07925 Y2.26028
G01 X-4.99498 Y2.27040
G01 X-4.91070 Y2.28214
G01 X-4.82642 Y2.29548
G01 X-4.74214 Y2.31045
G01 X-4.65787 Y2.32702
G01 X-4.57359 Y2.34521
G01 X-4.48931 Y2.36501
G01 X-4.40503 Y2.38643
G01 X-4.32075 Y2.40945
G01 X-4.23648 Y2.43410
G01 X-4.15220 Y2.46035
G01 X-4.02983 Y2.45582
G01 X-3.90746 Y2.45438
G01 X-3.79804 Y2.41460
G01 X-3.68861 Y2.37765
G01 X-3.57918 Y2.34352
G01 X-3.46976 Y2.31221
G01 X-3.36033 Y2.28373
G01 X-3.25091 Y2.25806
G01 X-3.14148 Y2.23522
G01 X-3.03206 Y2.21520
G01 X-2.92263 Y2.19801
G01 X-2.81320 Y2.18363
G01 X-2.70378 Y2.17208
G01 X-2.59435 Y2.16335
G01 X-2.48493 Y2.15744
G01 X-2.37550 Y2.15435
G01 X-2.26607 Y2.15409
G01 X-2.15665 Y2.15665
G01 X-2.08954 Y2.23008
G01 X-2.02480 Y2.30352
G01 X-1.96242 Y2.37695
G01 X-1.90241 Y2.45039
G01 X-1.84477 Y2.52382
G01 X-1.78950 Y2.59726
G01 X-1.73659 Y2.67069
G01 X-1.68606 Y2.74413
G01 X-1.63788 Y2.81756
G01 X-1.59208 Y2.89100
G01 X-1.54864 Y2.96443
G01 X-1.50757 Y3.03787
G01 X-1.46887 Y3.11130
G01 X-1.43253 Y3.18474
G01 X-1.39856 Y3.25817
G01 X-1.36696 Y3.33161
G01 X-1.34625 Y3.38161
G01 X-1.32458 Y3.43549
G01 X-1.30420 Y3.48937
G01 X-1.28512 Y3.54325
G01 X-1.26733 Y3.59714
G01 X-1.25084 Y3.65102
G01 X-1.23564 Y3.70490
G01 X-1.22174 Y3.75879
G01 X-1.20913 Y3.81267
G01 X-1.18121 Y3.86606
G01 X-1.15315 Y3.92233
G01 X-1.14716 Y3.93473
G01 X-1.12197 Y3.98852
G01 X-1.11653 Y4.00052
G01 X-1.09353 Y4.05293
G01 X-1.08827 Y4.06533
G01 X-1.06704 Y4.11711
G01 X-1.06214 Y4.12951
G01 X-1.04314 Y4.17932
G01 X-1.03874 Y4.19132
G01 X-1.02152 Y4.24001
G01 X-1.01730 Y4.25241
G01 X-1.00174 Y4.30007
G01 X-0.99799 Y4.31207
G01 X-0.98417 Y4.35815
G01 X-0.98073 Y4.37015
G01 X-0.96815 Y4.41614
G01 X-0.96491 Y4.42854
G01 X-0.95355 Y4.47447
G01 X-0.95065 Y4.48687
G01 X-0.94064 Y4.53210
G01 X-0.93806 Y4.54450
G01 X-0.92932 Y4.58929
G01 X-0.92705 Y4.60169
G01 X-0.91967 Y4.64515
G01 X-0.91778 Y4.65716
G01 X-0.91154 Y4.70025
G01 X-0.90990 Y4.71265
G01 X-0.90470 Y4.75599
G01 X-0.90338 Y4.76839
G01 X-0.89929 Y4.81153
G01 X-0.89827 Y4.82393
G01 X-0.89528 Y4.86679
G01 X-0.89457 Y4.87920
G01 X-0.89268 Y4.92122
G01 X-0.89228 Y4.93322
G01 X-0.89142 Y4.97519
G01 X-0.89131 Y4.98760
G01 X-0.89148 Y5.03012
G01 X-0.89169 Y5.04252
G01 X-0.89292 Y5.08523
G01 X-0.89343 Y5.09763
G01 X-0.89572 Y5.14042
G01 X-0.89655 Y5.15282
G01 X-0.89986 Y5.19508
G01 X-0.90095 Y5.20708
G01 X-0.90524 Y5.24886
G01 X-0.90662 Y5.26086
G01 X-0.91206 Y5.30361
G01 X-0.91380 Y5.31601
G01 X-0.92037 Y5.35921
G01 X-0.92235 Y5.37121
G01 X-0.93009 Y5.41487
G01 X-0.93244 Y5.42727
G01 X-0.94155 Y5.47215
G01 X-0.94422 Y5.48455
G01 X-0.95461 Y5.52995
G01 X-0.95761 Y5.54235
G01 X-0.96919 Y5.58781
G01 X-0.97240 Y5.59981
G01 X-0.98540 Y5.64607
G01 X-0.98905 Y5.65848
G01 X-1.00349 Y5.70545
G01 X-1.00734 Y5.71745
G01 X-1.02340 Y5.76546
G01 X-1.02772 Y5.77787
G01 X-1.04574 Y5.82766
G01 X-1.05041 Y5.84006
G01 X-1.07030 Y5.89103
G01 X-1.07532 Y5.90343
G01 X-1.09687 Y5.95487
G01 X-1.10207 Y5.96687
G01 X-1.12572 Y6.01965
G01 X-1.13145 Y6.03205
G01 X-1.15781 Y6.08720
G01 X-1.16392 Y6.09960
G01 X-1.19286 Y6.15648
G01 X-1.19936 Y6.16889
G01 X-1.23103 Y6.22749
G01 X-1.23793 Y6.23989
G01 X-1.27215 Y6.29966
G01 X-1.27922 Y6.31166
G01 X-1.31588 Y6.37224
G01 X-1.32334 Y6.38424
G01 X-1.36429 Y6.44835
G01 X-1.37242 Y6.46075
G01 X-1.41794 Y6.52828
G01 X-1.42652 Y6.54068
G01 X-1.47571 Y6.60992
G01 X-1.48445 Y6.62192
G01 X-1.53850 Y6.69421
G01 X-1.54801 Y6.70661
G01 X-1.60722 Y6.78188
G01 X-1.61690 Y6.79389
G01 X-1.68105 Y6.87150
G01 X-1.69121 Y6.88350
G01 X-1.76294 Y6.96614
G01 X-1.77397 Y6.97854
G01 X-1.85464 Y7.06697
G01 X-1.91036 Y7.12597
G01 X-1.96778 Y7.18497
G01 X-2.01587 Y7.23331
G01 X-2.07752 Y7.29365
G01 X-2.13112 Y7.34496
G01 X-2.19949 Y7.40868
G01 X-2.25903 Y7.46295
G01 X-2.32005 Y7.51722
G01 X-2.33371 Y7.52922
G01 X-2.40713 Y7.59286
G01 X-2.47076 Y7.58748
G01 X-2.58936 Y7.57543
G01 X-2.60176 Y7.57401
G01 X-2.71868 Y7.55922
G01 X-2.73068 Y7.55755
G01 X-2.84893 Y7.53965
G01 X-2.86133 Y7.53762
G01 X-2.98224 Y7.51626
G01 X-3.06754 Y7.49953
G04 P0 ( dwell for no time -- G64 should not smooth over this point )
G00 Z0.08000 ( retract )

G00 X-5.52069 Y7.65750 ( rapid move to begin. )
G01 F3.00000
( Mill infeed pass 1/1 )
G01 Z-0.00800
G04 P0 ( dwell for no time -- G64 should not smooth over this point )
G01 F6.00000
G01 X-5.52069 Y7.65750
G01 X-5.74299 Y5.74299
G01 X-5.74806 Y5.70416
G01 X-5.75414 Y5.66633
G01 X-5.83250 Y5.22196
G01 X-5.83167 Y5.20799
G01 X-5.83073 Y5.18433
G01 X-5.83067 Y5.16155
G01 X-5.83078 Y5.15487
G01 X-5.83271 Y5.11826
G01 X-5.83328 Y5.11204
G01 X-5.83704 Y5.08255
G01 X-5.83801 Y5.07673
G01 X-5.84272 Y5.05342
G01 X-5.84392 Y5.04840
G01 X-5.84939 Y5.02868
G01 X-5.85102 Y5.02352
G01 X-5.85730 Y5.00591
G01 X-5.85924 Y5.00106
G01 X-5.86599 Y4.98582
G01 X-5.86822 Y4.98126
G01 X-5.87538 Y4.96787
G01 X-5.87788 Y4.96358
G01 X-5.88546 Y4.95162
G01 X-5.88823 Y4.94759
G01 X-5.89623 Y4.93682
G01 X-5.89925 Y4.93305
G01 X-5.90778 Y4.92319
G01 X-5.91105 Y4.91967
G01 X-5.92021 Y4.91054
G01 X-5.92374 Y4.90728
G01 X-5.93362 Y4.89879
G01 X-5.93740 Y4.89578
G01 X-5.94824 Y4.88777
G01 X-5.95228 Y4.88502
G01 X-5.96427 Y4.87747
G01 X-5.96857 Y4.87498
G01 X-5.98205 Y4.86782
G01 X-5.99370 Y4.86233
G01 X-6.00683 Y4.85647
G01 X-6.03369 Y4.84376
G01 X-6.04497 Y4.83199
G01 X-6.05583 Y4.81931
G01 X-6.06626 Y4.80570
G01 X-6.07625 Y4.79116
G01 X-6.08581 Y4.77570
G01 X-6.09494 Y4.75931
G01 X-6.11191 Y4.72377
G01 X-6.12715 Y4.68452
G01 X-6.14067 Y4.64157
G01 X-6.15246 Y4.59492
G01 X-6.16253 Y4.54458
G01 X-6.21104 Y4.26947
G01 X-6.22559 Y4.19486
G01 X-6.24352 Y4.11686
G01 X-6.26484 Y4.03548
G01 X-6.28954 Y3.95072
G01 X-6.31762 Y3.86257
G01 X-6.34909 Y3.77103
G01 X-6.38394 Y3.67612
G01 X-6.42218 Y3.57782
G01 X-6.75104 Y2.75425
G01 X-6.84909 Y2.42050
G04 P0 ( dwell for no time -- G64 should not smooth over this point )
G00 Z0.08000 ( retract )

G00 X-7.30036 Y2.44275 ( rapid move to begin. )
G01 F3.00000
( Mill infeed pass 1/1 )
G01 Z-0.00800
G04 P0 ( dwell for no time -- G64 should not smooth over this point )
G01 F6.00000
G01 X-7.30036 Y2.44275
G01 X-7.32523 Y3.47341
G01 X-7.33014 Y3.61818
G01 X-7.33770 Y3.75566
G01 X-7.34248 Y3.82167
G01 X-7.34792 Y3.88585
G01 X-7.35402 Y3.94822
G01 X-7.36078 Y4.00876
G01 X-7.36821 Y4.06748
G01 X-7.37630 Y4.12437
G01 X-7.38506 Y4.17945
G01 X-7.39447 Y4.23270
G01 X-7.40455 Y4.28413
G01 X-7.41530 Y4.33374
G01 X-7.42671 Y4.38153
G01 X-7.43878 Y4.42749
G01 X-7.47286 Y4.55132
G01 X-7.48375 Y4.59369
G01 X-7.49279 Y4.63499
G01 X-7.49998 Y4.67523
G01 X-7.50533 Y4.71440
G01 X-7.50883 Y4.75251
G01 X-7.51049 Y4.78955
G01 X-7.51030 Y4.82552
G01 X-7.50826 Y4.86043
G01 X-7.48294 Y5.15419
G01 X-7.47900 Y5.19018
G01 X-7.47327 Y5.22719
G01 X-7.42983 Y5.47352
G01 X-7.42348 Y5.51289
G01 X-7.41809 Y5.55342
G01 X-7.41368 Y5.59510
G01 X-7.41024 Y5.63794
G01 X-7.40776 Y5.68194
G01 X-7.40626 Y5.72709
G01 X-7.40572 Y5.77340
G01 X-7.40616 Y5.82086
G01 X-7.41343 Y6.20017
G01 X-7.37461 Y6.26333
G01 X-7.32989 Y6.33464
G01 X-7.29380 Y6.39121
G01 X-7.24196 Y6.47114
G01 X-7.19967 Y6.53534
G01 X-7.16494 Y6.58747
G01 X-7.13611 Y6.63040
G01 X-7.09563 Y6.69016
G01 X-7.03292 Y6.78167
G01 X-7.01876 Y6.81340
G01 X-6.99796 Y6.86095
G01 X-6.97065 Y6.92523
G01 X-6.94298 Y6.99267
G01 X-6.90911 Y7.07693
G01 X-6.87950 Y7.14988
G01 X-6.84823 Y7.22620
G01 X-6.81403 Y7.30890
G01 X-6.77776 Y7.39585
G01 X-6.73926 Y7.48738
G01 X-6.69794 Y7.58483
G01 X-6.65358 Y7.68866
G04 P0 ( dwell for no time -- G64 should not smooth over this point )
G00 Z0.08000 ( retract )

G00 X-7.41343 Y6.20017 ( rapid move to begin. )
G01 F3.00000
( Mill infeed pass 1/1 )
G01 Z-0.00800
G04 P0 ( dwell for no time -- G64 should not smooth over this point )
G01 F6.00000
G01 X-7.41343 Y6.20017
G01 X-7.45595 Y6.17305
G01 X-7.49263 Y6.14943
G01 X-7.56028 Y6.10528
G01 X-7.59075 Y6.08512
G01 X-7.63449 Y6.05585
G01 X-7.69099 Y6.01735
G01 X-7.72896 Y5.99099
G01 X-7.75072 Y5.97568
G01 X-7.78475 Y5.95142
G01 X-7.82999 Y5.91848
G01 X-7.85973 Y5.89636
G01 X-7.88870 Y5.87451
G01 X-7.91666 Y5.85383
G01 X-7.93178 Y5.84286
G01 X-7.95847 Y5.82388
G01 X-7.99676 Y5.79749
G01 X-8.03599 Y5.77148
G01 X-8.07366 Y5.74748
G01 X-8.09855 Y5.73215
G01 X-8.15869 Y5.69604
G01 X-8.18151 Y5.68183
G01 X-8.20337 Y5.66781
G01 X-8.22409 Y5.65413
G01 X-8.25488 Y5.63304
G01 X-8.27394 Y5.61948
G01 X-8.30036 Y5.60001
G01 X-8.30879 Y5.56010
G01 X-8.31251 Y5.54126
G01 X-8.31820 Y5.51036
G01 X-8.32306 Y5.48101
G01 X-8.32476 Y5.46988
G01 X-8.32845 Y5.44332
G01 X-8.33137 Y5.41871
G01 X-8.33295 Y5.40318
G01 X-8.33485 Y5.38033
G01 X-8.33619 Y5.35799
G01 X-8.33792 Y5.30917
G01 X-8.33971 Y5.27577
G01 X-8.34108 Y5.25620
G01 X-8.34263 Y5.23744
G01 X-8.34437 Y5.21911
G01 X-8.34636 Y5.20056
G01 X-8.34855 Y5.18227
G01 X-8.35093 Y5.16430
G01 X-8.35341 Y5.14713
G01 X-8.35614 Y5.12980
G01 X-8.35905 Y5.11270
G01 X-8.36204 Y5.09633
G01 X-8.36930 Y5.06006
G01 X-8.37143 Y5.04743
G01 X-8.37340 Y5.03167
G01 X-8.37459 Y5.01603
G01 X-8.37500 Y5.00097
G01 X-8.37469 Y4.98597
G01 X-8.37361 Y4.97045
G01 X-8.37175 Y4.95475
G01 X-8.36918 Y4.93931
G01 X-8.36193 Y4.90306
G01 X-8.35894 Y4.88669
G01 X-8.35604 Y4.86958
G01 X-8.35331 Y4.85218
G01 X-8.35076 Y4.83448
G01 X-8.34840 Y4.81657
G01 X-8.34628 Y4.79877
G01 X-8.34430 Y4.78014
G01 X-8.34252 Y4.76125
G01 X-8.34000 Y4.72873
G01 X-8.33880 Y4.70893
G01 X-8.33785 Y4.68933
G01 X-8.33648 Y4.64849
G01 X-8.33536 Y4.62721
G01 X-8.33286 Y4.59596
G01 X-8.33023 Y4.57113
G01 X-8.32691 Y4.54509
G01 X-8.32291 Y4.51799
G01 X-8.32009 Y4.50065
G01 X-8.31484 Y4.47102
G01 X-8.30860 Y4.43899
G01 X-8.30545 Y4.42374
G01 X-8.29805 Y4.38957
G01 X-8.29238 Y4.36479
G01 X-8.28250 Y4.32373
G01 X-8.27699 Y4.30174
G01 X-8.26430 Y4.25301
G01 X-8.24950 Y4.19871
G01 X-8.24214 Y4.17251
G01 X-8.22455 Y4.11151
G01 X-8.20373 Y4.04165
G01 X-8.17896 Y3.96098
G01 X-8.15037 Y3.87022
G01 X-8.11671 Y3.76556
G01 X-8.09090 Y3.68395
G01 X-8.07850 Y3.64391
G01 X-8.04902 Y3.54656
G01 X-8.03662 Y3.50468
G01 X-8.00407 Y3.39219
G01 X-7.99207 Y3.34977
G01 X-7.95546 Y3.21721
G01 X-7.94306 Y3.17124
G01 X-7.90133 Y3.01257
G01 X-7.87500 Y2.90951
G01 X-7.82659 Y2.71819
G01 X-7.80105 Y2.61830
G04 P0 ( dwell for no time -- G64 should not smooth over this point )
G00 Z0.08000 ( retract )

G00 X-8.85224 Y4.73895 ( rapid move to begin. )
G01 F3.00000
( Mill infeed pass 1/1 )
G01 Z-0.00800
G04 P0 ( dwell for no time -- G64 should not smooth over this point )
G01 F6.00000
G01 X-8.85224 Y4.73895
G01 X-8.98706 Y4.85207
G01 X-9.10018 Y4.71725
G01 X-9.08833 Y4.71331
G01 X-9.08142 Y4.71127
G01 X-9.06748 Y4.70769
G01 X-9.05337 Y4.70479
G01 X-9.03917 Y4.70258
G01 X-9.02453 Y4.70101
G01 X-9.01735 Y4.70051
G01 X-9.00296 Y4.70002
G01 X-8.98824 Y4.70024
G01 X-8.97392 Y4.70114
G01 X-8.95928 Y4.70278
G01 X-8.94507 Y4.70508
G01 X-8.93066 Y4.70813
G01 X-8.91676 Y4.71178
G01 X-8.90987 Y4.71387
G01 X-8.89594 Y4.71863
G01 X-8.88258 Y4.72394
G01 X-8.86947 Y4.72989
G01 X-8.86303 Y4.73310
G01 X-8.85224 Y4.73895
G04 P0 ( dwell for no time -- G64 should not smooth over this point )
G00 Z0.08000 ( retract )

G00 X-8.70002 Y4.99714 ( rapid move to begin. )
G01 F3.00000
( Mill infeed pass 1/1 )
G01 Z-0.00800
G04 P0 ( dwell for no time -- G64 should not smooth over this point )
G01 F6.00000
G01 X-8.70002 Y4.99714
G01 X-8.70019 Y4.98959
G01 X-8.70103 Y4.97524
G01 X-8.70256 Y4.96093
G01 X-8.70477 Y4.94672
G01 X-8.70621 Y4.93931
G01 X-8.70945 Y4.92531
G01 X-8.71337 Y4.91145
G01 X-8.71725 Y4.89981
G01 X-8.85207 Y5.01294
G01 X-8.73894 Y5.14776
G01 X-8.73300 Y5.13677
G01 X-8.72979 Y5.13033
G01 X-8.72674 Y5.12380
G01 X-8.72112 Y5.11055
G01 X-8.71613 Y5.09704
G01 X-8.71390 Y5.09022
G01 X-8.70981 Y5.07608
G01 X-8.70807 Y5.06909
G01 X-8.70509 Y5.05500
G01 X-8.70275 Y5.04047
G01 X-8.70115 Y5.02621
G01 X-8.70059 Y5.01868
G01 X-8.70004 Y5.00432
G01 X-8.70002 Y4.99714
G04 P0 ( dwell for no time -- G64 should not smooth over this point )
G00 Z0.08000 ( retract )

G00 X-9.14793 Y4.98706 ( rapid move to begin. )
G01 F3.00000
( Mill infeed pass 1/1 )
G01 Z-0.00800
G04 P0 ( dwell for no time -- G64 should not smooth over this point )
G01 F6.00000
G01 X-9.14793 Y4.98706
G01 X-9.28275 Y5.10019
G01 X-9.28666 Y5.08842
G01 X-9.28880 Y5.08118
G01 X-9.29236 Y5.06726
G01 X-9.29525 Y5.05315
G01 X-9.29746 Y5.03892
G01 X-9.29830 Y5.03177
G01 X-9.29949 Y5.01742
G01 X-9.29998 Y5.00303
G01 X-9.29978 Y4.98866
G01 X-9.29886 Y4.97399
G01 X-9.29723 Y4.95936
G01 X-9.29493 Y4.94514
G01 X-9.29353 Y4.93808
G01 X-9.29022 Y4.92407
G01 X-9.28625 Y4.91023
G01 X-9.28150 Y4.89629
G01 X-9.27608 Y4.88263
G01 X-9.27014 Y4.86954
G01 X-9.26693 Y4.86309
G01 X-9.26106 Y4.85224
G01 X-9.14793 Y4.98706
G04 P0 ( dwell for no time -- G64 should not smooth over this point )
G00 Z0.08000 ( retract )

G00 X-8.89981 Y5.28275 ( rapid move to begin. )
G01 F3.00000
( Mill infeed pass 1/1 )
G01 Z-0.00800
G04 P0 ( dwell for no time -- G64 should not smooth over this point )
G01 F6.00000
G01 X-8.89981 Y5.28275
G01 X-9.01294 Y5.14793
G01 X-9.14776 Y5.26106
G01 X-9.13684 Y5.26696
G01 X-9.13039 Y5.27017
G01 X-9.11728 Y5.27612
G01 X-9.10359 Y5.28154
G01 X-9.08999 Y5.28618
G01 X-9.07615 Y5.29017
G01 X-9.06214 Y5.29349
G01 X-9.05510 Y5.29489
G01 X-9.04057 Y5.29724
G01 X-9.02628 Y5.29884
G01 X-9.01159 Y5.29977
G01 X-8.99719 Y5.29998
G01 X-8.98280 Y5.29950
G01 X-8.96845 Y5.29833
G01 X-8.96130 Y5.29749
G01 X-8.94675 Y5.29523
G01 X-8.93269 Y5.29234
G01 X-8.91843 Y5.28869
G01 X-8.91153 Y5.28665
G01 X-8.89981 Y5.28275
G04 P0 ( dwell for no time -- G64 should not smooth over this point )
G00 Z0.08000 ( retract )

G00 X-8.86148 Y5.60006 ( rapid move to begin. )
G01 F3.00000
( Mill infeed pass 1/1 )
G01 Z-0.00800
G04 P0 ( dwell for no time -- G64 should not smooth over this point )
G01 F6.00000
G01 X-8.86148 Y5.60006
G01 X-8.30036 Y5.60001
G04 P0 ( dwell for no time -- G64 should not smooth over this point )
G00 Z0.08000 ( retract )

G00 X-9.26952 Y7.36722 ( rapid move to begin. )
G01 F3.00000
( Mill infeed pass 1/1 )
G01 Z-0.00800
G04 P0 ( dwell for no time -- G64 should not smooth over this point )
G01 F6.00000
G01 X-9.26952 Y7.36722
G01 X-9.02054 Y6.28896
G01 X-9.02754 Y6.28697
G01 X-9.03170 Y6.28555
G01 X-9.03954 Y6.28223
G01 X-9.04703 Y6.27818
G01 X-9.05431 Y6.27331
G01 X-9.06091 Y6.26793
G01 X-9.06697 Y6.26196
G01 X-9.06986 Y6.25867
G01 X-9.07260 Y6.25525
G01 X-9.07741 Y6.24827
G01 X-9.07968 Y6.24444
G01 X-9.08159 Y6.24081
G01 X-9.08335 Y6.23711
G01 X-9.08503 Y6.23303
G01 X-9.08654 Y6.22892
G01 X-9.08782 Y6.22473
G01 X-9.08892 Y6.22045
G01 X-9.08976 Y6.21629
G01 X-9.09039 Y6.21239
G01 X-9.09092 Y6.20738
G01 X-9.09116 Y6.20391
G01 X-9.09120 Y6.19840
G01 X-9.09111 Y6.19508
G01 X-9.09060 Y6.18943
G01 X-9.09026 Y6.18663
G01 X-9.08897 Y6.17946
G01 X-9.72419 Y6.03279
G04 P0 ( dwell for no time -- G64 should not smooth over this point )
G00 Z0.08000 ( retract )

G00 X-9.61107 Y5.59999 ( rapid move to begin. )
G01 F3.00000
( Mill infeed pass 1/1 )
G01 Z-0.00800
G04 P0 ( dwell for no time -- G64 should not smooth over this point )
G01 F6.00000
G01 X-9.61107 Y5.59999
G01 X-8.86148 Y5.60006
G01 X-8.97946 Y6.11103
G01 X-8.98887 Y6.10947
G01 X-8.99507 Y6.10889
G01 X-8.99785 Y6.10881
G01 X-9.00391 Y6.10884
G01 X-9.00681 Y6.10903
G01 X-9.01239 Y6.10960
G01 X-9.01575 Y6.11015
G01 X-9.02045 Y6.11108
G01 X-9.02473 Y6.11219
G01 X-9.02891 Y6.11346
G01 X-9.03303 Y6.11496
G01 X-9.03711 Y6.11665
G01 X-9.04081 Y6.11841
G01 X-9.04828 Y6.12258
G01 X-9.05525 Y6.12739
G01 X-9.06196 Y6.13302
G01 X-9.06794 Y6.13909
G01 X-9.07331 Y6.14569
G01 X-9.07818 Y6.15297
G01 X-9.08223 Y6.16045
G01 X-9.08555 Y6.16829
G01 X-9.08697 Y6.17246
G01 X-9.08897 Y6.17946
G01 X-9.09026 Y6.18663
G01 X-9.09111 Y6.19508
G01 X-9.09116 Y6.20391
G01 X-9.09039 Y6.21239
G01 X-9.08892 Y6.22045
G01 X-9.08701 Y6.22738
G01 X-9.08503 Y6.23303
G01 X-9.08335 Y6.23711
G01 X-9.08163 Y6.24073
G01 X-9.07968 Y6.24444
G01 X-9.07741 Y6.24827
G01 X-9.07260 Y6.25525
G01 X-9.06986 Y6.25867
G01 X-9.06697 Y6.26196
G01 X-9.06389 Y6.26512
G01 X-9.06091 Y6.26793
G01 X-9.05779 Y6.27059
G01 X-9.05263 Y6.27450
G01 X-9.04703 Y6.27818
G01 X-9.03954 Y6.28223
G01 X-9.03170 Y6.28555
G01 X-9.02754 Y6.28697
G01 X-9.02054 Y6.28896
G01 X-9.01337 Y6.29026
G01 X-9.00492 Y6.29111
G01 X-8.99608 Y6.29116
G01 X-8.98761 Y6.29040
G01 X-8.97955 Y6.28892
G01 X-8.97550 Y6.28787
G01 X-8.97108 Y6.28653
G01 X-8.96696 Y6.28503
G01 X-8.96289 Y6.28335
G01 X-8.95876 Y6.28137
G01 X-8.95172 Y6.27742
G01 X-8.94833 Y6.27519
G01 X-8.94474 Y6.27260
G01 X-8.94133 Y6.26986
G01 X-8.93804 Y6.26697
G01 X-8.93488 Y6.26389
G01 X-8.93067 Y6.25928
G01 X-8.92669 Y6.25431
G01 X-8.92181 Y6.24703
G01 X-8.91777 Y6.23954
G01 X-8.91444 Y6.23170
G01 X-8.91303 Y6.22754
G01 X-8.91103 Y6.22054
G01 X-8.90974 Y6.21337
G01 X-8.90889 Y6.20492
G01 X-8.90880 Y6.19840
G01 X-8.90907 Y6.19262
G01 X-8.90960 Y6.18761
G01 X-8.91026 Y6.18356
G01 X-8.91108 Y6.17955
G01 X-8.91299 Y6.17261
G01 X-8.91476 Y6.16749
G01 X-8.91665 Y6.16289
G01 X-8.92032 Y6.15556
G01 X-8.92481 Y6.14833
G01 X-8.92740 Y6.14475
G01 X-8.93013 Y6.14133
G01 X-8.93379 Y6.13725
G01 X-8.93909 Y6.13206
G01 X-8.94568 Y6.12669
G01 X-8.95297 Y6.12181
G01 X-8.96045 Y6.11777
G01 X-8.96829 Y6.11444
G01 X-8.97246 Y6.11303
G01 X-8.97946 Y6.11103
G01 X-8.97246 Y6.11303
G01 X-8.96829 Y6.11444
G01 X-8.96045 Y6.11777
G01 X-8.95297 Y6.12181
G01 X-8.94568 Y6.12669
G01 X-8.93909 Y6.13206
G01 X-8.93303 Y6.13804
G01 X-8.93013 Y6.14133
G01 X-8.92740 Y6.14475
G01 X-8.92259 Y6.15172
G01 X-8.92032 Y6.15556
G01 X-8.91841 Y6.15919
G01 X-8.91665 Y6.16289
G01 X-8.91496 Y6.16697
G01 X-8.91346 Y6.17108
G01 X-8.91218 Y6.17527
G01 X-8.91108 Y6.17955
G01 X-8.91024 Y6.18371
G01 X-8.90960 Y6.18761
G01 X-8.90907 Y6.19262
G01 X-8.90884 Y6.19608
G01 X-8.90879 Y6.20160
G01 X-8.90889 Y6.20492
G01 X-8.90940 Y6.21056
G01 X-8.90974 Y6.21337
G01 X-8.91103 Y6.22054
G01 X-7.13611 Y6.63040
G01 X-7.09563 Y6.69016
G01 X-7.03292 Y6.78167
G01 X-6.98015 Y6.57480
G01 X-6.93405 Y6.38222
G01 X-6.91350 Y6.29129
G01 X-6.89461 Y6.20395
G01 X-6.87740 Y6.12017
G01 X-6.86185 Y6.03997
G01 X-6.84797 Y5.96335
G01 X-6.83575 Y5.89030
G01 X-6.82520 Y5.82082
G01 X-6.81632 Y5.75492
G01 X-6.80911 Y5.69260
G01 X-6.80356 Y5.63385
G01 X-6.79968 Y5.57868
G01 X-6.79747 Y5.52708
G01 X-6.78999 Y5.25688
G01 X-6.78891 Y5.23951
G01 X-6.78664 Y5.22234
G01 X-6.78318 Y5.20539
G01 X-6.77853 Y5.18865
G01 X-6.66818 Y4.83866
G01 X-6.66340 Y4.82211
G01 X-6.65939 Y4.80520
G01 X-6.65615 Y4.78793
G01 X-6.65368 Y4.77030
G01 X-6.65104 Y4.73397
G01 X-6.65148 Y4.69621
G01 X-6.75104 Y2.75425
G04 P0 ( dwell for no time -- G64 should not smooth over this point )
G00 Z0.08000 ( retract )

G00 X-4.15220 Y2.46035 ( rapid move to begin. )
G01 F3.00000
( Mill infeed pass 1/1 )
G01 Z-0.00800
G04 P0 ( dwell for no time -- G64 should not smooth over this point )
G01 F6.00000
G01 X-4.15220 Y2.46035
G01 X-4.35654 Y3.22517
G01 X-4.39013 Y3.35627
G01 X-4.41980 Y3.48344
G01 X-4.44555 Y3.60668
G01 X-4.46737 Y3.72601
G01 X-4.47681 Y3.78420
G01 X-4.48527 Y3.84142
G01 X-4.49275 Y3.89765
G01 X-4.49925 Y3.95290
G01 X-4.50477 Y4.00717
G01 X-4.50931 Y4.06046
G01 X-4.51287 Y4.11277
G01 X-4.51545 Y4.16410
G01 X-4.50360 Y4.29636
G01 X-4.49998 Y4.34332
G01 X-4.50001 Y4.63577
G01 X-4.50594 Y4.69648
G01 X-4.51996 Y4.81214
G01 X-4.52963 Y4.89562
G01 X-4.53403 Y4.93514
G01 X-4.54230 Y5.01245
G01 X-4.54963 Y5.08535
G01 X-4.55441 Y5.13508
G01 X-4.56002 Y5.19677
G01 X-4.56672 Y5.27445
G01 X-4.57361 Y5.35918
G01 X-4.58112 Y5.45630
G01 X-4.58823 Y5.55287
G01 X-4.59121 Y5.58902
G01 X-4.59528 Y5.63063
G01 X-4.60468 Y5.71848
G01 X-4.60237 Y5.76879
G01 X-4.59895 Y5.82020
G01 X-4.59441 Y5.87273
G01 X-4.58877 Y5.92637
G01 X-4.58201 Y5.98112
G01 X-4.57414 Y6.03698
G01 X-4.56515 Y6.09396
G01 X-4.55506 Y6.15205
G01 X-4.30278 Y7.54088
G04 P0 ( dwell for no time -- G64 should not smooth over this point )
G00 Z0.08000 ( retract )

G00 X-3.34278 Y7.48824 ( rapid move to begin. )
G01 F3.00000
( Mill infeed pass 1/1 )
G01 Z-0.00800
G04 P0 ( dwell for no time -- G64 should not smooth over this point )
G01 F6.00000
G01 X-3.34278 Y7.48824
G01 X-3.40496 Y6.75462
G01 X-3.44284 Y6.31240
G01 X-3.46620 Y6.04347
G01 X-3.48212 Y5.86284
G01 X-3.49608 Y5.70725
G01 X-3.50002 Y5.65668
G01 X-3.50000 Y5.36421
G01 X-3.49517 Y5.31324
G01 X-3.47958 Y5.18401
G01 X-3.46760 Y5.07975
G01 X-3.45798 Y4.99030
G01 X-3.44867 Y4.89724
G01 X-3.43992 Y4.80242
G01 X-3.43062 Y4.69316
G01 X-3.42001 Y4.55827
G01 X-3.41161 Y4.44482
G01 X-3.41161 Y4.37626
G01 X-3.41302 Y4.29971
G01 X-3.41725 Y4.22035
G01 X-3.42431 Y4.13816
G01 X-3.43419 Y4.05316
G01 X-3.44689 Y3.96533
G01 X-3.46241 Y3.87467
G01 X-3.48076 Y3.78120
G01 X-3.50192 Y3.68490
G01 X-3.52591 Y3.58578
G01 X-3.55272 Y3.48384
G01 X-3.58236 Y3.37908
G01 X-3.61481 Y3.27149
G01 X-3.65009 Y3.16108
G01 X-3.68819 Y3.04785
G01 X-3.72912 Y2.93180
G01 X-3.77286 Y2.81292
G01 X-3.90746 Y2.45438

G04 P0 ( dwell for no time -- G64 should not smooth over this point )
G00 Z1.000000 ( retract )

M5 ( Spindle off. )
G04 P1.000000
M9 ( Coolant off. )
M2 ( Program end. )

