( pcb2gcode 3.0.1 )
( Software-independent Gcode )

G94 ( Inches per minute feed rate. )
G20 ( Units == INCHES. )

G90 ( Absolute coordinates. )
G00 S12000 ( RPM spindle speed. )
G64 P0.00040 ( set maximum deviation from commanded toolpath )
G01 F360.00000 ( Feedrate. )


G00 Z1.00000 (Retract to tool change height)
T1
M5      (Spindle stop.)
G04 P1.00000 (Wait for spindle to stop)
(MSG, Change tool bit to mill diameter 0.03937in)
M6      (Tool change.)
M0      (Temporary machine stop.)
M3 ( Spindle on clockwise. )
G04 P1.00000 (Wait for spindle to get up to speed)
G04 P0 ( dwell for no time -- G64 should not smooth over this point )
G00 Z0.08000 ( retract )

G00 X-5.52759 Y-4.16786 ( rapid move to begin. )
G01 F180.00000
( Mill infeed pass 1/1 )
G01 Z-0.04000
G04 P0 ( dwell for no time -- G64 should not smooth over this point )
G01 F360.00000
G01 X-5.52759 Y-4.16786
G01 X-5.55691 Y-4.15572
G01 X-5.98271 Y-3.72984
G01 X-5.98578 Y-3.72605
G01 X-5.98804 Y-3.72267
G01 X-5.99012 Y-3.71871
G01 X-5.99168 Y-3.71495
G01 X-5.99297 Y-3.71067
G01 X-5.99377 Y-3.70668
G01 X-5.99423 Y-3.70183
G01 X-5.99423 Y-3.69776
G01 X-5.99381 Y-3.69372
G01 X-5.99274 Y-3.68855
G01 X-5.99154 Y-3.68466
G01 X-5.99012 Y-3.68129
G01 X-5.98804 Y-3.67733
G01 X-5.98578 Y-3.67395
G01 X-5.98271 Y-3.67016
G01 X-5.97923 Y-3.66675
G01 X-5.97572 Y-3.66398
G01 X-5.97267 Y-3.66196
G01 X-5.96871 Y-3.65987
G01 X-5.96534 Y-3.65846
G01 X-5.96185 Y-3.65736
G01 X-5.95709 Y-3.65629
G01 X-5.95345 Y-3.65586
G01 X-5.94898 Y-3.65573
G01 X-5.94493 Y-3.65602
G01 X-5.94052 Y-3.65676
G01 X-5.93659 Y-3.65780
G01 X-5.93278 Y-3.65921
G01 X-5.92946 Y-3.66077
G01 X-5.92631 Y-3.66263
G01 X-5.92234 Y-3.66546
G01 X-5.91956 Y-3.66784
G01 X-5.41813 Y-4.16926
G01 X-5.41526 Y-4.17259
G01 X-5.41233 Y-4.17687
G01 X-5.41053 Y-4.17998
G01 X-5.40886 Y-4.18361
G01 X-5.40757 Y-4.18739
G01 X-5.40675 Y-4.19089
G01 X-5.40593 Y-4.19601
G01 X-5.40572 Y-4.20040
G01 X-5.42539 Y-4.20027
G01 X-5.42553 Y-4.19787
G01 X-5.42605 Y-4.19473
G01 X-5.42650 Y-4.19278
G01 X-5.42714 Y-4.19089
G01 X-5.42836 Y-4.18837
G01 X-5.43008 Y-4.18569
G01 X-5.43126 Y-4.18408
G01 X-5.43260 Y-4.18260
G01 X-5.93260 Y-3.68260
G01 X-5.93443 Y-3.68099
G01 X-5.93673 Y-3.67932
G01 X-5.93847 Y-3.67827
G01 X-5.94031 Y-3.67739
G01 X-5.94259 Y-3.67654
G01 X-5.94456 Y-3.67602
G01 X-5.94777 Y-3.67550
G01 X-5.95020 Y-3.67540
G01 X-5.95385 Y-3.67570
G01 X-5.95740 Y-3.67655
G01 X-5.96007 Y-3.67755
G01 X-5.96328 Y-3.67929
G01 X-5.96651 Y-3.68176
G01 X-5.96850 Y-3.68380
G01 X-5.97093 Y-3.68706
G01 X-5.97261 Y-3.69030
G01 X-5.97367 Y-3.69338
G01 X-5.97450 Y-3.69776
G01 X-5.97459 Y-3.70061
G01 X-5.97423 Y-3.70425
G01 X-5.97320 Y-3.70818
G01 X-5.97191 Y-3.71116
G01 X-5.97048 Y-3.71362
G01 X-5.96823 Y-3.71651
G01 X-5.50940 Y-4.17539
G01 X-6.05162 Y-4.17546
G01 X-6.05564 Y-4.17608
G01 X-6.05837 Y-4.17686
G01 X-6.06206 Y-4.17857
G01 X-6.06446 Y-4.18010
G01 X-6.06780 Y-4.18306
G01 X-6.06966 Y-4.18521
G01 X-6.07120 Y-4.18761
G01 X-6.07314 Y-4.19163
G01 X-6.07400 Y-4.19476
G01 X-6.07457 Y-4.19878
G01 X-6.07454 Y-4.20162
G01 X-6.07395 Y-4.20564
G01 X-6.07311 Y-4.20836
G01 X-6.07144 Y-4.21207
G01 X-6.06986 Y-4.21443
G01 X-6.06696 Y-4.21782
G01 X-6.06542 Y-4.21915
G01 X-6.06311 Y-4.22081
G01 X-6.06135 Y-4.22183
G01 X-6.05913 Y-4.22284
G01 X-6.05564 Y-4.22392
G01 X-6.05243 Y-4.22445
G01 X-6.05041 Y-4.22460
G01 X-5.44960 Y-4.22460
G01 X-5.44721 Y-4.22441
G01 X-5.44408 Y-4.22380
G01 X-5.44215 Y-4.22330
G01 X-5.44028 Y-4.22260
G01 X-5.43848 Y-4.22172
G01 X-5.43679 Y-4.22066
G01 X-5.43420 Y-4.21881
G01 X-5.43241 Y-4.21721
G01 X-5.43084 Y-4.21540
G01 X-5.42924 Y-4.21311
G01 X-5.42820 Y-4.21140
G01 X-5.42735 Y-4.20960
G01 X-5.42657 Y-4.20733
G01 X-5.42583 Y-4.20423
G01 X-5.42551 Y-4.20226
G01 X-5.42539 Y-4.20027
G01 X-5.40572 Y-4.20040
G01 X-5.40591 Y-4.20399
G01 X-5.40635 Y-4.20716
G01 X-5.40740 Y-4.21182
G01 X-5.40832 Y-4.21489
G01 X-5.40964 Y-4.21823
G01 X-5.41107 Y-4.22109
G01 X-5.41273 Y-4.22382
G01 X-5.41550 Y-4.22773
G01 X-5.41785 Y-4.23045
G01 X-5.42044 Y-4.23295
G01 X-5.42325 Y-4.23520
G01 X-5.42719 Y-4.23790
G01 X-5.43033 Y-4.23966
G01 X-5.43361 Y-4.24114
G01 X-5.43740 Y-4.24241
G01 X-5.44206 Y-4.24347
G01 X-5.44561 Y-4.24404
G01 X-5.44880 Y-4.24427
G01 X-6.05081 Y-4.24428
G01 X-6.05527 Y-4.24393
G01 X-6.06047 Y-4.24300
G01 X-6.06476 Y-4.24175
G01 X-6.06890 Y-4.24004
G01 X-6.07284 Y-4.23793
G01 X-6.07686 Y-4.23518
G01 X-6.08029 Y-4.23230
G01 X-6.08310 Y-4.22937
G01 X-6.08683 Y-4.22455
G01 X-6.08951 Y-4.21999
G01 X-6.09069 Y-4.21741
G01 X-6.09200 Y-4.21399
G01 X-6.09283 Y-4.21126
G01 X-6.09345 Y-4.20849
G01 X-6.09421 Y-4.20244
G01 X-6.09428 Y-4.19959
G01 X-6.09415 Y-4.19675
G01 X-6.09309 Y-4.18993
G01 X-6.09238 Y-4.18717
G01 X-6.09147 Y-4.18447
G01 X-6.09019 Y-4.18148
G01 X-6.08850 Y-4.17824
G01 X-6.08568 Y-4.17378
G01 X-6.08392 Y-4.17154
G01 X-6.08200 Y-4.16943
G01 X-6.07719 Y-4.16507
G01 X-6.07490 Y-4.16338
G01 X-6.07249 Y-4.16186
G01 X-6.06666 Y-4.15898
G01 X-6.06165 Y-4.15729
G01 X-6.05567 Y-4.15613
G01 X-6.05284 Y-4.15582
G01 X-6.05000 Y-4.15572
G01 X-5.55691 Y-4.15572

G00 Z1.00000 (Retract to tool change height)
T2
M5      (Spindle stop.)
G04 P1.00000 (Wait for spindle to stop)
(MSG, Change tool bit to mill diameter 0.00394in)
M6      (Tool change.)
M0      (Temporary machine stop.)
M3 ( Spindle on clockwise. )
G04 P1.00000 (Wait for spindle to get up to speed)
G04 P0 ( dwell for no time -- G64 should not smooth over this point )
G00 Z0.08000 ( retract )

G00 X-5.47320 Y-4.19039 ( rapid move to begin. )
G01 F180.00000
( Mill infeed pass 1/1 )
G01 Z-0.04000
G04 P0 ( dwell for no time -- G64 should not smooth over this point )
G01 F360.00000
G01 X-5.47320 Y-4.19039
G01 X-5.47614 Y-4.18917
G01 X-5.49134 Y-4.17397
G01 X-5.49134 Y-4.17675
G01 X-5.48089 Y-4.18720
G01 X-5.49567 Y-4.18720
G01 X-5.49420 Y-4.18523
G01 X-5.48564 Y-4.18523
G01 X-5.49169 Y-4.17919
G01 X-5.49230 Y-4.18136
G01 X-5.49039 Y-4.18327
G01 X-5.48746 Y-4.18448
G01 X-5.49039 Y-4.18327
G01 X-5.49309 Y-4.18327
G01 X-5.49267 Y-4.18232
G01 X-5.49221 Y-4.18251
G01 X-5.49267 Y-4.18232
G01 X-5.49309 Y-4.18327
G01 X-5.49039 Y-4.18327
G01 X-5.49230 Y-4.18136
G01 X-5.49169 Y-4.17919
G01 X-5.48564 Y-4.18523
G01 X-5.48271 Y-4.18645
G01 X-5.48564 Y-4.18523
G01 X-5.49420 Y-4.18523
G01 X-5.49567 Y-4.18720
G01 X-5.48089 Y-4.18720
G01 X-5.47796 Y-4.18842
G01 X-5.48089 Y-4.18720
G01 X-5.49134 Y-4.17675
G01 X-5.49134 Y-4.17397
G01 X-5.47614 Y-4.18917
G01 X-5.49765 Y-4.18917
G01 X-5.50045 Y-4.19114
G01 X-5.47138 Y-4.19114
G01 X-5.46845 Y-4.19236
G01 X-5.47138 Y-4.19114
G01 X-5.49194 Y-4.17059
G01 X-5.49420 Y-4.16554
G01 X-5.46663 Y-4.19311
G01 X-5.50563 Y-4.19311

G04 P0 ( dwell for no time -- G64 should not smooth over this point )
G00 Z1.000000 ( retract )

M5 ( Spindle off. )
G04 P1.000000
M9 ( Coolant off. )
M2 ( Program end. )

