( pcb2gcode 3.0.3 )
( Software-independent Gcode )

G94 ( Inches per minute feed rate. )
G20 ( Units == INCHES. )

G90 ( Absolute coordinates. )
G00 S12000 ( RPM spindle speed. )
G64 P0.00040 ( set maximum deviation from commanded toolpath )
G01 F360.00000 ( Feedrate. )


G00 Z1.00000 (Retract to tool change height)
T1
M5      (Spindle stop.)
G04 P1.00000 (Wait for spindle to stop)
(MSG, Change tool bit to mill diameter 0.00000in)
M6      (Tool change.)
M0      (Temporary machine stop.)
M3 ( Spindle on clockwise. )
G04 P1.00000 (Wait for spindle to get up to speed)
G04 P0 ( dwell for no time -- G64 should not smooth over this point )
G00 Z0.08000 ( retract )

G00 X-0.05000 Y-0.05489 ( rapid move to begin. )
G01 F180.00000
( Mill infeed pass 1/1 )
G01 Z-0.04000
G04 P0 ( dwell for no time -- G64 should not smooth over this point )
G01 F360.00000
G01 X-0.05000 Y-0.05489
G01 X-0.04859 Y-0.05472
G01 X-0.04784 Y-0.05442
G01 X-0.04682 Y-0.05375
G01 X0.00000 Y-0.00696
G01 X0.04682 Y-0.05375
G01 X0.04784 Y-0.05442
G01 X0.04859 Y-0.05472
G01 X0.05020 Y-0.05492
G01 X0.05140 Y-0.05472
G01 X0.05216 Y-0.05442
G01 X0.05348 Y-0.05348
G01 X0.05442 Y-0.05216
G01 X0.05472 Y-0.05140
G01 X0.05492 Y-0.05020
G01 X0.05472 Y-0.04859
G01 X0.05442 Y-0.04784
G01 X0.05375 Y-0.04682
G01 X0.00696 Y0.00000
G01 X0.05375 Y0.04682
G01 X0.05442 Y0.04784
G01 X0.05472 Y0.04859
G01 X0.05489 Y0.05000
G01 X0.04306 Y0.05000
G01 X0.00000 Y0.00696
G01 X-0.04306 Y0.05000
G01 X-0.05000 Y0.05000
G01 X-0.05000 Y0.04306
G01 X-0.00696 Y0.00000
G01 X-0.05000 Y-0.04306
G01 X-0.05000 Y-0.05489
G01 X0.03509 Y-0.62699
G01 X0.03511 Y-0.12499
G01 X0.03541 Y-0.12260
G01 X0.03599 Y-0.12026
G01 X0.03685 Y-0.11801
G01 X0.03799 Y-0.11589
G01 X0.03937 Y-0.11392
G01 X0.04098 Y-0.11213
G01 X0.04280 Y-0.11055
G01 X0.04480 Y-0.10921
G01 X0.04658 Y-0.10828
G01 X0.04845 Y-0.10754
G01 X0.05038 Y-0.10700
G01 X0.05236 Y-0.10665
G01 X0.05436 Y-0.10651
G01 X0.06639 Y-0.10650
G01 X0.08835 Y-0.07357
G01 X0.06001 Y-0.07357
G01 X0.05842 Y-0.07335
G01 X0.05729 Y-0.07290
G01 X0.05628 Y-0.07224
G01 X0.05519 Y-0.07107
G01 X0.05459 Y-0.07001
G01 X0.05423 Y-0.06886
G01 X0.05411 Y-0.06766
G01 X0.05423 Y-0.06646
G01 X0.05459 Y-0.06531
G01 X0.05543 Y-0.06393
G01 X0.05661 Y-0.06284
G01 X0.05803 Y-0.06209
G01 X0.06001 Y-0.06175
G01 X0.09978 Y-0.06177
G01 X0.10133 Y-0.06209
G01 X0.10242 Y-0.06259
G01 X0.10366 Y-0.06359
G01 X0.10439 Y-0.06453
G01 X0.10504 Y-0.06598
G01 X0.10529 Y-0.06755
G01 X0.10510 Y-0.06912
G01 X0.10450 Y-0.07060
G01 X0.08058 Y-0.10650
G01 X0.11316 Y-0.10650
G01 X0.11316 Y-0.09578
G01 X0.11328 Y-0.09462
G01 X0.11378 Y-0.09314
G01 X0.11680 Y-0.08715
G01 X0.11785 Y-0.08583
G01 X0.11924 Y-0.08487
G01 X0.12522 Y-0.08190
G01 X0.12634 Y-0.08156
G01 X0.12750 Y-0.08144
G01 X0.13875 Y-0.08144
G01 X0.13992 Y-0.08156
G01 X0.14139 Y-0.08206
G01 X0.14702 Y-0.08487
G01 X0.14870 Y-0.08613
G01 X0.14966 Y-0.08751
G01 X0.15247 Y-0.09314
G01 X0.15289 Y-0.09423
G01 X0.15308 Y-0.09539
G01 X0.15309 Y-0.10141
G01 X0.15287 Y-0.10301
G01 X0.15242 Y-0.10414
G01 X0.15175 Y-0.10515
G01 X0.15016 Y-0.10650
G01 X0.16659 Y-0.10650
G01 X0.16665 Y-0.08654
G01 X0.16708 Y-0.08499
G01 X0.16767 Y-0.08394
G01 X0.16847 Y-0.08303
G01 X0.16943 Y-0.08230
G01 X0.17052 Y-0.08178
G01 X0.17169 Y-0.08149
G01 X0.17370 Y-0.08156
G01 X0.17485 Y-0.08193
G01 X0.17590 Y-0.08252
G01 X0.17733 Y-0.08395
G01 X0.18146 Y-0.08190
G01 X0.18296 Y-0.08149
G01 X0.18977 Y-0.08145
G01 X0.19135 Y-0.08178
G01 X0.19244 Y-0.08230
G01 X0.19340 Y-0.08303
G01 X0.19419 Y-0.08394
G01 X0.19479 Y-0.08499
G01 X0.19522 Y-0.08654
G01 X0.19526 Y-0.08775
G01 X0.19506 Y-0.08894
G01 X0.19461 Y-0.09006
G01 X0.19340 Y-0.09166
G01 X0.19172 Y-0.09276
G01 X0.18977 Y-0.09324
G01 X0.18514 Y-0.09325
G01 X0.18162 Y-0.09501
G01 X0.18016 Y-0.09647
G01 X0.17840 Y-0.09999
G01 X0.17840 Y-0.10650
G01 X0.20034 Y-0.10650
G01 X0.20034 Y-0.09859
G01 X0.20066 Y-0.09667
G01 X0.20416 Y-0.08967
G01 X0.20769 Y-0.08598
G01 X0.20922 Y-0.08487
G01 X0.21594 Y-0.08164
G01 X0.21749 Y-0.08144
G01 X0.22593 Y-0.08144
G01 X0.22709 Y-0.08156
G01 X0.22821 Y-0.08190
G01 X0.23453 Y-0.08506
G01 X0.23573 Y-0.08598
G01 X0.23926 Y-0.08967
G01 X0.24246 Y-0.09595
G01 X0.24296 Y-0.09743
G01 X0.24308 Y-0.09859
G01 X0.24308 Y-0.10650
G01 X0.29366 Y-0.10652
G01 X0.29566 Y-0.10670
G01 X0.29763 Y-0.10709
G01 X0.30103 Y-0.10828
G01 X0.30384 Y-0.10985
G01 X0.30634 Y-0.11185
G01 X0.30849 Y-0.11423
G01 X0.31004 Y-0.11658
G01 X0.31137 Y-0.11950
G01 X0.31221 Y-0.12260
G01 X0.31254 Y-0.12579
G01 X0.31234 Y-0.12899
G01 X0.31163 Y-0.13212
G01 X0.31041 Y-0.13509
G01 X0.30897 Y-0.13750
G01 X0.30692 Y-0.13997
G01 X0.30449 Y-0.14207
G01 X0.30176 Y-0.14375
G01 X0.29879 Y-0.14496
G01 X0.29606 Y-0.14561
G01 X0.29286 Y-0.14588
G01 X0.07445 Y-0.14588
G01 X0.07445 Y-0.34460
G01 X0.22143 Y-0.34460
G01 X0.22383 Y-0.34475
G01 X0.22736 Y-0.34551
G01 X0.22924 Y-0.34621
G01 X0.23104 Y-0.34710
G01 X0.23401 Y-0.34915
G01 X0.23656 Y-0.35170
G01 X0.23861 Y-0.35468
G01 X0.24007 Y-0.35797
G01 X0.24091 Y-0.36148
G01 X0.24110 Y-0.36509
G01 X0.24070 Y-0.36827
G01 X0.23965 Y-0.37173
G01 X0.23799 Y-0.37493
G01 X0.23577 Y-0.37777
G01 X0.23338 Y-0.37992
G01 X0.23033 Y-0.38184
G01 X0.22697 Y-0.38317
G01 X0.22383 Y-0.38382
G01 X0.22143 Y-0.38397
G01 X0.07445 Y-0.38397
G01 X0.07438 Y-0.62779
G01 X0.07376 Y-0.63135
G01 X0.07250 Y-0.63473
G01 X0.07087 Y-0.63750
G01 X0.06854 Y-0.64025
G01 X0.06574 Y-0.64253
G01 X0.06257 Y-0.64426
G01 X0.05914 Y-0.64538
G01 X0.05556 Y-0.64586
G01 X0.05356 Y-0.64584
G01 X0.05156 Y-0.64561
G01 X0.04960 Y-0.64519
G01 X0.04769 Y-0.64456
G01 X0.04446 Y-0.64296
G01 X0.04280 Y-0.64183
G01 X0.04127 Y-0.64053
G01 X0.03988 Y-0.63908
G01 X0.03865 Y-0.63750
G01 X0.03685 Y-0.63437
G01 X0.03566 Y-0.63096
G01 X0.03528 Y-0.62899
G01 X0.03509 Y-0.62699
G04 P0 ( dwell for no time -- G64 should not smooth over this point )
G00 Z0.08000 ( retract )

G00 X0.12497 Y-0.09983 ( rapid move to begin. )
G01 F180.00000
( Mill infeed pass 1/1 )
G01 Z-0.04000
G04 P0 ( dwell for no time -- G64 should not smooth over this point )
G01 F360.00000
G01 X0.12497 Y-0.09983
G01 X0.12497 Y-0.09717
G01 X0.12628 Y-0.09456
G01 X0.12890 Y-0.09325
G01 X0.13736 Y-0.09325
G01 X0.13997 Y-0.09456
G01 X0.14100 Y-0.09662
G01 X0.12497 Y-0.09983
G04 P0 ( dwell for no time -- G64 should not smooth over this point )
G00 Z0.08000 ( retract )

G00 X0.21215 Y-0.10650 ( rapid move to begin. )
G01 F180.00000
( Mill infeed pass 1/1 )
G01 Z-0.04000
G04 P0 ( dwell for no time -- G64 should not smooth over this point )
G01 F360.00000
G01 X0.21215 Y-0.10650
G01 X0.21215 Y-0.09999
G01 X0.21391 Y-0.09647
G01 X0.21537 Y-0.09501
G01 X0.21888 Y-0.09325
G01 X0.22453 Y-0.09325
G01 X0.22805 Y-0.09501
G01 X0.22951 Y-0.09647
G01 X0.23127 Y-0.09999
G01 X0.23127 Y-0.10650
G01 X0.21215 Y-0.10650
G04 P0 ( dwell for no time -- G64 should not smooth over this point )
G00 Z0.08000 ( retract )

G00 X0.46365 Y-0.29286 ( rapid move to begin. )
G01 F180.00000
( Mill infeed pass 1/1 )
G01 Z-0.04000
G04 P0 ( dwell for no time -- G64 should not smooth over this point )
G01 F360.00000
G01 X0.46365 Y-0.29286
G01 X0.46368 Y-0.62739
G01 X0.46391 Y-0.62939
G01 X0.46434 Y-0.63135
G01 X0.46560 Y-0.63473
G01 X0.46656 Y-0.63649
G01 X0.46770 Y-0.63815
G01 X0.47014 Y-0.64080
G01 X0.47303 Y-0.64296
G01 X0.47479 Y-0.64392
G01 X0.47664 Y-0.64470
G01 X0.47856 Y-0.64529
G01 X0.48053 Y-0.64567
G01 X0.48253 Y-0.64586
G01 X0.48454 Y-0.64584
G01 X0.48810 Y-0.64529
G01 X0.49114 Y-0.64426
G01 X0.49431 Y-0.64253
G01 X0.49711 Y-0.64025
G01 X0.49944 Y-0.63750
G01 X0.50107 Y-0.63473
G01 X0.50233 Y-0.63135
G01 X0.50295 Y-0.62779
G01 X0.50302 Y-0.39274
G01 X0.52332 Y-0.35214
G01 X0.54261 Y-0.33284
G01 X0.58322 Y-0.31254
G01 X0.62779 Y-0.31248
G01 X0.63096 Y-0.31195
G01 X0.63400 Y-0.31093
G01 X0.63683 Y-0.30942
G01 X0.63938 Y-0.30747
G01 X0.64107 Y-0.30575
G01 X0.64253 Y-0.30384
G01 X0.64375 Y-0.30176
G01 X0.64484 Y-0.29917
G01 X0.64554 Y-0.29645
G01 X0.64584 Y-0.29406
G01 X0.64584 Y-0.29165
G01 X0.64554 Y-0.28926
G01 X0.64496 Y-0.28693
G01 X0.64392 Y-0.28431
G01 X0.64275 Y-0.28221
G01 X0.64133 Y-0.28027
G01 X0.63968 Y-0.27852
G01 X0.63782 Y-0.27698
G01 X0.63580 Y-0.27568
G01 X0.63363 Y-0.27463
G01 X0.63174 Y-0.27397
G01 X0.62978 Y-0.27350
G01 X0.62619 Y-0.27317
G01 X0.57817 Y-0.27318
G01 X0.57541 Y-0.27343
G01 X0.57271 Y-0.27407
G01 X0.56977 Y-0.27525
G01 X0.52076 Y-0.29982
G01 X0.51881 Y-0.30117
G01 X0.51731 Y-0.30247
G01 X0.50302 Y-0.31676
G01 X0.50301 Y-0.29246
G01 X0.50269 Y-0.28926
G01 X0.50170 Y-0.28579
G01 X0.50031 Y-0.28290
G01 X0.49847 Y-0.28027
G01 X0.49592 Y-0.27772
G01 X0.49431 Y-0.27652
G01 X0.49223 Y-0.27530
G01 X0.49002 Y-0.27434
G01 X0.48771 Y-0.27366
G01 X0.48534 Y-0.27327
G01 X0.48293 Y-0.27318
G01 X0.48053 Y-0.27337
G01 X0.47856 Y-0.27376
G01 X0.47627 Y-0.27448
G01 X0.47443 Y-0.27530
G01 X0.47235 Y-0.27652
G01 X0.47044 Y-0.27798
G01 X0.46872 Y-0.27966
G01 X0.46722 Y-0.28155
G01 X0.46615 Y-0.28325
G01 X0.46511 Y-0.28542
G01 X0.46444 Y-0.28731
G01 X0.46398 Y-0.28926
G01 X0.46365 Y-0.29286
G04 P0 ( dwell for no time -- G64 should not smooth over this point )
G00 Z0.08000 ( retract )

G00 X0.74936 Y-0.53095 ( rapid move to begin. )
G01 F180.00000
( Mill infeed pass 1/1 )
G01 Z-0.04000
G04 P0 ( dwell for no time -- G64 should not smooth over this point )
G01 F360.00000
G01 X0.74936 Y-0.53095
G01 X0.74936 Y-0.38810
G01 X0.74950 Y-0.38572
G01 X0.75014 Y-0.38261
G01 X0.75127 Y-0.37965
G01 X0.77622 Y-0.32995
G01 X0.77866 Y-0.32684
G01 X0.80361 Y-0.30193
G01 X0.80548 Y-0.30047
G01 X0.80751 Y-0.29924
G01 X0.85693 Y-0.27460
G01 X0.85957 Y-0.27375
G01 X0.86270 Y-0.27324
G01 X0.87436 Y-0.27317
G01 X0.88703 Y-0.25703
G01 X0.87443 Y-0.24099
G01 X0.87379 Y-0.23997
G01 X0.87321 Y-0.23805
G01 X0.87324 Y-0.23644
G01 X0.87388 Y-0.23454
G01 X0.87512 Y-0.23296
G01 X0.87682 Y-0.23189
G01 X0.87877 Y-0.23145
G01 X0.88077 Y-0.23169
G01 X0.88256 Y-0.23258
G01 X0.88372 Y-0.23370
G01 X0.89454 Y-0.24747
G01 X0.90537 Y-0.23370
G01 X0.90621 Y-0.23283
G01 X0.90757 Y-0.23197
G01 X0.90911 Y-0.23151
G01 X0.91072 Y-0.23148
G01 X0.91264 Y-0.23206
G01 X0.91426 Y-0.23324
G01 X0.91500 Y-0.23419
G01 X0.91554 Y-0.23527
G01 X0.91592 Y-0.23724
G01 X0.91581 Y-0.23845
G01 X0.91547 Y-0.23961
G01 X0.91465 Y-0.24099
G01 X0.90205 Y-0.25703
G01 X0.91473 Y-0.27317
G01 X0.93651 Y-0.27319
G01 X0.93966 Y-0.27357
G01 X0.94233 Y-0.27432
G01 X0.94452 Y-0.27525
G01 X0.99214 Y-0.29906
G01 X0.99547 Y-0.30117
G01 X0.99725 Y-0.30275
G01 X1.02106 Y-0.32656
G01 X1.02334 Y-0.32929
G01 X1.02475 Y-0.33167
G01 X1.04890 Y-0.38001
G01 X1.05015 Y-0.38377
G01 X1.05063 Y-0.38770
G01 X1.05064 Y-0.53095
G01 X1.05049 Y-0.53333
G01 X1.04986 Y-0.53643
G01 X1.04873 Y-0.53940
G01 X1.02475 Y-0.58737
G01 X1.02356 Y-0.58943
G01 X1.02134 Y-0.59221
G01 X0.99725 Y-0.61630
G01 X0.99547 Y-0.61787
G01 X0.99352 Y-0.61922
G01 X0.94416 Y-0.64397
G01 X0.94195 Y-0.64486
G01 X0.93966 Y-0.64548
G01 X0.93571 Y-0.64587
G01 X0.86428 Y-0.64587
G01 X0.86191 Y-0.64573
G01 X0.85842 Y-0.64498
G01 X0.85548 Y-0.64380
G01 X0.80751 Y-0.61981
G01 X0.80515 Y-0.61835
G01 X0.80303 Y-0.61658
G01 X0.77866 Y-0.59221
G01 X0.77644 Y-0.58943
G01 X0.77525 Y-0.58737
G01 X0.75094 Y-0.53868
G01 X0.74976 Y-0.53489
G01 X0.74936 Y-0.53095
G04 P0 ( dwell for no time -- G64 should not smooth over this point )
G00 Z0.08000 ( retract )

G00 X0.78873 Y-0.52630 ( rapid move to begin. )
G01 F180.00000
( Mill infeed pass 1/1 )
G01 Z-0.04000
G04 P0 ( dwell for no time -- G64 should not smooth over this point )
G01 F360.00000
G01 X0.78873 Y-0.52630
G01 X0.80903 Y-0.56691
G01 X0.82833 Y-0.58620
G01 X0.86893 Y-0.60650
G01 X0.93107 Y-0.60650
G01 X0.97167 Y-0.58620
G01 X0.99096 Y-0.56691
G01 X1.01127 Y-0.52630
G01 X1.01127 Y-0.39274
G01 X0.99096 Y-0.35214
G01 X0.97167 Y-0.33284
G01 X0.93107 Y-0.31254
G01 X0.86893 Y-0.31254
G01 X0.82833 Y-0.33284
G01 X0.80903 Y-0.35214
G01 X0.78873 Y-0.39274
G01 X0.78873 Y-0.52630
G01 X0.88820 Y-0.45060
G01 X0.88857 Y-0.45298
G01 X0.88941 Y-0.45523
G01 X0.89068 Y-0.45726
G01 X0.89235 Y-0.45900
G01 X0.89433 Y-0.46036
G01 X0.89616 Y-0.46117
G01 X0.89850 Y-0.46171
G01 X0.90090 Y-0.46178
G01 X0.90327 Y-0.46135
G01 X0.90514 Y-0.46064
G01 X0.90718 Y-0.45937
G01 X0.90893 Y-0.45773
G01 X0.91011 Y-0.45611
G01 X0.91114 Y-0.45393
G01 X0.91170 Y-0.45160
G01 X0.91180 Y-0.44960
G01 X0.91148 Y-0.44722
G01 X0.91068 Y-0.44495
G01 X0.90944 Y-0.44290
G01 X0.90780 Y-0.44113
G01 X0.90585 Y-0.43974
G01 X0.90403 Y-0.43890
G01 X0.90170 Y-0.43831
G01 X0.89930 Y-0.43821
G01 X0.89731 Y-0.43850
G01 X0.89504 Y-0.43928
G01 X0.89298 Y-0.44050
G01 X0.89120 Y-0.44212
G01 X0.88979 Y-0.44406
G01 X0.88893 Y-0.44588
G01 X0.88833 Y-0.44820
G01 X0.88820 Y-0.45060
G04 P0 ( dwell for no time -- G64 should not smooth over this point )
G00 Z0.08000 ( retract )

G00 X0.88937 Y-0.27317 ( rapid move to begin. )
G01 F180.00000
( Mill infeed pass 1/1 )
G01 Z-0.04000
G04 P0 ( dwell for no time -- G64 should not smooth over this point )
G01 F360.00000
G01 X0.88937 Y-0.27317
G01 X0.89454 Y-0.26659
G01 X0.89972 Y-0.27317
G01 X0.88937 Y-0.27317
G04 P0 ( dwell for no time -- G64 should not smooth over this point )
G00 Z0.08000 ( retract )

G00 X0.92662 Y-0.24538 ( rapid move to begin. )
G01 F180.00000
( Mill infeed pass 1/1 )
G01 Z-0.04000
G04 P0 ( dwell for no time -- G64 should not smooth over this point )
G01 F360.00000
G01 X0.92662 Y-0.24538
G01 X0.92682 Y-0.24419
G01 X0.92726 Y-0.24306
G01 X0.92793 Y-0.24205
G01 X0.92910 Y-0.24096
G01 X0.93015 Y-0.24036
G01 X0.93131 Y-0.24000
G01 X0.93251 Y-0.23988
G01 X0.97831 Y-0.23993
G01 X0.97948 Y-0.24022
G01 X0.98057 Y-0.24074
G01 X0.98208 Y-0.24205
G01 X0.98307 Y-0.24380
G01 X0.98341 Y-0.24578
G01 X0.98328 Y-0.24698
G01 X0.98292 Y-0.24813
G01 X0.98182 Y-0.24981
G01 X0.98091 Y-0.25061
G01 X0.97985 Y-0.25120
G01 X0.97870 Y-0.25156
G01 X0.97750 Y-0.25169
G01 X0.93210 Y-0.25167
G01 X0.93015 Y-0.25120
G01 X0.92848 Y-0.25010
G01 X0.92726 Y-0.24850
G01 X0.92666 Y-0.24658
G01 X0.92662 Y-0.24538
G01 X0.92666 Y-0.26346
G01 X0.92726 Y-0.26537
G01 X0.92848 Y-0.26697
G01 X0.93015 Y-0.26807
G01 X0.93210 Y-0.26854
G01 X0.97750 Y-0.26856
G01 X0.97870 Y-0.26843
G01 X0.97985 Y-0.26807
G01 X0.98091 Y-0.26748
G01 X0.98182 Y-0.26668
G01 X0.98292 Y-0.26501
G01 X0.98328 Y-0.26386
G01 X0.98341 Y-0.26265
G01 X0.98307 Y-0.26068
G01 X0.98208 Y-0.25893
G01 X0.98057 Y-0.25761
G01 X0.97948 Y-0.25709
G01 X0.97831 Y-0.25680
G01 X0.93251 Y-0.25675
G01 X0.93131 Y-0.25687
G01 X0.93015 Y-0.25724
G01 X0.92910 Y-0.25783
G01 X0.92793 Y-0.25893
G01 X0.92726 Y-0.25994
G01 X0.92682 Y-0.26106
G01 X0.92662 Y-0.26225
G04 P0 ( dwell for no time -- G64 should not smooth over this point )
G00 Z0.08000 ( retract )

G00 X0.99508 Y-0.20000 ( rapid move to begin. )
G01 F180.00000
( Mill infeed pass 1/1 )
G01 Z-0.04000
G04 P0 ( dwell for no time -- G64 should not smooth over this point )
G01 F360.00000
G01 X0.99508 Y-0.20000
G01 X0.99514 Y-0.20081
G01 X0.99549 Y-0.20198
G01 X0.99612 Y-0.20302
G01 X0.99667 Y-0.20362
G01 X0.99766 Y-0.20433
G01 X0.99919 Y-0.20485
G01 X1.00040 Y-0.20490
G01 X1.00198 Y-0.20451
G01 X1.00333 Y-0.20362
G01 X1.00433 Y-0.20234
G01 X1.00490 Y-0.20041
G01 X1.00492 Y-0.15000
G01 X1.00485 Y-0.14919
G01 X1.00450 Y-0.14802
G01 X1.00388 Y-0.14698
G01 X1.00333 Y-0.14638
G01 X1.00198 Y-0.14549
G01 X1.00081 Y-0.14514
G01 X0.99919 Y-0.14514
G01 X0.99802 Y-0.14549
G01 X0.99667 Y-0.14638
G01 X0.99567 Y-0.14766
G01 X0.99523 Y-0.14879
G01 X0.99509 Y-0.14959
G01 X0.99508 Y-0.20000
G01 X0.99692 Y-0.27631
G01 X0.99740 Y-0.27436
G01 X0.99850 Y-0.27268
G01 X0.99941 Y-0.27189
G01 X1.00046 Y-0.27130
G01 X1.00241 Y-0.27082
G01 X1.01378 Y-0.27081
G01 X1.01378 Y-0.23473
G01 X1.01233 Y-0.23616
G01 X1.01108 Y-0.23700
G01 X1.00509 Y-0.23998
G01 X1.00393 Y-0.24033
G01 X1.00273 Y-0.24044
G01 X1.00153 Y-0.24030
G01 X1.00038 Y-0.23991
G01 X0.99934 Y-0.23931
G01 X0.99844 Y-0.23850
G01 X0.99772 Y-0.23753
G01 X0.99722 Y-0.23643
G01 X0.99695 Y-0.23525
G01 X0.99693 Y-0.23405
G01 X0.99743 Y-0.23210
G01 X0.99855 Y-0.23044
G01 X0.99982 Y-0.22944
G01 X1.00494 Y-0.22687
G01 X1.00947 Y-0.22233
G01 X1.01527 Y-0.21374
G01 X1.01650 Y-0.21268
G01 X1.01798 Y-0.21200
G01 X1.01918 Y-0.21178
G01 X1.02040 Y-0.21180
G01 X1.02159 Y-0.21207
G01 X1.02304 Y-0.21280
G01 X1.02397 Y-0.21360
G01 X1.02471 Y-0.21456
G01 X1.02524 Y-0.21566
G01 X1.02553 Y-0.21685
G01 X1.02559 Y-0.27081
G01 X1.03696 Y-0.27082
G01 X1.03891 Y-0.27130
G01 X1.04028 Y-0.27213
G01 X1.04138 Y-0.27331
G01 X1.04197 Y-0.27436
G01 X1.04241 Y-0.27591
G01 X1.04245 Y-0.27712
G01 X1.04212 Y-0.27869
G01 X1.04160 Y-0.27978
G01 X1.04087 Y-0.28075
G01 X1.03963 Y-0.28176
G01 X1.03815 Y-0.28240
G01 X1.03656 Y-0.28262
G01 X1.00241 Y-0.28261
G01 X1.00046 Y-0.28213
G01 X0.99909 Y-0.28130
G01 X0.99799 Y-0.28012
G01 X0.99713 Y-0.27831
G01 X0.99692 Y-0.27631
G04 P0 ( dwell for no time -- G64 should not smooth over this point )
G00 Z0.08000 ( retract )

G00 X1.05315 Y-0.22027 ( rapid move to begin. )
G01 F180.00000
( Mill infeed pass 1/1 )
G01 Z-0.04000
G04 P0 ( dwell for no time -- G64 should not smooth over this point )
G01 F360.00000
G01 X1.05315 Y-0.22027
G01 X1.05332 Y-0.21907
G01 X1.05372 Y-0.21793
G01 X1.05435 Y-0.21690
G01 X1.05830 Y-0.21295
G01 X1.05951 Y-0.21224
G01 X1.06086 Y-0.21184
G01 X1.06207 Y-0.21176
G01 X1.06326 Y-0.21192
G01 X1.06422 Y-0.21224
G01 X1.06527 Y-0.21283
G01 X1.06913 Y-0.21659
G01 X1.06983 Y-0.21758
G01 X1.07031 Y-0.21868
G01 X1.07055 Y-0.21987
G01 X1.07050 Y-0.22148
G01 X1.07001 Y-0.22301
G01 X1.06938 Y-0.22404
G01 X1.06543 Y-0.22799
G01 X1.06431 Y-0.22866
G01 X1.06279 Y-0.22912
G01 X1.06160 Y-0.22918
G01 X1.06042 Y-0.22901
G01 X1.05930 Y-0.22860
G01 X1.05829 Y-0.22798
G01 X1.05435 Y-0.22404
G01 X1.05372 Y-0.22301
G01 X1.05323 Y-0.22148
G01 X1.05315 Y-0.22027
G01 X1.05596 Y-0.27671
G01 X1.05602 Y-0.23654
G01 X1.05630 Y-0.23537
G01 X1.05682 Y-0.23428
G01 X1.05814 Y-0.23276
G01 X1.05989 Y-0.23178
G01 X1.06187 Y-0.23144
G01 X1.06307 Y-0.23156
G01 X1.06422 Y-0.23193
G01 X1.06590 Y-0.23303
G01 X1.06669 Y-0.23394
G01 X1.06728 Y-0.23499
G01 X1.06765 Y-0.23614
G01 X1.06777 Y-0.23735
G01 X1.06772 Y-0.27752
G01 X1.06711 Y-0.27943
G01 X1.06590 Y-0.28103
G01 X1.06422 Y-0.28213
G01 X1.06267 Y-0.28257
G01 X1.06146 Y-0.28261
G01 X1.06027 Y-0.28240
G01 X1.05915 Y-0.28196
G01 X1.05814 Y-0.28130
G01 X1.05704 Y-0.28012
G01 X1.05645 Y-0.27907
G01 X1.05608 Y-0.27792
G01 X1.05596 Y-0.27671
G04 P0 ( dwell for no time -- G64 should not smooth over this point )
G00 Z0.08000 ( retract )

G00 X1.08408 Y-0.27671 ( rapid move to begin. )
G01 F180.00000
( Mill infeed pass 1/1 )
G01 Z-0.04000
G04 P0 ( dwell for no time -- G64 should not smooth over this point )
G01 F360.00000
G01 X1.08408 Y-0.27671
G01 X1.08410 Y-0.23694
G01 X1.08442 Y-0.23537
G01 X1.08494 Y-0.23428
G01 X1.08567 Y-0.23331
G01 X1.08692 Y-0.23230
G01 X1.08839 Y-0.23166
G01 X1.09039 Y-0.23145
G01 X1.09234 Y-0.23193
G01 X1.09396 Y-0.23297
G01 X1.09614 Y-0.23190
G01 X1.09764 Y-0.23149
G01 X1.10764 Y-0.23149
G01 X1.10915 Y-0.23190
G01 X1.11550 Y-0.23508
G01 X1.11651 Y-0.23583
G01 X1.11734 Y-0.23679
G01 X1.12074 Y-0.24349
G01 X1.12109 Y-0.24461
G01 X1.12120 Y-0.24578
G01 X1.12119 Y-0.27712
G01 X1.12086 Y-0.27869
G01 X1.12034 Y-0.27978
G01 X1.11961 Y-0.28075
G01 X1.11870 Y-0.28154
G01 X1.11765 Y-0.28213
G01 X1.11610 Y-0.28257
G01 X1.11449 Y-0.28257
G01 X1.11332 Y-0.28228
G01 X1.11223 Y-0.28176
G01 X1.11127 Y-0.28103
G01 X1.11047 Y-0.28012
G01 X1.10973 Y-0.27869
G01 X1.10939 Y-0.27671
G01 X1.10939 Y-0.24718
G01 X1.10808 Y-0.24456
G01 X1.10547 Y-0.24325
G01 X1.09982 Y-0.24325
G01 X1.09630 Y-0.24501
G01 X1.09589 Y-0.24541
G01 X1.09589 Y-0.27671
G01 X1.09567 Y-0.27831
G01 X1.09523 Y-0.27943
G01 X1.09457 Y-0.28044
G01 X1.09339 Y-0.28154
G01 X1.09197 Y-0.28228
G01 X1.09039 Y-0.28261
G01 X1.08879 Y-0.28250
G01 X1.08727 Y-0.28196
G01 X1.08570 Y-0.28072
G01 X1.08408 Y-0.27671
G01 X1.08430 Y-0.27831
G01 X1.08494 Y-0.27978
G01 X1.08570 Y-0.28072
G01 X1.22555 Y-0.62619
G01 X1.22575 Y-0.62899
G01 X1.22635 Y-0.63174
G01 X1.22733 Y-0.63437
G01 X1.22868 Y-0.63683
G01 X1.23063 Y-0.63938
G01 X1.23265 Y-0.64133
G01 X1.23493 Y-0.64296
G01 X1.23780 Y-0.64441
G01 X1.24047 Y-0.64529
G01 X1.24363 Y-0.64581
G01 X1.24644 Y-0.64584
G01 X1.24962 Y-0.64538
G01 X1.25230 Y-0.64456
G01 X1.25520 Y-0.64317
G01 X1.25782 Y-0.64133
G01 X1.25985 Y-0.63938
G01 X1.26158 Y-0.63717
G01 X1.26314 Y-0.63437
G01 X1.26412 Y-0.63174
G01 X1.26477 Y-0.62859
G01 X1.26492 Y-0.62619
G01 X1.26492 Y-0.34863
G01 X1.28071 Y-0.33284
G01 X1.32131 Y-0.31254
G01 X1.38345 Y-0.31254
G01 X1.42104 Y-0.33134
G01 X1.43984 Y-0.36893
G01 X1.43984 Y-0.62619
G01 X1.43999 Y-0.62859
G01 X1.44053 Y-0.63135
G01 X1.44130 Y-0.63363
G01 X1.44234 Y-0.63580
G01 X1.44389 Y-0.63815
G01 X1.44575 Y-0.64025
G01 X1.44757 Y-0.64183
G01 X1.44956 Y-0.64317
G01 X1.45171 Y-0.64426
G01 X1.45398 Y-0.64508
G01 X1.45672 Y-0.64567
G01 X1.45912 Y-0.64587
G01 X1.46153 Y-0.64577
G01 X1.46390 Y-0.64538
G01 X1.46659 Y-0.64456
G01 X1.46878 Y-0.64356
G01 X1.47083 Y-0.64230
G01 X1.47271 Y-0.64080
G01 X1.47413 Y-0.63938
G01 X1.47564 Y-0.63750
G01 X1.47690 Y-0.63545
G01 X1.47789 Y-0.63326
G01 X1.47852 Y-0.63135
G01 X1.47901 Y-0.62899
G01 X1.47920 Y-0.62659
G01 X1.47917 Y-0.36310
G01 X1.47863 Y-0.35957
G01 X1.47730 Y-0.35584
G01 X1.45235 Y-0.30614
G01 X1.45096 Y-0.30421
G01 X1.44906 Y-0.30220
G01 X1.44722 Y-0.30070
G01 X1.44487 Y-0.29924
G01 X1.39654 Y-0.27508
G01 X1.39396 Y-0.27407
G01 X1.39086 Y-0.27337
G01 X1.38810 Y-0.27317
G01 X1.31667 Y-0.27317
G01 X1.31311 Y-0.27349
G01 X1.31043 Y-0.27419
G01 X1.30822 Y-0.27508
G01 X1.26492 Y-0.29672
G01 X1.26492 Y-0.29246
G01 X1.26472 Y-0.29006
G01 X1.26412 Y-0.28731
G01 X1.26331 Y-0.28505
G01 X1.26201 Y-0.28255
G01 X1.26037 Y-0.28027
G01 X1.25843 Y-0.27825
G01 X1.25622 Y-0.27652
G01 X1.25378 Y-0.27512
G01 X1.25117 Y-0.27409
G01 X1.24844 Y-0.27343
G01 X1.24564 Y-0.27318
G01 X1.24244 Y-0.27337
G01 X1.23969 Y-0.27397
G01 X1.23706 Y-0.27495
G01 X1.23460 Y-0.27630
G01 X1.23265 Y-0.27772
G01 X1.23090 Y-0.27937
G01 X1.22936 Y-0.28122
G01 X1.22806 Y-0.28325
G01 X1.22701 Y-0.28542
G01 X1.22624 Y-0.28770
G01 X1.22575 Y-0.29006
G01 X1.22556 Y-0.29246
G01 X1.22555 Y-0.62619
G04 P0 ( dwell for no time -- G64 should not smooth over this point )
G00 Z0.08000 ( retract )

G00 X1.63820 Y-0.80060 ( rapid move to begin. )
G01 F180.00000
( Mill infeed pass 1/1 )
G01 Z-0.04000
G04 P0 ( dwell for no time -- G64 should not smooth over this point )
G01 F360.00000
G01 X1.63820 Y-0.80060
G01 X1.63833 Y-0.79820
G01 X1.63893 Y-0.79588
G01 X1.63979 Y-0.79407
G01 X1.64120 Y-0.79212
G01 X1.64298 Y-0.79050
G01 X1.64504 Y-0.78928
G01 X1.64732 Y-0.78850
G01 X1.64930 Y-0.78821
G01 X1.65170 Y-0.78831
G01 X1.65403 Y-0.78890
G01 X1.65585 Y-0.78974
G01 X1.65780 Y-0.79113
G01 X1.65944 Y-0.79290
G01 X1.66068 Y-0.79495
G01 X1.66148 Y-0.79722
G01 X1.66180 Y-0.79960
G01 X1.66170 Y-0.80160
G01 X1.66114 Y-0.80393
G01 X1.66011 Y-0.80611
G01 X1.65893 Y-0.80773
G01 X1.65718 Y-0.80937
G01 X1.65514 Y-0.81063
G01 X1.65327 Y-0.81135
G01 X1.65090 Y-0.81178
G01 X1.64850 Y-0.81171
G01 X1.64616 Y-0.81117
G01 X1.64433 Y-0.81036
G01 X1.64235 Y-0.80900
G01 X1.64068 Y-0.80726
G01 X1.63941 Y-0.80523
G01 X1.63857 Y-0.80298
G01 X1.63820 Y-0.80060
G01 X1.63820 Y-0.55060
G01 X1.63833 Y-0.54820
G01 X1.63893 Y-0.54588
G01 X1.63979 Y-0.54407
G01 X1.64120 Y-0.54212
G01 X1.64298 Y-0.54050
G01 X1.64504 Y-0.53928
G01 X1.64732 Y-0.53850
G01 X1.64930 Y-0.53821
G01 X1.65170 Y-0.53831
G01 X1.65403 Y-0.53890
G01 X1.65585 Y-0.53974
G01 X1.65780 Y-0.54113
G01 X1.65944 Y-0.54290
G01 X1.66068 Y-0.54495
G01 X1.66148 Y-0.54722
G01 X1.66180 Y-0.54960
G01 X1.66170 Y-0.55160
G01 X1.66114 Y-0.55393
G01 X1.66011 Y-0.55611
G01 X1.65893 Y-0.55773
G01 X1.65718 Y-0.55937
G01 X1.65514 Y-0.56063
G01 X1.65327 Y-0.56135
G01 X1.65090 Y-0.56178
G01 X1.64850 Y-0.56171
G01 X1.64616 Y-0.56117
G01 X1.64433 Y-0.56036
G01 X1.64235 Y-0.55900
G01 X1.64068 Y-0.55726
G01 X1.63941 Y-0.55523
G01 X1.63857 Y-0.55298
G01 X1.60652 Y-0.29366
G01 X1.60671 Y-0.29006
G01 X1.60754 Y-0.28654
G01 X1.60901 Y-0.28325
G01 X1.61105 Y-0.28027
G01 X1.61360 Y-0.27772
G01 X1.61658 Y-0.27568
G01 X1.61988 Y-0.27421
G01 X1.62260 Y-0.27350
G01 X1.62579 Y-0.27318
G01 X1.67793 Y-0.27317
G01 X1.67800 Y-0.12459
G01 X1.67852 Y-0.12142
G01 X1.67939 Y-0.11875
G01 X1.68084 Y-0.11589
G01 X1.68248 Y-0.11360
G01 X1.68473 Y-0.11131
G01 X1.68732 Y-0.10942
G01 X1.69018 Y-0.10797
G01 X1.69285 Y-0.10709
G01 X1.69482 Y-0.10670
G01 X1.69682 Y-0.10652
G01 X1.69882 Y-0.10654
G01 X1.70121 Y-0.10683
G01 X1.70316 Y-0.10730
G01 X1.70506 Y-0.10797
G01 X1.70688 Y-0.10882
G01 X1.70860 Y-0.10985
G01 X1.71020 Y-0.11105
G01 X1.71168 Y-0.11241
G01 X1.71326 Y-0.11423
G01 X1.71439 Y-0.11589
G01 X1.71535 Y-0.11765
G01 X1.71613 Y-0.11950
G01 X1.71672 Y-0.12142
G01 X1.71710 Y-0.12339
G01 X1.71730 Y-0.12619
G01 X1.71730 Y-0.27317
G01 X1.81667 Y-0.27317
G01 X1.81907 Y-0.27332
G01 X1.82221 Y-0.27397
G01 X1.82484 Y-0.27495
G01 X1.82764 Y-0.27652
G01 X1.82986 Y-0.27825
G01 X1.83180 Y-0.28027
G01 X1.83344 Y-0.28255
G01 X1.83489 Y-0.28542
G01 X1.83576 Y-0.28809
G01 X1.83615 Y-0.29006
G01 X1.83633 Y-0.29205
G01 X1.83615 Y-0.29566
G01 X1.83576 Y-0.29763
G01 X1.83518 Y-0.29955
G01 X1.83440 Y-0.30140
G01 X1.83344 Y-0.30316
G01 X1.83230 Y-0.30481
G01 X1.83100 Y-0.30634
G01 X1.82956 Y-0.30773
G01 X1.82797 Y-0.30897
G01 X1.82628 Y-0.31004
G01 X1.82448 Y-0.31093
G01 X1.82260 Y-0.31163
G01 X1.82065 Y-0.31213
G01 X1.81867 Y-0.31244
G01 X1.81667 Y-0.31254
G01 X1.71730 Y-0.31254
G01 X1.71730 Y-0.55011
G01 X1.73610 Y-0.58771
G01 X1.77369 Y-0.60650
G01 X1.81827 Y-0.60657
G01 X1.82144 Y-0.60709
G01 X1.82411 Y-0.60796
G01 X1.82697 Y-0.60942
G01 X1.82925 Y-0.61105
G01 X1.83073 Y-0.61241
G01 X1.83230 Y-0.61423
G01 X1.83365 Y-0.61623
G01 X1.83474 Y-0.61838
G01 X1.83555 Y-0.62064
G01 X1.83602 Y-0.62260
G01 X1.83631 Y-0.62499
G01 X1.83631 Y-0.62739
G01 X1.83602 Y-0.62978
G01 X1.83544 Y-0.63212
G01 X1.83457 Y-0.63437
G01 X1.83344 Y-0.63649
G01 X1.83230 Y-0.63815
G01 X1.83073 Y-0.63997
G01 X1.82894 Y-0.64158
G01 X1.82697 Y-0.64296
G01 X1.82448 Y-0.64426
G01 X1.82221 Y-0.64508
G01 X1.81986 Y-0.64561
G01 X1.81747 Y-0.64586
G01 X1.76865 Y-0.64587
G01 X1.76667 Y-0.64573
G01 X1.76433 Y-0.64530
G01 X1.76206 Y-0.64459
G01 X1.76024 Y-0.64380
G01 X1.71192 Y-0.61962
G01 X1.70992 Y-0.61835
G01 X1.70779 Y-0.61658
G01 X1.70618 Y-0.61483
G01 X1.70479 Y-0.61291
G01 X1.67984 Y-0.56321
G01 X1.67861 Y-0.55986
G01 X1.67800 Y-0.55635
G01 X1.67793 Y-0.31254
G01 X1.62619 Y-0.31254
G01 X1.62418 Y-0.31244
G01 X1.62220 Y-0.31213
G01 X1.61950 Y-0.31137
G01 X1.61693 Y-0.31023
G01 X1.61455 Y-0.30873
G01 X1.61241 Y-0.30692
G01 X1.61055 Y-0.30481
G01 X1.60901 Y-0.30247
G01 X1.60782 Y-0.29992
G01 X1.60709 Y-0.29763
G01 X1.60671 Y-0.29566
G01 X1.60652 Y-0.29366
G04 P0 ( dwell for no time -- G64 should not smooth over this point )
G00 Z0.08000 ( retract )

G00 X1.79510 Y-0.50041 ( rapid move to begin. )
G01 F180.00000
( Mill infeed pass 1/1 )
G01 Z-0.04000
G04 P0 ( dwell for no time -- G64 should not smooth over this point )
G01 F360.00000
G01 X1.79510 Y-0.50041
G01 X1.79514 Y-0.49919
G01 X1.79534 Y-0.49840
G01 X1.79567 Y-0.49766
G01 X1.79638 Y-0.49667
G01 X1.79698 Y-0.49612
G01 X1.79802 Y-0.49549
G01 X1.79919 Y-0.49515
G01 X1.85041 Y-0.49510
G01 X1.85121 Y-0.49523
G01 X1.85234 Y-0.49567
G01 X1.85362 Y-0.49667
G01 X1.85451 Y-0.49802
G01 X1.85485 Y-0.49919
G01 X1.85492 Y-0.50000
G01 X1.85485 Y-0.50081
G01 X1.85451 Y-0.50198
G01 X1.85362 Y-0.50333
G01 X1.85302 Y-0.50388
G01 X1.85198 Y-0.50451
G01 X1.85081 Y-0.50485
G01 X1.85000 Y-0.50492
G01 X1.79959 Y-0.50490
G01 X1.79802 Y-0.50451
G01 X1.79667 Y-0.50362
G01 X1.79567 Y-0.50234
G01 X1.79523 Y-0.50121
G01 X1.79510 Y-0.50041
G01 X1.84348 Y-0.34612
G01 X1.85053 Y-0.39539
G01 X1.85068 Y-0.39739
G01 X1.85127 Y-0.39888
G01 X1.85254 Y-0.40043
G01 X1.85388 Y-0.40131
G01 X1.85541 Y-0.40180
G01 X1.85702 Y-0.40185
G01 X1.85820 Y-0.40160
G01 X1.85931 Y-0.40112
G01 X1.86029 Y-0.40043
G01 X1.86272 Y-0.39802
G01 X1.86624 Y-0.39626
G01 X1.87751 Y-0.39626
G01 X1.88103 Y-0.39802
G01 X1.88249 Y-0.39948
G01 X1.88425 Y-0.40300
G01 X1.88425 Y-0.41427
G01 X1.88249 Y-0.41779
G01 X1.88103 Y-0.41925
G01 X1.87751 Y-0.42101
G01 X1.86624 Y-0.42101
G01 X1.86272 Y-0.41925
G01 X1.86029 Y-0.41684
G01 X1.85895 Y-0.41595
G01 X1.85702 Y-0.41541
G01 X1.85501 Y-0.41555
G01 X1.85387 Y-0.41595
G01 X1.85284 Y-0.41658
G01 X1.85196 Y-0.41741
G01 X1.85126 Y-0.41839
G01 X1.85078 Y-0.41950
G01 X1.85054 Y-0.42068
G01 X1.85054 Y-0.42189
G01 X1.85078 Y-0.42307
G01 X1.85126 Y-0.42418
G01 X1.85196 Y-0.42517
G01 X1.85562 Y-0.42878
G01 X1.85658 Y-0.42938
G01 X1.86293 Y-0.43250
G01 X1.86485 Y-0.43282
G01 X1.87891 Y-0.43282
G01 X1.88083 Y-0.43250
G01 X1.88717 Y-0.42938
G01 X1.88871 Y-0.42828
G01 X1.89224 Y-0.42458
G01 X1.89544 Y-0.41830
G01 X1.89595 Y-0.41683
G01 X1.89606 Y-0.41566
G01 X1.89606 Y-0.40160
G01 X1.89586 Y-0.40005
G01 X1.89263 Y-0.39334
G01 X1.89152 Y-0.39180
G01 X1.88783 Y-0.38827
G01 X1.88155 Y-0.38507
G01 X1.88045 Y-0.38465
G01 X1.87891 Y-0.38445
G01 X1.86485 Y-0.38445
G01 X1.86348 Y-0.38461
G01 X1.86457 Y-0.37376
G01 X1.88735 Y-0.37376
G01 X1.88894 Y-0.37354
G01 X1.89006 Y-0.37310
G01 X1.89107 Y-0.37244
G01 X1.89193 Y-0.37158
G01 X1.89259 Y-0.37057
G01 X1.89303 Y-0.36945
G01 X1.89324 Y-0.36826
G01 X1.89319 Y-0.36705
G01 X1.89291 Y-0.36588
G01 X1.89217 Y-0.36445
G01 X1.89075 Y-0.36303
G01 X1.88932 Y-0.36229
G01 X1.88775 Y-0.36196
G01 X1.85922 Y-0.36195
G01 X1.85805 Y-0.36207
G01 X1.85656 Y-0.36259
G01 X1.85556 Y-0.36322
G01 X1.85447 Y-0.36435
G01 X1.85387 Y-0.36537
G01 X1.85340 Y-0.36688
G01 X1.85053 Y-0.39539
G01 X1.84348 Y-0.34612
G01 X1.82241 Y-0.42470
G01 X1.82280 Y-0.42627
G01 X1.82358 Y-0.42767
G01 X1.82723 Y-0.43137
G01 X1.82823 Y-0.43207
G01 X1.82936 Y-0.43255
G01 X1.83056 Y-0.43279
G01 X1.83178 Y-0.43278
G01 X1.83327 Y-0.43240
G01 X1.83467 Y-0.43162
G01 X1.83862 Y-0.42767
G01 X1.83925 Y-0.42664
G01 X1.83965 Y-0.42550
G01 X1.83982 Y-0.42430
G01 X1.83965 Y-0.42270
G01 X1.83925 Y-0.42156
G01 X1.83862 Y-0.42053
G01 X1.83483 Y-0.41671
G01 X1.83382 Y-0.41604
G01 X1.83269 Y-0.41560
G01 X1.83150 Y-0.41540
G01 X1.83050 Y-0.41541
G01 X1.82912 Y-0.41572
G01 X1.82770 Y-0.41646
G01 X1.82384 Y-0.42022
G01 X1.82348 Y-0.42072
G01 X1.82241 Y-0.42470
G01 X1.82241 Y-0.42350
G01 X1.82266 Y-0.42231
G01 X1.82348 Y-0.42072
G01 X1.84348 Y-0.34612
G01 X1.84372 Y-0.34453
G01 X1.84461 Y-0.34273
G01 X1.84572 Y-0.34157
G01 X1.84674 Y-0.34092
G01 X1.85151 Y-0.33854
G01 X1.85278 Y-0.33726
G01 X1.85713 Y-0.32640
G01 X1.84370 Y-0.28875
G01 X1.84349 Y-0.28675
G01 X1.84396 Y-0.28480
G01 X1.84479 Y-0.28343
G01 X1.84565 Y-0.28257
G01 X1.84702 Y-0.28174
G01 X1.84857 Y-0.28130
G01 X1.85018 Y-0.28130
G01 X1.85173 Y-0.28173
G01 X1.85310 Y-0.28256
G01 X1.85396 Y-0.28341
G01 X1.85494 Y-0.28516
G01 X1.86344 Y-0.30896
G01 X1.87194 Y-0.28516
G01 X1.87246 Y-0.28407
G01 X1.87319 Y-0.28311
G01 X1.87410 Y-0.28232
G01 X1.87592 Y-0.28146
G01 X1.87791 Y-0.28126
G01 X1.87986 Y-0.28174
G01 X1.88091 Y-0.28233
G01 X1.88182 Y-0.28312
G01 X1.88292 Y-0.28480
G01 X1.88339 Y-0.28675
G01 X1.88319 Y-0.28875
G01 X1.86900 Y-0.32850
G01 X1.86330 Y-0.34277
G01 X1.86226 Y-0.34446
G01 X1.85830 Y-0.34829
G01 X1.85202 Y-0.35148
G01 X1.85010 Y-0.35206
G01 X1.84889 Y-0.35209
G01 X1.84732 Y-0.35174
G01 X1.84591 Y-0.35098
G01 X1.84475 Y-0.34986
G01 X1.84393 Y-0.34848
G01 X1.84371 Y-0.34774
G04 P0 ( dwell for no time -- G64 should not smooth over this point )
G00 Z0.08000 ( retract )

G00 X1.89411 Y-0.31205 ( rapid move to begin. )
G01 F180.00000
( Mill infeed pass 1/1 )
G01 Z-0.04000
G04 P0 ( dwell for no time -- G64 should not smooth over this point )
G01 F360.00000
G01 X1.89411 Y-0.31205
G01 X1.89431 Y-0.31086
G01 X1.89476 Y-0.30974
G01 X1.89542 Y-0.30873
G01 X1.89659 Y-0.30763
G01 X1.89765 Y-0.30704
G01 X1.89880 Y-0.30667
G01 X1.90000 Y-0.30655
G01 X1.94580 Y-0.30661
G01 X1.94697 Y-0.30689
G01 X1.94806 Y-0.30741
G01 X1.94957 Y-0.30873
G01 X1.95056 Y-0.31048
G01 X1.95090 Y-0.31246
G01 X1.95077 Y-0.31366
G01 X1.95041 Y-0.31481
G01 X1.94982 Y-0.31586
G01 X1.94902 Y-0.31677
G01 X1.94735 Y-0.31787
G01 X1.94619 Y-0.31824
G01 X1.94499 Y-0.31836
G01 X1.89960 Y-0.31835
G01 X1.89765 Y-0.31787
G01 X1.89597 Y-0.31677
G01 X1.89478 Y-0.31521
G01 X1.89411 Y-0.31205
G01 X1.89411 Y-0.29518
G01 X1.89431 Y-0.29399
G01 X1.89476 Y-0.29287
G01 X1.89542 Y-0.29186
G01 X1.89659 Y-0.29076
G01 X1.89765 Y-0.29017
G01 X1.89880 Y-0.28980
G01 X1.90000 Y-0.28968
G01 X1.94580 Y-0.28973
G01 X1.94697 Y-0.29002
G01 X1.94806 Y-0.29054
G01 X1.94957 Y-0.29186
G01 X1.95056 Y-0.29361
G01 X1.95090 Y-0.29558
G01 X1.95077 Y-0.29679
G01 X1.95041 Y-0.29794
G01 X1.94982 Y-0.29899
G01 X1.94902 Y-0.29990
G01 X1.94735 Y-0.30100
G01 X1.94619 Y-0.30136
G01 X1.94499 Y-0.30149
G01 X1.89960 Y-0.30147
G01 X1.89765 Y-0.30100
G01 X1.89597 Y-0.29990
G01 X1.89476 Y-0.29830
G01 X1.89415 Y-0.29639
G01 X1.89411 Y-0.29518
G01 X1.89415 Y-0.31326
G01 X1.89478 Y-0.31521
G01 X1.90716 Y-0.37284
G01 X1.90795 Y-0.37424
G01 X1.91158 Y-0.37793
G01 X1.91257 Y-0.37863
G01 X1.91368 Y-0.37911
G01 X1.91486 Y-0.37935
G01 X1.91607 Y-0.37935
G01 X1.91754 Y-0.37901
G01 X1.91894 Y-0.37826
G01 X1.92298 Y-0.37424
G01 X1.92361 Y-0.37321
G01 X1.92410 Y-0.37167
G01 X1.92418 Y-0.37047
G01 X1.92402 Y-0.36927
G01 X1.92361 Y-0.36813
G01 X1.92298 Y-0.36710
G01 X1.91919 Y-0.36328
G01 X1.91836 Y-0.36271
G01 X1.91725 Y-0.36223
G01 X1.91607 Y-0.36198
G01 X1.91486 Y-0.36198
G01 X1.91349 Y-0.36229
G01 X1.91206 Y-0.36303
G01 X1.90820 Y-0.36679
G01 X1.90751 Y-0.36777
G01 X1.90702 Y-0.36888
G01 X1.90678 Y-0.37006
G01 X1.90678 Y-0.37127
G01 X1.90968 Y-0.42811
G01 X1.91005 Y-0.42926
G01 X1.91064 Y-0.43032
G01 X1.91174 Y-0.43149
G01 X1.91275 Y-0.43216
G01 X1.91387 Y-0.43260
G01 X1.91506 Y-0.43280
G01 X1.91627 Y-0.43276
G01 X1.91818 Y-0.43216
G01 X1.91978 Y-0.43094
G01 X1.92088 Y-0.42926
G01 X1.92132 Y-0.42772
G01 X1.92137 Y-0.38754
G01 X1.92125 Y-0.38634
G01 X1.92088 Y-0.38519
G01 X1.92029 Y-0.38414
G01 X1.91950 Y-0.38323
G01 X1.91782 Y-0.38212
G01 X1.91667 Y-0.38176
G01 X1.91547 Y-0.38164
G01 X1.91349 Y-0.38198
G01 X1.91174 Y-0.38296
G01 X1.91042 Y-0.38447
G01 X1.90990 Y-0.38556
G01 X1.90962 Y-0.38674
G01 X1.90956 Y-0.42691
G04 P0 ( dwell for no time -- G64 should not smooth over this point )
G00 Z0.08000 ( retract )

G00 X1.93768 Y-0.42691 ( rapid move to begin. )
G01 F180.00000
( Mill infeed pass 1/1 )
G01 Z-0.04000
G04 P0 ( dwell for no time -- G64 should not smooth over this point )
G01 F360.00000
G01 X1.93768 Y-0.42691
G01 X1.93770 Y-0.38714
G01 X1.93802 Y-0.38556
G01 X1.93854 Y-0.38447
G01 X1.93956 Y-0.38323
G01 X1.94052 Y-0.38250
G01 X1.94199 Y-0.38185
G01 X1.94399 Y-0.38165
G01 X1.94594 Y-0.38212
G01 X1.94756 Y-0.38317
G01 X1.94974 Y-0.38210
G01 X1.95124 Y-0.38169
G01 X1.96124 Y-0.38169
G01 X1.96275 Y-0.38210
G01 X1.96910 Y-0.38527
G01 X1.97011 Y-0.38603
G01 X1.97094 Y-0.38699
G01 X1.97434 Y-0.39369
G01 X1.97469 Y-0.39481
G01 X1.97480 Y-0.39598
G01 X1.97479 Y-0.42732
G01 X1.97446 Y-0.42889
G01 X1.97394 Y-0.42998
G01 X1.97321 Y-0.43094
G01 X1.97230 Y-0.43174
G01 X1.97125 Y-0.43233
G01 X1.96970 Y-0.43276
G01 X1.96809 Y-0.43276
G01 X1.96692 Y-0.43248
G01 X1.96583 Y-0.43196
G01 X1.96487 Y-0.43123
G01 X1.96407 Y-0.43032
G01 X1.96333 Y-0.42889
G01 X1.96299 Y-0.42691
G01 X1.96299 Y-0.39737
G01 X1.96168 Y-0.39476
G01 X1.95907 Y-0.39345
G01 X1.95342 Y-0.39345
G01 X1.94990 Y-0.39521
G01 X1.94949 Y-0.39561
G01 X1.94949 Y-0.42691
G01 X1.94927 Y-0.42851
G01 X1.94883 Y-0.42963
G01 X1.94817 Y-0.43064
G01 X1.94699 Y-0.43174
G01 X1.94556 Y-0.43248
G01 X1.94399 Y-0.43280
G01 X1.94239 Y-0.43269
G01 X1.94087 Y-0.43216
G01 X1.93956 Y-0.43123
G01 X1.93854 Y-0.42998
G01 X1.93790 Y-0.42851
G01 X1.93768 Y-0.42691

G04 P0 ( dwell for no time -- G64 should not smooth over this point )
G00 Z1.000000 ( retract )

M5 ( Spindle off. )
G04 P1.000000
M9 ( Coolant off. )
M2 ( Program end. )

