( pcb2gcode 3.0.3 )
( Gcode for custom )

G94 ( Inches per minute feed rate. )
G20 ( Units == INCHES. )

G90 ( Absolute coordinates. )
G00 S12000 ( RPM spindle speed. )
G64 P0.00040 ( set maximum deviation from commanded toolpath )
G01 F360.00000 ( Feedrate. )

#107 = #5211
#108 = #5212

(MSG, Attach the probe tool)
M0 ( Temporary machine stop. )
G0 Z0.080 ( Move Z to safe height )
G0 X-10.95295 Y-3.35492 ( Move XY to start point )
G0 Z0.080 ( Move Z to probe height )
G38.2 Z-0.1 F2.362205 ( Z-probe )
#500 = 0 ( Probe point [0, 0] is our reference )
G92 Z0 ( Set the current Z as zero-value )

( We now start the real probing: move the Z axis to the probing height, move to )
( the probing XY position, probe it and save the result, parameter #2002, )
( in a numbered parameter; we will make 17 probes on the X-axis and )
( 6 probes on the Y-axis, for a grand total of 102 probes )

G0 Z0.080
X-10.95295 Y-2.97649
G38.2 Z-0.1 F2.362205
#501=#2002
G0 Z0.080
X-10.95295 Y-2.59807
G38.2 Z-0.1 F2.362205
#502=#2002
G0 Z0.080
X-10.95295 Y-2.21965
G38.2 Z-0.1 F2.362205
#503=#2002
G0 Z0.080
X-10.95295 Y-1.84123
G38.2 Z-0.1 F2.362205
#504=#2002
G0 Z0.080
X-10.95295 Y-1.46280
G38.2 Z-0.1 F2.362205
#505=#2002
G0 Z0.080
X-10.56920 Y-1.46280
G38.2 Z-0.1 F2.362205
#511=#2002
G0 Z0.080
X-10.56920 Y-1.84123
G38.2 Z-0.1 F2.362205
#510=#2002
G0 Z0.080
X-10.56920 Y-2.21965
G38.2 Z-0.1 F2.362205
#509=#2002
G0 Z0.080
X-10.56920 Y-2.59807
G38.2 Z-0.1 F2.362205
#508=#2002
G0 Z0.080
X-10.56920 Y-2.97649
G38.2 Z-0.1 F2.362205
#507=#2002
G0 Z0.080
X-10.56920 Y-3.35492
G38.2 Z-0.1 F2.362205
#506=#2002
G0 Z0.080
X-10.18546 Y-3.35492
G38.2 Z-0.1 F2.362205
#512=#2002
G0 Z0.080
X-10.18546 Y-2.97649
G38.2 Z-0.1 F2.362205
#513=#2002
G0 Z0.080
X-10.18546 Y-2.59807
G38.2 Z-0.1 F2.362205
#514=#2002
G0 Z0.080
X-10.18546 Y-2.21965
G38.2 Z-0.1 F2.362205
#515=#2002
G0 Z0.080
X-10.18546 Y-1.84123
G38.2 Z-0.1 F2.362205
#516=#2002
G0 Z0.080
X-10.18546 Y-1.46280
G38.2 Z-0.1 F2.362205
#517=#2002
G0 Z0.080
X-9.80171 Y-1.46280
G38.2 Z-0.1 F2.362205
#523=#2002
G0 Z0.080
X-9.80171 Y-1.84123
G38.2 Z-0.1 F2.362205
#522=#2002
G0 Z0.080
X-9.80171 Y-2.21965
G38.2 Z-0.1 F2.362205
#521=#2002
G0 Z0.080
X-9.80171 Y-2.59807
G38.2 Z-0.1 F2.362205
#520=#2002
G0 Z0.080
X-9.80171 Y-2.97649
G38.2 Z-0.1 F2.362205
#519=#2002
G0 Z0.080
X-9.80171 Y-3.35492
G38.2 Z-0.1 F2.362205
#518=#2002
G0 Z0.080
X-9.41796 Y-3.35492
G38.2 Z-0.1 F2.362205
#524=#2002
G0 Z0.080
X-9.41796 Y-2.97649
G38.2 Z-0.1 F2.362205
#525=#2002
G0 Z0.080
X-9.41796 Y-2.59807
G38.2 Z-0.1 F2.362205
#526=#2002
G0 Z0.080
X-9.41796 Y-2.21965
G38.2 Z-0.1 F2.362205
#527=#2002
G0 Z0.080
X-9.41796 Y-1.84123
G38.2 Z-0.1 F2.362205
#528=#2002
G0 Z0.080
X-9.41796 Y-1.46280
G38.2 Z-0.1 F2.362205
#529=#2002
G0 Z0.080
X-9.03422 Y-1.46280
G38.2 Z-0.1 F2.362205
#535=#2002
G0 Z0.080
X-9.03422 Y-1.84123
G38.2 Z-0.1 F2.362205
#534=#2002
G0 Z0.080
X-9.03422 Y-2.21965
G38.2 Z-0.1 F2.362205
#533=#2002
G0 Z0.080
X-9.03422 Y-2.59807
G38.2 Z-0.1 F2.362205
#532=#2002
G0 Z0.080
X-9.03422 Y-2.97649
G38.2 Z-0.1 F2.362205
#531=#2002
G0 Z0.080
X-9.03422 Y-3.35492
G38.2 Z-0.1 F2.362205
#530=#2002
G0 Z0.080
X-8.65047 Y-3.35492
G38.2 Z-0.1 F2.362205
#536=#2002
G0 Z0.080
X-8.65047 Y-2.97649
G38.2 Z-0.1 F2.362205
#537=#2002
G0 Z0.080
X-8.65047 Y-2.59807
G38.2 Z-0.1 F2.362205
#538=#2002
G0 Z0.080
X-8.65047 Y-2.21965
G38.2 Z-0.1 F2.362205
#539=#2002
G0 Z0.080
X-8.65047 Y-1.84123
G38.2 Z-0.1 F2.362205
#540=#2002
G0 Z0.080
X-8.65047 Y-1.46280
G38.2 Z-0.1 F2.362205
#541=#2002
G0 Z0.080
X-8.26672 Y-1.46280
G38.2 Z-0.1 F2.362205
#547=#2002
G0 Z0.080
X-8.26672 Y-1.84123
G38.2 Z-0.1 F2.362205
#546=#2002
G0 Z0.080
X-8.26672 Y-2.21965
G38.2 Z-0.1 F2.362205
#545=#2002
G0 Z0.080
X-8.26672 Y-2.59807
G38.2 Z-0.1 F2.362205
#544=#2002
G0 Z0.080
X-8.26672 Y-2.97649
G38.2 Z-0.1 F2.362205
#543=#2002
G0 Z0.080
X-8.26672 Y-3.35492
G38.2 Z-0.1 F2.362205
#542=#2002
G0 Z0.080
X-7.88298 Y-3.35492
G38.2 Z-0.1 F2.362205
#548=#2002
G0 Z0.080
X-7.88298 Y-2.97649
G38.2 Z-0.1 F2.362205
#549=#2002
G0 Z0.080
X-7.88298 Y-2.59807
G38.2 Z-0.1 F2.362205
#550=#2002
G0 Z0.080
X-7.88298 Y-2.21965
G38.2 Z-0.1 F2.362205
#551=#2002
G0 Z0.080
X-7.88298 Y-1.84123
G38.2 Z-0.1 F2.362205
#552=#2002
G0 Z0.080
X-7.88298 Y-1.46280
G38.2 Z-0.1 F2.362205
#553=#2002
G0 Z0.080
X-7.49923 Y-1.46280
G38.2 Z-0.1 F2.362205
#559=#2002
G0 Z0.080
X-7.49923 Y-1.84123
G38.2 Z-0.1 F2.362205
#558=#2002
G0 Z0.080
X-7.49923 Y-2.21965
G38.2 Z-0.1 F2.362205
#557=#2002
G0 Z0.080
X-7.49923 Y-2.59807
G38.2 Z-0.1 F2.362205
#556=#2002
G0 Z0.080
X-7.49923 Y-2.97649
G38.2 Z-0.1 F2.362205
#555=#2002
G0 Z0.080
X-7.49923 Y-3.35492
G38.2 Z-0.1 F2.362205
#554=#2002
G0 Z0.080
X-7.11549 Y-3.35492
G38.2 Z-0.1 F2.362205
#560=#2002
G0 Z0.080
X-7.11549 Y-2.97649
G38.2 Z-0.1 F2.362205
#561=#2002
G0 Z0.080
X-7.11549 Y-2.59807
G38.2 Z-0.1 F2.362205
#562=#2002
G0 Z0.080
X-7.11549 Y-2.21965
G38.2 Z-0.1 F2.362205
#563=#2002
G0 Z0.080
X-7.11549 Y-1.84123
G38.2 Z-0.1 F2.362205
#564=#2002
G0 Z0.080
X-7.11549 Y-1.46280
G38.2 Z-0.1 F2.362205
#565=#2002
G0 Z0.080
X-6.73174 Y-1.46280
G38.2 Z-0.1 F2.362205
#571=#2002
G0 Z0.080
X-6.73174 Y-1.84123
G38.2 Z-0.1 F2.362205
#570=#2002
G0 Z0.080
X-6.73174 Y-2.21965
G38.2 Z-0.1 F2.362205
#569=#2002
G0 Z0.080
X-6.73174 Y-2.59807
G38.2 Z-0.1 F2.362205
#568=#2002
G0 Z0.080
X-6.73174 Y-2.97649
G38.2 Z-0.1 F2.362205
#567=#2002
G0 Z0.080
X-6.73174 Y-3.35492
G38.2 Z-0.1 F2.362205
#566=#2002
G0 Z0.080
X-6.34799 Y-3.35492
G38.2 Z-0.1 F2.362205
#572=#2002
G0 Z0.080
X-6.34799 Y-2.97649
G38.2 Z-0.1 F2.362205
#573=#2002
G0 Z0.080
X-6.34799 Y-2.59807
G38.2 Z-0.1 F2.362205
#574=#2002
G0 Z0.080
X-6.34799 Y-2.21965
G38.2 Z-0.1 F2.362205
#575=#2002
G0 Z0.080
X-6.34799 Y-1.84123
G38.2 Z-0.1 F2.362205
#576=#2002
G0 Z0.080
X-6.34799 Y-1.46280
G38.2 Z-0.1 F2.362205
#577=#2002
G0 Z0.080
X-5.96425 Y-1.46280
G38.2 Z-0.1 F2.362205
#583=#2002
G0 Z0.080
X-5.96425 Y-1.84123
G38.2 Z-0.1 F2.362205
#582=#2002
G0 Z0.080
X-5.96425 Y-2.21965
G38.2 Z-0.1 F2.362205
#581=#2002
G0 Z0.080
X-5.96425 Y-2.59807
G38.2 Z-0.1 F2.362205
#580=#2002
G0 Z0.080
X-5.96425 Y-2.97649
G38.2 Z-0.1 F2.362205
#579=#2002
G0 Z0.080
X-5.96425 Y-3.35492
G38.2 Z-0.1 F2.362205
#578=#2002
G0 Z0.080
X-5.58050 Y-3.35492
G38.2 Z-0.1 F2.362205
#584=#2002
G0 Z0.080
X-5.58050 Y-2.97649
G38.2 Z-0.1 F2.362205
#585=#2002
G0 Z0.080
X-5.58050 Y-2.59807
G38.2 Z-0.1 F2.362205
#586=#2002
G0 Z0.080
X-5.58050 Y-2.21965
G38.2 Z-0.1 F2.362205
#587=#2002
G0 Z0.080
X-5.58050 Y-1.84123
G38.2 Z-0.1 F2.362205
#588=#2002
G0 Z0.080
X-5.58050 Y-1.46280
G38.2 Z-0.1 F2.362205
#589=#2002
G0 Z0.080
X-5.19676 Y-1.46280
G38.2 Z-0.1 F2.362205
#595=#2002
G0 Z0.080
X-5.19676 Y-1.84123
G38.2 Z-0.1 F2.362205
#594=#2002
G0 Z0.080
X-5.19676 Y-2.21965
G38.2 Z-0.1 F2.362205
#593=#2002
G0 Z0.080
X-5.19676 Y-2.59807
G38.2 Z-0.1 F2.362205
#592=#2002
G0 Z0.080
X-5.19676 Y-2.97649
G38.2 Z-0.1 F2.362205
#591=#2002
G0 Z0.080
X-5.19676 Y-3.35492
G38.2 Z-0.1 F2.362205
#590=#2002
G0 Z0.080
X-4.81301 Y-3.35492
G38.2 Z-0.1 F2.362205
#596=#2002
G0 Z0.080
X-4.81301 Y-2.97649
G38.2 Z-0.1 F2.362205
#597=#2002
G0 Z0.080
X-4.81301 Y-2.59807
G38.2 Z-0.1 F2.362205
#598=#2002
G0 Z0.080
X-4.81301 Y-2.21965
G38.2 Z-0.1 F2.362205
#599=#2002
G0 Z0.080
X-4.81301 Y-1.84123
G38.2 Z-0.1 F2.362205
#600=#2002
G0 Z0.080
X-4.81301 Y-1.46280
G38.2 Z-0.1 F2.362205
#601=#2002

G0 Z0.080 ( Move Z to safe height )
( Probing has ended, each Z-coordinate will be corrected with a bilinear interpolation )
(MSG, Detach the probe tool)
M0 ( Temporary machine stop. )


G00 Z1.00000 (Retract to tool change height)
T1
M5      (Spindle stop.)
G04 P1.00000 (Wait for spindle to stop)
(MSG, Change tool bit to mill diameter 0.00000in)
M6      (Tool change.)
M0      (Temporary machine stop.)
M3 ( Spindle on clockwise. )
G04 P1.00000 (Wait for spindle to get up to speed)
( Piece #1, position [0;0] )

G04 P0 ( dwell for no time -- G64 should not smooth over this point )
G00 Z0.08000 ( retract )

G00 X-9.16104 Y-2.94286 ( rapid move to begin. )
G01 F180.00000
( Mill infeed pass 1/1 )
#105=[#525+[#526-#525]*0.08889]
#106=[#531+[#532-#531]*0.08889]
#100=[#105+[#106-#105]*0.66951]
G01 Z[-0.04000+#100]
G04 P0 ( dwell for no time -- G64 should not smooth over this point )
G01 F360.00000
#105=[#525+[#526-#525]*0.07513]
#106=[#531+[#532-#531]*0.07513]
#100=[#105+[#106-#105]*0.66861]
X-9.16139 Y-2.94806 Z[#100+-0.04000]
#105=[#525+[#526-#525]*0.06162]
#106=[#531+[#532-#531]*0.06162]
#100=[#105+[#106-#105]*0.66592]
X-9.16242 Y-2.95317 Z[#100+-0.04000]
#105=[#525+[#526-#525]*0.04859]
#106=[#531+[#532-#531]*0.04859]
#100=[#105+[#106-#105]*0.66150]
X-9.16412 Y-2.95811 Z[#100+-0.04000]
#105=[#525+[#526-#525]*0.03626]
#106=[#531+[#532-#531]*0.03626]
#100=[#105+[#106-#105]*0.65542]
X-9.16645 Y-2.96277 Z[#100+-0.04000]
#105=[#525+[#526-#525]*0.02486]
#106=[#531+[#532-#531]*0.02486]
#100=[#105+[#106-#105]*0.64778]
X-9.16938 Y-2.96709 Z[#100+-0.04000]
#105=[#525+[#526-#525]*0.01532]
#106=[#531+[#532-#531]*0.01532]
#100=[#105+[#106-#105]*0.63946]
X-9.17257 Y-2.97070 Z[#100+-0.04000]
#100=[#525+[#531-#525]*0.62435]
X-9.17837 Y-2.97649 Z[#100+-0.04000]
#105=[#524+[#525-#524]*0.70162]
#106=[#530+[#531-#530]*0.70162]
#100=[#105+[#106-#105]*0.33011]
X-9.29128 Y-3.08941 Z[#100+-0.04000]
#105=[#524+[#525-#524]*0.26702]
#106=[#530+[#531-#530]*0.26702]
#100=[#105+[#106-#105]*0.65144]
X-9.16798 Y-3.25387 Z[#100+-0.04000]
#105=[#524+[#525-#524]*0.25983]
#106=[#530+[#531-#530]*0.25983]
#100=[#105+[#106-#105]*0.65589]
X-9.16627 Y-3.25659 Z[#100+-0.04000]
#105=[#524+[#525-#524]*0.25327]
#106=[#530+[#531-#530]*0.25327]
#100=[#105+[#106-#105]*0.65931]
X-9.16496 Y-3.25908 Z[#100+-0.04000]
#105=[#524+[#525-#524]*0.24548]
#106=[#530+[#531-#530]*0.24548]
#100=[#105+[#106-#105]*0.66264]
X-9.16368 Y-3.26202 Z[#100+-0.04000]
#105=[#524+[#525-#524]*0.23744]
#106=[#530+[#531-#530]*0.23744]
#100=[#105+[#106-#105]*0.66533]
X-9.16265 Y-3.26506 Z[#100+-0.04000]
#105=[#524+[#525-#524]*0.22921]
#106=[#530+[#531-#530]*0.22921]
#100=[#105+[#106-#105]*0.66737]
X-9.16186 Y-3.26818 Z[#100+-0.04000]
#105=[#524+[#525-#524]*0.22084]
#106=[#530+[#531-#530]*0.22084]
#100=[#105+[#106-#105]*0.66873]
X-9.16134 Y-3.27135 Z[#100+-0.04000]
#105=[#524+[#525-#524]*0.21238]
#106=[#530+[#531-#530]*0.21238]
#100=[#105+[#106-#105]*0.66942]
X-9.16108 Y-3.27455 Z[#100+-0.04000]
#105=[#524+[#525-#524]*0.20389]
#106=[#530+[#531-#530]*0.20389]
#100=[#105+[#106-#105]*0.66943]
X-9.16107 Y-3.27776 Z[#100+-0.04000]
#105=[#524+[#525-#524]*0.19649]
#106=[#530+[#531-#530]*0.19649]
#100=[#105+[#106-#105]*0.66888]
X-9.16128 Y-3.28056 Z[#100+-0.04000]
#105=[#524+[#525-#524]*0.18914]
#106=[#530+[#531-#530]*0.18914]
#100=[#105+[#106-#105]*0.66780]
X-9.16170 Y-3.28334 Z[#100+-0.04000]
#105=[#524+[#525-#524]*0.17578]
#106=[#530+[#531-#530]*0.17578]
#100=[#105+[#106-#105]*0.66446]
X-9.16298 Y-3.28840 Z[#100+-0.04000]
#105=[#524+[#525-#524]*0.16299]
#106=[#530+[#531-#530]*0.16299]
#100=[#105+[#106-#105]*0.65939]
X-9.16492 Y-3.29324 Z[#100+-0.04000]
#105=[#524+[#525-#524]*0.15098]
#106=[#530+[#531-#530]*0.15098]
#100=[#105+[#106-#105]*0.65271]
X-9.16749 Y-3.29778 Z[#100+-0.04000]
#105=[#524+[#525-#524]*0.13998]
#106=[#530+[#531-#530]*0.13998]
#100=[#105+[#106-#105]*0.64451]
X-9.17063 Y-3.30194 Z[#100+-0.04000]
#105=[#524+[#525-#524]*0.13018]
#106=[#530+[#531-#530]*0.13018]
#100=[#105+[#106-#105]*0.63496]
X-9.17430 Y-3.30565 Z[#100+-0.04000]
#105=[#524+[#525-#524]*0.12174]
#106=[#530+[#531-#530]*0.12174]
#100=[#105+[#106-#105]*0.62421]
X-9.17843 Y-3.30885 Z[#100+-0.04000]
#105=[#524+[#525-#524]*0.11781]
#106=[#530+[#531-#530]*0.11781]
#100=[#105+[#106-#105]*0.61799]
X-9.18081 Y-3.31033 Z[#100+-0.04000]
#105=[#524+[#525-#524]*0.11435]
#106=[#530+[#531-#530]*0.11435]
#100=[#105+[#106-#105]*0.61152]
X-9.18330 Y-3.31164 Z[#100+-0.04000]
#105=[#524+[#525-#524]*0.10919]
#106=[#530+[#531-#530]*0.10919]
#100=[#105+[#106-#105]*0.59891]
X-9.18813 Y-3.31360 Z[#100+-0.04000]
#105=[#524+[#525-#524]*0.10577]
#106=[#530+[#531-#530]*0.10577]
#100=[#105+[#106-#105]*0.58574]
X-9.19319 Y-3.31489 Z[#100+-0.04000]
#105=[#524+[#525-#524]*0.10414]
#106=[#530+[#531-#530]*0.10414]
#100=[#105+[#106-#105]*0.57224]
X-9.19837 Y-3.31551 Z[#100+-0.04000]
#105=[#524+[#525-#524]*0.10434]
#106=[#530+[#531-#530]*0.10434]
#100=[#105+[#106-#105]*0.55865]
X-9.20358 Y-3.31543 Z[#100+-0.04000]
#105=[#524+[#525-#524]*0.10521]
#106=[#530+[#531-#530]*0.10521]
#100=[#105+[#106-#105]*0.55138]
X-9.20638 Y-3.31510 Z[#100+-0.04000]
#105=[#524+[#525-#524]*0.10659]
#106=[#530+[#531-#530]*0.10659]
#100=[#105+[#106-#105]*0.54418]
X-9.20914 Y-3.31458 Z[#100+-0.04000]
#105=[#524+[#525-#524]*0.11053]
#106=[#530+[#531-#530]*0.11053]
#100=[#105+[#106-#105]*0.53115]
X-9.21414 Y-3.31309 Z[#100+-0.04000]
#105=[#524+[#525-#524]*0.11618]
#106=[#530+[#531-#530]*0.11618]
#100=[#105+[#106-#105]*0.51875]
X-9.21889 Y-3.31095 Z[#100+-0.04000]
#105=[#524+[#525-#524]*0.12345]
#106=[#530+[#531-#530]*0.12345]
#100=[#105+[#106-#105]*0.50720]
X-9.22333 Y-3.30820 Z[#100+-0.04000]
#105=[#524+[#525-#524]*0.12798]
#106=[#530+[#531-#530]*0.12798]
#100=[#105+[#106-#105]*0.50140]
X-9.22555 Y-3.30649 Z[#100+-0.04000]
#105=[#524+[#525-#524]*0.13293]
#106=[#530+[#531-#530]*0.13293]
#100=[#105+[#106-#105]*0.49593]
X-9.22765 Y-3.30462 Z[#100+-0.04000]
#105=[#524+[#525-#524]*0.13825]
#106=[#530+[#531-#530]*0.13825]
#100=[#105+[#106-#105]*0.49083]
X-9.22961 Y-3.30260 Z[#100+-0.04000]
#105=[#524+[#525-#524]*0.14477]
#106=[#530+[#531-#530]*0.14477]
#100=[#105+[#106-#105]*0.48547]
X-9.23166 Y-3.30013 Z[#100+-0.04000]
#105=[#524+[#525-#524]*0.55300]
#106=[#530+[#531-#530]*0.55300]
#100=[#105+[#106-#105]*0.18355]
X-9.34753 Y-3.14565 Z[#100+-0.04000]
#105=[#524+[#525-#524]*0.54245]
#106=[#530+[#531-#530]*0.54245]
#100=[#105+[#106-#105]*0.17315]
X-9.35152 Y-3.14964 Z[#100+-0.04000]
#105=[#524+[#525-#524]*0.20592]
#106=[#530+[#531-#530]*0.20592]
#100=[#105+[#106-#105]*0.17313]
X-9.35153 Y-3.27699 Z[#100+-0.04000]
#105=[#524+[#525-#524]*0.19639]
#106=[#530+[#531-#530]*0.19639]
#100=[#105+[#106-#105]*0.17250]
X-9.35177 Y-3.28060 Z[#100+-0.04000]
#105=[#524+[#525-#524]*0.18697]
#106=[#530+[#531-#530]*0.18697]
#100=[#105+[#106-#105]*0.17102]
X-9.35233 Y-3.28416 Z[#100+-0.04000]
#105=[#524+[#525-#524]*0.17771]
#106=[#530+[#531-#530]*0.17771]
#100=[#105+[#106-#105]*0.16870]
X-9.35323 Y-3.28767 Z[#100+-0.04000]
#105=[#524+[#525-#524]*0.16872]
#106=[#530+[#531-#530]*0.16872]
#100=[#105+[#106-#105]*0.16554]
X-9.35444 Y-3.29107 Z[#100+-0.04000]
#105=[#524+[#525-#524]*0.15818]
#106=[#530+[#531-#530]*0.15818]
#100=[#105+[#106-#105]*0.16060]
X-9.35633 Y-3.29506 Z[#100+-0.04000]
#105=[#524+[#525-#524]*0.14827]
#106=[#530+[#531-#530]*0.14827]
#100=[#105+[#106-#105]*0.15453]
X-9.35866 Y-3.29881 Z[#100+-0.04000]
#105=[#524+[#525-#524]*0.13911]
#106=[#530+[#531-#530]*0.13911]
#100=[#105+[#106-#105]*0.14740]
X-9.36140 Y-3.30227 Z[#100+-0.04000]
#105=[#524+[#525-#524]*0.13082]
#106=[#530+[#531-#530]*0.13082]
#100=[#105+[#106-#105]*0.13931]
X-9.36450 Y-3.30541 Z[#100+-0.04000]
#105=[#524+[#525-#524]*0.12350]
#106=[#530+[#531-#530]*0.12350]
#100=[#105+[#106-#105]*0.13035]
X-9.36794 Y-3.30818 Z[#100+-0.04000]
#105=[#524+[#525-#524]*0.11724]
#106=[#530+[#531-#530]*0.11724]
#100=[#105+[#106-#105]*0.12064]
X-9.37167 Y-3.31055 Z[#100+-0.04000]
#105=[#524+[#525-#524]*0.11213]
#106=[#530+[#531-#530]*0.11213]
#100=[#105+[#106-#105]*0.11030]
X-9.37564 Y-3.31249 Z[#100+-0.04000]
#105=[#524+[#525-#524]*0.10822]
#106=[#530+[#531-#530]*0.10822]
#100=[#105+[#106-#105]*0.09946]
X-9.37980 Y-3.31397 Z[#100+-0.04000]
#105=[#524+[#525-#524]*0.10556]
#106=[#530+[#531-#530]*0.10556]
#100=[#105+[#106-#105]*0.08826]
X-9.38410 Y-3.31497 Z[#100+-0.04000]
#105=[#524+[#525-#524]*0.10420]
#106=[#530+[#531-#530]*0.10420]
#100=[#105+[#106-#105]*0.07683]
X-9.38848 Y-3.31549 Z[#100+-0.04000]
#105=[#524+[#525-#524]*0.10414]
#106=[#530+[#531-#530]*0.10414]
#100=[#105+[#106-#105]*0.06533]
X-9.39289 Y-3.31551 Z[#100+-0.04000]
#105=[#524+[#525-#524]*0.10539]
#106=[#530+[#531-#530]*0.10539]
#100=[#105+[#106-#105]*0.05389]
X-9.39728 Y-3.31504 Z[#100+-0.04000]
#105=[#524+[#525-#524]*0.10822]
#106=[#530+[#531-#530]*0.10822]
#100=[#105+[#106-#105]*0.04165]
X-9.40198 Y-3.31397 Z[#100+-0.04000]
#105=[#524+[#525-#524]*0.11213]
#106=[#530+[#531-#530]*0.11213]
#100=[#105+[#106-#105]*0.03081]
X-9.40614 Y-3.31249 Z[#100+-0.04000]
#105=[#524+[#525-#524]*0.11724]
#106=[#530+[#531-#530]*0.11724]
#100=[#105+[#106-#105]*0.02047]
X-9.41011 Y-3.31055 Z[#100+-0.04000]
#105=[#524+[#525-#524]*0.12350]
#106=[#530+[#531-#530]*0.12350]
#100=[#105+[#106-#105]*0.01076]
X-9.41383 Y-3.30818 Z[#100+-0.04000]
#105=[#524+[#525-#524]*0.13082]
#106=[#530+[#531-#530]*0.13082]
#100=[#105+[#106-#105]*0.00180]
X-9.41727 Y-3.30541 Z[#100+-0.04000]
#100=[#524+[#525-#524]*0.13269]
X-9.41796 Y-3.30470 Z[#100+-0.04000]
#105=[#518+[#519-#518]*0.13991]
#106=[#524+[#525-#524]*0.13991]
#100=[#105+[#106-#105]*0.99302]
X-9.42064 Y-3.30197 Z[#100+-0.04000]
#105=[#518+[#519-#518]*0.14914]
#106=[#524+[#525-#524]*0.14914]
#100=[#105+[#106-#105]*0.98599]
X-9.42334 Y-3.29848 Z[#100+-0.04000]
#105=[#518+[#519-#518]*0.15912]
#106=[#524+[#525-#524]*0.15912]
#100=[#105+[#106-#105]*0.98002]
X-9.42563 Y-3.29470 Z[#100+-0.04000]
#105=[#518+[#519-#518]*0.17069]
#106=[#524+[#525-#524]*0.17069]
#100=[#105+[#106-#105]*0.97480]
X-9.42763 Y-3.29032 Z[#100+-0.04000]
#105=[#518+[#519-#518]*0.18180]
#106=[#524+[#525-#524]*0.18180]
#100=[#105+[#106-#105]*0.97128]
X-9.42898 Y-3.28612 Z[#100+-0.04000]
#105=[#518+[#519-#518]*0.19324]
#106=[#524+[#525-#524]*0.19324]
#100=[#105+[#106-#105]*0.96901]
X-9.42986 Y-3.28179 Z[#100+-0.04000]
#105=[#518+[#519-#518]*0.20486]
#106=[#524+[#525-#524]*0.20486]
#100=[#105+[#106-#105]*0.96801]
X-9.43024 Y-3.27739 Z[#100+-0.04000]
#100=[#519+[#525-#519]*0.96803]
X-9.43023 Y-2.97649 Z[#100+-0.04000]
#105=[#519+[#520-#519]*0.53356]
#106=[#525+[#526-#525]*0.53356]
#100=[#105+[#106-#105]*0.96805]
X-9.43023 Y-2.77458 Z[#100+-0.04000]
#105=[#519+[#520-#519]*0.54307]
#106=[#525+[#526-#525]*0.54307]
#100=[#105+[#106-#105]*0.96886]
X-9.42991 Y-2.77098 Z[#100+-0.04000]
#105=[#519+[#520-#519]*0.55350]
#106=[#525+[#526-#525]*0.55350]
#100=[#105+[#106-#105]*0.97077]
X-9.42918 Y-2.76704 Z[#100+-0.04000]
#105=[#519+[#520-#519]*0.56267]
#106=[#525+[#526-#525]*0.56267]
#100=[#105+[#106-#105]*0.97338]
X-9.42818 Y-2.76357 Z[#100+-0.04000]
#105=[#519+[#520-#519]*0.57253]
#106=[#525+[#526-#525]*0.57253]
#100=[#105+[#106-#105]*0.97723]
X-9.42670 Y-2.75983 Z[#100+-0.04000]
#105=[#519+[#520-#519]*0.58195]
#106=[#525+[#526-#525]*0.58195]
#100=[#105+[#106-#105]*0.98206]
X-9.42485 Y-2.75627 Z[#100+-0.04000]
#105=[#519+[#520-#519]*0.59081]
#106=[#525+[#526-#525]*0.59081]
#100=[#105+[#106-#105]*0.98780]
X-9.42264 Y-2.75292 Z[#100+-0.04000]
#105=[#519+[#520-#519]*0.59903]
#106=[#525+[#526-#525]*0.59903]
#100=[#105+[#106-#105]*0.99441]
X-9.42011 Y-2.74981 Z[#100+-0.04000]
#100=[#525+[#526-#525]*0.60477]
X-9.41796 Y-2.74764 Z[#100+-0.04000]
#105=[#525+[#526-#525]*0.60582]
#106=[#531+[#532-#531]*0.60582]
#100=[#105+[#106-#105]*0.00103]
X-9.41757 Y-2.74724 Z[#100+-0.04000]
#105=[#525+[#526-#525]*0.61196]
#106=[#531+[#532-#531]*0.61196]
#100=[#105+[#106-#105]*0.00824]
X-9.41480 Y-2.74491 Z[#100+-0.04000]
#105=[#525+[#526-#525]*0.61797]
#106=[#531+[#532-#531]*0.61797]
#100=[#105+[#106-#105]*0.01686]
X-9.41149 Y-2.74264 Z[#100+-0.04000]
#105=[#525+[#526-#525]*0.62305]
#106=[#531+[#532-#531]*0.62305]
#100=[#105+[#106-#105]*0.02604]
X-9.40797 Y-2.74072 Z[#100+-0.04000]
#105=[#525+[#526-#525]*0.62716]
#106=[#531+[#532-#531]*0.62716]
#100=[#105+[#106-#105]*0.03569]
X-9.40427 Y-2.73916 Z[#100+-0.04000]
#105=[#525+[#526-#525]*0.63025]
#106=[#531+[#532-#531]*0.63025]
#100=[#105+[#106-#105]*0.04569]
X-9.40043 Y-2.73799 Z[#100+-0.04000]
#105=[#525+[#526-#525]*0.63214]
#106=[#531+[#532-#531]*0.63214]
#100=[#105+[#106-#105]*0.05492]
X-9.39689 Y-2.73728 Z[#100+-0.04000]
#105=[#525+[#526-#525]*0.63316]
#106=[#531+[#532-#531]*0.63316]
#100=[#105+[#106-#105]*0.06428]
X-9.39330 Y-2.73689 Z[#100+-0.04000]
#105=[#525+[#526-#525]*0.63327]
#106=[#531+[#532-#531]*0.63327]
#100=[#105+[#106-#105]*0.07474]
X-9.38928 Y-2.73685 Z[#100+-0.04000]
#105=[#525+[#526-#525]*0.63244]
#106=[#531+[#532-#531]*0.63244]
#100=[#105+[#106-#105]*0.08412]
X-9.38568 Y-2.73717 Z[#100+-0.04000]
#105=[#525+[#526-#525]*0.63097]
#106=[#531+[#532-#531]*0.63097]
#100=[#105+[#106-#105]*0.09236]
X-9.38252 Y-2.73772 Z[#100+-0.04000]
#105=[#525+[#526-#525]*0.62852]
#106=[#531+[#532-#531]*0.62852]
#100=[#105+[#106-#105]*0.10146]
X-9.37903 Y-2.73865 Z[#100+-0.04000]
#105=[#525+[#526-#525]*0.62523]
#106=[#531+[#532-#531]*0.62523]
#100=[#105+[#106-#105]*0.11030]
X-9.37564 Y-2.73989 Z[#100+-0.04000]
#105=[#525+[#526-#525]*0.62113]
#106=[#531+[#532-#531]*0.62113]
#100=[#105+[#106-#105]*0.11880]
X-9.37237 Y-2.74145 Z[#100+-0.04000]
#105=[#525+[#526-#525]*0.61684]
#106=[#531+[#532-#531]*0.61684]
#100=[#105+[#106-#105]*0.12602]
X-9.36960 Y-2.74307 Z[#100+-0.04000]
#105=[#525+[#526-#525]*0.61196]
#106=[#531+[#532-#531]*0.61196]
#100=[#105+[#106-#105]*0.13287]
X-9.36697 Y-2.74491 Z[#100+-0.04000]
#105=[#525+[#526-#525]*0.60582]
#106=[#531+[#532-#531]*0.60582]
#100=[#105+[#106-#105]*0.14008]
X-9.36421 Y-2.74724 Z[#100+-0.04000]
#105=[#525+[#526-#525]*0.59982]
#106=[#531+[#532-#531]*0.59982]
#100=[#105+[#106-#105]*0.14600]
X-9.36194 Y-2.74951 Z[#100+-0.04000]
#105=[#525+[#526-#525]*0.59251]
#106=[#531+[#532-#531]*0.59251]
#100=[#105+[#106-#105]*0.15206]
X-9.35961 Y-2.75228 Z[#100+-0.04000]
#105=[#525+[#526-#525]*0.58556]
#106=[#531+[#532-#531]*0.58556]
#100=[#105+[#106-#105]*0.15686]
X-9.35777 Y-2.75490 Z[#100+-0.04000]
#105=[#525+[#526-#525]*0.57730]
#106=[#531+[#532-#531]*0.57730]
#100=[#105+[#106-#105]*0.16158]
X-9.35596 Y-2.75803 Z[#100+-0.04000]
#105=[#525+[#526-#525]*0.56962]
#106=[#531+[#532-#531]*0.56962]
#100=[#105+[#106-#105]*0.16514]
X-9.35459 Y-2.76094 Z[#100+-0.04000]
#105=[#525+[#526-#525]*0.56066]
#106=[#531+[#532-#531]*0.56066]
#100=[#105+[#106-#105]*0.16839]
X-9.35335 Y-2.76433 Z[#100+-0.04000]
#105=[#525+[#526-#525]*0.55143]
#106=[#531+[#532-#531]*0.55143]
#100=[#105+[#106-#105]*0.17081]
X-9.35242 Y-2.76782 Z[#100+-0.04000]
#105=[#525+[#526-#525]*0.54202]
#106=[#531+[#532-#531]*0.54202]
#100=[#105+[#106-#105]*0.17238]
X-9.35181 Y-2.77138 Z[#100+-0.04000]
#105=[#525+[#526-#525]*0.52931]
#106=[#531+[#532-#531]*0.52931]
#100=[#105+[#106-#105]*0.17315]
X-9.35152 Y-2.77619 Z[#100+-0.04000]
#100=[#525+[#531-#525]*0.17315]
X-9.35152 Y-2.97649 Z[#100+-0.04000]
#105=[#524+[#525-#524]*0.83671]
#106=[#530+[#531-#530]*0.83671]
#100=[#105+[#106-#105]*0.17315]
X-9.35152 Y-3.03829 Z[#100+-0.04000]
#100=[#525+[#531-#525]*0.33418]
X-9.28972 Y-2.97649 Z[#100+-0.04000]
#105=[#525+[#526-#525]*0.16320]
#106=[#531+[#532-#531]*0.16320]
#100=[#105+[#106-#105]*0.49512]
X-9.22796 Y-2.91473 Z[#100+-0.04000]
#105=[#525+[#526-#525]*0.17153]
#106=[#531+[#532-#531]*0.17153]
#100=[#105+[#106-#105]*0.50460]
X-9.22432 Y-2.91158 Z[#100+-0.04000]
#105=[#525+[#526-#525]*0.17863]
#106=[#531+[#532-#531]*0.17863]
#100=[#105+[#106-#105]*0.51502]
X-9.22033 Y-2.90890 Z[#100+-0.04000]
#105=[#525+[#526-#525]*0.18396]
#106=[#531+[#532-#531]*0.18396]
#100=[#105+[#106-#105]*0.52525]
X-9.21640 Y-2.90688 Z[#100+-0.04000]
#105=[#525+[#526-#525]*0.18777]
#106=[#531+[#532-#531]*0.18777]
#100=[#105+[#106-#105]*0.53502]
X-9.21265 Y-2.90544 Z[#100+-0.04000]
#105=[#525+[#526-#525]*0.19055]
#106=[#531+[#532-#531]*0.19055]
#100=[#105+[#106-#105]*0.54511]
X-9.20878 Y-2.90439 Z[#100+-0.04000]
#105=[#525+[#526-#525]*0.19227]
#106=[#531+[#532-#531]*0.19227]
#100=[#105+[#106-#105]*0.55543]
X-9.20482 Y-2.90373 Z[#100+-0.04000]
#105=[#525+[#526-#525]*0.19292]
#106=[#531+[#532-#531]*0.19292]
#100=[#105+[#106-#105]*0.56587]
X-9.20081 Y-2.90349 Z[#100+-0.04000]
#105=[#525+[#526-#525]*0.19239]
#106=[#531+[#532-#531]*0.19239]
#100=[#105+[#106-#105]*0.57736]
X-9.19640 Y-2.90369 Z[#100+-0.04000]
#105=[#525+[#526-#525]*0.19077]
#106=[#531+[#532-#531]*0.19077]
#100=[#105+[#106-#105]*0.58770]
X-9.19244 Y-2.90430 Z[#100+-0.04000]
#105=[#525+[#526-#525]*0.18777]
#106=[#531+[#532-#531]*0.18777]
#100=[#105+[#106-#105]*0.59882]
X-9.18817 Y-2.90544 Z[#100+-0.04000]
#105=[#525+[#526-#525]*0.18396]
#106=[#531+[#532-#531]*0.18396]
#100=[#105+[#106-#105]*0.60858]
X-9.18442 Y-2.90688 Z[#100+-0.04000]
#105=[#525+[#526-#525]*0.17863]
#106=[#531+[#532-#531]*0.17863]
#100=[#105+[#106-#105]*0.61882]
X-9.18049 Y-2.90890 Z[#100+-0.04000]
#105=[#525+[#526-#525]*0.17218]
#106=[#531+[#532-#531]*0.17218]
#100=[#105+[#106-#105]*0.62840]
X-9.17682 Y-2.91134 Z[#100+-0.04000]
#105=[#525+[#526-#525]*0.16540]
#106=[#531+[#532-#531]*0.16540]
#100=[#105+[#106-#105]*0.63644]
X-9.17373 Y-2.91391 Z[#100+-0.04000]
#105=[#525+[#526-#525]*0.15782]
#106=[#531+[#532-#531]*0.15782]
#100=[#105+[#106-#105]*0.64376]
X-9.17092 Y-2.91677 Z[#100+-0.04000]
#105=[#525+[#526-#525]*0.14866]
#106=[#531+[#532-#531]*0.14866]
#100=[#105+[#106-#105]*0.65089]
X-9.16819 Y-2.92024 Z[#100+-0.04000]
#105=[#525+[#526-#525]*0.13875]
#106=[#531+[#532-#531]*0.13875]
#100=[#105+[#106-#105]*0.65696]
X-9.16586 Y-2.92399 Z[#100+-0.04000]
#105=[#525+[#526-#525]*0.12919]
#106=[#531+[#532-#531]*0.12919]
#100=[#105+[#106-#105]*0.66150]
X-9.16412 Y-2.92760 Z[#100+-0.04000]
#105=[#525+[#526-#525]*0.11616]
#106=[#531+[#532-#531]*0.11616]
#100=[#105+[#106-#105]*0.66592]
X-9.16242 Y-2.93254 Z[#100+-0.04000]
#105=[#525+[#526-#525]*0.10265]
#106=[#531+[#532-#531]*0.10265]
#100=[#105+[#106-#105]*0.66861]
X-9.16139 Y-2.93765 Z[#100+-0.04000]
#105=[#525+[#526-#525]*0.08889]
#106=[#531+[#532-#531]*0.08889]
#100=[#105+[#106-#105]*0.66951]
X-9.16104 Y-2.94286 Z[#100+-0.04000]
G04 P0 ( dwell for no time -- G64 should not smooth over this point )
G00 Z0.08000 ( retract )

G00 X-9.56582 Y-2.96564 ( rapid move to begin. )
G01 F180.00000
( Mill infeed pass 1/1 )
#105=[#519+[#520-#519]*0.02867]
#106=[#525+[#526-#525]*0.02867]
#100=[#105+[#106-#105]*0.61471]
G01 Z[-0.04000+#100]
G04 P0 ( dwell for no time -- G64 should not smooth over this point )
G01 F360.00000
#105=[#519+[#520-#519]*0.03608]
#106=[#525+[#526-#525]*0.03608]
#100=[#105+[#106-#105]*0.61426]
X-9.56599 Y-2.96284 Z[#100+-0.04000]
#105=[#519+[#520-#519]*0.04345]
#106=[#525+[#526-#525]*0.04345]
#100=[#105+[#106-#105]*0.61329]
X-9.56636 Y-2.96005 Z[#100+-0.04000]
#105=[#519+[#520-#519]*0.05685]
#106=[#525+[#526-#525]*0.05685]
#100=[#105+[#106-#105]*0.61012]
X-9.56758 Y-2.95498 Z[#100+-0.04000]
#105=[#519+[#520-#519]*0.06386]
#106=[#525+[#526-#525]*0.06386]
#100=[#105+[#106-#105]*0.60770]
X-9.56851 Y-2.95233 Z[#100+-0.04000]
#105=[#519+[#520-#519]*0.07068]
#106=[#525+[#526-#525]*0.07068]
#100=[#105+[#106-#105]*0.60479]
X-9.56962 Y-2.94975 Z[#100+-0.04000]
#105=[#519+[#520-#519]*0.08270]
#106=[#525+[#526-#525]*0.08270]
#100=[#105+[#106-#105]*0.59815]
X-9.57217 Y-2.94520 Z[#100+-0.04000]
#105=[#519+[#520-#519]*0.09374]
#106=[#525+[#526-#525]*0.09374]
#100=[#105+[#106-#105]*0.59000]
X-9.57530 Y-2.94102 Z[#100+-0.04000]
#105=[#519+[#520-#519]*0.09920]
#106=[#525+[#526-#525]*0.09920]
#100=[#105+[#106-#105]*0.58503]
X-9.57721 Y-2.93896 Z[#100+-0.04000]
#105=[#519+[#520-#519]*0.10428]
#106=[#525+[#526-#525]*0.10428]
#100=[#105+[#106-#105]*0.57970]
X-9.57925 Y-2.93703 Z[#100+-0.04000]
#105=[#519+[#520-#519]*0.11265]
#106=[#525+[#526-#525]*0.11265]
#100=[#105+[#106-#105]*0.56890]
X-9.58340 Y-2.93386 Z[#100+-0.04000]
#105=[#519+[#520-#519]*0.11903]
#106=[#525+[#526-#525]*0.11903]
#100=[#105+[#106-#105]*0.55803]
X-9.58757 Y-2.93145 Z[#100+-0.04000]
#105=[#519+[#520-#519]*0.18288]
#106=[#525+[#526-#525]*0.18288]
#100=[#105+[#106-#105]*0.43204]
X-9.63591 Y-2.90729 Z[#100+-0.04000]
#105=[#519+[#520-#519]*0.18800]
#106=[#525+[#526-#525]*0.18800]
#100=[#105+[#106-#105]*0.41927]
X-9.64082 Y-2.90535 Z[#100+-0.04000]
#105=[#519+[#520-#519]*0.19133]
#106=[#525+[#526-#525]*0.19133]
#100=[#105+[#106-#105]*0.40594]
X-9.64593 Y-2.90409 Z[#100+-0.04000]
#105=[#519+[#520-#519]*0.19248]
#106=[#525+[#526-#525]*0.19248]
#100=[#105+[#106-#105]*0.39756]
X-9.64915 Y-2.90366 Z[#100+-0.04000]
#105=[#519+[#520-#519]*0.19293]
#106=[#525+[#526-#525]*0.19293]
#100=[#105+[#106-#105]*0.38806]
X-9.65279 Y-2.90349 Z[#100+-0.04000]
#105=[#519+[#520-#519]*0.19293]
#106=[#525+[#526-#525]*0.19293]
#100=[#105+[#106-#105]*0.13988]
X-9.74803 Y-2.90349 Z[#100+-0.04000]
#105=[#519+[#520-#519]*0.19199]
#106=[#525+[#526-#525]*0.19199]
#100=[#105+[#106-#105]*0.12618]
X-9.75329 Y-2.90384 Z[#100+-0.04000]
#105=[#519+[#520-#519]*0.19073]
#106=[#525+[#526-#525]*0.19073]
#100=[#105+[#106-#105]*0.11889]
X-9.75609 Y-2.90432 Z[#100+-0.04000]
#105=[#519+[#520-#519]*0.18893]
#106=[#525+[#526-#525]*0.18893]
#100=[#105+[#106-#105]*0.11171]
X-9.75884 Y-2.90500 Z[#100+-0.04000]
#105=[#519+[#520-#519]*0.18623]
#106=[#525+[#526-#525]*0.18623]
#100=[#105+[#106-#105]*0.10368]
X-9.76192 Y-2.90602 Z[#100+-0.04000]
#105=[#519+[#520-#519]*0.18334]
#106=[#525+[#526-#525]*0.18334]
#100=[#105+[#106-#105]*0.09686]
X-9.76454 Y-2.90712 Z[#100+-0.04000]
#100=[#519+[#520-#519]*0.13427]
X-9.80171 Y-2.92568 Z[#100+-0.04000]
#105=[#513+[#514-#513]*0.11903]
#106=[#519+[#520-#519]*0.11903]
#100=[#105+[#106-#105]*0.96991]
X-9.81326 Y-2.93145 Z[#100+-0.04000]
#105=[#513+[#514-#513]*0.11275]
#106=[#519+[#520-#519]*0.11275]
#100=[#105+[#106-#105]*0.95920]
X-9.81737 Y-2.93383 Z[#100+-0.04000]
#105=[#513+[#514-#513]*0.10655]
#106=[#519+[#520-#519]*0.10655]
#100=[#105+[#106-#105]*0.95089]
X-9.82055 Y-2.93617 Z[#100+-0.04000]
#105=[#513+[#514-#513]*0.09954]
#106=[#519+[#520-#519]*0.09954]
#100=[#105+[#106-#105]*0.94324]
X-9.82349 Y-2.93883 Z[#100+-0.04000]
#105=[#513+[#514-#513]*0.03512]
#106=[#519+[#520-#519]*0.03512]
#100=[#105+[#106-#105]*0.87976]
X-9.84785 Y-2.96320 Z[#100+-0.04000]
#105=[#513+[#514-#513]*0.02805]
#106=[#519+[#520-#519]*0.02805]
#100=[#105+[#106-#105]*0.87364]
X-9.85020 Y-2.96588 Z[#100+-0.04000]
#105=[#513+[#514-#513]*0.02044]
#106=[#519+[#520-#519]*0.02044]
#100=[#105+[#106-#105]*0.86817]
X-9.85230 Y-2.96876 Z[#100+-0.04000]
#105=[#513+[#514-#513]*0.00958]
#106=[#519+[#520-#519]*0.00958]
#100=[#105+[#106-#105]*0.86199]
X-9.85467 Y-2.97287 Z[#100+-0.04000]
#100=[#513+[#519-#513]*0.85726]
X-9.85648 Y-2.97649 Z[#100+-0.04000]
#105=[#512+[#513-#512]*0.88085]
#106=[#518+[#519-#518]*0.88085]
#100=[#105+[#106-#105]*0.79857]
X-9.87901 Y-3.02158 Z[#100+-0.04000]
#105=[#512+[#513-#512]*0.87292]
#106=[#518+[#519-#518]*0.87292]
#100=[#105+[#106-#105]*0.79534]
X-9.88025 Y-3.02458 Z[#100+-0.04000]
#105=[#512+[#513-#512]*0.86579]
#106=[#518+[#519-#518]*0.86579]
#100=[#105+[#106-#105]*0.79305]
X-9.88113 Y-3.02728 Z[#100+-0.04000]
#105=[#512+[#513-#512]*0.85851]
#106=[#518+[#519-#518]*0.85851]
#100=[#105+[#106-#105]*0.79128]
X-9.88181 Y-3.03004 Z[#100+-0.04000]
#105=[#512+[#513-#512]*0.85111]
#106=[#518+[#519-#518]*0.85111]
#100=[#105+[#106-#105]*0.79003]
X-9.88229 Y-3.03284 Z[#100+-0.04000]
#105=[#512+[#513-#512]*0.83722]
#106=[#518+[#519-#518]*0.83722]
#100=[#105+[#106-#105]*0.78911]
X-9.88264 Y-3.03810 Z[#100+-0.04000]
#105=[#512+[#513-#512]*0.45971]
#106=[#518+[#519-#518]*0.45971]
#100=[#105+[#106-#105]*0.78911]
X-9.88264 Y-3.18095 Z[#100+-0.04000]
#105=[#512+[#513-#512]*0.44795]
#106=[#518+[#519-#518]*0.44795]
#100=[#105+[#106-#105]*0.78977]
X-9.88239 Y-3.18540 Z[#100+-0.04000]
#105=[#512+[#513-#512]*0.43947]
#106=[#518+[#519-#518]*0.43947]
#100=[#105+[#106-#105]*0.79107]
X-9.88189 Y-3.18861 Z[#100+-0.04000]
#105=[#512+[#513-#512]*0.43114]
#106=[#518+[#519-#518]*0.43114]
#100=[#105+[#106-#105]*0.79305]
X-9.88113 Y-3.19176 Z[#100+-0.04000]
#105=[#512+[#513-#512]*0.42401]
#106=[#518+[#519-#518]*0.42401]
#100=[#105+[#106-#105]*0.79534]
X-9.88025 Y-3.19446 Z[#100+-0.04000]
#105=[#512+[#513-#512]*0.41608]
#106=[#518+[#519-#518]*0.41608]
#100=[#105+[#106-#105]*0.79857]
X-9.87901 Y-3.19746 Z[#100+-0.04000]
#105=[#512+[#513-#512]*0.28735]
#106=[#518+[#519-#518]*0.28735]
#100=[#105+[#106-#105]*0.86199]
X-9.85467 Y-3.24618 Z[#100+-0.04000]
#105=[#512+[#513-#512]*0.27736]
#106=[#518+[#519-#518]*0.27736]
#100=[#105+[#106-#105]*0.86761]
X-9.85251 Y-3.24996 Z[#100+-0.04000]
#105=[#512+[#513-#512]*0.26888]
#106=[#518+[#519-#518]*0.26888]
#100=[#105+[#106-#105]*0.87364]
X-9.85020 Y-3.25317 Z[#100+-0.04000]
#105=[#512+[#513-#512]*0.26031]
#106=[#518+[#519-#518]*0.26031]
#100=[#105+[#106-#105]*0.88120]
X-9.84730 Y-3.25641 Z[#100+-0.04000]
#105=[#512+[#513-#512]*0.19593]
#106=[#518+[#519-#518]*0.19593]
#100=[#105+[#106-#105]*0.94472]
X-9.82292 Y-3.28077 Z[#100+-0.04000]
#105=[#512+[#513-#512]*0.18972]
#106=[#518+[#519-#518]*0.18972]
#100=[#105+[#106-#105]*0.95170]
X-9.82025 Y-3.28312 Z[#100+-0.04000]
#105=[#512+[#513-#512]*0.18418]
#106=[#518+[#519-#518]*0.18418]
#100=[#105+[#106-#105]*0.95920]
X-9.81737 Y-3.28522 Z[#100+-0.04000]
#105=[#512+[#513-#512]*0.17791]
#106=[#518+[#519-#518]*0.17791]
#100=[#105+[#106-#105]*0.96991]
X-9.81326 Y-3.28759 Z[#100+-0.04000]
#100=[#518+[#519-#518]*0.16266]
X-9.80171 Y-3.29336 Z[#100+-0.04000]
#105=[#518+[#519-#518]*0.11405]
#106=[#524+[#525-#524]*0.11405]
#100=[#105+[#106-#105]*0.09590]
X-9.76491 Y-3.31176 Z[#100+-0.04000]
#105=[#518+[#519-#518]*0.10927]
#106=[#524+[#525-#524]*0.10927]
#100=[#105+[#106-#105]*0.10767]
X-9.76039 Y-3.31357 Z[#100+-0.04000]
#105=[#518+[#519-#518]*0.10579]
#106=[#524+[#525-#524]*0.10579]
#100=[#105+[#106-#105]*0.12096]
X-9.75529 Y-3.31488 Z[#100+-0.04000]
#105=[#518+[#519-#518]*0.10456]
#106=[#524+[#525-#524]*0.10456]
#100=[#105+[#106-#105]*0.12933]
X-9.75208 Y-3.31535 Z[#100+-0.04000]
#105=[#518+[#519-#518]*0.10401]
#106=[#524+[#525-#524]*0.10401]
#100=[#105+[#106-#105]*0.13882]
X-9.74844 Y-3.31556 Z[#100+-0.04000]
#105=[#518+[#519-#518]*0.10409]
#106=[#524+[#525-#524]*0.10409]
#100=[#105+[#106-#105]*0.39229]
X-9.65117 Y-3.31553 Z[#100+-0.04000]
#105=[#518+[#519-#518]*0.10494]
#106=[#524+[#525-#524]*0.10494]
#100=[#105+[#106-#105]*0.40176]
X-9.64753 Y-3.31521 Z[#100+-0.04000]
#105=[#518+[#519-#518]*0.10667]
#106=[#524+[#525-#524]*0.10667]
#100=[#105+[#106-#105]*0.41112]
X-9.64394 Y-3.31455 Z[#100+-0.04000]
#105=[#518+[#519-#518]*0.10927]
#106=[#524+[#525-#524]*0.10927]
#100=[#105+[#106-#105]*0.42028]
X-9.64043 Y-3.31357 Z[#100+-0.04000]
#105=[#518+[#519-#518]*0.11272]
#106=[#524+[#525-#524]*0.11272]
#100=[#105+[#106-#105]*0.42916]
X-9.63702 Y-3.31226 Z[#100+-0.04000]
#105=[#518+[#519-#518]*0.17887]
#106=[#524+[#525-#524]*0.17887]
#100=[#105+[#106-#105]*0.55990]
X-9.58685 Y-3.28723 Z[#100+-0.04000]
#105=[#518+[#519-#518]*0.18548]
#106=[#524+[#525-#524]*0.18548]
#100=[#105+[#106-#105]*0.57063]
X-9.58273 Y-3.28473 Z[#100+-0.04000]
#105=[#518+[#519-#518]*0.19336]
#106=[#524+[#525-#524]*0.19336]
#100=[#105+[#106-#105]*0.58048]
X-9.57895 Y-3.28175 Z[#100+-0.04000]
#105=[#518+[#519-#518]*0.20240]
#106=[#524+[#525-#524]*0.20240]
#100=[#105+[#106-#105]*0.58931]
X-9.57556 Y-3.27833 Z[#100+-0.04000]
#105=[#518+[#519-#518]*0.21334]
#106=[#524+[#525-#524]*0.21334]
#100=[#105+[#106-#105]*0.59758]
X-9.57239 Y-3.27418 Z[#100+-0.04000]
#105=[#518+[#519-#518]*0.22246]
#106=[#524+[#525-#524]*0.22246]
#100=[#105+[#106-#105]*0.60292]
X-9.57034 Y-3.27073 Z[#100+-0.04000]
#105=[#518+[#519-#518]*0.23307]
#106=[#524+[#525-#524]*0.23307]
#100=[#105+[#106-#105]*0.60770]
X-9.56851 Y-3.26672 Z[#100+-0.04000]
#105=[#518+[#519-#518]*0.24416]
#106=[#524+[#525-#524]*0.24416]
#100=[#105+[#106-#105]*0.61129]
X-9.56713 Y-3.26252 Z[#100+-0.04000]
#105=[#518+[#519-#518]*0.25454]
#106=[#524+[#525-#524]*0.25454]
#100=[#105+[#106-#105]*0.61346]
X-9.56630 Y-3.25860 Z[#100+-0.04000]
#105=[#518+[#519-#518]*0.26508]
#106=[#524+[#525-#524]*0.26508]
#100=[#105+[#106-#105]*0.61458]
X-9.56587 Y-3.25460 Z[#100+-0.04000]
#105=[#518+[#519-#518]*0.27675]
#106=[#524+[#525-#524]*0.27675]
#100=[#105+[#106-#105]*0.61459]
X-9.56586 Y-3.25019 Z[#100+-0.04000]
#105=[#518+[#519-#518]*0.28834]
#106=[#524+[#525-#524]*0.28834]
#100=[#105+[#106-#105]*0.61330]
X-9.56636 Y-3.24580 Z[#100+-0.04000]
#105=[#518+[#519-#518]*0.29972]
#106=[#524+[#525-#524]*0.29972]
#100=[#105+[#106-#105]*0.61075]
X-9.56734 Y-3.24150 Z[#100+-0.04000]
#105=[#518+[#519-#518]*0.31073]
#106=[#524+[#525-#524]*0.31073]
#100=[#105+[#106-#105]*0.60695]
X-9.56879 Y-3.23733 Z[#100+-0.04000]
#105=[#518+[#519-#518]*0.32124]
#106=[#524+[#525-#524]*0.32124]
#100=[#105+[#106-#105]*0.60197]
X-9.57071 Y-3.23335 Z[#100+-0.04000]
#105=[#518+[#519-#518]*0.33026]
#106=[#524+[#525-#524]*0.33026]
#100=[#105+[#106-#105]*0.59645]
X-9.57282 Y-3.22994 Z[#100+-0.04000]
#105=[#518+[#519-#518]*0.33946]
#106=[#524+[#525-#524]*0.33946]
#100=[#105+[#106-#105]*0.58937]
X-9.57554 Y-3.22646 Z[#100+-0.04000]
#105=[#518+[#519-#518]*0.34707]
#106=[#524+[#525-#524]*0.34707]
#100=[#105+[#106-#105]*0.58210]
X-9.57833 Y-3.22358 Z[#100+-0.04000]
#105=[#518+[#519-#518]*0.35453]
#106=[#524+[#525-#524]*0.35453]
#100=[#105+[#106-#105]*0.57325]
X-9.58173 Y-3.22075 Z[#100+-0.04000]
#105=[#518+[#519-#518]*0.36095]
#106=[#524+[#525-#524]*0.36095]
#100=[#105+[#106-#105]*0.56364]
X-9.58541 Y-3.21833 Z[#100+-0.04000]
#105=[#518+[#519-#518]*0.36623]
#106=[#524+[#525-#524]*0.36623]
#100=[#105+[#106-#105]*0.55338]
X-9.58935 Y-3.21633 Z[#100+-0.04000]
#105=[#518+[#519-#518]*0.36932]
#106=[#524+[#525-#524]*0.36932]
#100=[#105+[#106-#105]*0.54559]
X-9.59234 Y-3.21516 Z[#100+-0.04000]
#105=[#518+[#519-#518]*0.37175]
#106=[#524+[#525-#524]*0.37175]
#100=[#105+[#106-#105]*0.53757]
X-9.59542 Y-3.21424 Z[#100+-0.04000]
#105=[#518+[#519-#518]*0.37369]
#106=[#524+[#525-#524]*0.37369]
#100=[#105+[#106-#105]*0.52835]
X-9.59896 Y-3.21350 Z[#100+-0.04000]
#105=[#518+[#519-#518]*0.37469]
#106=[#524+[#525-#524]*0.37469]
#100=[#105+[#106-#105]*0.52004]
X-9.60215 Y-3.21313 Z[#100+-0.04000]
#105=[#518+[#519-#518]*0.37499]
#106=[#524+[#525-#524]*0.37499]
#100=[#105+[#106-#105]*0.51063]
X-9.60576 Y-3.21301 Z[#100+-0.04000]
#105=[#518+[#519-#518]*0.37452]
#106=[#524+[#525-#524]*0.37452]
#100=[#105+[#106-#105]*0.50227]
X-9.60896 Y-3.21319 Z[#100+-0.04000]
#105=[#518+[#519-#518]*0.37316]
#106=[#524+[#525-#524]*0.37316]
#100=[#105+[#106-#105]*0.49295]
X-9.61254 Y-3.21371 Z[#100+-0.04000]
#105=[#518+[#519-#518]*0.37123]
#106=[#524+[#525-#524]*0.37123]
#100=[#105+[#106-#105]*0.48480]
X-9.61567 Y-3.21443 Z[#100+-0.04000]
#105=[#518+[#519-#518]*0.36827]
#106=[#524+[#525-#524]*0.36827]
#100=[#105+[#106-#105]*0.47585]
X-9.61910 Y-3.21556 Z[#100+-0.04000]
#105=[#518+[#519-#518]*0.36448]
#106=[#524+[#525-#524]*0.36448]
#100=[#105+[#106-#105]*0.46721]
X-9.62242 Y-3.21699 Z[#100+-0.04000]
#105=[#518+[#519-#518]*0.31208]
#106=[#524+[#525-#524]*0.31208]
#100=[#105+[#106-#105]*0.36384]
X-9.66209 Y-3.23682 Z[#100+-0.04000]
#105=[#518+[#519-#518]*0.31208]
#106=[#524+[#525-#524]*0.31208]
#100=[#105+[#106-#105]*0.16410]
X-9.73874 Y-3.23682 Z[#100+-0.04000]
#105=[#518+[#519-#518]*0.35646]
#106=[#524+[#525-#524]*0.35646]
#100=[#105+[#106-#105]*0.07656]
X-9.77233 Y-3.22002 Z[#100+-0.04000]
#105=[#518+[#519-#518]*0.39550]
#106=[#524+[#525-#524]*0.39550]
#100=[#105+[#106-#105]*0.03807]
X-9.78710 Y-3.20525 Z[#100+-0.04000]
#100=[#518+[#519-#518]*0.47271]
X-9.80171 Y-3.17603 Z[#100+-0.04000]
#105=[#512+[#513-#512]*0.48427]
#106=[#518+[#519-#518]*0.48427]
#100=[#105+[#106-#105]*0.99430]
X-9.80390 Y-3.17166 Z[#100+-0.04000]
#105=[#512+[#513-#512]*0.81266]
#106=[#518+[#519-#518]*0.81266]
#100=[#105+[#106-#105]*0.99430]
X-9.80390 Y-3.04739 Z[#100+-0.04000]
#100=[#518+[#519-#518]*0.82422]
X-9.80171 Y-3.04301 Z[#100+-0.04000]
#105=[#518+[#519-#518]*0.90143]
#106=[#524+[#525-#524]*0.90143]
#100=[#105+[#106-#105]*0.03807]
X-9.78710 Y-3.01380 Z[#100+-0.04000]
#105=[#518+[#519-#518]*0.94047]
#106=[#524+[#525-#524]*0.94047]
#100=[#105+[#106-#105]*0.07656]
X-9.77233 Y-2.99902 Z[#100+-0.04000]
#105=[#518+[#519-#518]*0.98485]
#106=[#524+[#525-#524]*0.98485]
#100=[#105+[#106-#105]*0.16410]
X-9.73874 Y-2.98223 Z[#100+-0.04000]
#105=[#518+[#519-#518]*0.98485]
#106=[#524+[#525-#524]*0.98485]
#100=[#105+[#106-#105]*0.36385]
X-9.66209 Y-2.98223 Z[#100+-0.04000]
#105=[#518+[#519-#518]*0.93245]
#106=[#524+[#525-#524]*0.93245]
#100=[#105+[#106-#105]*0.46721]
X-9.62242 Y-3.00206 Z[#100+-0.04000]
#105=[#518+[#519-#518]*0.92905]
#106=[#524+[#525-#524]*0.92905]
#100=[#105+[#106-#105]*0.47488]
X-9.61948 Y-3.00334 Z[#100+-0.04000]
#105=[#518+[#519-#518]*0.92629]
#106=[#524+[#525-#524]*0.92629]
#100=[#105+[#106-#105]*0.48279]
X-9.61644 Y-3.00439 Z[#100+-0.04000]
#105=[#518+[#519-#518]*0.92419]
#106=[#524+[#525-#524]*0.92419]
#100=[#105+[#106-#105]*0.49090]
X-9.61333 Y-3.00518 Z[#100+-0.04000]
#105=[#518+[#519-#518]*0.92277]
#106=[#524+[#525-#524]*0.92277]
#100=[#105+[#106-#105]*0.49915]
X-9.61016 Y-3.00572 Z[#100+-0.04000]
#105=[#518+[#519-#518]*0.92204]
#106=[#524+[#525-#524]*0.92204]
#100=[#105+[#106-#105]*0.50749]
X-9.60696 Y-3.00599 Z[#100+-0.04000]
#105=[#518+[#519-#518]*0.92205]
#106=[#524+[#525-#524]*0.92205]
#100=[#105+[#106-#105]*0.51691]
X-9.60335 Y-3.00599 Z[#100+-0.04000]
#105=[#518+[#519-#518]*0.92279]
#106=[#524+[#525-#524]*0.92279]
#100=[#105+[#106-#105]*0.52525]
X-9.60015 Y-3.00571 Z[#100+-0.04000]
#105=[#518+[#519-#518]*0.92421]
#106=[#524+[#525-#524]*0.92421]
#100=[#105+[#106-#105]*0.53350]
X-9.59698 Y-3.00517 Z[#100+-0.04000]
#105=[#518+[#519-#518]*0.92631]
#106=[#524+[#525-#524]*0.92631]
#100=[#105+[#106-#105]*0.54160]
X-9.59387 Y-3.00438 Z[#100+-0.04000]
#105=[#518+[#519-#518]*0.92908]
#106=[#524+[#525-#524]*0.92908]
#100=[#105+[#106-#105]*0.54952]
X-9.59083 Y-3.00333 Z[#100+-0.04000]
#105=[#518+[#519-#518]*0.93203]
#106=[#524+[#525-#524]*0.93203]
#100=[#105+[#106-#105]*0.55624]
X-9.58826 Y-3.00222 Z[#100+-0.04000]
#105=[#518+[#519-#518]*0.93546]
#106=[#524+[#525-#524]*0.93546]
#100=[#105+[#106-#105]*0.56273]
X-9.58576 Y-3.00092 Z[#100+-0.04000]
#105=[#518+[#519-#518]*0.94304]
#106=[#524+[#525-#524]*0.94304]
#100=[#105+[#106-#105]*0.57409]
X-9.58140 Y-2.99805 Z[#100+-0.04000]
#105=[#518+[#519-#518]*0.95207]
#106=[#524+[#525-#524]*0.95207]
#100=[#105+[#106-#105]*0.58436]
X-9.57746 Y-2.99463 Z[#100+-0.04000]
#105=[#518+[#519-#518]*0.95748]
#106=[#524+[#525-#524]*0.95748]
#100=[#105+[#106-#105]*0.58937]
X-9.57554 Y-2.99259 Z[#100+-0.04000]
#105=[#518+[#519-#518]*0.96324]
#106=[#524+[#525-#524]*0.96324]
#100=[#105+[#106-#105]*0.59400]
X-9.57377 Y-2.99040 Z[#100+-0.04000]
#105=[#518+[#519-#518]*0.96932]
#106=[#524+[#525-#524]*0.96932]
#100=[#105+[#106-#105]*0.59820]
X-9.57215 Y-2.98810 Z[#100+-0.04000]
#105=[#518+[#519-#518]*0.97569]
#106=[#524+[#525-#524]*0.97569]
#100=[#105+[#106-#105]*0.60197]
X-9.57071 Y-2.98569 Z[#100+-0.04000]
#105=[#518+[#519-#518]*0.98817]
#106=[#524+[#525-#524]*0.98817]
#100=[#105+[#106-#105]*0.60774]
X-9.56849 Y-2.98097 Z[#100+-0.04000]
#100=[#519+[#525-#519]*0.61141]
X-9.56708 Y-2.97649 Z[#100+-0.04000]
#105=[#519+[#520-#519]*0.00132]
#106=[#525+[#526-#525]*0.00132]
#100=[#105+[#106-#105]*0.61182]
X-9.56692 Y-2.97600 Z[#100+-0.04000]
#105=[#519+[#520-#519]*0.01490]
#106=[#525+[#526-#525]*0.01490]
#100=[#105+[#106-#105]*0.61416]
X-9.56603 Y-2.97086 Z[#100+-0.04000]
#105=[#519+[#520-#519]*0.02867]
#106=[#525+[#526-#525]*0.02867]
#100=[#105+[#106-#105]*0.61471]
X-9.56582 Y-2.96564 Z[#100+-0.04000]
G04 P0 ( dwell for no time -- G64 should not smooth over this point )
G00 Z0.08000 ( retract )

G00 X-10.01818 Y-3.01429 ( rapid move to begin. )
G01 F180.00000
( Mill infeed pass 1/1 )
#105=[#512+[#513-#512]*0.90014]
#106=[#518+[#519-#518]*0.90014]
#100=[#105+[#106-#105]*0.43589]
G01 Z[-0.04000+#100]
G04 P0 ( dwell for no time -- G64 should not smooth over this point )
G01 F360.00000
#105=[#512+[#513-#512]*0.20592]
#106=[#518+[#519-#518]*0.20592]
#100=[#105+[#106-#105]*0.43587]
X-10.01819 Y-3.27699 Z[#100+-0.04000]
#105=[#512+[#513-#512]*0.19850]
#106=[#518+[#519-#518]*0.19850]
#100=[#105+[#106-#105]*0.43546]
X-10.01835 Y-3.27980 Z[#100+-0.04000]
#105=[#512+[#513-#512]*0.19114]
#106=[#518+[#519-#518]*0.19114]
#100=[#105+[#106-#105]*0.43453]
X-10.01871 Y-3.28259 Z[#100+-0.04000]
#105=[#512+[#513-#512]*0.18283]
#106=[#518+[#519-#518]*0.18283]
#100=[#105+[#106-#105]*0.43283]
X-10.01936 Y-3.28573 Z[#100+-0.04000]
#105=[#512+[#513-#512]*0.17569]
#106=[#518+[#519-#518]*0.17569]
#100=[#105+[#106-#105]*0.43081]
X-10.02014 Y-3.28843 Z[#100+-0.04000]
#105=[#512+[#513-#512]*0.16872]
#106=[#518+[#519-#518]*0.16872]
#100=[#105+[#106-#105]*0.42828]
X-10.02110 Y-3.29107 Z[#100+-0.04000]
#105=[#512+[#513-#512]*0.16195]
#106=[#518+[#519-#518]*0.16195]
#100=[#105+[#106-#105]*0.42527]
X-10.02226 Y-3.29363 Z[#100+-0.04000]
#105=[#512+[#513-#512]*0.15450]
#106=[#518+[#519-#518]*0.15450]
#100=[#105+[#106-#105]*0.42126]
X-10.02380 Y-3.29645 Z[#100+-0.04000]
#105=[#512+[#513-#512]*0.14827]
#106=[#518+[#519-#518]*0.14827]
#100=[#105+[#106-#105]*0.41727]
X-10.02533 Y-3.29881 Z[#100+-0.04000]
#105=[#512+[#513-#512]*0.13991]
#106=[#518+[#519-#518]*0.13991]
#100=[#105+[#106-#105]*0.41083]
X-10.02780 Y-3.30197 Z[#100+-0.04000]
#105=[#512+[#513-#512]*0.13154]
#106=[#518+[#519-#518]*0.13154]
#100=[#105+[#106-#105]*0.40282]
X-10.03087 Y-3.30514 Z[#100+-0.04000]
#105=[#512+[#513-#512]*0.12412]
#106=[#518+[#519-#518]*0.12412]
#100=[#105+[#106-#105]*0.39394]
X-10.03428 Y-3.30795 Z[#100+-0.04000]
#105=[#512+[#513-#512]*0.11777]
#106=[#518+[#519-#518]*0.11777]
#100=[#105+[#106-#105]*0.38429]
X-10.03798 Y-3.31035 Z[#100+-0.04000]
#105=[#512+[#513-#512]*0.11297]
#106=[#518+[#519-#518]*0.11297]
#100=[#105+[#106-#105]*0.37496]
X-10.04157 Y-3.31217 Z[#100+-0.04000]
#105=[#512+[#513-#512]*0.10884]
#106=[#518+[#519-#518]*0.10884]
#100=[#105+[#106-#105]*0.36421]
X-10.04569 Y-3.31373 Z[#100+-0.04000]
#105=[#512+[#513-#512]*0.10595]
#106=[#518+[#519-#518]*0.10595]
#100=[#105+[#106-#105]*0.35306]
X-10.04997 Y-3.31482 Z[#100+-0.04000]
#105=[#512+[#513-#512]*0.10435]
#106=[#518+[#519-#518]*0.10435]
#100=[#105+[#106-#105]*0.34166]
X-10.05434 Y-3.31543 Z[#100+-0.04000]
#105=[#512+[#513-#512]*0.10401]
#106=[#518+[#519-#518]*0.10401]
#100=[#105+[#106-#105]*0.33225]
X-10.05796 Y-3.31556 Z[#100+-0.04000]
#105=[#512+[#513-#512]*0.10444]
#106=[#518+[#519-#518]*0.10444]
#100=[#105+[#106-#105]*0.32389]
X-10.06116 Y-3.31539 Z[#100+-0.04000]
#105=[#512+[#513-#512]*0.10575]
#106=[#518+[#519-#518]*0.10575]
#100=[#105+[#106-#105]*0.31457]
X-10.06474 Y-3.31490 Z[#100+-0.04000]
#105=[#512+[#513-#512]*0.10792]
#106=[#518+[#519-#518]*0.10792]
#100=[#105+[#106-#105]*0.30540]
X-10.06826 Y-3.31408 Z[#100+-0.04000]
#105=[#512+[#513-#512]*0.11094]
#106=[#518+[#519-#518]*0.11094]
#100=[#105+[#106-#105]*0.29647]
X-10.07169 Y-3.31293 Z[#100+-0.04000]
#105=[#512+[#513-#512]*0.11431]
#106=[#518+[#519-#518]*0.11431]
#100=[#105+[#106-#105]*0.28878]
X-10.07464 Y-3.31166 Z[#100+-0.04000]
#105=[#512+[#513-#512]*0.11884]
#106=[#518+[#519-#518]*0.11884]
#100=[#105+[#106-#105]*0.28050]
X-10.07782 Y-3.30994 Z[#100+-0.04000]
#105=[#512+[#513-#512]*0.12399]
#106=[#518+[#519-#518]*0.12399]
#100=[#105+[#106-#105]*0.27284]
X-10.08075 Y-3.30800 Z[#100+-0.04000]
#105=[#512+[#513-#512]*0.11360]
#106=[#518+[#519-#518]*0.11360]
#100=[#105+[#106-#105]*0.25223]
X-10.08866 Y-3.31193 Z[#100+-0.04000]
#105=[#512+[#513-#512]*0.10927]
#106=[#518+[#519-#518]*0.10927]
#100=[#105+[#106-#105]*0.24142]
X-10.09281 Y-3.31357 Z[#100+-0.04000]
#105=[#512+[#513-#512]*0.10579]
#106=[#518+[#519-#518]*0.10579]
#100=[#105+[#106-#105]*0.22813]
X-10.09791 Y-3.31488 Z[#100+-0.04000]
#105=[#512+[#513-#512]*0.10414]
#106=[#518+[#519-#518]*0.10414]
#100=[#105+[#106-#105]*0.21449]
X-10.10315 Y-3.31551 Z[#100+-0.04000]
#100=[#512+[#513-#512]*0.10405]
X-10.18546 Y-3.31554 Z[#100+-0.04000]
#105=[#506+[#507-#506]*0.10400]
#106=[#512+[#513-#512]*0.10400]
#100=[#105+[#106-#105]*0.89898]
X-10.22422 Y-3.31556 Z[#100+-0.04000]
#105=[#506+[#507-#506]*0.10427]
#106=[#512+[#513-#512]*0.10427]
#100=[#105+[#106-#105]*0.89159]
X-10.22706 Y-3.31546 Z[#100+-0.04000]
#105=[#506+[#507-#506]*0.10560]
#106=[#512+[#513-#512]*0.10560]
#100=[#105+[#106-#105]*0.88111]
X-10.23108 Y-3.31496 Z[#100+-0.04000]
#105=[#506+[#507-#506]*0.10772]
#106=[#512+[#513-#512]*0.10772]
#100=[#105+[#106-#105]*0.87183]
X-10.23464 Y-3.31415 Z[#100+-0.04000]
#105=[#506+[#507-#506]*0.11070]
#106=[#512+[#513-#512]*0.11070]
#100=[#105+[#106-#105]*0.86278]
X-10.23811 Y-3.31303 Z[#100+-0.04000]
#105=[#506+[#507-#506]*0.11451]
#106=[#512+[#513-#512]*0.11451]
#100=[#105+[#106-#105]*0.85405]
X-10.24146 Y-3.31158 Z[#100+-0.04000]
#105=[#506+[#507-#506]*0.17938]
#106=[#512+[#513-#512]*0.17938]
#100=[#105+[#106-#105]*0.72622]
X-10.29052 Y-3.28704 Z[#100+-0.04000]
#105=[#506+[#507-#506]*0.18371]
#106=[#512+[#513-#512]*0.18371]
#100=[#105+[#106-#105]*0.71901]
X-10.29328 Y-3.28540 Z[#100+-0.04000]
#105=[#506+[#507-#506]*0.18798]
#106=[#512+[#513-#512]*0.18798]
#100=[#105+[#106-#105]*0.71301]
X-10.29559 Y-3.28378 Z[#100+-0.04000]
#105=[#506+[#507-#506]*0.19338]
#106=[#512+[#513-#512]*0.19338]
#100=[#105+[#106-#105]*0.70654]
X-10.29807 Y-3.28174 Z[#100+-0.04000]
#105=[#506+[#507-#506]*0.19930]
#106=[#512+[#513-#512]*0.19930]
#100=[#105+[#106-#105]*0.70052]
X-10.30038 Y-3.27950 Z[#100+-0.04000]
#105=[#506+[#507-#506]*0.20991]
#106=[#512+[#513-#512]*0.20991]
#100=[#105+[#106-#105]*0.69182]
X-10.30372 Y-3.27548 Z[#100+-0.04000]
#105=[#506+[#507-#506]*0.22160]
#106=[#512+[#513-#512]*0.22160]
#100=[#105+[#106-#105]*0.68458]
X-10.30650 Y-3.27106 Z[#100+-0.04000]
#105=[#506+[#507-#506]*0.35317]
#106=[#512+[#513-#512]*0.35317]
#100=[#105+[#106-#105]*0.61971]
X-10.33139 Y-3.22127 Z[#100+-0.04000]
#105=[#506+[#507-#506]*0.36413]
#106=[#512+[#513-#512]*0.36413]
#100=[#105+[#106-#105]*0.61544]
X-10.33303 Y-3.21712 Z[#100+-0.04000]
#105=[#506+[#507-#506]*0.37446]
#106=[#512+[#513-#512]*0.37446]
#100=[#105+[#106-#105]*0.61264]
X-10.33410 Y-3.21321 Z[#100+-0.04000]
#105=[#506+[#507-#506]*0.38503]
#106=[#512+[#513-#512]*0.38503]
#100=[#105+[#106-#105]*0.61091]
X-10.33477 Y-3.20921 Z[#100+-0.04000]
#105=[#506+[#507-#506]*0.39572]
#106=[#512+[#513-#512]*0.39572]
#100=[#105+[#106-#105]*0.61026]
X-10.33502 Y-3.20517 Z[#100+-0.04000]
#105=[#506+[#507-#506]*0.52478]
#106=[#512+[#513-#512]*0.52478]
#100=[#105+[#106-#105]*0.61028]
X-10.33501 Y-3.15633 Z[#100+-0.04000]
#105=[#506+[#507-#506]*0.53759]
#106=[#512+[#513-#512]*0.53759]
#100=[#105+[#106-#105]*0.61132]
X-10.33461 Y-3.15148 Z[#100+-0.04000]
#105=[#506+[#507-#506]*0.54913]
#106=[#512+[#513-#512]*0.54913]
#100=[#105+[#106-#105]*0.61364]
X-10.33372 Y-3.14711 Z[#100+-0.04000]
#105=[#506+[#507-#506]*0.55934]
#106=[#512+[#513-#512]*0.55934]
#100=[#105+[#106-#105]*0.61685]
X-10.33249 Y-3.14325 Z[#100+-0.04000]
#105=[#506+[#507-#506]*0.56916]
#106=[#512+[#513-#512]*0.56916]
#100=[#105+[#106-#105]*0.62108]
X-10.33086 Y-3.13953 Z[#100+-0.04000]
#105=[#506+[#507-#506]*0.69594]
#106=[#512+[#513-#512]*0.69594]
#100=[#105+[#106-#105]*0.68360]
X-10.30687 Y-3.09156 Z[#100+-0.04000]
#105=[#506+[#507-#506]*0.70424]
#106=[#512+[#513-#512]*0.70424]
#100=[#105+[#106-#105]*0.68829]
X-10.30507 Y-3.08842 Z[#100+-0.04000]
#105=[#506+[#507-#506]*0.71290]
#106=[#512+[#513-#512]*0.71290]
#100=[#105+[#106-#105]*0.69435]
X-10.30275 Y-3.08514 Z[#100+-0.04000]
#105=[#506+[#507-#506]*0.72090]
#106=[#512+[#513-#512]*0.72090]
#100=[#105+[#106-#105]*0.70125]
X-10.30010 Y-3.08211 Z[#100+-0.04000]
#105=[#506+[#507-#506]*0.72814]
#106=[#512+[#513-#512]*0.72814]
#100=[#105+[#106-#105]*0.70891]
X-10.29716 Y-3.07937 Z[#100+-0.04000]
#105=[#506+[#507-#506]*0.73454]
#106=[#512+[#513-#512]*0.73454]
#100=[#105+[#106-#105]*0.71727]
X-10.29395 Y-3.07695 Z[#100+-0.04000]
#105=[#506+[#507-#506]*0.74005]
#106=[#512+[#513-#512]*0.74005]
#100=[#105+[#106-#105]*0.72622]
X-10.29052 Y-3.07486 Z[#100+-0.04000]
#105=[#506+[#507-#506]*0.80538]
#106=[#512+[#513-#512]*0.80538]
#100=[#105+[#106-#105]*0.85500]
X-10.24110 Y-3.05014 Z[#100+-0.04000]
#105=[#506+[#507-#506]*0.80982]
#106=[#512+[#513-#512]*0.80982]
#100=[#105+[#106-#105]*0.86577]
X-10.23697 Y-3.04846 Z[#100+-0.04000]
#105=[#506+[#507-#506]*0.81322]
#106=[#512+[#513-#512]*0.81322]
#100=[#105+[#106-#105]*0.87799]
X-10.23228 Y-3.04718 Z[#100+-0.04000]
#105=[#506+[#507-#506]*0.81475]
#106=[#512+[#513-#512]*0.81475]
#100=[#105+[#106-#105]*0.88738]
X-10.22867 Y-3.04660 Z[#100+-0.04000]
#105=[#506+[#507-#506]*0.81541]
#106=[#512+[#513-#512]*0.81541]
#100=[#105+[#106-#105]*0.89793]
X-10.22463 Y-3.04635 Z[#100+-0.04000]
#100=[#512+[#513-#512]*0.81542]
X-10.18546 Y-3.04634 Z[#100+-0.04000]
#105=[#512+[#513-#512]*0.81542]
#106=[#518+[#519-#518]*0.81542]
#100=[#105+[#106-#105]*0.18499]
X-10.11447 Y-3.04634 Z[#100+-0.04000]
#105=[#512+[#513-#512]*0.83860]
#106=[#518+[#519-#518]*0.83860]
#100=[#105+[#106-#105]*0.23070]
X-10.09692 Y-3.03757 Z[#100+-0.04000]
#105=[#512+[#513-#512]*0.87558]
#106=[#518+[#519-#518]*0.87558]
#100=[#105+[#106-#105]*0.23070]
X-10.09692 Y-3.02358 Z[#100+-0.04000]
#105=[#512+[#513-#512]*0.94843]
#106=[#518+[#519-#518]*0.94843]
#100=[#105+[#106-#105]*0.19478]
X-10.11071 Y-2.99601 Z[#100+-0.04000]
#105=[#512+[#513-#512]*0.98485]
#106=[#518+[#519-#518]*0.98485]
#100=[#105+[#106-#105]*0.12294]
X-10.13828 Y-2.98223 Z[#100+-0.04000]
#100=[#512+[#513-#512]*0.98485]
X-10.18546 Y-2.98223 Z[#100+-0.04000]
#105=[#506+[#507-#506]*0.98485]
#106=[#512+[#513-#512]*0.98485]
#100=[#105+[#106-#105]*0.92320]
X-10.21493 Y-2.98223 Z[#100+-0.04000]
#105=[#506+[#507-#506]*0.93245]
#106=[#512+[#513-#512]*0.93245]
#100=[#105+[#106-#105]*0.81984]
X-10.25459 Y-3.00206 Z[#100+-0.04000]
#105=[#506+[#507-#506]*0.92905]
#106=[#512+[#513-#512]*0.92905]
#100=[#105+[#106-#105]*0.81217]
X-10.25754 Y-3.00334 Z[#100+-0.04000]
#105=[#506+[#507-#506]*0.92629]
#106=[#512+[#513-#512]*0.92629]
#100=[#105+[#106-#105]*0.80425]
X-10.26057 Y-3.00439 Z[#100+-0.04000]
#105=[#506+[#507-#506]*0.92419]
#106=[#512+[#513-#512]*0.92419]
#100=[#105+[#106-#105]*0.79614]
X-10.26369 Y-3.00518 Z[#100+-0.04000]
#105=[#506+[#507-#506]*0.92277]
#106=[#512+[#513-#512]*0.92277]
#100=[#105+[#106-#105]*0.78789]
X-10.26685 Y-3.00572 Z[#100+-0.04000]
#105=[#506+[#507-#506]*0.92204]
#106=[#512+[#513-#512]*0.92204]
#100=[#105+[#106-#105]*0.77955]
X-10.27005 Y-3.00599 Z[#100+-0.04000]
#105=[#506+[#507-#506]*0.92200]
#106=[#512+[#513-#512]*0.92200]
#100=[#105+[#106-#105]*0.77118]
X-10.27326 Y-3.00601 Z[#100+-0.04000]
#105=[#506+[#507-#506]*0.92266]
#106=[#512+[#513-#512]*0.92266]
#100=[#105+[#106-#105]*0.76284]
X-10.27647 Y-3.00576 Z[#100+-0.04000]
#105=[#506+[#507-#506]*0.92400]
#106=[#512+[#513-#512]*0.92400]
#100=[#105+[#106-#105]*0.75458]
X-10.27964 Y-3.00526 Z[#100+-0.04000]
#105=[#506+[#507-#506]*0.92601]
#106=[#512+[#513-#512]*0.92601]
#100=[#105+[#106-#105]*0.74645]
X-10.28276 Y-3.00449 Z[#100+-0.04000]
#105=[#506+[#507-#506]*0.92870]
#106=[#512+[#513-#512]*0.92870]
#100=[#105+[#106-#105]*0.73851]
X-10.28580 Y-3.00348 Z[#100+-0.04000]
#105=[#506+[#507-#506]*0.93393]
#106=[#512+[#513-#512]*0.93393]
#100=[#105+[#106-#105]*0.72707]
X-10.29019 Y-3.00150 Z[#100+-0.04000]
#105=[#506+[#507-#506]*0.93994]
#106=[#512+[#513-#512]*0.93994]
#100=[#105+[#106-#105]*0.71721]
X-10.29398 Y-2.99922 Z[#100+-0.04000]
#105=[#506+[#507-#506]*0.94703]
#106=[#512+[#513-#512]*0.94703]
#100=[#105+[#106-#105]*0.70807]
X-10.29748 Y-2.99654 Z[#100+-0.04000]
#105=[#506+[#507-#506]*0.95511]
#106=[#512+[#513-#512]*0.95511]
#100=[#105+[#106-#105]*0.69977]
X-10.30067 Y-2.99348 Z[#100+-0.04000]
#105=[#506+[#507-#506]*0.96409]
#106=[#512+[#513-#512]*0.96409]
#100=[#105+[#106-#105]*0.69242]
X-10.30349 Y-2.99008 Z[#100+-0.04000]
#105=[#506+[#507-#506]*0.97384]
#106=[#512+[#513-#512]*0.97384]
#100=[#105+[#106-#105]*0.68611]
X-10.30591 Y-2.98639 Z[#100+-0.04000]
#105=[#506+[#507-#506]*0.98425]
#106=[#512+[#513-#512]*0.98425]
#100=[#105+[#106-#105]*0.68091]
X-10.30791 Y-2.98245 Z[#100+-0.04000]
#105=[#506+[#507-#506]*0.99518]
#106=[#512+[#513-#512]*0.99518]
#100=[#105+[#106-#105]*0.67689]
X-10.30945 Y-2.97832 Z[#100+-0.04000]
#100=[#507+[#513-#507]*0.67574]
X-10.30989 Y-2.97649 Z[#100+-0.04000]
#105=[#507+[#508-#507]*0.00755]
#106=[#513+[#514-#513]*0.00755]
#100=[#105+[#106-#105]*0.67392]
X-10.31059 Y-2.97364 Z[#100+-0.04000]
#105=[#507+[#508-#507]*0.01913]
#106=[#513+[#514-#513]*0.01913]
#100=[#105+[#106-#105]*0.67252]
X-10.31112 Y-2.96926 Z[#100+-0.04000]
#105=[#507+[#508-#507]*0.03079]
#106=[#513+[#514-#513]*0.03079]
#100=[#105+[#106-#105]*0.67241]
X-10.31117 Y-2.96484 Z[#100+-0.04000]
#105=[#507+[#508-#507]*0.04240]
#106=[#513+[#514-#513]*0.04240]
#100=[#105+[#106-#105]*0.67359]
X-10.31072 Y-2.96045 Z[#100+-0.04000]
#105=[#507+[#508-#507]*0.05380]
#106=[#513+[#514-#513]*0.05380]
#100=[#105+[#106-#105]*0.67604]
X-10.30978 Y-2.95614 Z[#100+-0.04000]
#105=[#507+[#508-#507]*0.06485]
#106=[#513+[#514-#513]*0.06485]
#100=[#105+[#106-#105]*0.67973]
X-10.30836 Y-2.95195 Z[#100+-0.04000]
#105=[#507+[#508-#507]*0.07541]
#106=[#513+[#514-#513]*0.07541]
#100=[#105+[#106-#105]*0.68462]
X-10.30648 Y-2.94796 Z[#100+-0.04000]
#105=[#507+[#508-#507]*0.08535]
#106=[#513+[#514-#513]*0.08535]
#100=[#105+[#106-#105]*0.69065]
X-10.30417 Y-2.94420 Z[#100+-0.04000]
#105=[#507+[#508-#507]*0.09533]
#106=[#513+[#514-#513]*0.09533]
#100=[#105+[#106-#105]*0.69843]
X-10.30118 Y-2.94042 Z[#100+-0.04000]
#105=[#507+[#508-#507]*0.10428]
#106=[#513+[#514-#513]*0.10428]
#100=[#105+[#106-#105]*0.70735]
X-10.29776 Y-2.93703 Z[#100+-0.04000]
#105=[#507+[#508-#507]*0.11206]
#106=[#513+[#514-#513]*0.11206]
#100=[#105+[#106-#105]*0.71728]
X-10.29395 Y-2.93409 Z[#100+-0.04000]
#105=[#507+[#508-#507]*0.11806]
#106=[#513+[#514-#513]*0.11806]
#100=[#105+[#106-#105]*0.72715]
X-10.29016 Y-2.93182 Z[#100+-0.04000]
#105=[#507+[#508-#507]*0.18422]
#106=[#513+[#514-#513]*0.18422]
#100=[#105+[#106-#105]*0.85789]
X-10.23999 Y-2.90678 Z[#100+-0.04000]
#105=[#507+[#508-#507]*0.18766]
#106=[#513+[#514-#513]*0.18766]
#100=[#105+[#106-#105]*0.86677]
X-10.23658 Y-2.90548 Z[#100+-0.04000]
#105=[#507+[#508-#507]*0.19027]
#106=[#513+[#514-#513]*0.19027]
#100=[#105+[#106-#105]*0.87593]
X-10.23307 Y-2.90449 Z[#100+-0.04000]
#105=[#507+[#508-#507]*0.19199]
#106=[#513+[#514-#513]*0.19199]
#100=[#105+[#106-#105]*0.88528]
X-10.22948 Y-2.90384 Z[#100+-0.04000]
#105=[#507+[#508-#507]*0.19284]
#106=[#513+[#514-#513]*0.19284]
#100=[#105+[#106-#105]*0.89475]
X-10.22584 Y-2.90352 Z[#100+-0.04000]
#100=[#513+[#514-#513]*0.19287]
X-10.18546 Y-2.90351 Z[#100+-0.04000]
#105=[#513+[#514-#513]*0.19292]
#106=[#519+[#520-#519]*0.19292]
#100=[#105+[#106-#105]*0.14822]
X-10.12858 Y-2.90349 Z[#100+-0.04000]
#105=[#513+[#514-#513]*0.19238]
#106=[#519+[#520-#519]*0.19238]
#100=[#105+[#106-#105]*0.15772]
X-10.12493 Y-2.90369 Z[#100+-0.04000]
#105=[#513+[#514-#513]*0.19114]
#106=[#519+[#520-#519]*0.19114]
#100=[#105+[#106-#105]*0.16608]
X-10.12172 Y-2.90416 Z[#100+-0.04000]
#105=[#513+[#514-#513]*0.18800]
#106=[#519+[#520-#519]*0.18800]
#100=[#105+[#106-#105]*0.17837]
X-10.11701 Y-2.90535 Z[#100+-0.04000]
#105=[#513+[#514-#513]*0.18288]
#106=[#519+[#520-#519]*0.18288]
#100=[#105+[#106-#105]*0.19114]
X-10.11211 Y-2.90729 Z[#100+-0.04000]
#105=[#513+[#514-#513]*0.11855]
#106=[#519+[#520-#519]*0.11855]
#100=[#105+[#106-#105]*0.31807]
X-10.06340 Y-2.93163 Z[#100+-0.04000]
#105=[#513+[#514-#513]*0.11145]
#106=[#519+[#520-#519]*0.11145]
#100=[#105+[#106-#105]*0.32974]
X-10.05892 Y-2.93432 Z[#100+-0.04000]
#105=[#513+[#514-#513]*0.10355]
#106=[#519+[#520-#519]*0.10355]
#100=[#105+[#106-#105]*0.33961]
X-10.05513 Y-2.93731 Z[#100+-0.04000]
#105=[#513+[#514-#513]*0.09450]
#106=[#519+[#520-#519]*0.09450]
#100=[#105+[#106-#105]*0.34845]
X-10.05174 Y-2.94074 Z[#100+-0.04000]
#105=[#513+[#514-#513]*0.08441]
#106=[#519+[#520-#519]*0.08441]
#100=[#105+[#106-#105]*0.35613]
X-10.04879 Y-2.94455 Z[#100+-0.04000]
#105=[#513+[#514-#513]*0.07439]
#106=[#519+[#520-#519]*0.07439]
#100=[#105+[#106-#105]*0.36206]
X-10.04652 Y-2.94834 Z[#100+-0.04000]
#100=[#513+[#519-#513]*0.39870]
X-10.03246 Y-2.97649 Z[#100+-0.04000]
#105=[#512+[#513-#512]*0.94279]
#106=[#518+[#519-#518]*0.94279]
#100=[#105+[#106-#105]*0.42687]
X-10.02164 Y-2.99814 Z[#100+-0.04000]
#105=[#512+[#513-#512]*0.93483]
#106=[#518+[#519-#518]*0.93483]
#100=[#105+[#106-#105]*0.43002]
X-10.02044 Y-3.00115 Z[#100+-0.04000]
#105=[#512+[#513-#512]*0.92664]
#106=[#518+[#519-#518]*0.92664]
#100=[#105+[#106-#105]*0.43251]
X-10.01948 Y-3.00426 Z[#100+-0.04000]
#105=[#512+[#513-#512]*0.91827]
#106=[#518+[#519-#518]*0.91827]
#100=[#105+[#106-#105]*0.43432]
X-10.01879 Y-3.00742 Z[#100+-0.04000]
#105=[#512+[#513-#512]*0.90977]
#106=[#518+[#519-#518]*0.90977]
#100=[#105+[#106-#105]*0.43545]
X-10.01835 Y-3.01064 Z[#100+-0.04000]
#105=[#512+[#513-#512]*0.90014]
#106=[#518+[#519-#518]*0.90014]
#100=[#105+[#106-#105]*0.43589]
X-10.01818 Y-3.01429 Z[#100+-0.04000]
G04 P0 ( dwell for no time -- G64 should not smooth over this point )
G00 Z0.08000 ( retract )

G00 X-10.09692 Y-3.22805 ( rapid move to begin. )
G01 F180.00000
( Mill infeed pass 1/1 )
#105=[#512+[#513-#512]*0.33526]
#106=[#518+[#519-#518]*0.33526]
#100=[#105+[#106-#105]*0.23070]
G01 Z[-0.04000+#100]
G04 P0 ( dwell for no time -- G64 should not smooth over this point )
G01 F360.00000
#105=[#512+[#513-#512]*0.60966]
#106=[#518+[#519-#518]*0.60966]
#100=[#105+[#106-#105]*0.23070]
X-10.09692 Y-3.12421 Z[#100+-0.04000]
#105=[#512+[#513-#512]*0.60801]
#106=[#518+[#519-#518]*0.60801]
#100=[#105+[#106-#105]*0.22081]
X-10.10072 Y-3.12483 Z[#100+-0.04000]
#105=[#512+[#513-#512]*0.60735]
#106=[#518+[#519-#518]*0.60735]
#100=[#105+[#106-#105]*0.21027]
X-10.10477 Y-3.12508 Z[#100+-0.04000]
#100=[#512+[#513-#512]*0.60735]
X-10.18546 Y-3.12508 Z[#100+-0.04000]
#105=[#506+[#507-#506]*0.60734]
#106=[#512+[#513-#512]*0.60734]
#100=[#105+[#106-#105]*0.92320]
X-10.21493 Y-3.12508 Z[#100+-0.04000]
#105=[#506+[#507-#506]*0.57092]
#106=[#512+[#513-#512]*0.57092]
#100=[#105+[#106-#105]*0.85136]
X-10.24250 Y-3.13887 Z[#100+-0.04000]
#105=[#506+[#507-#506]*0.49807]
#106=[#512+[#513-#512]*0.49807]
#100=[#105+[#106-#105]*0.81544]
X-10.25628 Y-3.16644 Z[#100+-0.04000]
#105=[#506+[#507-#506]*0.42136]
#106=[#512+[#513-#512]*0.42136]
#100=[#105+[#106-#105]*0.81544]
X-10.25628 Y-3.19547 Z[#100+-0.04000]
#105=[#506+[#507-#506]*0.34850]
#106=[#512+[#513-#512]*0.34850]
#100=[#105+[#106-#105]*0.85136]
X-10.24250 Y-3.22303 Z[#100+-0.04000]
#105=[#506+[#507-#506]*0.31208]
#106=[#512+[#513-#512]*0.31208]
#100=[#105+[#106-#105]*0.92320]
X-10.21493 Y-3.23682 Z[#100+-0.04000]
#100=[#512+[#513-#512]*0.31208]
X-10.18546 Y-3.23682 Z[#100+-0.04000]
#105=[#512+[#513-#512]*0.31208]
#106=[#518+[#519-#518]*0.31208]
#100=[#105+[#106-#105]*0.18499]
X-10.11447 Y-3.23682 Z[#100+-0.04000]
#105=[#512+[#513-#512]*0.33526]
#106=[#518+[#519-#518]*0.33526]
#100=[#105+[#106-#105]*0.23070]
X-10.09692 Y-3.22805 Z[#100+-0.04000]
G04 P0 ( dwell for no time -- G64 should not smooth over this point )
G00 Z0.08000 ( retract )

G00 X-10.44676 Y-3.18095 ( rapid move to begin. )
G01 F180.00000
( Mill infeed pass 1/1 )
#105=[#506+[#507-#506]*0.45971]
#106=[#512+[#513-#512]*0.45971]
#100=[#105+[#106-#105]*0.31908]
G01 Z[-0.04000+#100]
G04 P0 ( dwell for no time -- G64 should not smooth over this point )
G01 F360.00000
#105=[#506+[#507-#506]*0.65061]
#106=[#512+[#513-#512]*0.65061]
#100=[#105+[#106-#105]*0.31906]
X-10.44676 Y-3.10871 Z[#100+-0.04000]
#105=[#506+[#507-#506]*0.65917]
#106=[#512+[#513-#512]*0.65917]
#100=[#105+[#106-#105]*0.31854]
X-10.44696 Y-3.10547 Z[#100+-0.04000]
#105=[#506+[#507-#506]*0.66660]
#106=[#512+[#513-#512]*0.66660]
#100=[#105+[#106-#105]*0.31751]
X-10.44736 Y-3.10266 Z[#100+-0.04000]
#105=[#506+[#507-#506]*0.67497]
#106=[#512+[#513-#512]*0.67497]
#100=[#105+[#106-#105]*0.31570]
X-10.44805 Y-3.09949 Z[#100+-0.04000]
#105=[#506+[#507-#506]*0.68215]
#106=[#512+[#513-#512]*0.68215]
#100=[#105+[#106-#105]*0.31356]
X-10.44888 Y-3.09678 Z[#100+-0.04000]
#105=[#506+[#507-#506]*0.69403]
#106=[#512+[#513-#512]*0.69403]
#100=[#105+[#106-#105]*0.30872]
X-10.45073 Y-3.09228 Z[#100+-0.04000]
#105=[#506+[#507-#506]*0.82083]
#106=[#512+[#513-#512]*0.82083]
#100=[#105+[#106-#105]*0.24621]
X-10.47472 Y-3.04430 Z[#100+-0.04000]
#105=[#506+[#507-#506]*0.82816]
#106=[#512+[#513-#512]*0.82816]
#100=[#105+[#106-#105]*0.24222]
X-10.47625 Y-3.04152 Z[#100+-0.04000]
#105=[#506+[#507-#506]*0.83428]
#106=[#512+[#513-#512]*0.83428]
#100=[#105+[#106-#105]*0.23827]
X-10.47777 Y-3.03921 Z[#100+-0.04000]
#105=[#506+[#507-#506]*0.84092]
#106=[#512+[#513-#512]*0.84092]
#100=[#105+[#106-#105]*0.23325]
X-10.47969 Y-3.03669 Z[#100+-0.04000]
#105=[#506+[#507-#506]*0.84713]
#106=[#512+[#513-#512]*0.84713]
#100=[#105+[#106-#105]*0.22771]
X-10.48182 Y-3.03435 Z[#100+-0.04000]
#105=[#506+[#507-#506]*0.91229]
#106=[#512+[#513-#512]*0.91229]
#100=[#105+[#106-#105]*0.16343]
X-10.50649 Y-3.00969 Z[#100+-0.04000]
#105=[#506+[#507-#506]*0.92123]
#106=[#512+[#513-#512]*0.92123]
#100=[#105+[#106-#105]*0.15291]
X-10.51052 Y-3.00630 Z[#100+-0.04000]
#105=[#506+[#507-#506]*0.92859]
#106=[#512+[#513-#512]*0.92859]
#100=[#105+[#106-#105]*0.14145]
X-10.51492 Y-3.00352 Z[#100+-0.04000]
#105=[#506+[#507-#506]*0.95698]
#106=[#512+[#513-#512]*0.95698]
#100=[#105+[#106-#105]*0.16919]
X-10.50428 Y-2.99277 Z[#100+-0.04000]
#105=[#506+[#507-#506]*0.96514]
#106=[#512+[#513-#512]*0.96514]
#100=[#105+[#106-#105]*0.17563]
X-10.50181 Y-2.98969 Z[#100+-0.04000]
#105=[#506+[#507-#506]*0.97392]
#106=[#512+[#513-#512]*0.97392]
#100=[#105+[#106-#105]*0.18123]
X-10.49966 Y-2.98636 Z[#100+-0.04000]
#100=[#507+[#513-#507]*0.19413]
X-10.49471 Y-2.97649 Z[#100+-0.04000]
#105=[#507+[#508-#507]*0.10624]
#106=[#513+[#514-#513]*0.10624]
#100=[#105+[#106-#105]*0.24668]
X-10.47454 Y-2.93629 Z[#100+-0.04000]
#105=[#507+[#508-#507]*0.11410]
#106=[#513+[#514-#513]*0.11410]
#100=[#105+[#106-#105]*0.25006]
X-10.47324 Y-2.93332 Z[#100+-0.04000]
#105=[#507+[#508-#507]*0.12221]
#106=[#513+[#514-#513]*0.12221]
#100=[#105+[#106-#105]*0.25280]
X-10.47219 Y-2.93025 Z[#100+-0.04000]
#105=[#507+[#508-#507]*0.13579]
#106=[#513+[#514-#513]*0.13579]
#100=[#105+[#106-#105]*0.25581]
X-10.47103 Y-2.92511 Z[#100+-0.04000]
#105=[#507+[#508-#507]*0.14859]
#106=[#513+[#514-#513]*0.14859]
#100=[#105+[#106-#105]*0.25699]
X-10.47058 Y-2.92026 Z[#100+-0.04000]
#105=[#507+[#508-#507]*0.27764]
#106=[#513+[#514-#513]*0.27764]
#100=[#105+[#106-#105]*0.25704]
X-10.47056 Y-2.87143 Z[#100+-0.04000]
#105=[#507+[#508-#507]*0.28514]
#106=[#513+[#514-#513]*0.28514]
#100=[#105+[#106-#105]*0.25677]
X-10.47067 Y-2.86859 Z[#100+-0.04000]
#105=[#507+[#508-#507]*0.29260]
#106=[#513+[#514-#513]*0.29260]
#100=[#105+[#106-#105]*0.25597]
X-10.47097 Y-2.86577 Z[#100+-0.04000]
#105=[#507+[#508-#507]*0.29998]
#106=[#513+[#514-#513]*0.29998]
#100=[#105+[#106-#105]*0.25465]
X-10.47148 Y-2.86298 Z[#100+-0.04000]
#105=[#507+[#508-#507]*0.30827]
#106=[#513+[#514-#513]*0.30827]
#100=[#105+[#106-#105]*0.25249]
X-10.47231 Y-2.85984 Z[#100+-0.04000]
#105=[#507+[#508-#507]*0.31635]
#106=[#513+[#514-#513]*0.31635]
#100=[#105+[#106-#105]*0.24967]
X-10.47339 Y-2.85678 Z[#100+-0.04000]
#105=[#507+[#508-#507]*0.32321]
#106=[#513+[#514-#513]*0.32321]
#100=[#105+[#106-#105]*0.24668]
X-10.47454 Y-2.85418 Z[#100+-0.04000]
#105=[#507+[#508-#507]*0.45187]
#106=[#513+[#514-#513]*0.45187]
#100=[#105+[#106-#105]*0.18322]
X-10.49889 Y-2.80550 Z[#100+-0.04000]
#105=[#507+[#508-#507]*0.45911]
#106=[#513+[#514-#513]*0.45911]
#100=[#105+[#106-#105]*0.17909]
X-10.50048 Y-2.80276 Z[#100+-0.04000]
#105=[#507+[#508-#507]*0.46516]
#106=[#513+[#514-#513]*0.46516]
#100=[#105+[#106-#105]*0.17502]
X-10.50204 Y-2.80047 Z[#100+-0.04000]
#105=[#507+[#508-#507]*0.47630]
#106=[#513+[#514-#513]*0.47630]
#100=[#105+[#106-#105]*0.16567]
X-10.50563 Y-2.79625 Z[#100+-0.04000]
#105=[#507+[#508-#507]*0.54142]
#106=[#513+[#514-#513]*0.54142]
#100=[#105+[#106-#105]*0.10143]
X-10.53028 Y-2.77161 Z[#100+-0.04000]
#105=[#507+[#508-#507]*0.54763]
#106=[#513+[#514-#513]*0.54763]
#100=[#105+[#106-#105]*0.09445]
X-10.53296 Y-2.76926 Z[#100+-0.04000]
#105=[#507+[#508-#507]*0.55317]
#106=[#513+[#514-#513]*0.55317]
#100=[#105+[#106-#105]*0.08695]
X-10.53584 Y-2.76716 Z[#100+-0.04000]
#105=[#507+[#508-#507]*0.55945]
#106=[#513+[#514-#513]*0.55945]
#100=[#105+[#106-#105]*0.07624]
X-10.53995 Y-2.76479 Z[#100+-0.04000]
#100=[#507+[#508-#507]*0.59810]
X-10.56920 Y-2.75016 Z[#100+-0.04000]
#105=[#501+[#502-#501]*0.62237]
#106=[#507+[#508-#507]*0.62237]
#100=[#105+[#106-#105]*0.95215]
X-10.58757 Y-2.74098 Z[#100+-0.04000]
#105=[#501+[#502-#501]*0.62703]
#106=[#507+[#508-#507]*0.62703]
#100=[#105+[#106-#105]*0.94147]
X-10.59166 Y-2.73921 Z[#100+-0.04000]
#105=[#501+[#502-#501]*0.62964]
#106=[#507+[#508-#507]*0.62964]
#100=[#105+[#106-#105]*0.93342]
X-10.59475 Y-2.73822 Z[#100+-0.04000]
#105=[#501+[#502-#501]*0.63157]
#106=[#507+[#508-#507]*0.63157]
#100=[#105+[#106-#105]*0.92518]
X-10.59791 Y-2.73750 Z[#100+-0.04000]
#105=[#501+[#502-#501]*0.63280]
#106=[#507+[#508-#507]*0.63280]
#100=[#105+[#106-#105]*0.91682]
X-10.60112 Y-2.73703 Z[#100+-0.04000]
#105=[#501+[#502-#501]*0.63335]
#106=[#507+[#508-#507]*0.63335]
#100=[#105+[#106-#105]*0.90732]
X-10.60477 Y-2.73682 Z[#100+-0.04000]
#105=[#501+[#502-#501]*0.63335]
#106=[#507+[#508-#507]*0.63335]
#100=[#105+[#106-#105]*0.47195]
X-10.77184 Y-2.73682 Z[#100+-0.04000]
#105=[#501+[#502-#501]*0.63270]
#106=[#507+[#508-#507]*0.63270]
#100=[#105+[#106-#105]*0.46046]
X-10.77625 Y-2.73707 Z[#100+-0.04000]
#105=[#501+[#502-#501]*0.63160]
#106=[#507+[#508-#507]*0.63160]
#100=[#105+[#106-#105]*0.45322]
X-10.77903 Y-2.73748 Z[#100+-0.04000]
#105=[#501+[#502-#501]*0.62786]
#106=[#507+[#508-#507]*0.62786]
#100=[#105+[#106-#105]*0.43905]
X-10.78446 Y-2.73890 Z[#100+-0.04000]
#105=[#501+[#502-#501]*0.62211]
#106=[#507+[#508-#507]*0.62211]
#100=[#105+[#106-#105]*0.42556]
X-10.78964 Y-2.74107 Z[#100+-0.04000]
#105=[#501+[#502-#501]*0.61852]
#106=[#507+[#508-#507]*0.61852]
#100=[#105+[#106-#105]*0.41915]
X-10.79210 Y-2.74243 Z[#100+-0.04000]
#105=[#501+[#502-#501]*0.61065]
#106=[#507+[#508-#507]*0.61065]
#100=[#105+[#106-#105]*0.40798]
X-10.79639 Y-2.74541 Z[#100+-0.04000]
#105=[#501+[#502-#501]*0.60137]
#106=[#507+[#508-#507]*0.60137]
#100=[#105+[#106-#105]*0.39794]
X-10.80024 Y-2.74892 Z[#100+-0.04000]
#105=[#501+[#502-#501]*0.59583]
#106=[#507+[#508-#507]*0.59583]
#100=[#105+[#106-#105]*0.39306]
X-10.80211 Y-2.75102 Z[#100+-0.04000]
#105=[#501+[#502-#501]*0.58995]
#106=[#507+[#508-#507]*0.58995]
#100=[#105+[#106-#105]*0.38858]
X-10.80383 Y-2.75324 Z[#100+-0.04000]
#105=[#501+[#502-#501]*0.57824]
#106=[#507+[#508-#507]*0.57824]
#100=[#105+[#106-#105]*0.38141]
X-10.80658 Y-2.75767 Z[#100+-0.04000]
#105=[#501+[#502-#501]*0.57157]
#106=[#507+[#508-#507]*0.57157]
#100=[#105+[#106-#105]*0.37820]
X-10.80782 Y-2.76020 Z[#100+-0.04000]
#105=[#501+[#502-#501]*0.56468]
#106=[#507+[#508-#507]*0.56468]
#100=[#105+[#106-#105]*0.37546]
X-10.80887 Y-2.76281 Z[#100+-0.04000]
#105=[#501+[#502-#501]*0.55556]
#106=[#507+[#508-#507]*0.55556]
#100=[#105+[#106-#105]*0.37267]
X-10.80994 Y-2.76626 Z[#100+-0.04000]
#105=[#501+[#502-#501]*0.54726]
#106=[#507+[#508-#507]*0.54726]
#100=[#105+[#106-#105]*0.37089]
X-10.81062 Y-2.76940 Z[#100+-0.04000]
#105=[#501+[#502-#501]*0.53780]
#106=[#507+[#508-#507]*0.53780]
#100=[#105+[#106-#105]*0.36969]
X-10.81108 Y-2.77298 Z[#100+-0.04000]
#105=[#501+[#502-#501]*0.52931]
#106=[#507+[#508-#507]*0.52931]
#100=[#105+[#106-#105]*0.36935]
X-10.81121 Y-2.77619 Z[#100+-0.04000]
#100=[#501+[#507-#501]*0.36936]
X-10.81121 Y-2.97649 Z[#100+-0.04000]
#105=[#500+[#501-#500]*0.20592]
#106=[#506+[#507-#506]*0.20592]
#100=[#105+[#106-#105]*0.36938]
X-10.81120 Y-3.27699 Z[#100+-0.04000]
#105=[#500+[#501-#500]*0.19534]
#106=[#506+[#507-#506]*0.19534]
#100=[#105+[#106-#105]*0.37012]
X-10.81092 Y-3.28100 Z[#100+-0.04000]
#105=[#500+[#501-#500]*0.18593]
#106=[#506+[#507-#506]*0.18593]
#100=[#105+[#106-#105]*0.37170]
X-10.81031 Y-3.28456 Z[#100+-0.04000]
#105=[#500+[#501-#500]*0.17569]
#106=[#506+[#507-#506]*0.17569]
#100=[#105+[#106-#105]*0.37444]
X-10.80926 Y-3.28843 Z[#100+-0.04000]
#105=[#500+[#501-#500]*0.16579]
#106=[#506+[#507-#506]*0.16579]
#100=[#105+[#106-#105]*0.37820]
X-10.80782 Y-3.29218 Z[#100+-0.04000]
#105=[#500+[#501-#500]*0.15725]
#106=[#506+[#507-#506]*0.15725]
#100=[#105+[#106-#105]*0.38241]
X-10.80620 Y-3.29541 Z[#100+-0.04000]
#105=[#500+[#501-#500]*0.14827]
#106=[#506+[#507-#506]*0.14827]
#100=[#105+[#106-#105]*0.38798]
X-10.80406 Y-3.29881 Z[#100+-0.04000]
#105=[#500+[#501-#500]*0.13991]
#106=[#506+[#507-#506]*0.13991]
#100=[#105+[#106-#105]*0.39441]
X-10.80159 Y-3.30197 Z[#100+-0.04000]
#105=[#500+[#501-#500]*0.13226]
#106=[#506+[#507-#506]*0.13226]
#100=[#105+[#106-#105]*0.40166]
X-10.79881 Y-3.30487 Z[#100+-0.04000]
#105=[#500+[#501-#500]*0.12670]
#106=[#506+[#507-#506]*0.12670]
#100=[#105+[#106-#105]*0.40798]
X-10.79639 Y-3.30697 Z[#100+-0.04000]
#105=[#500+[#501-#500]*0.12110]
#106=[#506+[#507-#506]*0.12110]
#100=[#105+[#106-#105]*0.41561]
X-10.79346 Y-3.30909 Z[#100+-0.04000]
#105=[#500+[#501-#500]*0.11623]
#106=[#506+[#507-#506]*0.11623]
#100=[#105+[#106-#105]*0.42370]
X-10.79035 Y-3.31093 Z[#100+-0.04000]
#105=[#500+[#501-#500]*0.11213]
#106=[#506+[#507-#506]*0.11213]
#100=[#105+[#106-#105]*0.43220]
X-10.78709 Y-3.31249 Z[#100+-0.04000]
#105=[#500+[#501-#500]*0.10884]
#106=[#506+[#507-#506]*0.10884]
#100=[#105+[#106-#105]*0.44104]
X-10.78370 Y-3.31373 Z[#100+-0.04000]
#105=[#500+[#501-#500]*0.10638]
#106=[#506+[#507-#506]*0.10638]
#100=[#105+[#106-#105]*0.45014]
X-10.78021 Y-3.31466 Z[#100+-0.04000]
#105=[#500+[#501-#500]*0.10492]
#106=[#506+[#507-#506]*0.10492]
#100=[#105+[#106-#105]*0.45838]
X-10.77705 Y-3.31521 Z[#100+-0.04000]
#105=[#500+[#501-#500]*0.10409]
#106=[#506+[#507-#506]*0.10409]
#100=[#105+[#106-#105]*0.46776]
X-10.77345 Y-3.31553 Z[#100+-0.04000]
#105=[#500+[#501-#500]*0.10401]
#106=[#506+[#507-#506]*0.10401]
#100=[#105+[#106-#105]*0.96936]
X-10.58096 Y-3.31556 Z[#100+-0.04000]
#105=[#500+[#501-#500]*0.10436]
#106=[#506+[#507-#506]*0.10436]
#100=[#105+[#106-#105]*0.97675]
X-10.57812 Y-3.31543 Z[#100+-0.04000]
#105=[#500+[#501-#500]*0.10524]
#106=[#506+[#507-#506]*0.10524]
#100=[#105+[#106-#105]*0.98410]
X-10.57530 Y-3.31509 Z[#100+-0.04000]
#105=[#500+[#501-#500]*0.10667]
#106=[#506+[#507-#506]*0.10667]
#100=[#105+[#106-#105]*0.99137]
X-10.57252 Y-3.31455 Z[#100+-0.04000]
#105=[#500+[#501-#500]*0.10893]
#106=[#506+[#507-#506]*0.10893]
#100=[#105+[#106-#105]*0.99952]
X-10.56939 Y-3.31369 Z[#100+-0.04000]
#100=[#506+[#507-#506]*0.10911]
X-10.56920 Y-3.31363 Z[#100+-0.04000]
#105=[#506+[#507-#506]*0.11147]
#106=[#512+[#513-#512]*0.11147]
#100=[#105+[#106-#105]*0.00648]
X-10.56672 Y-3.31273 Z[#100+-0.04000]
#105=[#506+[#507-#506]*0.11451]
#106=[#512+[#513-#512]*0.11451]
#100=[#105+[#106-#105]*0.01324]
X-10.56412 Y-3.31158 Z[#100+-0.04000]
#105=[#506+[#507-#506]*0.17886]
#106=[#512+[#513-#512]*0.17886]
#100=[#105+[#106-#105]*0.14012]
X-10.51543 Y-3.28723 Z[#100+-0.04000]
#105=[#506+[#507-#506]*0.18305]
#106=[#512+[#513-#512]*0.18305]
#100=[#105+[#106-#105]*0.14726]
X-10.51269 Y-3.28565 Z[#100+-0.04000]
#105=[#506+[#507-#506]*0.18718]
#106=[#512+[#513-#512]*0.18718]
#100=[#105+[#106-#105]*0.15322]
X-10.51041 Y-3.28409 Z[#100+-0.04000]
#105=[#506+[#507-#506]*0.19240]
#106=[#512+[#513-#512]*0.19240]
#100=[#105+[#106-#105]*0.15966]
X-10.50793 Y-3.28211 Z[#100+-0.04000]
#105=[#506+[#507-#506]*0.19739]
#106=[#512+[#513-#512]*0.19739]
#100=[#105+[#106-#105]*0.16494]
X-10.50591 Y-3.28022 Z[#100+-0.04000]
#105=[#506+[#507-#506]*0.26181]
#106=[#512+[#513-#512]*0.26181]
#100=[#105+[#106-#105]*0.22843]
X-10.48154 Y-3.25584 Z[#100+-0.04000]
#105=[#506+[#507-#506]*0.26888]
#106=[#512+[#513-#512]*0.26888]
#100=[#105+[#106-#105]*0.23455]
X-10.47919 Y-3.25317 Z[#100+-0.04000]
#105=[#506+[#507-#506]*0.27649]
#106=[#512+[#513-#512]*0.27649]
#100=[#105+[#106-#105]*0.24002]
X-10.47710 Y-3.25029 Z[#100+-0.04000]
#105=[#506+[#507-#506]*0.28735]
#106=[#512+[#513-#512]*0.28735]
#100=[#105+[#106-#105]*0.24621]
X-10.47472 Y-3.24618 Z[#100+-0.04000]
#105=[#506+[#507-#506]*0.41319]
#106=[#512+[#513-#512]*0.41319]
#100=[#105+[#106-#105]*0.30825]
X-10.45091 Y-3.19856 Z[#100+-0.04000]
#105=[#506+[#507-#506]*0.42401]
#106=[#512+[#513-#512]*0.42401]
#100=[#105+[#106-#105]*0.31285]
X-10.44915 Y-3.19446 Z[#100+-0.04000]
#105=[#506+[#507-#506]*0.43321]
#106=[#512+[#513-#512]*0.43321]
#100=[#105+[#106-#105]*0.31570]
X-10.44805 Y-3.19098 Z[#100+-0.04000]
#105=[#506+[#507-#506]*0.44158]
#106=[#512+[#513-#512]*0.44158]
#100=[#105+[#106-#105]*0.31751]
X-10.44736 Y-3.18781 Z[#100+-0.04000]
#105=[#506+[#507-#506]*0.45008]
#106=[#512+[#513-#512]*0.45008]
#100=[#105+[#106-#105]*0.31864]
X-10.44693 Y-3.18460 Z[#100+-0.04000]
#105=[#506+[#507-#506]*0.45971]
#106=[#512+[#513-#512]*0.45971]
#100=[#105+[#106-#105]*0.31908]
X-10.44676 Y-3.18095 Z[#100+-0.04000]
G04 P0 ( dwell for no time -- G64 should not smooth over this point )
G00 Z0.08000 ( retract )

G00 X-10.52550 Y-3.17166 ( rapid move to begin. )
G01 F180.00000
( Mill infeed pass 1/1 )
#105=[#506+[#507-#506]*0.48427]
#106=[#512+[#513-#512]*0.48427]
#100=[#105+[#106-#105]*0.11389]
G01 Z[-0.04000+#100]
G04 P0 ( dwell for no time -- G64 should not smooth over this point )
G01 F360.00000
#105=[#506+[#507-#506]*0.62391]
#106=[#512+[#513-#512]*0.62391]
#100=[#105+[#106-#105]*0.11389]
X-10.52550 Y-3.11882 Z[#100+-0.04000]
#105=[#506+[#507-#506]*0.71267]
#106=[#512+[#513-#512]*0.71267]
#100=[#105+[#106-#105]*0.07013]
X-10.54229 Y-3.08522 Z[#100+-0.04000]
#105=[#506+[#507-#506]*0.74629]
#106=[#512+[#513-#512]*0.74629]
#100=[#105+[#106-#105]*0.03698]
X-10.55501 Y-3.07251 Z[#100+-0.04000]
#100=[#506+[#507-#506]*0.75879]
X-10.56920 Y-3.06777 Z[#100+-0.04000]
#105=[#500+[#501-#500]*0.79610]
#106=[#506+[#507-#506]*0.79610]
#100=[#105+[#106-#105]*0.88961]
X-10.61156 Y-3.05366 Z[#100+-0.04000]
#105=[#500+[#501-#500]*0.79610]
#106=[#506+[#507-#506]*0.79610]
#100=[#105+[#106-#105]*0.57454]
X-10.73247 Y-3.05366 Z[#100+-0.04000]
#105=[#500+[#501-#500]*0.31208]
#106=[#506+[#507-#506]*0.31208]
#100=[#105+[#106-#105]*0.57454]
X-10.73247 Y-3.23682 Z[#100+-0.04000]
#105=[#500+[#501-#500]*0.31208]
#106=[#506+[#507-#506]*0.31208]
#100=[#105+[#106-#105]*0.94409]
X-10.59066 Y-3.23682 Z[#100+-0.04000]
#100=[#506+[#507-#506]*0.34043]
X-10.56920 Y-3.22609 Z[#100+-0.04000]
#105=[#506+[#507-#506]*0.35646]
#106=[#512+[#513-#512]*0.35646]
#100=[#105+[#106-#105]*0.03163]
X-10.55707 Y-3.22002 Z[#100+-0.04000]
#105=[#506+[#507-#506]*0.39550]
#106=[#512+[#513-#512]*0.39550]
#100=[#105+[#106-#105]*0.07013]
X-10.54229 Y-3.20525 Z[#100+-0.04000]
#105=[#506+[#507-#506]*0.48427]
#106=[#512+[#513-#512]*0.48427]
#100=[#105+[#106-#105]*0.11389]
X-10.52550 Y-3.17166 Z[#100+-0.04000]
G04 P0 ( dwell for no time -- G64 should not smooth over this point )
G00 Z0.08000 ( retract )

G00 X-10.54931 Y-2.90975 ( rapid move to begin. )
G01 F180.00000
( Mill infeed pass 1/1 )
#105=[#507+[#508-#507]*0.17637]
#106=[#513+[#514-#513]*0.17637]
#100=[#105+[#106-#105]*0.05185]
G01 Z[-0.04000+#100]
G04 P0 ( dwell for no time -- G64 should not smooth over this point )
G01 F360.00000
#105=[#507+[#508-#507]*0.25308]
#106=[#513+[#514-#513]*0.25308]
#100=[#105+[#106-#105]*0.05185]
X-10.54931 Y-2.88072 Z[#100+-0.04000]
#105=[#507+[#508-#507]*0.34185]
#106=[#513+[#514-#513]*0.34185]
#100=[#105+[#106-#105]*0.00808]
X-10.56610 Y-2.84713 Z[#100+-0.04000]
#100=[#507+[#508-#507]*0.35005]
X-10.56920 Y-2.84403 Z[#100+-0.04000]
#105=[#501+[#502-#501]*0.38089]
#106=[#507+[#508-#507]*0.38089]
#100=[#105+[#106-#105]*0.96958]
X-10.58088 Y-2.83236 Z[#100+-0.04000]
#105=[#501+[#502-#501]*0.42528]
#106=[#507+[#508-#507]*0.42528]
#100=[#105+[#106-#105]*0.88204]
X-10.61447 Y-2.81556 Z[#100+-0.04000]
#105=[#501+[#502-#501]*0.42528]
#106=[#507+[#508-#507]*0.42528]
#100=[#105+[#106-#105]*0.57454]
X-10.73247 Y-2.81556 Z[#100+-0.04000]
#105=[#501+[#502-#501]*0.00418]
#106=[#507+[#508-#507]*0.00418]
#100=[#105+[#106-#105]*0.57454]
X-10.73247 Y-2.97491 Z[#100+-0.04000]
#105=[#501+[#502-#501]*0.00418]
#106=[#507+[#508-#507]*0.00418]
#100=[#105+[#106-#105]*0.88205]
X-10.61447 Y-2.97491 Z[#100+-0.04000]
#105=[#501+[#502-#501]*0.04856]
#106=[#507+[#508-#507]*0.04856]
#100=[#105+[#106-#105]*0.96958]
X-10.58088 Y-2.95812 Z[#100+-0.04000]
#100=[#507+[#508-#507]*0.07940]
X-10.56920 Y-2.94645 Z[#100+-0.04000]
#105=[#507+[#508-#507]*0.08760]
#106=[#513+[#514-#513]*0.08760]
#100=[#105+[#106-#105]*0.00808]
X-10.56610 Y-2.94334 Z[#100+-0.04000]
#105=[#507+[#508-#507]*0.17637]
#106=[#513+[#514-#513]*0.17637]
#100=[#105+[#106-#105]*0.05185]
X-10.54931 Y-2.90975 Z[#100+-0.04000]
G04 P0 ( dwell for no time -- G64 should not smooth over this point )
G00 Z0.08000 ( retract )

G00 X-10.84311 Y-3.35020 ( rapid move to begin. )
G01 F180.00000
( Mill infeed pass 1/1 )
#105=[#500+[#501-#500]*0.01246]
#106=[#506+[#507-#506]*0.01246]
#100=[#105+[#106-#105]*0.28622]
G01 Z[-0.04000+#100]
G04 P0 ( dwell for no time -- G64 should not smooth over this point )
G01 F360.00000
#105=[#500+[#501-#500]*0.00928]
#106=[#506+[#507-#506]*0.00928]
#100=[#105+[#106-#105]*0.28569]
X-10.84331 Y-3.35140 Z[#100+-0.04000]
#105=[#500+[#501-#500]*0.00728]
#106=[#506+[#507-#506]*0.00728]
#100=[#105+[#106-#105]*0.28493]
X-10.84361 Y-3.35216 Z[#100+-0.04000]
#105=[#500+[#501-#500]*0.00380]
#106=[#506+[#507-#506]*0.00380]
#100=[#105+[#106-#105]*0.28247]
X-10.84455 Y-3.35348 Z[#100+-0.04000]
#105=[#500+[#501-#500]*0.00131]
#106=[#506+[#507-#506]*0.00131]
#100=[#105+[#106-#105]*0.27904]
X-10.84587 Y-3.35442 Z[#100+-0.04000]
#105=[#500+[#501-#500]*0.00053]
#106=[#506+[#507-#506]*0.00053]
#100=[#105+[#106-#105]*0.27706]
X-10.84663 Y-3.35472 Z[#100+-0.04000]
#100=[#500+[#506-#500]*0.27393]
X-10.84783 Y-3.35492 Z[#100+-0.04000]
#105=[#500+[#501-#500]*0.00053]
#106=[#506+[#507-#506]*0.00053]
#100=[#105+[#106-#105]*0.26974]
X-10.84944 Y-3.35472 Z[#100+-0.04000]
#105=[#500+[#501-#500]*0.00131]
#106=[#506+[#507-#506]*0.00131]
#100=[#105+[#106-#105]*0.26777]
X-10.85019 Y-3.35442 Z[#100+-0.04000]
#105=[#500+[#501-#500]*0.00307]
#106=[#506+[#507-#506]*0.00307]
#100=[#105+[#106-#105]*0.26512]
X-10.85121 Y-3.35376 Z[#100+-0.04000]
#105=[#500+[#501-#500]*0.12673]
#106=[#506+[#507-#506]*0.12673]
#100=[#105+[#106-#105]*0.14311]
X-10.89803 Y-3.30696 Z[#100+-0.04000]
#105=[#500+[#501-#500]*0.00307]
#106=[#506+[#507-#506]*0.00307]
#100=[#105+[#106-#105]*0.02110]
X-10.94485 Y-3.35376 Z[#100+-0.04000]
#105=[#500+[#501-#500]*0.00131]
#106=[#506+[#507-#506]*0.00131]
#100=[#105+[#106-#105]*0.01845]
X-10.94587 Y-3.35442 Z[#100+-0.04000]
#105=[#500+[#501-#500]*0.00053]
#106=[#506+[#507-#506]*0.00053]
#100=[#105+[#106-#105]*0.01647]
X-10.94663 Y-3.35472 Z[#100+-0.04000]
#100=[#500+[#506-#500]*0.01228]
X-10.94823 Y-3.35492 Z[#100+-0.04000]
#105=[#500+[#501-#500]*0.00053]
#106=[#506+[#507-#506]*0.00053]
#100=[#105+[#106-#105]*0.00915]
X-10.94944 Y-3.35472 Z[#100+-0.04000]
#105=[#500+[#501-#500]*0.00131]
#106=[#506+[#507-#506]*0.00131]
#100=[#105+[#106-#105]*0.00718]
X-10.95019 Y-3.35442 Z[#100+-0.04000]
#105=[#500+[#501-#500]*0.00380]
#106=[#506+[#507-#506]*0.00380]
#100=[#105+[#106-#105]*0.00375]
X-10.95151 Y-3.35348 Z[#100+-0.04000]
#105=[#500+[#501-#500]*0.00728]
#106=[#506+[#507-#506]*0.00728]
#100=[#105+[#106-#105]*0.00129]
X-10.95245 Y-3.35216 Z[#100+-0.04000]
#105=[#500+[#501-#500]*0.00928]
#106=[#506+[#507-#506]*0.00928]
#100=[#105+[#106-#105]*0.00052]
X-10.95275 Y-3.35140 Z[#100+-0.04000]
#100=[#500+[#501-#500]*0.01246]
X-10.95295 Y-3.35020 Z[#100+-0.04000]
#105=[#500+[#501-#500]*0.01671]
#106=[#506+[#507-#506]*0.01671]
#100=[#105+[#106-#105]*0.00052]
X-10.95275 Y-3.34859 Z[#100+-0.04000]
#105=[#500+[#501-#500]*0.01871]
#106=[#506+[#507-#506]*0.01871]
#100=[#105+[#106-#105]*0.00129]
X-10.95245 Y-3.34784 Z[#100+-0.04000]
#105=[#500+[#501-#500]*0.02140]
#106=[#506+[#507-#506]*0.02140]
#100=[#105+[#106-#105]*0.00303]
X-10.95179 Y-3.34682 Z[#100+-0.04000]
#105=[#500+[#501-#500]*0.14512]
#106=[#506+[#507-#506]*0.14512]
#100=[#105+[#106-#105]*0.12497]
X-10.90499 Y-3.30000 Z[#100+-0.04000]
#105=[#500+[#501-#500]*0.26884]
#106=[#506+[#507-#506]*0.26884]
#100=[#105+[#106-#105]*0.00303]
X-10.95179 Y-3.25318 Z[#100+-0.04000]
#105=[#500+[#501-#500]*0.27154]
#106=[#506+[#507-#506]*0.27154]
#100=[#105+[#106-#105]*0.00129]
X-10.95245 Y-3.25216 Z[#100+-0.04000]
#105=[#500+[#501-#500]*0.27354]
#106=[#506+[#507-#506]*0.27354]
#100=[#105+[#106-#105]*0.00052]
X-10.95275 Y-3.25140 Z[#100+-0.04000]
#100=[#500+[#501-#500]*0.27779]
X-10.95295 Y-3.24980 Z[#100+-0.04000]
#105=[#500+[#501-#500]*0.28096]
#106=[#506+[#507-#506]*0.28096]
#100=[#105+[#106-#105]*0.00052]
X-10.95275 Y-3.24859 Z[#100+-0.04000]
#105=[#500+[#501-#500]*0.28296]
#106=[#506+[#507-#506]*0.28296]
#100=[#105+[#106-#105]*0.00129]
X-10.95245 Y-3.24784 Z[#100+-0.04000]
#105=[#500+[#501-#500]*0.28644]
#106=[#506+[#507-#506]*0.28644]
#100=[#105+[#106-#105]*0.00375]
X-10.95151 Y-3.24652 Z[#100+-0.04000]
#105=[#500+[#501-#500]*0.28893]
#106=[#506+[#507-#506]*0.28893]
#100=[#105+[#106-#105]*0.00718]
X-10.95019 Y-3.24558 Z[#100+-0.04000]
#105=[#500+[#501-#500]*0.28971]
#106=[#506+[#507-#506]*0.28971]
#100=[#105+[#106-#105]*0.00915]
X-10.94944 Y-3.24528 Z[#100+-0.04000]
#105=[#500+[#501-#500]*0.29024]
#106=[#506+[#507-#506]*0.29024]
#100=[#105+[#106-#105]*0.01228]
X-10.94823 Y-3.24508 Z[#100+-0.04000]
#105=[#500+[#501-#500]*0.28971]
#106=[#506+[#507-#506]*0.28971]
#100=[#105+[#106-#105]*0.01647]
X-10.94663 Y-3.24528 Z[#100+-0.04000]
#105=[#500+[#501-#500]*0.28893]
#106=[#506+[#507-#506]*0.28893]
#100=[#105+[#106-#105]*0.01845]
X-10.94587 Y-3.24558 Z[#100+-0.04000]
#105=[#500+[#501-#500]*0.28717]
#106=[#506+[#507-#506]*0.28717]
#100=[#105+[#106-#105]*0.02110]
X-10.94485 Y-3.24624 Z[#100+-0.04000]
#105=[#500+[#501-#500]*0.16351]
#106=[#506+[#507-#506]*0.16351]
#100=[#105+[#106-#105]*0.14311]
X-10.89803 Y-3.29304 Z[#100+-0.04000]
#105=[#500+[#501-#500]*0.28717]
#106=[#506+[#507-#506]*0.28717]
#100=[#105+[#106-#105]*0.26512]
X-10.85121 Y-3.24624 Z[#100+-0.04000]
#105=[#500+[#501-#500]*0.28893]
#106=[#506+[#507-#506]*0.28893]
#100=[#105+[#106-#105]*0.26777]
X-10.85019 Y-3.24558 Z[#100+-0.04000]
#105=[#500+[#501-#500]*0.28971]
#106=[#506+[#507-#506]*0.28971]
#100=[#105+[#106-#105]*0.26974]
X-10.84944 Y-3.24528 Z[#100+-0.04000]
#105=[#500+[#501-#500]*0.29024]
#106=[#506+[#507-#506]*0.29024]
#100=[#105+[#106-#105]*0.27393]
X-10.84783 Y-3.24508 Z[#100+-0.04000]
#105=[#500+[#501-#500]*0.28971]
#106=[#506+[#507-#506]*0.28971]
#100=[#105+[#106-#105]*0.27706]
X-10.84663 Y-3.24528 Z[#100+-0.04000]
#105=[#500+[#501-#500]*0.28893]
#106=[#506+[#507-#506]*0.28893]
#100=[#105+[#106-#105]*0.27904]
X-10.84587 Y-3.24558 Z[#100+-0.04000]
#105=[#500+[#501-#500]*0.28644]
#106=[#506+[#507-#506]*0.28644]
#100=[#105+[#106-#105]*0.28247]
X-10.84455 Y-3.24652 Z[#100+-0.04000]
#105=[#500+[#501-#500]*0.28296]
#106=[#506+[#507-#506]*0.28296]
#100=[#105+[#106-#105]*0.28493]
X-10.84361 Y-3.24784 Z[#100+-0.04000]
#105=[#500+[#501-#500]*0.28096]
#106=[#506+[#507-#506]*0.28096]
#100=[#105+[#106-#105]*0.28569]
X-10.84331 Y-3.24859 Z[#100+-0.04000]
#105=[#500+[#501-#500]*0.27779]
#106=[#506+[#507-#506]*0.27779]
#100=[#105+[#106-#105]*0.28622]
X-10.84311 Y-3.24980 Z[#100+-0.04000]
#105=[#500+[#501-#500]*0.27354]
#106=[#506+[#507-#506]*0.27354]
#100=[#105+[#106-#105]*0.28569]
X-10.84331 Y-3.25140 Z[#100+-0.04000]
#105=[#500+[#501-#500]*0.27154]
#106=[#506+[#507-#506]*0.27154]
#100=[#105+[#106-#105]*0.28493]
X-10.84361 Y-3.25216 Z[#100+-0.04000]
#105=[#500+[#501-#500]*0.26884]
#106=[#506+[#507-#506]*0.26884]
#100=[#105+[#106-#105]*0.28319]
X-10.84428 Y-3.25318 Z[#100+-0.04000]
#105=[#500+[#501-#500]*0.14512]
#106=[#506+[#507-#506]*0.14512]
#100=[#105+[#106-#105]*0.16124]
X-10.89107 Y-3.30000 Z[#100+-0.04000]
#105=[#500+[#501-#500]*0.02140]
#106=[#506+[#507-#506]*0.02140]
#100=[#105+[#106-#105]*0.28319]
X-10.84428 Y-3.34682 Z[#100+-0.04000]
#105=[#500+[#501-#500]*0.01871]
#106=[#506+[#507-#506]*0.01871]
#100=[#105+[#106-#105]*0.28493]
X-10.84361 Y-3.34784 Z[#100+-0.04000]
#105=[#500+[#501-#500]*0.01671]
#106=[#506+[#507-#506]*0.01671]
#100=[#105+[#106-#105]*0.28569]
X-10.84331 Y-3.34859 Z[#100+-0.04000]
#105=[#500+[#501-#500]*0.01246]
#106=[#506+[#507-#506]*0.01246]
#100=[#105+[#106-#105]*0.28622]
X-10.84311 Y-3.35020 Z[#100+-0.04000]
( Piece #2, position [1;0] )

G04 P0 ( dwell for no time -- G64 should not smooth over this point )
G00 Z0.08000 ( retract )

G00 X-6.98702 Y-2.94286 ( rapid move to begin. )
G01 F180.00000
( Mill infeed pass 1/1 )
#105=[#561+[#562-#561]*0.08889]
#106=[#567+[#568-#567]*0.08889]
#100=[#105+[#106-#105]*0.33476]
G01 Z[-0.04000+#100]
G04 P0 ( dwell for no time -- G64 should not smooth over this point )
G01 F360.00000
#105=[#561+[#562-#561]*0.07513]
#106=[#567+[#568-#567]*0.07513]
#100=[#105+[#106-#105]*0.33385]
X-6.98737 Y-2.94806 Z[#100+-0.04000]
#105=[#561+[#562-#561]*0.06162]
#106=[#567+[#568-#567]*0.06162]
#100=[#105+[#106-#105]*0.33117]
X-6.98840 Y-2.95317 Z[#100+-0.04000]
#105=[#561+[#562-#561]*0.04859]
#106=[#567+[#568-#567]*0.04859]
#100=[#105+[#106-#105]*0.32674]
X-6.99010 Y-2.95811 Z[#100+-0.04000]
#105=[#561+[#562-#561]*0.03626]
#106=[#567+[#568-#567]*0.03626]
#100=[#105+[#106-#105]*0.32066]
X-6.99243 Y-2.96277 Z[#100+-0.04000]
#105=[#561+[#562-#561]*0.02486]
#106=[#567+[#568-#567]*0.02486]
#100=[#105+[#106-#105]*0.31302]
X-6.99537 Y-2.96709 Z[#100+-0.04000]
#105=[#561+[#562-#561]*0.01532]
#106=[#567+[#568-#567]*0.01532]
#100=[#105+[#106-#105]*0.30471]
X-6.99856 Y-2.97070 Z[#100+-0.04000]
#100=[#561+[#567-#561]*0.28959]
X-7.00436 Y-2.97649 Z[#100+-0.04000]
#100=[#560+[#561-#560]*0.70633]
X-7.11549 Y-3.08763 Z[#100+-0.04000]
#105=[#554+[#555-#554]*0.70162]
#106=[#560+[#561-#560]*0.70162]
#100=[#105+[#106-#105]*0.99536]
X-7.11727 Y-3.08941 Z[#100+-0.04000]
#100=[#560+[#561-#560]*0.69534]
X-7.11549 Y-3.09179 Z[#100+-0.04000]
#105=[#560+[#561-#560]*0.26702]
#106=[#566+[#567-#566]*0.26702]
#100=[#105+[#106-#105]*0.31668]
X-6.99396 Y-3.25387 Z[#100+-0.04000]
#105=[#560+[#561-#560]*0.25983]
#106=[#566+[#567-#566]*0.25983]
#100=[#105+[#106-#105]*0.32114]
X-6.99225 Y-3.25659 Z[#100+-0.04000]
#105=[#560+[#561-#560]*0.25327]
#106=[#566+[#567-#566]*0.25327]
#100=[#105+[#106-#105]*0.32455]
X-6.99094 Y-3.25908 Z[#100+-0.04000]
#105=[#560+[#561-#560]*0.24548]
#106=[#566+[#567-#566]*0.24548]
#100=[#105+[#106-#105]*0.32788]
X-6.98966 Y-3.26202 Z[#100+-0.04000]
#105=[#560+[#561-#560]*0.23744]
#106=[#566+[#567-#566]*0.23744]
#100=[#105+[#106-#105]*0.33057]
X-6.98863 Y-3.26506 Z[#100+-0.04000]
#105=[#560+[#561-#560]*0.22921]
#106=[#566+[#567-#566]*0.22921]
#100=[#105+[#106-#105]*0.33261]
X-6.98785 Y-3.26818 Z[#100+-0.04000]
#105=[#560+[#561-#560]*0.22084]
#106=[#566+[#567-#566]*0.22084]
#100=[#105+[#106-#105]*0.33398]
X-6.98732 Y-3.27135 Z[#100+-0.04000]
#105=[#560+[#561-#560]*0.21238]
#106=[#566+[#567-#566]*0.21238]
#100=[#105+[#106-#105]*0.33467]
X-6.98706 Y-3.27455 Z[#100+-0.04000]
#105=[#560+[#561-#560]*0.20389]
#106=[#566+[#567-#566]*0.20389]
#100=[#105+[#106-#105]*0.33467]
X-6.98706 Y-3.27776 Z[#100+-0.04000]
#105=[#560+[#561-#560]*0.19649]
#106=[#566+[#567-#566]*0.19649]
#100=[#105+[#106-#105]*0.33412]
X-6.98727 Y-3.28056 Z[#100+-0.04000]
#105=[#560+[#561-#560]*0.18914]
#106=[#566+[#567-#566]*0.18914]
#100=[#105+[#106-#105]*0.33305]
X-6.98768 Y-3.28334 Z[#100+-0.04000]
#105=[#560+[#561-#560]*0.17578]
#106=[#566+[#567-#566]*0.17578]
#100=[#105+[#106-#105]*0.32970]
X-6.98897 Y-3.28840 Z[#100+-0.04000]
#105=[#560+[#561-#560]*0.16299]
#106=[#566+[#567-#566]*0.16299]
#100=[#105+[#106-#105]*0.32464]
X-6.99091 Y-3.29324 Z[#100+-0.04000]
#105=[#560+[#561-#560]*0.15098]
#106=[#566+[#567-#566]*0.15098]
#100=[#105+[#106-#105]*0.31795]
X-6.99347 Y-3.29778 Z[#100+-0.04000]
#105=[#560+[#561-#560]*0.13998]
#106=[#566+[#567-#566]*0.13998]
#100=[#105+[#106-#105]*0.30976]
X-6.99662 Y-3.30194 Z[#100+-0.04000]
#105=[#560+[#561-#560]*0.13018]
#106=[#566+[#567-#566]*0.13018]
#100=[#105+[#106-#105]*0.30020]
X-7.00028 Y-3.30565 Z[#100+-0.04000]
#105=[#560+[#561-#560]*0.12174]
#106=[#566+[#567-#566]*0.12174]
#100=[#105+[#106-#105]*0.28945]
X-7.00441 Y-3.30885 Z[#100+-0.04000]
#105=[#560+[#561-#560]*0.11781]
#106=[#566+[#567-#566]*0.11781]
#100=[#105+[#106-#105]*0.28324]
X-7.00680 Y-3.31033 Z[#100+-0.04000]
#105=[#560+[#561-#560]*0.11435]
#106=[#566+[#567-#566]*0.11435]
#100=[#105+[#106-#105]*0.27676]
X-7.00928 Y-3.31164 Z[#100+-0.04000]
#105=[#560+[#561-#560]*0.10919]
#106=[#566+[#567-#566]*0.10919]
#100=[#105+[#106-#105]*0.26415]
X-7.01412 Y-3.31360 Z[#100+-0.04000]
#105=[#560+[#561-#560]*0.10577]
#106=[#566+[#567-#566]*0.10577]
#100=[#105+[#106-#105]*0.25098]
X-7.01917 Y-3.31489 Z[#100+-0.04000]
#105=[#560+[#561-#560]*0.10414]
#106=[#566+[#567-#566]*0.10414]
#100=[#105+[#106-#105]*0.23748]
X-7.02435 Y-3.31551 Z[#100+-0.04000]
#105=[#560+[#561-#560]*0.10434]
#106=[#566+[#567-#566]*0.10434]
#100=[#105+[#106-#105]*0.22389]
X-7.02957 Y-3.31543 Z[#100+-0.04000]
#105=[#560+[#561-#560]*0.10521]
#106=[#566+[#567-#566]*0.10521]
#100=[#105+[#106-#105]*0.21662]
X-7.03236 Y-3.31510 Z[#100+-0.04000]
#105=[#560+[#561-#560]*0.10659]
#106=[#566+[#567-#566]*0.10659]
#100=[#105+[#106-#105]*0.20942]
X-7.03512 Y-3.31458 Z[#100+-0.04000]
#105=[#560+[#561-#560]*0.11053]
#106=[#566+[#567-#566]*0.11053]
#100=[#105+[#106-#105]*0.19639]
X-7.04012 Y-3.31309 Z[#100+-0.04000]
#105=[#560+[#561-#560]*0.11618]
#106=[#566+[#567-#566]*0.11618]
#100=[#105+[#106-#105]*0.18400]
X-7.04488 Y-3.31095 Z[#100+-0.04000]
#105=[#560+[#561-#560]*0.12345]
#106=[#566+[#567-#566]*0.12345]
#100=[#105+[#106-#105]*0.17244]
X-7.04931 Y-3.30820 Z[#100+-0.04000]
#105=[#560+[#561-#560]*0.12798]
#106=[#566+[#567-#566]*0.12798]
#100=[#105+[#106-#105]*0.16664]
X-7.05154 Y-3.30649 Z[#100+-0.04000]
#105=[#560+[#561-#560]*0.13293]
#106=[#566+[#567-#566]*0.13293]
#100=[#105+[#106-#105]*0.16118]
X-7.05363 Y-3.30462 Z[#100+-0.04000]
#105=[#560+[#561-#560]*0.13825]
#106=[#566+[#567-#566]*0.13825]
#100=[#105+[#106-#105]*0.15608]
X-7.05559 Y-3.30260 Z[#100+-0.04000]
#105=[#560+[#561-#560]*0.14477]
#106=[#566+[#567-#566]*0.14477]
#100=[#105+[#106-#105]*0.15072]
X-7.05765 Y-3.30013 Z[#100+-0.04000]
#100=[#560+[#561-#560]*0.34855]
X-7.11549 Y-3.22302 Z[#100+-0.04000]
#105=[#554+[#555-#554]*0.55300]
#106=[#560+[#561-#560]*0.55300]
#100=[#105+[#106-#105]*0.84879]
X-7.17351 Y-3.14565 Z[#100+-0.04000]
#105=[#554+[#555-#554]*0.54245]
#106=[#560+[#561-#560]*0.54245]
#100=[#105+[#106-#105]*0.83839]
X-7.17750 Y-3.14964 Z[#100+-0.04000]
#105=[#554+[#555-#554]*0.20592]
#106=[#560+[#561-#560]*0.20592]
#100=[#105+[#106-#105]*0.83837]
X-7.17751 Y-3.27699 Z[#100+-0.04000]
#105=[#554+[#555-#554]*0.19639]
#106=[#560+[#561-#560]*0.19639]
#100=[#105+[#106-#105]*0.83775]
X-7.17775 Y-3.28060 Z[#100+-0.04000]
#105=[#554+[#555-#554]*0.18697]
#106=[#560+[#561-#560]*0.18697]
#100=[#105+[#106-#105]*0.83627]
X-7.17832 Y-3.28416 Z[#100+-0.04000]
#105=[#554+[#555-#554]*0.17771]
#106=[#560+[#561-#560]*0.17771]
#100=[#105+[#106-#105]*0.83394]
X-7.17921 Y-3.28767 Z[#100+-0.04000]
#105=[#554+[#555-#554]*0.16872]
#106=[#560+[#561-#560]*0.16872]
#100=[#105+[#106-#105]*0.83078]
X-7.18042 Y-3.29107 Z[#100+-0.04000]
#105=[#554+[#555-#554]*0.15818]
#106=[#560+[#561-#560]*0.15818]
#100=[#105+[#106-#105]*0.82584]
X-7.18232 Y-3.29506 Z[#100+-0.04000]
#105=[#554+[#555-#554]*0.14827]
#106=[#560+[#561-#560]*0.14827]
#100=[#105+[#106-#105]*0.81977]
X-7.18465 Y-3.29881 Z[#100+-0.04000]
#105=[#554+[#555-#554]*0.13911]
#106=[#560+[#561-#560]*0.13911]
#100=[#105+[#106-#105]*0.81265]
X-7.18738 Y-3.30227 Z[#100+-0.04000]
#105=[#554+[#555-#554]*0.13082]
#106=[#560+[#561-#560]*0.13082]
#100=[#105+[#106-#105]*0.80455]
X-7.19049 Y-3.30541 Z[#100+-0.04000]
#105=[#554+[#555-#554]*0.12350]
#106=[#560+[#561-#560]*0.12350]
#100=[#105+[#106-#105]*0.79559]
X-7.19393 Y-3.30818 Z[#100+-0.04000]
#105=[#554+[#555-#554]*0.11724]
#106=[#560+[#561-#560]*0.11724]
#100=[#105+[#106-#105]*0.78588]
X-7.19765 Y-3.31055 Z[#100+-0.04000]
#105=[#554+[#555-#554]*0.11213]
#106=[#560+[#561-#560]*0.11213]
#100=[#105+[#106-#105]*0.77554]
X-7.20162 Y-3.31249 Z[#100+-0.04000]
#105=[#554+[#555-#554]*0.10822]
#106=[#560+[#561-#560]*0.10822]
#100=[#105+[#106-#105]*0.76470]
X-7.20578 Y-3.31397 Z[#100+-0.04000]
#105=[#554+[#555-#554]*0.10556]
#106=[#560+[#561-#560]*0.10556]
#100=[#105+[#106-#105]*0.75350]
X-7.21008 Y-3.31497 Z[#100+-0.04000]
#105=[#554+[#555-#554]*0.10420]
#106=[#560+[#561-#560]*0.10420]
#100=[#105+[#106-#105]*0.74207]
X-7.21446 Y-3.31549 Z[#100+-0.04000]
#105=[#554+[#555-#554]*0.10414]
#106=[#560+[#561-#560]*0.10414]
#100=[#105+[#106-#105]*0.73057]
X-7.21888 Y-3.31551 Z[#100+-0.04000]
#105=[#554+[#555-#554]*0.10539]
#106=[#560+[#561-#560]*0.10539]
#100=[#105+[#106-#105]*0.71913]
X-7.22327 Y-3.31504 Z[#100+-0.04000]
#105=[#554+[#555-#554]*0.10822]
#106=[#560+[#561-#560]*0.10822]
#100=[#105+[#106-#105]*0.70690]
X-7.22796 Y-3.31397 Z[#100+-0.04000]
#105=[#554+[#555-#554]*0.11213]
#106=[#560+[#561-#560]*0.11213]
#100=[#105+[#106-#105]*0.69606]
X-7.23212 Y-3.31249 Z[#100+-0.04000]
#105=[#554+[#555-#554]*0.11724]
#106=[#560+[#561-#560]*0.11724]
#100=[#105+[#106-#105]*0.68572]
X-7.23609 Y-3.31055 Z[#100+-0.04000]
#105=[#554+[#555-#554]*0.12350]
#106=[#560+[#561-#560]*0.12350]
#100=[#105+[#106-#105]*0.67601]
X-7.23982 Y-3.30818 Z[#100+-0.04000]
#105=[#554+[#555-#554]*0.13082]
#106=[#560+[#561-#560]*0.13082]
#100=[#105+[#106-#105]*0.66705]
X-7.24326 Y-3.30541 Z[#100+-0.04000]
#105=[#554+[#555-#554]*0.13991]
#106=[#560+[#561-#560]*0.13991]
#100=[#105+[#106-#105]*0.65827]
X-7.24663 Y-3.30197 Z[#100+-0.04000]
#105=[#554+[#555-#554]*0.14914]
#106=[#560+[#561-#560]*0.14914]
#100=[#105+[#106-#105]*0.65123]
X-7.24933 Y-3.29848 Z[#100+-0.04000]
#105=[#554+[#555-#554]*0.15912]
#106=[#560+[#561-#560]*0.15912]
#100=[#105+[#106-#105]*0.64526]
X-7.25162 Y-3.29470 Z[#100+-0.04000]
#105=[#554+[#555-#554]*0.17069]
#106=[#560+[#561-#560]*0.17069]
#100=[#105+[#106-#105]*0.64004]
X-7.25362 Y-3.29032 Z[#100+-0.04000]
#105=[#554+[#555-#554]*0.18180]
#106=[#560+[#561-#560]*0.18180]
#100=[#105+[#106-#105]*0.63652]
X-7.25497 Y-3.28612 Z[#100+-0.04000]
#105=[#554+[#555-#554]*0.19324]
#106=[#560+[#561-#560]*0.19324]
#100=[#105+[#106-#105]*0.63425]
X-7.25584 Y-3.28179 Z[#100+-0.04000]
#105=[#554+[#555-#554]*0.20486]
#106=[#560+[#561-#560]*0.20486]
#100=[#105+[#106-#105]*0.63325]
X-7.25622 Y-3.27739 Z[#100+-0.04000]
#100=[#555+[#561-#555]*0.63328]
X-7.25622 Y-2.97649 Z[#100+-0.04000]
#105=[#555+[#556-#555]*0.53356]
#106=[#561+[#562-#561]*0.53356]
#100=[#105+[#106-#105]*0.63329]
X-7.25621 Y-2.77458 Z[#100+-0.04000]
#105=[#555+[#556-#555]*0.54307]
#106=[#561+[#562-#561]*0.54307]
#100=[#105+[#106-#105]*0.63411]
X-7.25590 Y-2.77098 Z[#100+-0.04000]
#105=[#555+[#556-#555]*0.55350]
#106=[#561+[#562-#561]*0.55350]
#100=[#105+[#106-#105]*0.63602]
X-7.25516 Y-2.76704 Z[#100+-0.04000]
#105=[#555+[#556-#555]*0.56267]
#106=[#561+[#562-#561]*0.56267]
#100=[#105+[#106-#105]*0.63862]
X-7.25416 Y-2.76357 Z[#100+-0.04000]
#105=[#555+[#556-#555]*0.57253]
#106=[#561+[#562-#561]*0.57253]
#100=[#105+[#106-#105]*0.64248]
X-7.25268 Y-2.75983 Z[#100+-0.04000]
#105=[#555+[#556-#555]*0.58195]
#106=[#561+[#562-#561]*0.58195]
#100=[#105+[#106-#105]*0.64730]
X-7.25083 Y-2.75627 Z[#100+-0.04000]
#105=[#555+[#556-#555]*0.59081]
#106=[#561+[#562-#561]*0.59081]
#100=[#105+[#106-#105]*0.65305]
X-7.24863 Y-2.75292 Z[#100+-0.04000]
#105=[#555+[#556-#555]*0.59903]
#106=[#561+[#562-#561]*0.59903]
#100=[#105+[#106-#105]*0.65965]
X-7.24609 Y-2.74981 Z[#100+-0.04000]
#105=[#555+[#556-#555]*0.60582]
#106=[#561+[#562-#561]*0.60582]
#100=[#105+[#106-#105]*0.66627]
X-7.24355 Y-2.74724 Z[#100+-0.04000]
#105=[#555+[#556-#555]*0.61196]
#106=[#561+[#562-#561]*0.61196]
#100=[#105+[#106-#105]*0.67348]
X-7.24079 Y-2.74491 Z[#100+-0.04000]
#105=[#555+[#556-#555]*0.61797]
#106=[#561+[#562-#561]*0.61797]
#100=[#105+[#106-#105]*0.68210]
X-7.23748 Y-2.74264 Z[#100+-0.04000]
#105=[#555+[#556-#555]*0.62305]
#106=[#561+[#562-#561]*0.62305]
#100=[#105+[#106-#105]*0.69128]
X-7.23395 Y-2.74072 Z[#100+-0.04000]
#105=[#555+[#556-#555]*0.62716]
#106=[#561+[#562-#561]*0.62716]
#100=[#105+[#106-#105]*0.70093]
X-7.23025 Y-2.73916 Z[#100+-0.04000]
#105=[#555+[#556-#555]*0.63025]
#106=[#561+[#562-#561]*0.63025]
#100=[#105+[#106-#105]*0.71094]
X-7.22641 Y-2.73799 Z[#100+-0.04000]
#105=[#555+[#556-#555]*0.63214]
#106=[#561+[#562-#561]*0.63214]
#100=[#105+[#106-#105]*0.72016]
X-7.22287 Y-2.73728 Z[#100+-0.04000]
#105=[#555+[#556-#555]*0.63316]
#106=[#561+[#562-#561]*0.63316]
#100=[#105+[#106-#105]*0.72953]
X-7.21928 Y-2.73689 Z[#100+-0.04000]
#105=[#555+[#556-#555]*0.63327]
#106=[#561+[#562-#561]*0.63327]
#100=[#105+[#106-#105]*0.73998]
X-7.21527 Y-2.73685 Z[#100+-0.04000]
#105=[#555+[#556-#555]*0.63244]
#106=[#561+[#562-#561]*0.63244]
#100=[#105+[#106-#105]*0.74936]
X-7.21167 Y-2.73717 Z[#100+-0.04000]
#105=[#555+[#556-#555]*0.63097]
#106=[#561+[#562-#561]*0.63097]
#100=[#105+[#106-#105]*0.75761]
X-7.20850 Y-2.73772 Z[#100+-0.04000]
#105=[#555+[#556-#555]*0.62852]
