( pcb2gcode 2.5.0 )
( Software-independent Gcode )

G94 ( Inches per minute feed rate. )
G20 ( Units == INCHES. )

G90 ( Absolute coordinates. )
G00 S12000 ( RPM spindle speed. )
G64 P0.00040 ( set maximum deviation from commanded toolpath )
G01 F360.00000 ( Feedrate. )


G00 Z1.00000 (Retract to tool change height)
T1
M5      (Spindle stop.)
G04 P1.00000 (Wait for spindle to stop)
(MSG, Change tool bit to mill diameter 0.00000in)
M6      (Tool change.)
M0      (Temporary machine stop.)
M3 ( Spindle on clockwise. )
G04 P1.00000 (Wait for spindle to get up to speed)
G04 P0 ( dwell for no time -- G64 should not smooth over this point )
G00 Z0.08000 ( retract )

G00 X3.20295 Y-2.84705 ( rapid move to begin. )
G01 F180.00000
( Mill infeed pass 1/1 )
G01 Z-0.04000
G04 P0 ( dwell for no time -- G64 should not smooth over this point )
G01 F360.00000
G01 X3.20295 Y-2.84705
G01 X3.20295 Y-2.65295
G01 X3.29705 Y-2.65295
G01 X3.29705 Y-2.84705
G01 X3.20295 Y-2.84705
G04 P0 ( dwell for no time -- G64 should not smooth over this point )
G00 Z0.08000 ( retract )

G00 X3.24705 Y-2.64188 ( rapid move to begin. )
G01 F180.00000
( Mill infeed pass 1/1 )
G01 Z-0.04000
G04 P0 ( dwell for no time -- G64 should not smooth over this point )
G01 F360.00000
G01 X3.24705 Y-2.64188
G01 X3.25000 Y-2.64139
G01 X3.25000 Y-2.64117
G01 X3.25000 Y-2.64139
G01 X3.25295 Y-2.64188
G01 X3.25295 Y-2.64705
G01 X3.30000 Y-2.64705
G01 X3.30083 Y-2.64717
G01 X3.30193 Y-2.64777
G01 X3.30248 Y-2.64840
G01 X3.30292 Y-2.64958
G01 X3.30295 Y-2.85000
G01 X3.30283 Y-2.85083
G01 X3.30223 Y-2.85193
G01 X3.30123 Y-2.85269
G01 X3.30000 Y-2.85295
G01 X3.25295 Y-2.85295
G01 X3.25295 Y-2.90000
G01 X3.25269 Y-2.90123
G01 X3.25193 Y-2.90223
G01 X3.25083 Y-2.90283
G01 X3.25000 Y-2.90295
G01 X3.24917 Y-2.90283
G01 X3.24807 Y-2.90223
G01 X3.24731 Y-2.90123
G01 X3.24705 Y-2.90000
G01 X3.24705 Y-2.85812
G01 X3.25000 Y-2.85861
G01 X3.25295 Y-2.85812
G01 X3.25000 Y-2.85861
G01 X3.24809 Y-2.85838
G01 X3.24807 Y-2.85855
G01 X3.24809 Y-2.85838
G01 X3.24705 Y-2.85812
G01 X3.24705 Y-2.85295
G01 X3.20000 Y-2.85295
G01 X3.19917 Y-2.85283
G01 X3.19807 Y-2.85223
G01 X3.19752 Y-2.85160
G01 X3.19708 Y-2.85042
G01 X3.19705 Y-2.65000
G01 X3.19717 Y-2.64917
G01 X3.19777 Y-2.64807
G01 X3.19877 Y-2.64731
G01 X3.20000 Y-2.64705
G01 X3.24705 Y-2.64705
G01 X3.24705 Y-2.60000
G01 X3.24731 Y-2.59877
G01 X3.24807 Y-2.59777
G01 X3.24917 Y-2.59717
G01 X3.25042 Y-2.59708
G01 X3.25160 Y-2.59752
G01 X3.25223 Y-2.59807
G01 X3.25283 Y-2.59917
G01 X3.25295 Y-2.60000
G01 X3.25295 Y-2.64188
G04 P0 ( dwell for no time -- G64 should not smooth over this point )
G00 Z0.08000 ( retract )

G00 X3.32552 Y-2.72987 ( rapid move to begin. )
G01 F180.00000
( Mill infeed pass 1/1 )
G01 Z-0.04000
G04 P0 ( dwell for no time -- G64 should not smooth over this point )
G01 F360.00000
G01 X3.32552 Y-2.72987
G01 X3.32560 Y-2.73111
G01 X3.32593 Y-2.73188
G01 X3.32647 Y-2.73251
G01 X3.33218 Y-2.73636
G01 X3.33539 Y-2.73956
G01 X3.33752 Y-2.74357
G01 X3.33818 Y-2.74410
G01 X3.33937 Y-2.74450
G01 X3.34021 Y-2.74447
G01 X3.34101 Y-2.74420
G01 X3.34199 Y-2.74342
G01 X3.34255 Y-2.74229
G01 X3.34259 Y-2.74104
G01 X3.34233 Y-2.74024
G01 X3.34021 Y-2.73609
G01 X3.33744 Y-2.73327
G01 X3.36486 Y-2.73327
G01 X3.36486 Y-2.74156
G01 X3.36498 Y-2.74239
G01 X3.36532 Y-2.74316
G01 X3.36621 Y-2.74405
G01 X3.36739 Y-2.74449
G01 X3.36864 Y-2.74440
G01 X3.36941 Y-2.74405
G01 X3.37029 Y-2.74316
G01 X3.37064 Y-2.74239
G01 X3.37076 Y-2.74156
G01 X3.37076 Y-2.71907
G01 X3.37064 Y-2.71823
G01 X3.37004 Y-2.71713
G01 X3.36941 Y-2.71658
G01 X3.36864 Y-2.71623
G01 X3.36739 Y-2.71614
G01 X3.36658 Y-2.71638
G01 X3.36588 Y-2.71683
G01 X3.36512 Y-2.71784
G01 X3.36486 Y-2.71907
G01 X3.36486 Y-2.72736
G01 X3.32802 Y-2.72739
G01 X3.32685 Y-2.72782
G01 X3.32597 Y-2.72870
G01 X3.32552 Y-2.72987
G04 P0 ( dwell for no time -- G64 should not smooth over this point )
G00 Z0.08000 ( retract )

G00 X3.33139 Y-2.77610 ( rapid move to begin. )
G01 F180.00000
( Mill infeed pass 1/1 )
G01 Z-0.04000
G04 P0 ( dwell for no time -- G64 should not smooth over this point )
G01 F360.00000
G01 X3.33139 Y-2.77610
G01 X3.34611 Y-2.77610
G01 X3.34611 Y-2.76476
G01 X3.34476 Y-2.76206
G01 X3.34356 Y-2.76086
G01 X3.34086 Y-2.75951
G01 X3.33664 Y-2.75951
G01 X3.33394 Y-2.76086
G01 X3.33274 Y-2.76206
G01 X3.33139 Y-2.76476
G01 X3.33139 Y-2.77610
G04 P0 ( dwell for no time -- G64 should not smooth over this point )
G00 Z0.08000 ( retract )

G00 X3.35625 Y-2.76106 ( rapid move to begin. )
G01 F180.00000
( Mill infeed pass 1/1 )
G01 Z-0.04000
G04 P0 ( dwell for no time -- G64 should not smooth over this point )
G01 F360.00000
G01 X3.35625 Y-2.76106
G01 X3.35201 Y-2.76402
G01 X3.35170 Y-2.76274
G01 X3.34983 Y-2.75899
G01 X3.34928 Y-2.75822
G01 X3.34704 Y-2.75604
G01 X3.34246 Y-2.75375
G01 X3.34156 Y-2.75361
G01 X3.33548 Y-2.75364
G01 X3.33462 Y-2.75392
G01 X3.33087 Y-2.75579
G01 X3.33010 Y-2.75635
G01 X3.32792 Y-2.75858
G01 X3.32580 Y-2.76274
G01 X3.32552 Y-2.76361
G01 X3.32549 Y-2.77906
G01 X3.32561 Y-2.77989
G01 X3.32595 Y-2.78065
G01 X3.32684 Y-2.78154
G01 X3.32761 Y-2.78189
G01 X3.32844 Y-2.78201
G01 X3.36781 Y-2.78201
G01 X3.36864 Y-2.78189
G01 X3.36941 Y-2.78154
G01 X3.37029 Y-2.78065
G01 X3.37064 Y-2.77989
G01 X3.37076 Y-2.77906
G01 X3.37064 Y-2.77823
G01 X3.37029 Y-2.77746
G01 X3.36941 Y-2.77657
G01 X3.36864 Y-2.77622
G01 X3.36781 Y-2.77610
G01 X3.35694 Y-2.77610
G01 X3.35679 Y-2.77980
G01 X3.35638 Y-2.78123
G01 X3.35598 Y-2.78201
G01 X3.35638 Y-2.78123
G01 X3.35663 Y-2.78131
G01 X3.35638 Y-2.78123
G01 X3.35679 Y-2.77980
G01 X3.35694 Y-2.77610
G01 X3.35201 Y-2.77610
G01 X3.35201 Y-2.77122
G01 X3.36983 Y-2.75871
G01 X3.37035 Y-2.75806
G01 X3.37075 Y-2.75686
G01 X3.37061 Y-2.75562
G01 X3.37023 Y-2.75487
G01 X3.36965 Y-2.75425
G01 X3.36853 Y-2.75370
G01 X3.36769 Y-2.75361
G01 X3.36648 Y-2.75393
G01 X3.35625 Y-2.76106
G01 X3.35754 Y-2.76489
G01 X3.35796 Y-2.76705
G04 P0 ( dwell for no time -- G64 should not smooth over this point )
G00 Z0.08000 ( retract )

G00 X3.41614 Y-2.80130 ( rapid move to begin. )
G01 F180.00000
( Mill infeed pass 1/1 )
G01 Z-0.04000
G04 P0 ( dwell for no time -- G64 should not smooth over this point )
G01 F360.00000
G01 X3.41614 Y-2.80130
G01 X3.41620 Y-2.79460
G01 X3.41817 Y-2.78679
G01 X3.42017 Y-2.78274
G01 X3.42073 Y-2.78198
G01 X3.42482 Y-2.77793
G01 X3.42563 Y-2.77751
G01 X3.43172 Y-2.77553
G01 X3.43641 Y-2.77553
G01 X3.44292 Y-2.77769
G01 X3.44365 Y-2.77823
G01 X3.44580 Y-2.78042
G01 X3.44620 Y-2.78116
G01 X3.44638 Y-2.78198
G01 X3.44620 Y-2.78322
G01 X3.44552 Y-2.78428
G01 X3.44447 Y-2.78496
G01 X3.44323 Y-2.78513
G01 X3.44241 Y-2.78496
G01 X3.44167 Y-2.78455
G01 X3.43997 Y-2.78289
G01 X3.43546 Y-2.78139
G01 X3.43267 Y-2.78139
G01 X3.42816 Y-2.78289
G01 X3.42524 Y-2.78581
G01 X3.42373 Y-2.78884
G01 X3.42202 Y-2.79568
G01 X3.42202 Y-2.80057
G01 X3.42373 Y-2.80741
G01 X3.42524 Y-2.81044
G01 X3.42816 Y-2.81335
G01 X3.43267 Y-2.81486
G01 X3.43546 Y-2.81486
G01 X3.43997 Y-2.81335
G01 X3.44167 Y-2.81170
G01 X3.44241 Y-2.81129
G01 X3.44323 Y-2.81111
G01 X3.44407 Y-2.81117
G01 X3.44521 Y-2.81170
G01 X3.44580 Y-2.81229
G01 X3.44620 Y-2.81303
G01 X3.44638 Y-2.81427
G01 X3.44603 Y-2.81548
G01 X3.44552 Y-2.81615
G01 X3.44330 Y-2.81832
G01 X3.44250 Y-2.81874
G01 X3.43641 Y-2.82072
G01 X3.43172 Y-2.82072
G01 X3.42563 Y-2.81874
G01 X3.42448 Y-2.81802
G01 X3.42042 Y-2.81391
G01 X3.41830 Y-2.80976
G01 X3.41614 Y-2.80130
G04 P0 ( dwell for no time -- G64 should not smooth over this point )
G00 Z0.08000 ( retract )

G00 X3.44921 Y-2.85869 ( rapid move to begin. )
G01 F180.00000
( Mill infeed pass 1/1 )
G01 Z-0.04000
G04 P0 ( dwell for no time -- G64 should not smooth over this point )
G01 F360.00000
G01 X3.44921 Y-2.85869
G01 X3.44981 Y-2.85909
G01 X3.45414 Y-2.86383
G01 X3.46107 Y-2.87200
G01 X3.46711 Y-2.87989
G01 X3.47205 Y-2.88705
G01 X3.46880 Y-2.89176
G01 X3.46496 Y-2.89792
G01 X3.46496 Y-2.87701
G01 X3.46496 Y-2.89792
G01 X3.46200 Y-2.90322
G01 X3.45838 Y-2.91059
G01 X3.45522 Y-2.91861
G01 X3.45351 Y-2.92378
G01 X3.45208 Y-2.92943
G01 X3.45053 Y-2.93758
G01 X3.44979 Y-2.94609
G01 X3.44967 Y-2.95064
G01 X3.44992 Y-2.95619
G01 X3.45031 Y-2.96035
G01 X3.45077 Y-2.96403
G01 X3.45153 Y-2.96803
G01 X3.45293 Y-2.97401
G01 X3.45391 Y-2.97750
G01 X3.45544 Y-2.98199
G01 X3.45819 Y-2.98895
G01 X3.46224 Y-2.99724
G01 X3.46496 Y-3.00207
G01 X3.46496 Y-3.02300
G01 X3.46496 Y-3.00207
G01 X3.46831 Y-3.00747
G01 X3.47717 Y-2.99172
G01 X3.50590 Y-2.99651
G01 X3.50196 Y-2.99864
G01 X3.49715 Y-3.00077
G01 X3.49035 Y-3.00299
G01 X3.48511 Y-3.00413
G01 X3.48032 Y-2.99704
G01 X3.47717 Y-2.99172
G01 X3.47839 Y-2.99383
G01 X3.48110 Y-2.99500
G01 X3.48478 Y-2.99626
G01 X3.48912 Y-2.99731
G01 X3.49547 Y-2.99813
G01 X3.49946 Y-2.99821
G01 X3.50323 Y-2.99798
G01 X3.50357 Y-2.99781
G01 X3.50312 Y-2.99800
G01 X3.49840 Y-2.99822
G01 X3.49471 Y-2.99808
G01 X3.49029 Y-2.99753
G01 X3.48478 Y-2.99626
G01 X3.48110 Y-2.99500
G01 X3.47839 Y-2.99383
G01 X3.47476 Y-2.98717
G01 X3.47257 Y-2.98248
G01 X3.47073 Y-2.97794
G01 X3.46936 Y-2.97404
G01 X3.46814 Y-2.96991
G01 X3.46716 Y-2.96586
G01 X3.46637 Y-2.96161
G01 X3.46587 Y-2.95784
G01 X3.46546 Y-2.95072
G01 X3.46596 Y-2.95092
G01 X3.46603 Y-2.94762
G01 X3.46644 Y-2.94435
G01 X3.46708 Y-2.94149
G01 X3.46810 Y-2.93836
G01 X3.46944 Y-2.93534
G01 X3.47088 Y-2.93279
G01 X3.47276 Y-2.93009
G01 X3.47491 Y-2.92759
G01 X3.47703 Y-2.92556
G01 X3.47961 Y-2.92352
G01 X3.48239 Y-2.92175
G01 X3.48501 Y-2.92042
G01 X3.48808 Y-2.91921
G01 X3.49125 Y-2.91832
G01 X3.49413 Y-2.91780
G01 X3.49742 Y-2.91753
G01 X3.50071 Y-2.91760
G01 X3.50398 Y-2.91800
G01 X3.50685 Y-2.91863
G01 X3.50998 Y-2.91964
G01 X3.51267 Y-2.92081
G01 X3.51555 Y-2.92240
G01 X3.51826 Y-2.92428
G01 X3.52077 Y-2.92642
G01 X3.52304 Y-2.92881
G01 X3.52506 Y-2.93142
G01 X3.52662 Y-2.93387
G01 X3.52812 Y-2.93683
G01 X3.52918 Y-2.93956
G01 X3.53008 Y-2.94273
G01 X3.53065 Y-2.94598
G01 X3.53090 Y-2.94927
G01 X3.53083 Y-2.95220
G01 X3.53044 Y-2.95547
G01 X3.52972 Y-2.95869
G01 X3.52868 Y-2.96181
G01 X3.52733 Y-2.96482
G01 X3.52587 Y-2.96736
G01 X3.52397 Y-2.97005
G01 X3.52181 Y-2.97254
G01 X3.51940 Y-2.97479
G01 X3.51678 Y-2.97679
G01 X3.51430 Y-2.97834
G01 X3.51134 Y-2.97980
G01 X3.50826 Y-2.98096
G01 X3.50506 Y-2.98179
G01 X3.50181 Y-2.98230
G01 X3.49888 Y-2.98248
G01 X3.49595 Y-2.98238
G01 X3.49268 Y-2.98197
G01 X3.48948 Y-2.98122
G01 X3.48652 Y-2.98022
G01 X3.48368 Y-2.97894
G01 X3.48083 Y-2.97730
G01 X3.47844 Y-2.97560
G01 X3.47595 Y-2.97345
G01 X3.47369 Y-2.97105
G01 X3.47189 Y-2.96873
G01 X3.47013 Y-2.96595
G01 X3.46866 Y-2.96300
G01 X3.46761 Y-2.96026
G01 X3.46673 Y-2.95709
G01 X3.46622 Y-2.95420
G01 X3.46596 Y-2.95092
G01 X3.46546 Y-2.95072
G01 X3.46571 Y-2.94386
G01 X3.46666 Y-2.93669
G01 X3.46746 Y-2.93278
G01 X3.46866 Y-2.92825
G01 X3.47002 Y-2.92400
G01 X3.47286 Y-2.91687
G01 X3.47594 Y-2.91054
G01 X3.47880 Y-2.90544
G01 X3.48197 Y-2.90040
G01 X3.48511 Y-2.89586
G01 X3.48948 Y-2.89678
G01 X3.49532 Y-2.89855
G01 X3.49957 Y-2.90023
G01 X3.50333 Y-2.90205
G01 X3.50142 Y-2.90187
G01 X3.49733 Y-2.90179
G01 X3.49172 Y-2.90224
G01 X3.48773 Y-2.90297
G01 X3.48382 Y-2.90405
G01 X3.47840 Y-2.90612
G01 X3.48306 Y-2.90428
G01 X3.48773 Y-2.90297
G01 X3.49209 Y-2.90219
G01 X3.49693 Y-2.90179
G01 X3.50142 Y-2.90187
G01 X3.50333 Y-2.90205
G01 X3.50893 Y-2.90537
G01 X3.51200 Y-2.90756
G01 X3.51419 Y-2.90936
G01 X3.51697 Y-2.91503
G01 X3.51954 Y-2.91942
G01 X3.52233 Y-2.92292
G01 X3.52531 Y-2.92599
G01 X3.52705 Y-2.93250
G01 X3.52839 Y-2.93631
G01 X3.52825 Y-2.93637
G01 X3.52839 Y-2.93631
G01 X3.53083 Y-2.94081
G01 X3.53322 Y-2.94389
G01 X3.53359 Y-2.94955
G01 X3.53324 Y-2.95600
G01 X3.52992 Y-2.96065
G01 X3.52783 Y-2.96512
G01 X3.52772 Y-2.96507
G01 X3.52783 Y-2.96512
G01 X3.52694 Y-2.96781
G01 X3.52532 Y-2.97397
G01 X3.52362 Y-2.97565
G01 X3.51998 Y-2.97995
G01 X3.51665 Y-2.98557
G01 X3.51417 Y-2.99066
G01 X3.51003 Y-2.99388
G01 X3.50590 Y-2.99651
G01 X3.53801 Y-3.00185
G01 X3.53240 Y-3.00329
G01 X3.53035 Y-3.00354
G01 X3.53036 Y-3.00364
G01 X3.53035 Y-3.00354
G01 X3.52341 Y-3.00346
G01 X3.51925 Y-3.00665
G01 X3.51521 Y-3.00930
G01 X3.51100 Y-3.01170
G01 X3.50679 Y-3.01383
G01 X3.50272 Y-3.01550
G01 X3.49730 Y-3.01741
G01 X3.49049 Y-3.01914
G01 X3.48629 Y-3.01991
G01 X3.48062 Y-3.02829
G01 X3.47443 Y-3.03650
G01 X3.46700 Y-3.04540
G01 X3.46081 Y-3.05217
G01 X3.45763 Y-3.05251
G01 X3.45230 Y-3.05281
G01 X3.44737 Y-3.05284
G01 X3.44202 Y-3.05260
G01 X3.43710 Y-3.05214
G01 X3.43181 Y-3.05137
G01 X3.42736 Y-3.05051
G01 X3.42217 Y-3.04923
G01 X3.41744 Y-3.04782
G01 X3.41277 Y-3.04618
G01 X3.40820 Y-3.04432
G01 X3.40372 Y-3.04225
G01 X3.39933 Y-3.03995
G01 X3.39473 Y-3.03724
G01 X3.39060 Y-3.03452
G01 X3.38629 Y-3.03136
G01 X3.38246 Y-3.02825
G01 X3.37877 Y-3.02495
G01 X3.37526 Y-3.02148
G01 X3.37165 Y-3.01755
G01 X3.36848 Y-3.01373
G01 X3.36529 Y-3.00946
G01 X3.36253 Y-3.00536
G01 X3.35977 Y-3.00078
G01 X3.35743 Y-2.99643
G01 X3.35530 Y-2.99196
G01 X3.35340 Y-2.98741
G01 X3.35171 Y-2.98276
G01 X3.35025 Y-2.97803
G01 X3.34893 Y-2.97287
G01 X3.34795 Y-2.96802
G01 X3.34725 Y-2.96353
G01 X3.34669 Y-2.95822
G01 X3.34641 Y-2.95329
G01 X3.34637 Y-2.94836
G01 X3.34657 Y-2.94342
G01 X3.34700 Y-2.93849
G01 X3.34774 Y-2.93321
G01 X3.34866 Y-2.92834
G01 X3.34992 Y-2.92316
G01 X3.35133 Y-2.91842
G01 X3.35296 Y-2.91375
G01 X3.35481 Y-2.90916
G01 X3.35688 Y-2.90469
G01 X3.35916 Y-2.90030
G01 X3.36186 Y-2.89570
G01 X3.36458 Y-2.89155
G01 X3.36748 Y-2.88755
G01 X3.37083 Y-2.88340
G01 X3.37439 Y-2.87942
G01 X3.37759 Y-2.87618
G01 X3.38121 Y-2.87283
G01 X3.38500 Y-2.86965
G01 X3.38893 Y-2.86666
G01 X3.39335 Y-2.86364
G01 X3.39755 Y-2.86106
G01 X3.40224 Y-2.85850
G01 X3.40670 Y-2.85634
G01 X3.41161 Y-2.85426
G01 X3.41625 Y-2.85257
G01 X3.42098 Y-2.85109
G01 X3.42576 Y-2.84985
G01 X3.43100 Y-2.84877
G01 X3.43587 Y-2.84801
G01 X3.44079 Y-2.84749
G01 X3.44612 Y-2.84719
G01 X3.45106 Y-2.84716
G01 X3.45640 Y-2.84740
G01 X3.46132 Y-2.84786
G01 X3.46661 Y-2.84863
G01 X3.47106 Y-2.84949
G01 X3.47626 Y-2.85076
G01 X3.48098 Y-2.85217
G01 X3.48566 Y-2.85382
G01 X3.49023 Y-2.85568
G01 X3.49470 Y-2.85775
G01 X3.49910 Y-2.86005
G01 X3.50335 Y-2.86255
G01 X3.50782 Y-2.86548
G01 X3.51213 Y-2.86864
G01 X3.51597 Y-2.87175
G01 X3.51965 Y-2.87505
G01 X3.52317 Y-2.87852
G01 X3.52652 Y-2.88216
G01 X3.52969 Y-2.88594
G01 X3.53267 Y-2.88988
G01 X3.53568 Y-2.89431
G01 X3.53790 Y-2.89796
G01 X3.53063 Y-2.89650
G01 X3.52880 Y-2.89636
G01 X3.52344 Y-2.89657
G01 X3.52070 Y-2.89442
G01 X3.51557 Y-2.89093
G01 X3.51055 Y-2.88806
G01 X3.50612 Y-2.88587
G01 X3.49760 Y-2.88267
G01 X3.49314 Y-2.88146
G01 X3.48629 Y-2.88009
G01 X3.47991 Y-2.87071
G01 X3.47340 Y-2.86221
G01 X3.46599 Y-2.85345
G01 X3.46081 Y-2.84781
G01 X3.46586 Y-2.85331
G01 X3.47019 Y-2.85832
G01 X3.47767 Y-2.86770
G01 X3.48394 Y-2.87012
G01 X3.48775 Y-2.87186
G01 X3.49506 Y-2.87592
G01 X3.50252 Y-2.88109
G01 X3.50574 Y-2.88373
G01 X3.51025 Y-2.88790
G01 X3.51385 Y-2.88989
G01 X3.51768 Y-2.89225
G01 X3.52344 Y-2.89657
G01 X3.53064 Y-2.89642
G01 X3.53790 Y-2.89796
G01 X3.54081 Y-2.90321
G01 X3.54295 Y-2.90765
G01 X3.54488 Y-2.91222
G01 X3.54671 Y-2.91723
G01 X3.54817 Y-2.92195
G01 X3.54940 Y-2.92675
G01 X3.55040 Y-2.93157
G01 X3.55122 Y-2.93686
G01 X3.55174 Y-2.94177
G01 X3.55201 Y-2.94671
G01 X3.55205 Y-2.95164
G01 X3.55183 Y-2.95698
G01 X3.55152 Y-2.96031
G01 X3.54899 Y-2.95684
G01 X3.54928 Y-2.95288
G01 X3.54934 Y-2.94957
G01 X3.54901 Y-2.94333
G01 X3.55020 Y-2.94179
G01 X3.55150 Y-2.93952
G01 X3.55201 Y-2.94671
G01 X3.55205 Y-2.95164
G01 X3.55183 Y-2.95698
G01 X3.55138 Y-2.96190
G01 X3.55068 Y-2.96680
G01 X3.54976 Y-2.97166
G01 X3.54860 Y-2.97646
G01 X3.54710 Y-2.98158
G01 X3.54532 Y-2.98662
G01 X3.54345 Y-2.99120
G01 X3.54118 Y-2.99604
G01 X3.53887 Y-3.00041
G01 X3.53634 Y-3.00466
G01 X3.53362 Y-3.00878
G01 X3.53070 Y-3.01276
G01 X3.52758 Y-3.01661
G01 X3.52403 Y-3.02058
G01 X3.52055 Y-3.02409
G01 X3.51690 Y-3.02744
G01 X3.51279 Y-3.03085
G01 X3.50883 Y-3.03381
G01 X3.50474 Y-3.03657
G01 X3.50017 Y-3.03934
G01 X3.49582 Y-3.04169
G01 X3.49136 Y-3.04382
G01 X3.48681 Y-3.04574
G01 X3.48217 Y-3.04743
G01 X3.47745 Y-3.04890
G01 X3.47266 Y-3.05015
G01 X3.46743 Y-3.05123
G01 X3.46255 Y-3.05198
G01 X3.45763 Y-3.05251
G01 X3.46081 Y-3.05217
G01 X3.46687 Y-3.04554
G01 X3.47065 Y-3.04113
G01 X3.47767 Y-3.03231
G01 X3.48105 Y-3.03107
G01 X3.48869 Y-3.02767
G01 X3.49626 Y-3.02332
G01 X3.50306 Y-3.01849
G01 X3.50654 Y-3.01557
G01 X3.51031 Y-3.01205
G01 X3.51452 Y-3.00971
G01 X3.51778 Y-3.00764
G01 X3.52341 Y-3.00346
G01 X3.53035 Y-3.00354
G01 X3.53240 Y-3.00329
G01 X3.53801 Y-3.00185
G01 X3.53779 Y-2.98940
G01 X3.53797 Y-2.98889
G01 X3.53779 Y-2.98862
G01 X3.53779 Y-2.98940
G01 X3.54331 Y-2.97335
G01 X3.54331 Y-2.92996
G01 X3.54391 Y-2.92921
G01 X3.54331 Y-2.92665
G01 X3.54331 Y-2.92996
G01 X3.53779 Y-2.91138
G01 X3.53800 Y-2.91106
G01 X3.53779 Y-2.91060
G01 X3.53779 Y-2.91138
G01 X3.54331 Y-2.92996
G01 X3.54331 Y-2.97004
G01 X3.54391 Y-2.97079
G01 X3.54331 Y-2.97335
G01 X3.54331 Y-2.97004
G01 X3.54331 Y-2.97335
G01 X3.53779 Y-2.98940
G01 X3.53801 Y-3.00185
G01 X3.47717 Y-2.99172
G01 X3.44921 Y-3.04142
G01 X3.44921 Y-3.04695
G01 X3.44436 Y-3.04683
G01 X3.43972 Y-3.04648
G01 X3.43471 Y-3.04586
G01 X3.43013 Y-3.04505
G01 X3.42521 Y-3.04393
G01 X3.42073 Y-3.04267
G01 X3.41632 Y-3.04120
G01 X3.41198 Y-3.03951
G01 X3.40772 Y-3.03762
G01 X3.40357 Y-3.03553
G01 X3.39951 Y-3.03324
G01 X3.39525 Y-3.03054
G01 X3.39113 Y-3.02763
G01 X3.38747 Y-3.02475
G01 X3.38396 Y-3.02170
G01 X3.38059 Y-3.01849
G01 X3.37738 Y-3.01511
G01 X3.37409 Y-3.01128
G01 X3.37124 Y-3.00761
G01 X3.36856 Y-3.00380
G01 X3.36587 Y-2.99953
G01 X3.36359 Y-2.99547
G01 X3.36151 Y-2.99131
G01 X3.35962 Y-2.98705
G01 X3.35795 Y-2.98271
G01 X3.35648 Y-2.97829
G01 X3.35523 Y-2.97381
G01 X3.35412 Y-2.96889
G01 X3.35332 Y-2.96430
G01 X3.35271 Y-2.95930
G01 X3.35236 Y-2.95427
G01 X3.35226 Y-2.94961
G01 X3.35239 Y-2.94496
G01 X3.35275 Y-2.94032
G01 X3.35332 Y-2.93570
G01 X3.35420 Y-2.93073
G01 X3.35523 Y-2.92619
G01 X3.35660 Y-2.92133
G01 X3.35808 Y-2.91692
G01 X3.35977 Y-2.91259
G01 X3.36184 Y-2.90798
G01 X3.36396 Y-2.90384
G01 X3.36627 Y-2.89980
G01 X3.36878 Y-2.89588
G01 X3.37170 Y-2.89176
G01 X3.37459 Y-2.88811
G01 X3.37764 Y-2.88460
G01 X3.38087 Y-2.88124
G01 X3.38424 Y-2.87804
G01 X3.38808 Y-2.87476
G01 X3.39176 Y-2.87191
G01 X3.39557 Y-2.86924
G01 X3.39951 Y-2.86676
G01 X3.40391 Y-2.86429
G01 X3.40807 Y-2.86221
G01 X3.41234 Y-2.86034
G01 X3.41668 Y-2.85867
G01 X3.42110 Y-2.85722
G01 X3.42597 Y-2.85588
G01 X3.43051 Y-2.85487
G01 X3.43548 Y-2.85403
G01 X3.44011 Y-2.85348
G01 X3.44475 Y-2.85315
G01 X3.44921 Y-2.85305
G01 X3.44921 Y-3.04142
G01 X3.45510 Y-3.03508
G01 X3.46215 Y-3.02663
G01 X3.46777 Y-3.01919
G01 X3.47205 Y-3.01294
G01 X3.46831 Y-3.00747
G04 P0 ( dwell for no time -- G64 should not smooth over this point )
G00 Z0.08000 ( retract )

G00 X3.60295 Y-2.84705 ( rapid move to begin. )
G01 F180.00000
( Mill infeed pass 1/1 )
G01 Z-0.04000
G04 P0 ( dwell for no time -- G64 should not smooth over this point )
G01 F360.00000
G01 X3.60295 Y-2.84705
G01 X3.60295 Y-2.65295
G01 X3.69705 Y-2.65295
G01 X3.69705 Y-2.84705
G01 X3.60295 Y-2.84705
G04 P0 ( dwell for no time -- G64 should not smooth over this point )
G00 Z0.08000 ( retract )

G00 X3.45550 Y-2.78937 ( rapid move to begin. )
G01 F180.00000
( Mill infeed pass 1/1 )
G01 Z-0.04000
G04 P0 ( dwell for no time -- G64 should not smooth over this point )
G01 F360.00000
G01 X3.45550 Y-2.78937
G01 X3.45553 Y-2.79021
G01 X3.45579 Y-2.79101
G01 X3.45658 Y-2.79199
G01 X3.45770 Y-2.79255
G01 X3.45896 Y-2.79259
G01 X3.45976 Y-2.79233
G01 X3.46391 Y-2.79021
G01 X3.46673 Y-2.78744
G01 X3.46673 Y-2.81486
G01 X3.45844 Y-2.81486
G01 X3.45760 Y-2.81498
G01 X3.45684 Y-2.81533
G01 X3.45595 Y-2.81621
G01 X3.45551 Y-2.81739
G01 X3.45560 Y-2.81864
G01 X3.45595 Y-2.81941
G01 X3.45684 Y-2.82029
G01 X3.45760 Y-2.82064
G01 X3.45844 Y-2.82076
G01 X3.48093 Y-2.82076
G01 X3.48176 Y-2.82064
G01 X3.48287 Y-2.82004
G01 X3.48342 Y-2.81941
G01 X3.48377 Y-2.81864
G01 X3.48386 Y-2.81739
G01 X3.48362 Y-2.81658
G01 X3.48316 Y-2.81588
G01 X3.48216 Y-2.81512
G01 X3.48093 Y-2.81486
G01 X3.47264 Y-2.81486
G01 X3.47261 Y-2.77802
G01 X3.47217 Y-2.77685
G01 X3.47130 Y-2.77597
G01 X3.47013 Y-2.77552
G01 X3.46889 Y-2.77560
G01 X3.46812 Y-2.77593
G01 X3.46748 Y-2.77647
G01 X3.46364 Y-2.78218
G01 X3.46044 Y-2.78539
G01 X3.45642 Y-2.78753
G01 X3.45590 Y-2.78818
G01 X3.45550 Y-2.78937
G04 P0 ( dwell for no time -- G64 should not smooth over this point )
G00 Z0.08000 ( retract )

G00 X3.64705 Y-2.64188 ( rapid move to begin. )
G01 F180.00000
( Mill infeed pass 1/1 )
G01 Z-0.04000
G04 P0 ( dwell for no time -- G64 should not smooth over this point )
G01 F360.00000
G01 X3.64705 Y-2.64188
G01 X3.65000 Y-2.64139
G01 X3.65000 Y-2.64117
G01 X3.65000 Y-2.64139
G01 X3.65295 Y-2.64188
G01 X3.65295 Y-2.64705
G01 X3.70000 Y-2.64705
G01 X3.70083 Y-2.64717
G01 X3.70193 Y-2.64777
G01 X3.70248 Y-2.64840
G01 X3.70292 Y-2.64958
G01 X3.70295 Y-2.85000
G01 X3.70283 Y-2.85083
G01 X3.70223 Y-2.85193
G01 X3.70123 Y-2.85269
G01 X3.70000 Y-2.85295
G01 X3.65295 Y-2.85295
G01 X3.65295 Y-2.90000
G01 X3.65283 Y-2.90083
G01 X3.65223 Y-2.90193
G01 X3.65123 Y-2.90268
G01 X3.65000 Y-2.90295
G01 X3.64917 Y-2.90283
G01 X3.64807 Y-2.90223
G01 X3.64731 Y-2.90123
G01 X3.64705 Y-2.90000
G01 X3.64705 Y-2.85812
G01 X3.65000 Y-2.85861
G01 X3.65295 Y-2.85812
G01 X3.65000 Y-2.85861
G01 X3.64809 Y-2.85838
G01 X3.64807 Y-2.85855
G01 X3.64809 Y-2.85838
G01 X3.64705 Y-2.85812
G01 X3.64705 Y-2.85295
G01 X3.60000 Y-2.85295
G01 X3.59917 Y-2.85283
G01 X3.59807 Y-2.85223
G01 X3.59752 Y-2.85160
G01 X3.59708 Y-2.85042
G01 X3.59705 Y-2.65000
G01 X3.59717 Y-2.64917
G01 X3.59777 Y-2.64807
G01 X3.59877 Y-2.64731
G01 X3.60000 Y-2.64705
G01 X3.64705 Y-2.64705
G01 X3.64705 Y-2.60000
G01 X3.64731 Y-2.59877
G01 X3.64807 Y-2.59777
G01 X3.64917 Y-2.59717
G01 X3.65042 Y-2.59708
G01 X3.65160 Y-2.59752
G01 X3.65223 Y-2.59807
G01 X3.65283 Y-2.59917
G01 X3.65295 Y-2.60000
G01 X3.65295 Y-2.64188
G04 P0 ( dwell for no time -- G64 should not smooth over this point )
G00 Z0.08000 ( retract )

G00 X3.72549 Y-2.73594 ( rapid move to begin. )
G01 F180.00000
( Mill infeed pass 1/1 )
G01 Z-0.04000
G04 P0 ( dwell for no time -- G64 should not smooth over this point )
G01 F360.00000
G01 X3.72549 Y-2.73594
G01 X3.72549 Y-2.72656
G01 X3.72580 Y-2.72525
G01 X3.72767 Y-2.72149
G01 X3.72823 Y-2.72073
G01 X3.73046 Y-2.71855
G01 X3.73462 Y-2.71642
G01 X3.73594 Y-2.71611
G01 X3.74016 Y-2.71615
G01 X3.74625 Y-2.71814
G01 X3.74705 Y-2.71856
G01 X3.76486 Y-2.73631
G01 X3.76486 Y-2.71907
G01 X3.76498 Y-2.71823
G01 X3.76532 Y-2.71747
G01 X3.76621 Y-2.71658
G01 X3.76698 Y-2.71623
G01 X3.76781 Y-2.71611
G01 X3.76864 Y-2.71623
G01 X3.76941 Y-2.71658
G01 X3.77004 Y-2.71713
G01 X3.77049 Y-2.71784
G01 X3.77076 Y-2.71907
G01 X3.77076 Y-2.74344
G01 X3.77065 Y-2.74425
G01 X3.77032 Y-2.74499
G01 X3.76980 Y-2.74562
G01 X3.76913 Y-2.74608
G01 X3.76835 Y-2.74634
G01 X3.76754 Y-2.74638
G01 X3.76674 Y-2.74619
G01 X3.76603 Y-2.74579
G01 X3.74372 Y-2.72352
G01 X3.73921 Y-2.72202
G01 X3.73664 Y-2.72202
G01 X3.73394 Y-2.72337
G01 X3.73274 Y-2.72456
G01 X3.73139 Y-2.72726
G01 X3.73139 Y-2.73524
G01 X3.73274 Y-2.73794
G01 X3.73455 Y-2.73979
G01 X3.73495 Y-2.74053
G01 X3.73513 Y-2.74135
G01 X3.73507 Y-2.74219
G01 X3.73478 Y-2.74298
G01 X3.73428 Y-2.74365
G01 X3.73360 Y-2.74415
G01 X3.73240 Y-2.74451
G01 X3.73156 Y-2.74445
G01 X3.73042 Y-2.74393
G01 X3.72792 Y-2.74141
G01 X3.72580 Y-2.73726
G01 X3.72549 Y-2.73594
G04 P0 ( dwell for no time -- G64 should not smooth over this point )
G00 Z0.08000 ( retract )

G00 X3.73139 Y-2.77610 ( rapid move to begin. )
G01 F180.00000
( Mill infeed pass 1/1 )
G01 Z-0.04000
G04 P0 ( dwell for no time -- G64 should not smooth over this point )
G01 F360.00000
G01 X3.73139 Y-2.77610
G01 X3.74611 Y-2.77610
G01 X3.74611 Y-2.76476
G01 X3.74476 Y-2.76206
G01 X3.74356 Y-2.76086
G01 X3.74086 Y-2.75951
G01 X3.73664 Y-2.75951
G01 X3.73394 Y-2.76086
G01 X3.73274 Y-2.76206
G01 X3.73139 Y-2.76476
G01 X3.73139 Y-2.77610
G04 P0 ( dwell for no time -- G64 should not smooth over this point )
G00 Z0.08000 ( retract )

G00 X3.75625 Y-2.76106 ( rapid move to begin. )
G01 F180.00000
( Mill infeed pass 1/1 )
G01 Z-0.04000
G04 P0 ( dwell for no time -- G64 should not smooth over this point )
G01 F360.00000
G01 X3.75625 Y-2.76106
G01 X3.75201 Y-2.76402
G01 X3.75170 Y-2.76274
G01 X3.74983 Y-2.75899
G01 X3.74927 Y-2.75822
G01 X3.74704 Y-2.75604
G01 X3.74246 Y-2.75375
G01 X3.74156 Y-2.75361
G01 X3.73548 Y-2.75364
G01 X3.73462 Y-2.75392
G01 X3.73087 Y-2.75579
G01 X3.73010 Y-2.75635
G01 X3.72792 Y-2.75858
G01 X3.72580 Y-2.76274
G01 X3.72552 Y-2.76361
G01 X3.72549 Y-2.77906
G01 X3.72561 Y-2.77989
G01 X3.72595 Y-2.78065
G01 X3.72684 Y-2.78154
G01 X3.72761 Y-2.78189
G01 X3.72844 Y-2.78201
G01 X3.76781 Y-2.78201
G01 X3.76864 Y-2.78189
G01 X3.76941 Y-2.78154
G01 X3.77029 Y-2.78065
G01 X3.77064 Y-2.77989
G01 X3.77076 Y-2.77906
G01 X3.77064 Y-2.77823
G01 X3.77029 Y-2.77746
G01 X3.76941 Y-2.77657
G01 X3.76864 Y-2.77622
G01 X3.76781 Y-2.77610
G01 X3.75693 Y-2.77610
G01 X3.75679 Y-2.77980
G01 X3.75638 Y-2.78123
G01 X3.75598 Y-2.78201
G01 X3.75638 Y-2.78123
G01 X3.75663 Y-2.78131
G01 X3.75638 Y-2.78123
G01 X3.75679 Y-2.77980
G01 X3.75693 Y-2.77610
G01 X3.75201 Y-2.77610
G01 X3.75201 Y-2.77122
G01 X3.76983 Y-2.75871
G01 X3.77035 Y-2.75806
G01 X3.77067 Y-2.75728
G01 X3.77076 Y-2.75644
G01 X3.77045 Y-2.75523
G01 X3.76965 Y-2.75425
G01 X3.76853 Y-2.75370
G01 X3.76769 Y-2.75361
G01 X3.76648 Y-2.75393
G01 X3.75625 Y-2.76106
G01 X3.75754 Y-2.76489
G01 X3.75796 Y-2.76705
G04 P0 ( dwell for no time -- G64 should not smooth over this point )
G00 Z0.08000 ( retract )

G00 X3.84527 Y-2.75236 ( rapid move to begin. )
G01 F180.00000
( Mill infeed pass 1/1 )
G01 Z-0.04000
G04 P0 ( dwell for no time -- G64 should not smooth over this point )
G01 F360.00000
G01 X3.84527 Y-2.75236
G01 X3.84542 Y-2.75317
G01 X3.84583 Y-2.75388
G01 X3.84646 Y-2.75441
G01 X3.84764 Y-2.75472
G01 X3.95236 Y-2.75472
G01 X3.95317 Y-2.75458
G01 X3.95388 Y-2.75417
G01 X3.95441 Y-2.75354
G01 X3.95472 Y-2.75236
G01 X3.95472 Y-2.65000
G01 X3.95458 Y-2.64919
G01 X3.95417 Y-2.64848
G01 X3.95354 Y-2.64795
G01 X3.95236 Y-2.64764
G01 X3.84764 Y-2.64764
G01 X3.84683 Y-2.64778
G01 X3.84612 Y-2.64819
G01 X3.84559 Y-2.64882
G01 X3.84527 Y-2.65000
G01 X3.84527 Y-2.75236
G01 X3.85000 Y-2.75000
G01 X3.85000 Y-2.65236
G01 X3.95000 Y-2.65236
G01 X3.95000 Y-2.75000
G01 X3.85000 Y-2.75000
G04 P0 ( dwell for no time -- G64 should not smooth over this point )
G00 Z0.08000 ( retract )

G00 X3.84527 Y-2.60000 ( rapid move to begin. )
G01 F180.00000
( Mill infeed pass 1/1 )
G01 Z-0.04000
G04 P0 ( dwell for no time -- G64 should not smooth over this point )
G01 F360.00000
G01 X3.84527 Y-2.60000
G01 X3.84527 Y-2.54764
G01 X3.84542 Y-2.54683
G01 X3.84583 Y-2.54612
G01 X3.84646 Y-2.54559
G01 X3.84764 Y-2.54527
G01 X3.90000 Y-2.54527
G01 X3.90081 Y-2.54542
G01 X3.90152 Y-2.54583
G01 X3.90205 Y-2.54645
G01 X3.90233 Y-2.54723
G01 X3.90222 Y-2.54844
G01 X3.90181 Y-2.54915
G01 X3.90118 Y-2.54968
G01 X3.90000 Y-2.55000
G01 X3.85000 Y-2.55000
G01 X3.85000 Y-2.60000
G01 X3.84986 Y-2.60081
G01 X3.84945 Y-2.60152
G01 X3.84882 Y-2.60204
G01 X3.84764 Y-2.60236
G01 X3.84683 Y-2.60222
G01 X3.84612 Y-2.60181
G01 X3.84559 Y-2.60118
G01 X3.84527 Y-2.60000
G04 P0 ( dwell for no time -- G64 should not smooth over this point )
G00 Z0.08000 ( retract )

G00 X3.86799 Y-2.52608 ( rapid move to begin. )
G01 F180.00000
( Mill infeed pass 1/1 )
G01 Z-0.04000
G04 P0 ( dwell for no time -- G64 should not smooth over this point )
G01 F360.00000
G01 X3.86799 Y-2.52608
G01 X3.86799 Y-2.48671
G01 X3.86811 Y-2.48588
G01 X3.86846 Y-2.48511
G01 X3.86901 Y-2.48448
G01 X3.86971 Y-2.48402
G01 X3.87052 Y-2.48378
G01 X3.88594 Y-2.48375
G01 X3.88684 Y-2.48389
G01 X3.89141 Y-2.48619
G01 X3.89365 Y-2.48837
G01 X3.89420 Y-2.48914
G01 X3.89608 Y-2.49288
G01 X3.89635 Y-2.49375
G01 X3.89639 Y-2.49983
G01 X3.89625 Y-2.50073
G01 X3.89420 Y-2.50490
G01 X3.89365 Y-2.50567
G01 X3.89141 Y-2.50785
G01 X3.88726 Y-2.50997
G01 X3.88594 Y-2.51028
G01 X3.87389 Y-2.51028
G01 X3.87386 Y-2.52650
G01 X3.87343 Y-2.52767
G01 X3.87287 Y-2.52831
G01 X3.87177 Y-2.52891
G01 X3.87094 Y-2.52903
G01 X3.87011 Y-2.52891
G01 X3.86901 Y-2.52831
G01 X3.86825 Y-2.52730
G01 X3.86799 Y-2.52608
G01 X3.86877 Y-2.51464
G01 X3.86799 Y-2.51425
G01 X3.86877 Y-2.51464
G01 X3.87020 Y-2.51506
G01 X3.87388 Y-2.51520
G01 X3.87389 Y-2.48966
G01 X3.88524 Y-2.48966
G01 X3.88794 Y-2.49101
G01 X3.88914 Y-2.49221
G01 X3.89048 Y-2.49490
G01 X3.89048 Y-2.49913
G01 X3.88914 Y-2.50183
G01 X3.88794 Y-2.50303
G01 X3.88524 Y-2.50438
G01 X3.87389 Y-2.50438
G04 P0 ( dwell for no time -- G64 should not smooth over this point )
G00 Z0.08000 ( retract )

G00 X3.90550 Y-2.49764 ( rapid move to begin. )
G01 F180.00000
( Mill infeed pass 1/1 )
G01 Z-0.04000
G04 P0 ( dwell for no time -- G64 should not smooth over this point )
G01 F360.00000
G01 X3.90550 Y-2.49764
G01 X3.90553 Y-2.49848
G01 X3.90579 Y-2.49928
G01 X3.90658 Y-2.50025
G01 X3.90770 Y-2.50082
G01 X3.90896 Y-2.50086
G01 X3.90976 Y-2.50060
G01 X3.91391 Y-2.49848
G01 X3.91673 Y-2.49571
G01 X3.91673 Y-2.52312
G01 X3.90844 Y-2.52312
G01 X3.90760 Y-2.52324
G01 X3.90684 Y-2.52359
G01 X3.90595 Y-2.52448
G01 X3.90551 Y-2.52566
G01 X3.90560 Y-2.52691
G01 X3.90595 Y-2.52767
G01 X3.90684 Y-2.52856
G01 X3.90760 Y-2.52891
G01 X3.90844 Y-2.52903
G01 X3.93093 Y-2.52903
G01 X3.93176 Y-2.52891
G01 X3.93287 Y-2.52831
G01 X3.93342 Y-2.52767
G01 X3.93377 Y-2.52691
G01 X3.93385 Y-2.52566
G01 X3.93362 Y-2.52485
G01 X3.93316 Y-2.52414
G01 X3.93216 Y-2.52339
G01 X3.93093 Y-2.52312
G01 X3.92264 Y-2.52312
G01 X3.92261 Y-2.48629
G01 X3.92217 Y-2.48512
G01 X3.92130 Y-2.48423
G01 X3.92013 Y-2.48379
G01 X3.91889 Y-2.48386
G01 X3.91812 Y-2.48420
G01 X3.91748 Y-2.48474
G01 X3.91364 Y-2.49045
G01 X3.91044 Y-2.49365
G01 X3.90642 Y-2.49579
G01 X3.90571 Y-2.49682
G01 X3.90550 Y-2.49764
G04 P0 ( dwell for no time -- G64 should not smooth over this point )
G00 Z0.08000 ( retract )

G00 X4.14705 Y-2.64188 ( rapid move to begin. )
G01 F180.00000
( Mill infeed pass 1/1 )
G01 Z-0.04000
G04 P0 ( dwell for no time -- G64 should not smooth over this point )
G01 F360.00000
G01 X4.14705 Y-2.64188
G01 X4.15000 Y-2.64139
G01 X4.15000 Y-2.64117
G01 X4.15000 Y-2.64139
G01 X4.15295 Y-2.64188
G01 X4.15295 Y-2.64705
G01 X4.20000 Y-2.64705
G01 X4.20083 Y-2.64717
G01 X4.20193 Y-2.64777
G01 X4.20248 Y-2.64840
G01 X4.20292 Y-2.64958
G01 X4.20295 Y-2.85000
G01 X4.20283 Y-2.85083
G01 X4.20223 Y-2.85193
G01 X4.20123 Y-2.85269
G01 X4.20000 Y-2.85295
G01 X4.15295 Y-2.85295
G01 X4.15295 Y-2.90000
G01 X4.15283 Y-2.90083
G01 X4.15223 Y-2.90193
G01 X4.15123 Y-2.90268
G01 X4.15000 Y-2.90295
G01 X4.14877 Y-2.90268
G01 X4.14777 Y-2.90193
G01 X4.14717 Y-2.90083
G01 X4.14705 Y-2.90000
G01 X4.14705 Y-2.85812
G01 X4.15000 Y-2.85861
G01 X4.15295 Y-2.85812
G01 X4.15000 Y-2.85861
G01 X4.14809 Y-2.85838
G01 X4.14807 Y-2.85855
G01 X4.14809 Y-2.85838
G01 X4.14705 Y-2.85812
G01 X4.14705 Y-2.85295
G01 X4.10000 Y-2.85295
G01 X4.09917 Y-2.85283
G01 X4.09807 Y-2.85223
G01 X4.09751 Y-2.85160
G01 X4.09708 Y-2.85042
G01 X4.09704 Y-2.65000
G01 X4.09717 Y-2.64917
G01 X4.09777 Y-2.64807
G01 X4.09877 Y-2.64731
G01 X4.10000 Y-2.64705
G01 X4.14705 Y-2.64705
G01 X4.14705 Y-2.60000
G01 X4.14731 Y-2.59877
G01 X4.14807 Y-2.59777
G01 X4.14917 Y-2.59717
G01 X4.15042 Y-2.59708
G01 X4.15160 Y-2.59752
G01 X4.15223 Y-2.59807
G01 X4.15283 Y-2.59917
G01 X4.15295 Y-2.60000
G01 X4.15295 Y-2.64188
G04 P0 ( dwell for no time -- G64 should not smooth over this point )
G00 Z0.08000 ( retract )

G00 X4.31614 Y-2.80130 ( rapid move to begin. )
G01 F180.00000
( Mill infeed pass 1/1 )
G01 Z-0.04000
G04 P0 ( dwell for no time -- G64 should not smooth over this point )
G01 F360.00000
G01 X4.31614 Y-2.80130
G01 X4.31620 Y-2.79460
G01 X4.31817 Y-2.78679
G01 X4.32017 Y-2.78274
G01 X4.32073 Y-2.78198
G01 X4.32482 Y-2.77793
G01 X4.32563 Y-2.77751
G01 X4.33172 Y-2.77553
G01 X4.33641 Y-2.77553
G01 X4.34292 Y-2.77769
G01 X4.34365 Y-2.77823
G01 X4.34580 Y-2.78042
G01 X4.34620 Y-2.78116
G01 X4.34638 Y-2.78198
G01 X4.34620 Y-2.78322
G01 X4.34553 Y-2.78428
G01 X4.34447 Y-2.78496
G01 X4.34323 Y-2.78513
G01 X4.34241 Y-2.78496
G01 X4.34167 Y-2.78455
G01 X4.33997 Y-2.78289
G01 X4.33546 Y-2.78139
G01 X4.33267 Y-2.78139
G01 X4.32816 Y-2.78289
G01 X4.32524 Y-2.78581
G01 X4.32373 Y-2.78884
G01 X4.32202 Y-2.79568
G01 X4.32202 Y-2.80057
G01 X4.32373 Y-2.80741
G01 X4.32524 Y-2.81044
G01 X4.32816 Y-2.81335
G01 X4.33267 Y-2.81486
G01 X4.33546 Y-2.81486
G01 X4.33997 Y-2.81335
G01 X4.34167 Y-2.81170
G01 X4.34241 Y-2.81129
G01 X4.34323 Y-2.81111
G01 X4.34406 Y-2.81117
G01 X4.34521 Y-2.81170
G01 X4.34580 Y-2.81229
G01 X4.34620 Y-2.81303
G01 X4.34638 Y-2.81427
G01 X4.34603 Y-2.81548
G01 X4.34553 Y-2.81615
G01 X4.34330 Y-2.81832
G01 X4.34250 Y-2.81874
G01 X4.33641 Y-2.82072
G01 X4.33171 Y-2.82072
G01 X4.32563 Y-2.81874
G01 X4.32448 Y-2.81802
G01 X4.32042 Y-2.81391
G01 X4.31830 Y-2.80976
G01 X4.31614 Y-2.80130
G04 P0 ( dwell for no time -- G64 should not smooth over this point )
G00 Z0.08000 ( retract )

G00 X4.35366 Y-2.81835 ( rapid move to begin. )
G01 F180.00000
( Mill infeed pass 1/1 )
G01 Z-0.04000
G04 P0 ( dwell for no time -- G64 should not smooth over this point )
G01 F360.00000
G01 X4.35366 Y-2.81835
G01 X4.35369 Y-2.81713
G01 X4.35420 Y-2.81603
G01 X4.37648 Y-2.79372
G01 X4.37798 Y-2.78921
G01 X4.37798 Y-2.78664
G01 X4.37663 Y-2.78394
G01 X4.37543 Y-2.78274
G01 X4.37274 Y-2.78139
G01 X4.36476 Y-2.78139
G01 X4.36206 Y-2.78274
G01 X4.35985 Y-2.78478
G01 X4.35906 Y-2.78507
G01 X4.35823 Y-2.78513
G01 X4.35740 Y-2.78496
G01 X4.35667 Y-2.78455
G01 X4.35584 Y-2.78360
G01 X4.35549 Y-2.78240
G01 X4.35555 Y-2.78156
G01 X4.35584 Y-2.78077
G01 X4.35635 Y-2.78010
G01 X4.35858 Y-2.77792
G01 X4.36274 Y-2.77580
G01 X4.36360 Y-2.77552
G01 X4.37389 Y-2.77552
G01 X4.37475 Y-2.77580
G01 X4.37850 Y-2.77767
G01 X4.37927 Y-2.77823
G01 X4.38145 Y-2.78046
G01 X4.38357 Y-2.78462
G01 X4.38385 Y-2.78548
G01 X4.38385 Y-2.79016
G01 X4.38186 Y-2.79625
G01 X4.38115 Y-2.79740
G01 X4.36369 Y-2.81486
G01 X4.38093 Y-2.81486
G01 X4.38176 Y-2.81498
G01 X4.38253 Y-2.81533
G01 X4.38316 Y-2.81588
G01 X4.38377 Y-2.81698
G01 X4.38385 Y-2.81823
G01 X4.38342 Y-2.81941
G01 X4.38253 Y-2.82029
G01 X4.38176 Y-2.82064
G01 X4.38093 Y-2.82076
G01 X4.35656 Y-2.82076
G01 X4.35575 Y-2.82065
G01 X4.35501 Y-2.82032
G01 X4.35412 Y-2.81948
G01 X4.35366 Y-2.81835
G04 P0 ( dwell for no time -- G64 should not smooth over this point )
G00 Z0.08000 ( retract )

G00 X4.54705 Y-2.64188 ( rapid move to begin. )
G01 F180.00000
( Mill infeed pass 1/1 )
G01 Z-0.04000
G04 P0 ( dwell for no time -- G64 should not smooth over this point )
G01 F360.00000
G01 X4.54705 Y-2.64188
G01 X4.55000 Y-2.64139
G01 X4.55000 Y-2.64117
G01 X4.55000 Y-2.64139
G01 X4.55295 Y-2.64188
G01 X4.55295 Y-2.64705
G01 X4.60000 Y-2.64705
G01 X4.60083 Y-2.64717
G01 X4.60193 Y-2.64777
G01 X4.60248 Y-2.64840
G01 X4.60292 Y-2.64958
G01 X4.60295 Y-2.85000
G01 X4.60283 Y-2.85083
G01 X4.60223 Y-2.85193
G01 X4.60123 Y-2.85269
G01 X4.60000 Y-2.85295
G01 X4.55295 Y-2.85295
G01 X4.55295 Y-2.90000
G01 X4.55269 Y-2.90123
G01 X4.55193 Y-2.90223
G01 X4.55083 Y-2.90283
G01 X4.55000 Y-2.90295
G01 X4.54917 Y-2.90283
G01 X4.54807 Y-2.90223
G01 X4.54731 Y-2.90123
G01 X4.54705 Y-2.90000
G01 X4.54705 Y-2.85812
G01 X4.55000 Y-2.85861
G01 X4.55295 Y-2.85812
G01 X4.55000 Y-2.85861
G01 X4.54809 Y-2.85838
G01 X4.54807 Y-2.85855
G01 X4.54809 Y-2.85838
G01 X4.54705 Y-2.85812
G01 X4.54705 Y-2.85295
G01 X4.50000 Y-2.85295
G01 X4.49917 Y-2.85283
G01 X4.49807 Y-2.85223
G01 X4.49751 Y-2.85160
G01 X4.49708 Y-2.85042
G01 X4.49705 Y-2.65000
G01 X4.49717 Y-2.64917
G01 X4.49777 Y-2.64807
G01 X4.49877 Y-2.64731
G01 X4.50000 Y-2.64705
G01 X4.54705 Y-2.64705
G01 X4.54705 Y-2.60000
G01 X4.54731 Y-2.59877
G01 X4.54807 Y-2.59777
G01 X4.54917 Y-2.59717
G01 X4.55042 Y-2.59708
G01 X4.55160 Y-2.59752
G01 X4.55223 Y-2.59807
G01 X4.55283 Y-2.59917
G01 X4.55295 Y-2.60000
G01 X4.55295 Y-2.64188
G04 P0 ( dwell for no time -- G64 should not smooth over this point )
G00 Z0.08000 ( retract )

G00 X4.62366 Y-2.73166 ( rapid move to begin. )
G01 F180.00000
( Mill infeed pass 1/1 )
G01 Z-0.04000
G04 P0 ( dwell for no time -- G64 should not smooth over this point )
G01 F360.00000
G01 X4.62366 Y-2.73166
G01 X4.62370 Y-2.73292
G01 X4.62427 Y-2.73404
G01 X4.62488 Y-2.73461
G01 X4.62563 Y-2.73499
G01 X4.65375 Y-2.74436
G01 X4.65459 Y-2.74451
G01 X4.65545 Y-2.74442
G01 X4.65623 Y-2.74408
G01 X4.65689 Y-2.74353
G01 X4.65736 Y-2.74281
G01 X4.65761 Y-2.74199
G01 X4.65764 Y-2.72577
G01 X4.66781 Y-2.72577
G01 X4.66864 Y-2.72565
G01 X4.66941 Y-2.72530
G01 X4.67029 Y-2.72441
G01 X4.67073 Y-2.72323
G01 X4.67073 Y-2.72239
G01 X4.67029 Y-2.72122
G01 X4.66974 Y-2.72058
G01 X4.66904 Y-2.72013
G01 X4.66823 Y-2.71989
G01 X4.65764 Y-2.71986
G01 X4.65761 Y-2.71677
G01 X4.65717 Y-2.71559
G01 X4.65628 Y-2.71471
G01 X4.65552 Y-2.71436
G01 X4.65469 Y-2.71424
G01 X4.65385 Y-2.71436
G01 X4.65275 Y-2.71496
G01 X4.65200 Y-2.71596
G01 X4.65173 Y-2.71719
G01 X4.65173 Y-2.71986
G01 X4.64114 Y-2.71989
G01 X4.63997 Y-2.72033
G01 X4.63933 Y-2.72088
G01 X4.63888 Y-2.72159
G01 X4.63864 Y-2.72239
G01 X4.63864 Y-2.72323
G01 X4.63908 Y-2.72441
G01 X4.63997 Y-2.72530
G01 X4.64073 Y-2.72565
G01 X4.64156 Y-2.72577
G01 X4.65173 Y-2.72577
G01 X4.65173 Y-2.73747
G01 X4.62709 Y-2.72928
G01 X4.62625 Y-2.72925
G01 X4.62544 Y-2.72946
G01 X4.62440 Y-2.73018
G01 X4.62392 Y-2.73087
G01 X4.62366 Y-2.73166
G04 P0 ( dwell for no time -- G64 should not smooth over this point )
G00 Z0.08000 ( retract )

G00 X4.65625 Y-2.76106 ( rapid move to begin. )
G01 F180.00000
( Mill infeed pass 1/1 )
G01 Z-0.04000
G04 P0 ( dwell for no time -- G64 should not smooth over this point )
G01 F360.00000
G01 X4.65625 Y-2.76106
G01 X4.65201 Y-2.76402
G01 X4.65170 Y-2.76274
G01 X4.64983 Y-2.75899
G01 X4.64928 Y-2.75822
G01 X4.64704 Y-2.75604
G01 X4.64246 Y-2.75375
G01 X4.64156 Y-2.75361
G01 X4.63548 Y-2.75364
G01 X4.63462 Y-2.75392
G01 X4.63087 Y-2.75579
G01 X4.63010 Y-2.75635
G01 X4.62792 Y-2.75858
G01 X4.62580 Y-2.76274
G01 X4.62552 Y-2.76361
G01 X4.62549 Y-2.77906
G01 X4.62561 Y-2.77989
G01 X4.62596 Y-2.78065
G01 X4.62684 Y-2.78154
G01 X4.62761 Y-2.78189
G01 X4.62844 Y-2.78201
G01 X4.66781 Y-2.78201
G01 X4.66864 Y-2.78189
G01 X4.66941 Y-2.78154
G01 X4.67029 Y-2.78065
G01 X4.67064 Y-2.77989
G01 X4.67076 Y-2.77906
G01 X4.67064 Y-2.77823
G01 X4.67029 Y-2.77746
G01 X4.66941 Y-2.77657
G01 X4.66864 Y-2.77622
G01 X4.66781 Y-2.77610
G01 X4.65693 Y-2.77610
G01 X4.65679 Y-2.77980
G01 X4.65638 Y-2.78123
G01 X4.65598 Y-2.78201
G01 X4.65638 Y-2.78123
G01 X4.65663 Y-2.78131
G01 X4.65638 Y-2.78123
G01 X4.65679 Y-2.77980
G01 X4.65693 Y-2.77610
G01 X4.65201 Y-2.77610
G01 X4.65201 Y-2.77122
G01 X4.66983 Y-2.75871
G01 X4.67035 Y-2.75806
G01 X4.67067 Y-2.75728
G01 X4.67076 Y-2.75644
G01 X4.67044 Y-2.75523
G01 X4.66965 Y-2.75425
G01 X4.66853 Y-2.75370
G01 X4.66769 Y-2.75361
G01 X4.66648 Y-2.75393
G01 X4.65625 Y-2.76106
G01 X4.65754 Y-2.76489
G01 X4.65796 Y-2.76705
G04 P0 ( dwell for no time -- G64 should not smooth over this point )
G00 Z0.08000 ( retract )

G00 X4.63139 Y-2.77610 ( rapid move to begin. )
G01 F180.00000
( Mill infeed pass 1/1 )
G01 Z-0.04000
G04 P0 ( dwell for no time -- G64 should not smooth over this point )
G01 F360.00000
G01 X4.63139 Y-2.77610
G01 X4.63139 Y-2.76476
G01 X4.63274 Y-2.76206
G01 X4.63394 Y-2.76086
G01 X4.63664 Y-2.75951
G01 X4.64086 Y-2.75951
G01 X4.64356 Y-2.76086
G01 X4.64476 Y-2.76206
G01 X4.64611 Y-2.76476
G01 X4.64611 Y-2.77610
G01 X4.63139 Y-2.77610
G04 P0 ( dwell for no time -- G64 should not smooth over this point )
G00 Z0.08000 ( retract )

G00 X4.50295 Y-2.84705 ( rapid move to begin. )
G01 F180.00000
( Mill infeed pass 1/1 )
G01 Z-0.04000
G04 P0 ( dwell for no time -- G64 should not smooth over this point )
G01 F360.00000
G01 X4.50295 Y-2.84705
G01 X4.59705 Y-2.84705
G01 X4.59705 Y-2.65295
G01 X4.50295 Y-2.65295
G01 X4.50295 Y-2.84705
G04 P0 ( dwell for no time -- G64 should not smooth over this point )
G00 Z0.08000 ( retract )

G00 X4.33504 Y-3.00208 ( rapid move to begin. )
G01 F180.00000
( Mill infeed pass 1/1 )
G01 Z-0.04000
G04 P0 ( dwell for no time -- G64 should not smooth over this point )
G01 F360.00000
G01 X4.33504 Y-3.00208
G01 X4.33098 Y-3.00857
G01 X4.32795 Y-3.01295
G01 X4.33289 Y-3.02010
G01 X4.33893 Y-3.02799
G01 X4.34585 Y-3.03616
G01 X4.35019 Y-3.04090
G01 X4.35079 Y-3.04131
G01 X4.34982 Y-3.04052
G01 X4.34190 Y-3.03159
G01 X4.33504 Y-3.02299
G01 X4.33504 Y-3.00208
G01 X4.33504 Y-3.02299
G01 X4.33504 Y-3.00208
G01 X4.33817 Y-2.99647
G01 X4.34154 Y-2.98959
G01 X4.34471 Y-2.98157
G01 X4.34675 Y-2.97528
G01 X4.34764 Y-2.97178
G01 X4.34943 Y-2.96267
G01 X4.34998 Y-2.95746
G01 X4.35033 Y-2.94941
G01 X4.35008 Y-2.94387
G01 X4.34927 Y-2.93622
G01 X4.34813 Y-2.93035
G01 X4.34600 Y-2.92222
G01 X4.34393 Y-2.91630
G01 X4.34194 Y-2.91134
G01 X4.33937 Y-2.90588
G01 X4.33640 Y-2.90027
G01 X4.33323 Y-2.89493
G01 X4.32795 Y-2.88706
G01 X4.33223 Y-2.88081
G01 X4.33784 Y-2.87337
G01 X4.34490 Y-2.86492
G01 X4.35079 Y-2.85857
G01 X4.35079 Y-3.04695
G01 X4.35563 Y-3.04683
G01 X4.36027 Y-3.04648
G01 X4.36528 Y-3.04586
G01 X4.36987 Y-3.04505
G01 X4.37479 Y-3.04393
G01 X4.37926 Y-3.04267
G01 X4.38368 Y-3.04120
G01 X4.38802 Y-3.03951
G01 X4.39228 Y-3.03762
G01 X4.39643 Y-3.03553
G01 X4.40049 Y-3.03324
G01 X4.40475 Y-3.03054
G01 X4.40887 Y-3.02763
G01 X4.41252 Y-3.02475
G01 X4.41604 Y-3.02170
G01 X4.41941 Y-3.01849
G01 X4.42262 Y-3.01511
G01 X4.42591 Y-3.01128
G01 X4.42876 Y-3.00761
G01 X4.43144 Y-3.00380
G01 X4.43413 Y-2.99953
G01 X4.43641 Y-2.99547
G01 X4.43849 Y-2.99131
G01 X4.44037 Y-2.98705
G01 X4.44205 Y-2.98271
G01 X4.44351 Y-2.97829
G01 X4.44477 Y-2.97381
G01 X4.44588 Y-2.96889
G01 X4.44667 Y-2.96430
G01 X4.44729 Y-2.95930
G01 X4.44764 Y-2.95427
G01 X4.44773 Y-2.94961
G01 X4.44760 Y-2.94496
G01 X4.44725 Y-2.94032
G01 X4.44667 Y-2.93570
G01 X4.44580 Y-2.93073
G01 X4.44477 Y-2.92619
G01 X4.44340 Y-2.92133
G01 X4.44192 Y-2.91692
G01 X4.44022 Y-2.91259
G01 X4.43816 Y-2.90798
G01 X4.43604 Y-2.90384
G01 X4.43373 Y-2.89980
G01 X4.43122 Y-2.89588
G01 X4.42830 Y-2.89176
G01 X4.42541 Y-2.88811
G01 X4.42236 Y-2.88460
G01 X4.41913 Y-2.88124
G01 X4.41575 Y-2.87804
G01 X4.41192 Y-2.87476
G01 X4.40824 Y-2.87191
G01 X4.40442 Y-2.86924
G01 X4.40049 Y-2.86676
G01 X4.39609 Y-2.86429
G01 X4.39192 Y-2.86221
G01 X4.38766 Y-2.86034
G01 X4.38332 Y-2.85867
G01 X4.37890 Y-2.85722
G01 X4.37403 Y-2.85588
G01 X4.36949 Y-2.85487
G01 X4.36451 Y-2.85403
G01 X4.35989 Y-2.85348
G01 X4.35525 Y-2.85315
G01 X4.35079 Y-2.85305
G01 X4.35079 Y-2.85857
G01 X4.32272 Y-2.90808
G01 X4.31816 Y-2.90060
G01 X4.31489 Y-2.89587
G01 X4.30968 Y-2.89700
G01 X4.30284 Y-2.89922
G01 X4.29720 Y-2.90178
G01 X4.29299 Y-2.90413
G01 X4.28997 Y-2.90612
G01 X4.28582 Y-2.90934
G01 X4.28336 Y-2.91441
G01 X4.27983 Y-2.92031
G01 X4.27616 Y-2.92457
G01 X4.27466 Y-2.92605
G01 X4.27305 Y-2.93223
G01 X4.27206 Y-2.93518
G01 X4.27217 Y-2.93522
G01 X4.27206 Y-2.93518
G01 X4.26991 Y-2.93962
G01 X4.26676 Y-2.94400
G01 X4.26645 Y-2.94774
G01 X4.26641 Y-2.95064
G01 X4.26911 Y-2.95091
G01 X4.26918 Y-2.94762
G01 X4.26959 Y-2.94435
G01 X4.27023 Y-2.94149
G01 X4.27125 Y-2.93836
G01 X4.27259 Y-2.93534
G01 X4.27422 Y-2.93248
G01 X4.27614 Y-2.92980
G01 X4.27806 Y-2.92759
G01 X4.28045 Y-2.92532
G01 X4.28307 Y-2.92331
G01 X4.28554 Y-2.92175
G01 X4.28849 Y-2.92027
G01 X4.29157 Y-2.91910
G01 X4.29440 Y-2.91832
G01 X4.29764 Y-2.91776
G01 X4.30093 Y-2.91752
G01 X4.30422 Y-2.91763
G01 X4.30749 Y-2.91806
G01 X4.31070 Y-2.91883
G01 X4.31384 Y-2.91992
G01 X4.31648 Y-2.92114
G01 X4.31902 Y-2.92260
G01 X4.32170 Y-2.92451
G01 X4.32418 Y-2.92668
G01 X4.32619 Y-2.92881
G01 X4.32800 Y-2.93111
G01 X4.32978 Y-2.93389
G01 X4.33127 Y-2.93683
G01 X4.33245 Y-2.93991
G01 X4.33331 Y-2.94309
G01 X4.33380 Y-2.94598
G01 X4.33404 Y-2.94927
G01 X4.33395 Y-2.95256
G01 X4.33353 Y-2.95583
G01 X4.33287 Y-2.95869
G01 X4.33183 Y-2.96181
G01 X4.33064 Y-2.96449
G01 X4.32902 Y-2.96736
G01 X4.32712 Y-2.97006
G01 X4.32521 Y-2.97227
G01 X4.32283 Y-2.97456
G01 X4.32053 Y-2.97637
G01 X4.31776 Y-2.97816
G01 X4.31482 Y-2.97965
G01 X4.31175 Y-2.98084
G01 X4.30893 Y-2.98163
G01 X4.30569 Y-2.98222
G01 X4.30240 Y-2.98247
G01 X4.29910 Y-2.98238
G01 X4.29583 Y-2.98197
G01 X4.29263 Y-2.98122
G01 X4.28951 Y-2.98015
G01 X4.28683 Y-2.97894
G01 X4.28429 Y-2.97750
G01 X4.28159 Y-2.97560
G01 X4.27910 Y-2.97345
G01 X4.27684 Y-2.97105
G01 X4.27483 Y-2.96843
G01 X4.27325 Y-2.96590
G01 X4.27181 Y-2.96300
G01 X4.27064 Y-2.95992
G01 X4.26988 Y-2.95709
G01 X4.26932 Y-2.95384
G01 X4.26911 Y-2.95091
G01 X4.26641 Y-2.95064
G01 X4.26678 Y-2.95609
G01 X4.26866 Y-2.95844
G01 X4.27148 Y-2.96339
G01 X4.27162 Y-2.96333
G01 X4.27148 Y-2.96339
G01 X4.27285 Y-2.96717
G01 X4.27467 Y-2.97400
G01 X4.27747 Y-2.97684
G01 X4.28101 Y-2.98141
G01 X4.28392 Y-2.98665
G01 X4.28583 Y-2.99065
G01 X4.28799 Y-2.99242
G01 X4.29200 Y-2.99523
G01 X4.29661 Y-2.99792
G01 X4.30042 Y-2.99977
G01 X4.30687 Y-3.00218
G01 X4.31051 Y-3.00322
G01 X4.31489 Y-3.00413
G01 X4.31782 Y-2.99991
G01 X4.32159 Y-2.99387
G01 X4.31600 Y-2.99601
G01 X4.31245 Y-2.99698
G01 X4.30808 Y-2.99778
G01 X4.30240 Y-2.99822
G01 X4.29831 Y-2.99811
G01 X4.29661 Y-2.99792
G01 X4.29831 Y-2.99811
G01 X4.30240 Y-2.99822
G01 X4.30808 Y-2.99778
G01 X4.31245 Y-2.99698
G01 X4.31600 Y-2.99601
G01 X4.32159 Y-2.99387
G01 X4.32421 Y-2.98918
G01 X4.32706 Y-2.98331
G01 X4.32889 Y-2.97893
G01 X4.33127 Y-2.97199
G01 X4.33316 Y-2.96429
G01 X4.33380 Y-2.96043
G01 X4.33427 Y-2.95635
G01 X4.33453 Y-2.94884
G01 X4.33438 Y-2.94511
G01 X4.33366 Y-2.93861
G01 X4.33297 Y-2.93475
G01 X4.33205 Y-2.93080
G01 X4.32960 Y-2.92296
G01 X4.32810 Y-2.91911
G01 X4.32612 Y-2.91466
G01 X4.32272 Y-2.90808
G01 X4.32161 Y-2.90617
G01 X4.31938 Y-2.90518
G01 X4.31513 Y-2.90371
G01 X4.31036 Y-2.90258
G01 X4.30630 Y-2.90202
G01 X4.30022 Y-2.90179
G01 X4.29671 Y-2.90204
G01 X4.26220 Y-2.91101
G01 X4.26220 Y-2.91138
G01 X4.26200 Y-2.91106
G01 X4.25669 Y-2.92737
G01 X4.25669 Y-2.92996
G01 X4.25609 Y-2.92921
G01 X4.25609 Y-2.97079
G01 X4.26200 Y-2.98893
G01 X4.26154 Y-3.00114
G01 X4.26210 Y-3.00204
G01 X4.26937 Y-3.00350
G01 X4.27120 Y-3.00364
G01 X4.27655 Y-3.00343
G01 X4.28234 Y-3.00774
G01 X4.28611 Y-3.01009
G01 X4.28973 Y-3.01209
G01 X4.29426 Y-3.01626
G01 X4.29747 Y-3.01891
G01 X4.30494 Y-3.02408
G01 X4.31225 Y-3.02814
G01 X4.31605 Y-3.02988
G01 X4.32233 Y-3.03230
G01 X4.32981 Y-3.04168
G01 X4.33414 Y-3.04669
G01 X4.33919 Y-3.05219
G01 X4.34360 Y-3.05260
G01 X4.33919 Y-3.05219
G01 X4.33824 Y-3.05119
G01 X4.32981 Y-3.04168
G01 X4.32316 Y-3.03341
G01 X4.31745 Y-3.02556
G01 X4.31371 Y-3.01991
G01 X4.30686 Y-3.01854
G01 X4.30240 Y-3.01732
G01 X4.29388 Y-3.01414
G01 X4.28700 Y-3.01060
G01 X4.28233 Y-3.00776
G01 X4.27655 Y-3.00343
G01 X4.26936 Y-3.00358
G01 X4.26210 Y-3.00204
G01 X4.25919 Y-2.99679
G01 X4.25705 Y-2.99234
G01 X4.25512 Y-2.98778
G01 X4.25329 Y-2.98277
G01 X4.25183 Y-2.97805
G01 X4.25059 Y-2.97325
G01 X4.24960 Y-2.96843
G01 X4.24878 Y-2.96314
G01 X4.24826 Y-2.95823
G01 X4.24798 Y-2.95329
G01 X4.24794 Y-2.94835
G01 X4.25068 Y-2.94847
G01 X4.25101 Y-2.94314
G01 X4.24849 Y-2.93957
G01 X4.24817 Y-2.94301
G01 X4.24794 Y-2.94835
G01 X4.24798 Y-2.95329
G01 X4.24826 Y-2.95823
G01 X4.24878 Y-2.96314
G01 X4.24850 Y-2.96048
G01 X4.24980 Y-2.95820
G01 X4.25099 Y-2.95666
G01 X4.25068 Y-2.95201
G01 X4.25068 Y-2.94847
G01 X4.24794 Y-2.94835
G01 X4.24817 Y-2.94301
G01 X4.24862 Y-2.93808
G01 X4.24938 Y-2.93280
G01 X4.25032 Y-2.92795
G01 X4.25150 Y-2.92315
G01 X4.25291 Y-2.91840
G01 X4.25467 Y-2.91337
G01 X4.25654 Y-2.90880
G01 X4.25881 Y-2.90395
G01 X4.26113 Y-2.89959
G01 X4.26366 Y-2.89534
G01 X4.26638 Y-2.89122
G01 X4.26930 Y-2.88724
G01 X4.27241 Y-2.88339
G01 X4.27597 Y-2.87942
G01 X4.27945 Y-2.87591
G01 X4.28310 Y-2.87255
G01 X4.28721 Y-2.86915
G01 X4.29117 Y-2.86619
G01 X4.29526 Y-2.86342
G01 X4.29983 Y-2.86066
G01 X4.30418 Y-2.85831
G01 X4.30864 Y-2.85618
G01 X4.31319 Y-2.85426
G01 X4.31782 Y-2.85257
G01 X4.32255 Y-2.85109
G01 X4.32734 Y-2.84985
G01 X4.33257 Y-2.84877
G01 X4.33918 Y-2.84783
G01 X4.33300 Y-2.85460
G01 X4.32557 Y-2.86350
G01 X4.31937 Y-2.87171
G01 X4.31370 Y-2.88009
G01 X4.30952 Y-2.88085
G01 X4.30287 Y-2.88254
G01 X4.29729 Y-2.88449
G01 X4.29321 Y-2.88619
G01 X4.28911 Y-2.88824
G01 X4.28459 Y-2.89081
G01 X4.28076 Y-2.89334
G01 X4.27658 Y-2.89653
G01 X4.26964 Y-2.89646
G01 X4.26760 Y-2.89670
G01 X4.26199 Y-2.89815
G01 X4.26760 Y-2.89670
G01 X4.26964 Y-2.89646
G01 X4.26963 Y-2.89635
G01 X4.26964 Y-2.89646
G01 X4.27658 Y-2.89653
G01 X4.28181 Y-2.89263
G01 X4.28492 Y-2.89061
G01 X4.28971 Y-2.88793
G01 X4.29345 Y-2.88443
G01 X4.29694 Y-2.88151
G01 X4.30374 Y-2.87668
G01 X4.31130 Y-2.87233
G01 X4.31895 Y-2.86892
G01 X4.32232 Y-2.86769
G01 X4.32934 Y-2.85887
G01 X4.33312 Y-2.85446
G01 X4.33918 Y-2.84783
G01 X4.34236 Y-2.84749
G01 X4.34769 Y-2.84719
G01 X4.35263 Y-2.84716
G01 X4.35798 Y-2.84740
G01 X4.36289 Y-2.84786
G01 X4.36818 Y-2.84863
G01 X4.37263 Y-2.84949
G01 X4.37783 Y-2.85076
G01 X4.38256 Y-2.85217
G01 X4.38722 Y-2.85382
G01 X4.39180 Y-2.85568
G01 X4.39628 Y-2.85775
G01 X4.40067 Y-2.86005
G01 X4.40526 Y-2.86276
G01 X4.40940 Y-2.86548
G01 X4.41371 Y-2.86864
G01 X4.41754 Y-2.87175
G01 X4.42123 Y-2.87505
G01 X4.42474 Y-2.87852
G01 X4.42835 Y-2.88245
G01 X4.43152 Y-2.88627
G01 X4.43471 Y-2.89054
G01 X4.43747 Y-2.89464
G01 X4.44023 Y-2.89922
G01 X4.44257 Y-2.90357
G01 X4.44469 Y-2.90804
G01 X4.44660 Y-2.91258
G01 X4.44828 Y-2.91724
G01 X4.44975 Y-2.92196
G01 X4.45107 Y-2.92713
G01 X4.45205 Y-2.93197
G01 X4.45275 Y-2.93647
G01 X4.45331 Y-2.94178
G01 X4.45359 Y-2.94671
G01 X4.45363 Y-2.95164
G01 X4.45343 Y-2.95658
G01 X4.45299 Y-2.96151
G01 X4.45226 Y-2.96679
G01 X4.45134 Y-2.97166
G01 X4.45008 Y-2.97684
G01 X4.44867 Y-2.98158
G01 X4.44704 Y-2.98624
G01 X4.44519 Y-2.99083
G01 X4.44312 Y-2.99531
G01 X4.44083 Y-2.99970
G01 X4.43814 Y-3.00430
G01 X4.43542 Y-3.00845
G01 X4.43252 Y-3.01245
G01 X4.42917 Y-3.01660
G01 X4.42560 Y-3.02058
G01 X4.42241 Y-3.02382
G01 X4.41879 Y-3.02717
G01 X4.41500 Y-3.03034
G01 X4.41107 Y-3.03334
G01 X4.40665 Y-3.03636
G01 X4.40245 Y-3.03894
G01 X4.39776 Y-3.04150
G01 X4.39330 Y-3.04366
G01 X4.38839 Y-3.04573
G01 X4.38375 Y-3.04743
G01 X4.37902 Y-3.04890
G01 X4.37424 Y-3.05015
G01 X4.36900 Y-3.05123
G01 X4.36413 Y-3.05198
G01 X4.35921 Y-3.05251
G01 X4.35388 Y-3.05281
G01 X4.34894 Y-3.05284
G01 X4.34360 Y-3.05260
G01 X4.33868 Y-3.05214
G01 X4.33339 Y-3.05137
G01 X4.32894 Y-3.05051
G01 X4.32374 Y-3.04923
G01 X4.31901 Y-3.04782
G01 X4.31434 Y-3.04618
G01 X4.30977 Y-3.04432
G01 X4.30529 Y-3.04225
G01 X4.30090 Y-3.03995
G01 X4.29664 Y-3.03745
G01 X4.29218 Y-3.03452
G01 X4.28787 Y-3.03136
G01 X4.28403 Y-3.02825
G01 X4.28035 Y-3.02495
G01 X4.27683 Y-3.02148
G01 X4.27348 Y-3.01784
G01 X4.27031 Y-3.01405
G01 X4.26733 Y-3.01012
G01 X4.26431 Y-3.00569
G01 X4.26154 Y-3.00114
G01 X4.26200 Y-2.98893
G01 X4.26220 Y-2.98862
G01 X4.26220 Y-2.98940
G01 X4.25609 Y-2.97079
G01 X4.25669 Y-2.97004
G01 X4.25669 Y-2.97335
G01 X4.25609 Y-2.97079
G01 X4.25609 Y-2.92921
G01 X4.25669 Y-2.92737
G01 X4.25669 Y-2.92665
G01 X4.25609 Y-2.92921
G01 X4.26200 Y-2.91106
G01 X4.26220 Y-2.91101
G01 X4.26220 Y-2.91060
G01 X4.26200 Y-2.91106
G01 X4.29671 Y-2.90204
G01 X4.30022 Y-2.90179
G01 X4.30630 Y-2.90202
G01 X4.31036 Y-2.90258
G01 X4.31513 Y-2.90371
G01 X4.31938 Y-2.90518
G01 X4.32161 Y-2.90617
G01 X4.32272 Y-2.90808
G01 X4.33161 Y-2.89240
G01 X4.33640 Y-2.90027
G01 X4.33504 Y-2.89792
G01 X4.33504 Y-2.87699
G04 P0 ( dwell for no time -- G64 should not smooth over this point )
G00 Z0.08000 ( retract )

G00 X4.23139 Y-2.77610 ( rapid move to begin. )
G01 F180.00000
( Mill infeed pass 1/1 )
G01 Z-0.04000
G04 P0 ( dwell for no time -- G64 should not smooth over this point )
G01 F360.00000
G01 X4.23139 Y-2.77610
G01 X4.24611 Y-2.77610
G01 X4.24611 Y-2.76476
G01 X4.24476 Y-2.76206
G01 X4.24356 Y-2.76086
G01 X4.24087 Y-2.75951
G01 X4.23664 Y-2.75951
G01 X4.23394 Y-2.76086
G01 X4.23274 Y-2.76206
G01 X4.23139 Y-2.76476
G01 X4.23139 Y-2.77610
G04 P0 ( dwell for no time -- G64 should not smooth over this point )
G00 Z0.08000 ( retract )

G00 X4.25625 Y-2.76106 ( rapid move to begin. )
G01 F180.00000
( Mill infeed pass 1/1 )
G01 Z-0.04000
G04 P0 ( dwell for no time -- G64 should not smooth over this point )
G01 F360.00000
G01 X4.25625 Y-2.76106
G01 X4.26648 Y-2.75393
G01 X4.26769 Y-2.75361
G01 X4.26853 Y-2.75370
G01 X4.26965 Y-2.75425
G01 X4.27044 Y-2.75523
G01 X4.27076 Y-2.75644
G01 X4.27067 Y-2.75728
G01 X4.27036 Y-2.75806
G01 X4.26983 Y-2.75871
G01 X4.25201 Y-2.77122
G01 X4.25201 Y-2.77610
G01 X4.25694 Y-2.77610
G01 X4.25679 Y-2.77980
G01 X4.25638 Y-2.78123
G01 X4.25663 Y-2.78131
G01 X4.25638 Y-2.78123
G01 X4.25598 Y-2.78201
G01 X4.25638 Y-2.78123
G01 X4.25679 Y-2.77980
G01 X4.25694 Y-2.77610
G01 X4.26781 Y-2.77610
G01 X4.26864 Y-2.77622
G01 X4.26941 Y-2.77657
G01 X4.27029 Y-2.77746
G01 X4.27064 Y-2.77823
G01 X4.27076 Y-2.77906
G01 X4.27064 Y-2.77989
G01 X4.27029 Y-2.78065
G01 X4.26941 Y-2.78154
G01 X4.26864 Y-2.78189
G01 X4.26781 Y-2.78201
G01 X4.22844 Y-2.78201
G01 X4.22761 Y-2.78189
G01 X4.22684 Y-2.78154
G01 X4.22595 Y-2.78065
G01 X4.22561 Y-2.77989
G01 X4.22549 Y-2.77906
G01 X4.22552 Y-2.76361
G01 X4.22580 Y-2.76274
G01 X4.22792 Y-2.75858
G01 X4.23010 Y-2.75635
G01 X4.23087 Y-2.75579
G01 X4.23462 Y-2.75392
G01 X4.23548 Y-2.75364
G01 X4.24156 Y-2.75361
G01 X4.24246 Y-2.75375
G01 X4.24704 Y-2.75604
G01 X4.24927 Y-2.75822
G01 X4.24983 Y-2.75899
G01 X4.25170 Y-2.76274
G01 X4.25201 Y-2.76402
G01 X4.25625 Y-2.76106
G01 X4.25754 Y-2.76489
G01 X4.25796 Y-2.76705
G04 P0 ( dwell for no time -- G64 should not smooth over this point )
G00 Z0.08000 ( retract )

G00 X4.22549 Y-2.74344 ( rapid move to begin. )
G01 F180.00000
( Mill infeed pass 1/1 )
G01 Z-0.04000
G04 P0 ( dwell for no time -- G64 should not smooth over this point )
G01 F360.00000
G01 X4.22549 Y-2.74344
G01 X4.22561 Y-2.74427
G01 X4.22595 Y-2.74503
G01 X4.22684 Y-2.74592
G01 X4.22802 Y-2.74636
G01 X4.22927 Y-2.74627
G01 X4.23004 Y-2.74592
G01 X4.23067 Y-2.74537
G01 X4.23127 Y-2.74427
G01 X4.23139 Y-2.74344
G01 X4.23139 Y-2.72557
G01 X4.24149 Y-2.73441
G01 X4.24259 Y-2.73502
G01 X4.24385 Y-2.73511
G01 X4.24466 Y-2.73488
G01 X4.24537 Y-2.73442
G01 X4.24592 Y-2.73379
G01 X4.24627 Y-2.73302
G01 X4.24639 Y-2.73219
G01 X4.24639 Y-2.72726
G01 X4.24774 Y-2.72456
G01 X4.24894 Y-2.72337
G01 X4.25163 Y-2.72202
G01 X4.25961 Y-2.72202
G01 X4.26231 Y-2.72337
G01 X4.26351 Y-2.72456
G01 X4.26486 Y-2.72726
G01 X4.26486 Y-2.73712
G01 X4.26351 Y-2.73981
G01 X4.26147 Y-2.74202
G01 X4.26117 Y-2.74281
G01 X4.26117 Y-2.74406
G01 X4.26170 Y-2.74521
G01 X4.26229 Y-2.74580
G01 X4.26343 Y-2.74632
G01 X4.26427 Y-2.74638
G01 X4.26509 Y-2.74620
G01 X4.26583 Y-2.74580
G01 X4.26833 Y-2.74329
G01 X4.27045 Y-2.73913
G01 X4.27073 Y-2.73827
G01 X4.27073 Y-2.72611
G01 X4.27045 Y-2.72524
G01 X4.26833 Y-2.72109
G01 X4.26579 Y-2.71855
G01 X4.26163 Y-2.71643
G01 X4.26077 Y-2.71615
G01 X4.25094 Y-2.71611
G01 X4.25004 Y-2.71625
G01 X4.24546 Y-2.71855
G01 X4.24322 Y-2.72073
G01 X4.24267 Y-2.72149
G01 X4.24060 Y-2.72578
G01 X4.23005 Y-2.71659
G01 X4.22887 Y-2.71614
G01 X4.22762 Y-2.71623
G01 X4.22651 Y-2.71683
G01 X4.22596 Y-2.71747
G01 X4.22561 Y-2.71823
G01 X4.22549 Y-2.71907
G01 X4.22549 Y-2.74344
G04 P0 ( dwell for no time -- G64 should not smooth over this point )
G00 Z0.08000 ( retract )

G00 X4.10295 Y-2.84705 ( rapid move to begin. )
G01 F180.00000
( Mill infeed pass 1/1 )
G01 Z-0.04000
G04 P0 ( dwell for no time -- G64 should not smooth over this point )
G01 F360.00000
G01 X4.10295 Y-2.84705
G01 X4.10295 Y-2.65295
G01 X4.19705 Y-2.65295
G01 X4.19705 Y-2.84705
G01 X4.10295 Y-2.84705
G04 P0 ( dwell for no time -- G64 should not smooth over this point )
G00 Z0.08000 ( retract )

G00 X4.44185 Y-3.34133 ( rapid move to begin. )
G01 F180.00000
( Mill infeed pass 1/1 )
G01 Z-0.04000
G04 P0 ( dwell for no time -- G64 should not smooth over this point )
G01 F360.00000
G01 X4.44185 Y-3.34133
G01 X4.44208 Y-3.34253
G01 X4.44288 Y-3.34346
G01 X4.44403 Y-3.34386
G01 X4.44523 Y-3.34363
G01 X4.45137 Y-3.34041
G01 X4.45625 Y-3.33745
G01 X4.46097 Y-3.33423
G01 X4.46550 Y-3.33076
G01 X4.46984 Y-3.32704
G01 X4.47452 Y-3.32252
G01 X4.47515 Y-3.32132
G01 X4.47520 Y-3.17913
G01 X4.47481 Y-3.17784
G01 X4.47162 Y-3.17462
G01 X4.46675 Y-3.17027
G01 X4.46163 Y-3.16625
G01 X4.45660 Y-3.16277
G01 X4.45172 Y-3.15979
G01 X4.44523 Y-3.15637
G01 X4.44403 Y-3.15614
G01 X4.44288 Y-3.15654
G01 X4.44208 Y-3.15747
G01 X4.44185 Y-3.15867
G01 X4.44205 Y-3.15946
G01 X4.44251 Y-3.16014
G01 X4.45105 Y-3.16488
G01 X4.45757 Y-3.16914
G01 X4.46432 Y-3.17440
G01 X4.47047 Y-3.18010
G01 X4.47047 Y-3.31990
G01 X4.46432 Y-3.32560
G01 X4.45757 Y-3.33086
G01 X4.45105 Y-3.33512
G01 X4.44251 Y-3.33986
G01 X4.44205 Y-3.34054
G01 X4.44185 Y-3.34133
G04 P0 ( dwell for no time -- G64 should not smooth over this point )
G00 Z0.08000 ( retract )

G00 X4.29527 Y-3.25000 ( rapid move to begin. )
G01 F180.00000
( Mill infeed pass 1/1 )
G01 Z-0.04000
G04 P0 ( dwell for no time -- G64 should not smooth over this point )
G01 F360.00000
G01 X4.29527 Y-3.25000
G01 X4.29553 Y-3.24265
G01 X4.29636 Y-3.23494
G01 X4.29767 Y-3.22771
G01 X4.29960 Y-3.22021
G01 X4.30194 Y-3.21323
G01 X4.30476 Y-3.20645
G01 X4.30824 Y-3.19953
G01 X4.31201 Y-3.19321
G01 X4.31645 Y-3.18686
G01 X4.32108 Y-3.18115
G01 X4.32639 Y-3.17551
G01 X4.33180 Y-3.17052
G01 X4.33819 Y-3.16546
G01 X4.34461 Y-3.16112
G01 X4.35245 Y-3.15669
G01 X4.35574 Y-3.15509
G01 X4.35694 Y-3.15487
G01 X4.35809 Y-3.15529
G01 X4.35867 Y-3.15587
G01 X4.35902 Y-3.15661
G01 X4.35902 Y-3.15783
G01 X4.35841 Y-3.15889
G01 X4.35774 Y-3.15937
G01 X4.35081 Y-3.16294
G01 X4.34482 Y-3.16660
G01 X4.33911 Y-3.17067
G01 X4.33341 Y-3.17539
G01 X4.32807 Y-3.18053
G01 X4.32288 Y-3.18634
G01 X4.31838 Y-3.19223
G01 X4.31433 Y-3.19842
G01 X4.31092 Y-3.20456
G01 X4.30811 Y-3.21056
G01 X4.30570 Y-3.21673
G01 X4.30359 Y-3.22342
G01 X4.30205 Y-3.22987
G01 X4.30088 Y-3.23678
G01 X4.30022 Y-3.24338
G01 X4.30000 Y-3.25000
G01 X4.30022 Y-3.25662
G01 X4.30088 Y-3.26321
G01 X4.30205 Y-3.27013
G01 X4.30359 Y-3.27658
G01 X4.30570 Y-3.28327
G01 X4.30811 Y-3.28944
G01 X4.31092 Y-3.29544
G01 X4.31433 Y-3.30158
G01 X4.31838 Y-3.30777
G01 X4.32288 Y-3.31366
G01 X4.32807 Y-3.31947
G01 X4.33341 Y-3.32460
G01 X4.33911 Y-3.32933
G01 X4.34482 Y-3.33340
G01 X4.35081 Y-3.33706
G01 X4.35774 Y-3.34063
G01 X4.35841 Y-3.34110
G01 X4.35902 Y-3.34216
G01 X4.35902 Y-3.34339
G01 X4.35867 Y-3.34413
G01 X4.35809 Y-3.34471
G01 X4.35694 Y-3.34512
G01 X4.35574 Y-3.34491
G01 X4.35245 Y-3.34330
G01 X4.34461 Y-3.33888
G01 X4.33819 Y-3.33454
G01 X4.33180 Y-3.32948
G01 X4.32639 Y-3.32449
G01 X4.32108 Y-3.31884
G01 X4.31645 Y-3.31313
G01 X4.31201 Y-3.30679
G01 X4.30824 Y-3.30047
G01 X4.30476 Y-3.29355
G01 X4.30194 Y-3.28677
G01 X4.29960 Y-3.27978
G01 X4.29767 Y-3.27229
G01 X4.29636 Y-3.26506
G01 X4.29553 Y-3.25735
G01 X4.29527 Y-3.25000
G04 P0 ( dwell for no time -- G64 should not smooth over this point )
G00 Z0.08000 ( retract )

G00 X4.28229 Y-3.25665 ( rapid move to begin. )
G01 F180.00000
( Mill infeed pass 1/1 )
G01 Z-0.04000
G04 P0 ( dwell for no time -- G64 should not smooth over this point )
G01 F360.00000
G01 X4.28229 Y-3.25665
G01 X4.28215 Y-3.25675
G01 X4.28109 Y-3.25543
G01 X4.27855 Y-3.25290
G01 X4.27710 Y-3.25575
G01 X4.27578 Y-3.25707
G01 X4.27381 Y-3.25515
G01 X4.27312 Y-3.25476
G01 X4.26489 Y-3.25269
G01 X4.25105 Y-3.25269
G01 X4.24245 Y-3.25493
G01 X4.23776 Y-3.25952
G01 X4.23564 Y-3.26368
G01 X4.23536 Y-3.26454
G01 X4.23536 Y-3.27295
G01 X4.23564 Y-3.27382
G01 X4.23776 Y-3.27797
G01 X4.24245 Y-3.28256
G01 X4.25105 Y-3.28480
G01 X4.26489 Y-3.28480
G01 X4.27348 Y-3.28256
G01 X4.27817 Y-3.27797
G01 X4.28046 Y-3.27339
G01 X4.28060 Y-3.27250
G01 X4.28057 Y-3.26454
G01 X4.27937 Y-3.26183
G01 X4.28192 Y-3.25922
G01 X4.28404 Y-3.25507
G01 X4.28431 Y-3.25427
G01 X4.28434 Y-3.25343
G01 X4.28394 Y-3.25224
G01 X4.28308 Y-3.25132
G01 X4.28192 Y-3.25084
G01 X4.28109 Y-3.25081
G01 X4.27989 Y-3.25121
G01 X4.27897 Y-3.25207
G01 X4.27855 Y-3.25290
G01 X4.28109 Y-3.25543
G01 X4.28215 Y-3.25675
G01 X4.28266 Y-3.25777
G01 X4.26535 Y-3.27479
G01 X4.26532 Y-3.27062
G01 X4.26546 Y-3.26972
G01 X4.26776 Y-3.26514
G01 X4.26795 Y-3.26496
G01 X4.26878 Y-3.26679
G01 X4.26977 Y-3.26802
G01 X4.26977 Y-3.27060
G01 X4.26930 Y-3.27154
G01 X4.26798 Y-3.27285
G01 X4.26535 Y-3.27352
G01 X4.26535 Y-3.27479
G01 X4.26559 Y-3.27560
G01 X4.26605 Y-3.27630
G01 X4.26705 Y-3.27706
G01 X4.26828 Y-3.27732
G01 X4.26950 Y-3.27706
G01 X4.27051 Y-3.27630
G01 X4.27096 Y-3.27560
G01 X4.27120 Y-3.27479
G01 X4.27123 Y-3.27132
G01 X4.27258 Y-3.26862
G01 X4.27470 Y-3.26650
G01 X4.27470 Y-3.27180
G01 X4.27335 Y-3.27450
G01 X4.27052 Y-3.27733
G01 X4.26417 Y-3.27892
G01 X4.25177 Y-3.27892
G01 X4.24542 Y-3.27733
G01 X4.24258 Y-3.27450
G01 X4.24123 Y-3.27180
G01 X4.24123 Y-3.26570
G01 X4.24258 Y-3.26300
G01 X4.24542 Y-3.26017
G01 X4.25177 Y-3.25858
G01 X4.26417 Y-3.25858
G01 X4.27052 Y-3.26017
G01 X4.27160 Y-3.26125
G01 X4.26795 Y-3.26496
G01 X4.26803 Y-3.26528
G01 X4.26770 Y-3.26525
G04 P0 ( dwell for no time -- G64 should not smooth over this point )
G00 Z0.08000 ( retract )

G00 X4.23533 Y-3.23500 ( rapid move to begin. )
G01 F180.00000
( Mill infeed pass 1/1 )
G01 Z-0.04000
G04 P0 ( dwell for no time -- G64 should not smooth over this point )
G01 F360.00000
G01 X4.23533 Y-3.23500
G01 X4.23564 Y-3.23632
G01 X4.23776 Y-3.24048
G01 X4.24026 Y-3.24299
G01 X4.24140 Y-3.24351
G01 X4.24224 Y-3.24357
G01 X4.24345 Y-3.24322
G01 X4.24412 Y-3.24271
G01 X4.24462 Y-3.24204
G01 X4.24492 Y-3.24125
G01 X4.24498 Y-3.24042
G01 X4.24480 Y-3.23959
G01 X4.24439 Y-3.23886
G01 X4.24258 Y-3.23700
G01 X4.24123 Y-3.23430
G01 X4.24123 Y-3.22633
G01 X4.24258 Y-3.22363
G01 X4.24378 Y-3.22243
G01 X4.24648 Y-3.22108
G01 X4.24905 Y-3.22108
G01 X4.25356 Y-3.22258
G01 X4.27587 Y-3.24486
G01 X4.27658 Y-3.24525
G01 X4.27738 Y-3.24544
G01 X4.27819 Y-3.24540
G01 X4.27897 Y-3.24514
G01 X4.27964 Y-3.24468
G01 X4.28016 Y-3.24405
G01 X4.28049 Y-3.24331
G01 X4.28060 Y-3.24250
G01 X4.28060 Y-3.21813
G01 X4.28034 Y-3.21690
G01 X4.27988 Y-3.21619
G01 X4.27925 Y-3.21564
G01 X4.27848 Y-3.21529
G01 X4.27765 Y-3.21517
G01 X4.27682 Y-3.21529
G01 X4.27606 Y-3.21564
G01 X4.27517 Y-3.21653
G01 X4.27482 Y-3.21730
G01 X4.27470 Y-3.21813
G01 X4.27470 Y-3.23537
G01 X4.25690 Y-3.21762
G01 X4.25609 Y-3.21720
G01 X4.25000 Y-3.21521
G01 X4.24578 Y-3.21517
G01 X4.24446 Y-3.21549
G01 X4.24031 Y-3.21761
G01 X4.23807 Y-3.21979
G01 X4.23752 Y-3.22056
G01 X4.23564 Y-3.22431
G01 X4.23533 Y-3.22563
G01 X4.23533 Y-3.23500
G04 P0 ( dwell for no time -- G64 should not smooth over this point )
G00 Z0.08000 ( retract )

G00 X4.05366 Y-3.46835 ( rapid move to begin. )
G01 F180.00000
( Mill infeed pass 1/1 )
G01 Z-0.04000
G04 P0 ( dwell for no time -- G64 should not smooth over this point )
G01 F360.00000
G01 X4.05366 Y-3.46835
G01 X4.05369 Y-3.46713
G01 X4.05420 Y-3.46603
G01 X4.07648 Y-3.44372
G01 X4.07798 Y-3.43921
G01 X4.07798 Y-3.43664
G01 X4.07663 Y-3.43394
G01 X4.07543 Y-3.43274
G01 X4.07274 Y-3.43139
G01 X4.06475 Y-3.43139
G01 X4.06206 Y-3.43274
G01 X4.05985 Y-3.43478
G01 X4.05906 Y-3.43507
G01 X4.05823 Y-3.43513
G01 X4.05702 Y-3.43478
G01 X4.05635 Y-3.43428
G01 X4.05584 Y-3.43360
G01 X4.05555 Y-3.43282
G01 X4.05549 Y-3.43198
G01 X4.05584 Y-3.43077
G01 X4.05635 Y-3.43010
G01 X4.05858 Y-3.42792
G01 X4.06274 Y-3.42580
G01 X4.06360 Y-3.42552
G01 X4.07389 Y-3.42552
G01 X4.07475 Y-3.42580
G01 X4.07850 Y-3.42767
G01 X4.07927 Y-3.42823
G01 X4.08145 Y-3.43046
G01 X4.08357 Y-3.43462
G01 X4.08385 Y-3.43548
G01 X4.08385 Y-3.44016
G01 X4.08186 Y-3.44625
G01 X4.08115 Y-3.44740
G01 X4.06369 Y-3.46486
G01 X4.08093 Y-3.46486
G01 X4.08176 Y-3.46498
G01 X4.08287 Y-3.46558
G01 X4.08342 Y-3.46621
G01 X4.08377 Y-3.46698
G01 X4.08385 Y-3.46823
G01 X4.08342 Y-3.46941
G01 X4.08253 Y-3.47029
G01 X4.08176 Y-3.47064
G01 X4.08093 Y-3.47076
G01 X4.05656 Y-3.47076
G01 X4.05575 Y-3.47065
G01 X4.05501 Y-3.47032
G01 X4.05412 Y-3.46948
G01 X4.05366 Y-3.46835
G04 P0 ( dwell for no time -- G64 should not smooth over this point )
G00 Z0.08000 ( retract )

G00 X4.02389 Y-3.46486 ( rapid move to begin. )
G01 F180.00000
( Mill infeed pass 1/1 )
G01 Z-0.04000
G04 P0 ( dwell for no time -- G64 should not smooth over this point )
G01 F360.00000
G01 X4.02389 Y-3.46486
G01 X4.02983 Y-3.46486
G01 X4.03434 Y-3.46335
G01 X4.03726 Y-3.46043
G01 X4.03878 Y-3.45741
G01 X4.04049 Y-3.45057
G01 X4.04049 Y-3.44568
G01 X4.03878 Y-3.43884
G01 X4.03726 Y-3.43581
G01 X4.03434 Y-3.43289
G01 X4.02983 Y-3.43139
G01 X4.02389 Y-3.43139
G01 X4.02389 Y-3.46486
G01 X4.01799 Y-3.46781
G01 X4.01799 Y-3.42844
G01 X4.01825 Y-3.42721
G01 X4.01901 Y-3.42621
G01 X4.01971 Y-3.42575
G01 X4.02052 Y-3.42552
G01 X4.03031 Y-3.42549
G01 X4.03125 Y-3.42564
G01 X4.03729 Y-3.42769
G01 X4.03803 Y-3.42823
G01 X4.04178 Y-3.43198
G01 X4.04233 Y-3.43274
G01 X4.04433 Y-3.43679
G01 X4.04630 Y-3.44460
G01 X4.04637 Y-3.45130
G01 X4.04433 Y-3.45946
G01 X4.04208 Y-3.46391
G01 X4.03803 Y-3.46802
G01 X4.03729 Y-3.46856
G01 X4.03078 Y-3.47072
G01 X4.02094 Y-3.47076
G01 X4.01971 Y-3.47050
G01 X4.01901 Y-3.47004
G01 X4.01846 Y-3.46941
G01 X4.01811 Y-3.46864
G01 X4.01799 Y-3.46781
G04 P0 ( dwell for no time -- G64 should not smooth over this point )
G00 Z0.08000 ( retract )

G00 X3.91174 Y-3.39281 ( rapid move to begin. )
G01 F180.00000
( Mill infeed pass 1/1 )
G01 Z-0.04000
G04 P0 ( dwell for no time -- G64 should not smooth over this point )
G01 F360.00000
G01 X3.91174 Y-3.39281
G01 X3.91174 Y-3.35344
G01 X3.91185 Y-3.35261
G01 X3.91220 Y-3.35184
G01 X3.91309 Y-3.35095
G01 X3.91427 Y-3.35052
G01 X3.91552 Y-3.35061
G01 X3.91628 Y-3.35095
G01 X3.91692 Y-3.35151
G01 X3.91752 Y-3.35261
G01 X3.91764 Y-3.35344
G01 X3.91764 Y-3.36881
G01 X3.93541 Y-3.35108
G01 X3.93656 Y-3.35055
G01 X3.93781 Y-3.35055
G01 X3.93895 Y-3.35108
G01 X3.93978 Y-3.35202
G01 X3.94007 Y-3.35281
G01 X3.94013 Y-3.35365
G01 X3.93995 Y-3.35447
G01 X3.93955 Y-3.35521
G01 X3.92421 Y-3.37059
G01 X3.93978 Y-3.39139
G01 X3.94007 Y-3.39218
G01 X3.94007 Y-3.39344
G01 X3.93955 Y-3.39458
G01 X3.93860 Y-3.39540
G01 X3.93782 Y-3.39569
G01 X3.93656 Y-3.39569
G01 X3.93577 Y-3.39540
G01 X3.93510 Y-3.39490
G01 X3.91999 Y-3.37481
G01 X3.91764 Y-3.37716
G01 X3.91764 Y-3.39281
G01 X3.91737 Y-3.39404
G01 X3.91662 Y-3.39504
G01 X3.91591 Y-3.39549
G01 X3.91511 Y-3.39573
G01 X3.91427 Y-3.39573
G01 X3.91346 Y-3.39549
G01 X3.91275 Y-3.39504
G01 X3.91220 Y-3.39441
G01 X3.91185 Y-3.39364
G01 X3.91174 Y-3.39281
G04 P0 ( dwell for no time -- G64 should not smooth over this point )
G00 Z0.08000 ( retract )

G00 X3.95453 Y-3.33614 ( rapid move to begin. )
G01 F180.00000
( Mill infeed pass 1/1 )
G01 Z-0.04000
G04 P0 ( dwell for no time -- G64 should not smooth over this point )
G01 F360.00000
G01 X3.95453 Y-3.33614
G01 X3.95453 Y-3.35827
G01 X3.95765 Y-3.36307
G01 X3.96084 Y-3.36750
G01 X3.96423 Y-3.37176
G01 X3.96784 Y-3.37586
G01 X3.97191 Y-3.38005
G01 X3.97591 Y-3.38376
G01 X3.98008 Y-3.38728
G01 X3.98442 Y-3.39058
G01 X3.98892 Y-3.39367
G01 X3.99356 Y-3.39654
G01 X3.99833 Y-3.39918
G01 X4.00359 Y-3.40174
G01 X4.00860 Y-3.40388
G01 X4.01372 Y-3.40578
G01 X4.01892 Y-3.40742
G01 X4.02420 Y-3.40881
G01 X4.02953 Y-3.40994
G01 X4.03492 Y-3.41081
G01 X4.04034 Y-3.41141
G01 X4.04579 Y-3.41175
G01 X4.05124 Y-3.41182
G01 X4.05669 Y-3.41163
G01 X4.06252 Y-3.41113
G01 X4.06792 Y-3.41038
G01 X4.07328 Y-3.40938
G01 X4.07859 Y-3.40811
G01 X4.08383 Y-3.40659
G01 X4.08899 Y-3.40481
G01 X4.09441 Y-3.40263
G01 X4.09901 Y-3.40052
G01 X4.10420 Y-3.39782
G01 X4.10890 Y-3.39506
G01 X4.11347 Y-3.39207
G01 X4.11788 Y-3.38887
G01 X4.12243 Y-3.38520
G01 X4.12650 Y-3.38157
G01 X4.13039 Y-3.37774
G01 X4.13409 Y-3.37372
G01 X4.13758 Y-3.36954
G01 X4.14109 Y-3.36487
G01 X4.14414 Y-3.36035
G01 X4.14698 Y-3.35568
G01 X4.14958 Y-3.35089
G01 X4.15194 Y-3.34597
G01 X4.15406 Y-3.34094
G01 X4.15606 Y-3.33545
G01 X4.15766 Y-3.33024
G01 X4.15901 Y-3.32495
G01 X4.16010 Y-3.31960
G01 X4.16097 Y-3.31382
G01 X4.16151 Y-3.30840
G01 X4.16179 Y-3.30294
G01 X4.16180 Y-3.29749
G01 X4.16155 Y-3.29204
G01 X4.16103 Y-3.28661
G01 X4.16024 Y-3.28121
G01 X4.15919 Y-3.27586
G01 X4.15778 Y-3.27018
G01 X4.15608 Y-3.26460
G01 X4.15436 Y-3.25982
G01 X4.15212 Y-3.25443
G01 X4.14996 Y-3.24985
G01 X4.14758 Y-3.24538
G01 X4.14459 Y-3.24035
G01 X4.14157 Y-3.23581
G01 X4.13809 Y-3.23111
G01 X4.13463 Y-3.22690
G01 X4.13096 Y-3.22286
G01 X4.12711 Y-3.21900
G01 X4.12307 Y-3.21534
G01 X4.11885 Y-3.21188
G01 X4.11447 Y-3.20863
G01 X4.10961 Y-3.20538
G01 X4.10526 Y-3.20278
G01 X4.10046 Y-3.20020
G01 X4.09553 Y-3.19786
G01 X4.09049 Y-3.19576
G01 X4.08536 Y-3.19391
G01 X4.08015 Y-3.19231
G01 X4.07486 Y-3.19097
G01 X4.06951 Y-3.18988
G01 X4.06373 Y-3.18901
G01 X4.05830 Y-3.18848
G01 X4.05285 Y-3.18820
G01 X4.04740 Y-3.18820
G01 X4.04195 Y-3.18846
G01 X4.03652 Y-3.18899
G01 X4.03112 Y-3.18977
G01 X4.02576 Y-3.19083
G01 X4.02047 Y-3.19214
G01 X4.01525 Y-3.19371
G01 X4.01010 Y-3.19553
G01 X4.00542 Y-3.19744
G01 X4.00047 Y-3.19974
G01 X3.99564 Y-3.20227
G01 X3.99093 Y-3.20504
G01 X3.98574 Y-3.20848
G01 X3.98043 Y-3.21244
G01 X3.97566 Y-3.21646
G01 X3.97084 Y-3.22101
G01 X3.96656 Y-3.22554
G01 X3.96230 Y-3.23061
G01 X3.95835 Y-3.23592
G01 X3.95453 Y-3.24177
G01 X3.95453 Y-3.26386
G01 X3.95627 Y-3.25955
G01 X3.95833 Y-3.25507
G01 X3.96061 Y-3.25070
G01 X3.96289 Y-3.24677
G01 X3.96556 Y-3.24263
G01 X3.96820 Y-3.23893
G01 X3.97124 Y-3.23505
G01 X3.97447 Y-3.23132
G01 X3.97760 Y-3.22803
G01 X3.98117 Y-3.22461
G01 X3.98458 Y-3.22163
G01 X3.98845 Y-3.21856
G01 X3.99245 Y-3.21568
G01 X3.99659 Y-3.21300
G01 X4.00052 Y-3.21071
G01 X4.00489 Y-3.20842
G01 X4.00936 Y-3.20635
G01 X4.01356 Y-3.20464
G01 X4.01821 Y-3.20299
G01 X4.02256 Y-3.20167
G01 X4.02695 Y-3.20055
G01 X4.03179 Y-3.19955
G01 X4.03665 Y-3.19879
G01 X4.04158 Y-3.19826
G01 X4.04649 Y-3.19798
G01 X4.05103 Y-3.19792
G01 X4.05596 Y-3.19809
G01 X4.06089 Y-3.19850
G01 X4.06578 Y-3.19914
G01 X4.07025 Y-3.19994
G01 X4.07545 Y-3.20114
G01 X4.07981 Y-3.20236
G01 X4.08451 Y-3.20393
G01 X4.08910 Y-3.20570
G01 X4.09362 Y-3.20770
G01 X4.09767 Y-3.20973
G01 X4.10198 Y-3.21214
G01 X4.10583 Y-3.21454
G01 X4.10957 Y-3.21710
G01 X4.11351 Y-3.22008
G01 X4.11700 Y-3.22298
G01 X4.12064 Y-3.22631
G01 X4.12412 Y-3.22980
G01 X4.12717 Y-3.23317
G01 X4.13030 Y-3.23697
G01 X4.13302 Y-3.24060
G01 X4.13558 Y-3.24435
G01 X4.13838 Y-3.24891
G01 X4.14056 Y-3.25288
G01 X4.14273 Y-3.25731
G01 X4.14453 Y-3.26147
G01 X4.14642 Y-3.26647
G01 X4.14793 Y-3.27117
G01 X4.14921 Y-3.27593
G01 X4.15018 Y-3.28037
G01 X4.15101 Y-3.28522
G01 X4.15156 Y-3.28973
G01 X4.15194 Y-3.29466
G01 X4.15208 Y-3.29919
G01 X4.15200 Y-3.30412
G01 X4.15168 Y-3.30904
G01 X4.15113 Y-3.31394
G01 X4.15041 Y-3.31843
G01 X4.14939 Y-3.32327
G01 X4.14745 Y-3.33040
G01 X4.14499 Y-3.33740
G01 X4.14202 Y-3.34419
G01 X4.13838 Y-3.35109
G01 X4.13443 Y-3.35738
G01 X4.13005 Y-3.36335
G01 X4.12524 Y-3.36898
G01 X4.12005 Y-3.37425
G01 X4.11478 Y-3.37889
G01 X4.10856 Y-3.38361
G01 X4.10200 Y-3.38785
G01 X4.09585 Y-3.39120
G01 X4.08912 Y-3.39429
G01 X4.08255 Y-3.39676
G01 X4.07547 Y-3.39886
G01 X4.06821 Y-3.40045
G01 X4.05926 Y-3.40166
G01 X4.05061 Y-3.40208
G01 X4.04609 Y-3.40201
G01 X4.04158 Y-3.40173
G01 X4.03300 Y-3.40066
G01 X4.02453 Y-3.39886
G01 X4.01588 Y-3.39621
G01 X4.00786 Y-3.39298
G01 X4.00378 Y-3.39102
G01 X3.99589 Y-3.38657
G01 X3.99212 Y-3.38409
G01 X3.98520 Y-3.37888
G01 X3.97876 Y-3.37312
G01 X3.97560 Y-3.36990
G01 X3.97257 Y-3.36652
G01 X3.96969 Y-3.36302
G01 X3.96698 Y-3.35941
G01 X3.96225 Y-3.35217
G01 X3.96002 Y-3.34822
G01 X3.95798 Y-3.34419
G01 X3.95453 Y-3.33614
G01 X3.95453 Y-3.28837
G01 X3.95547 Y-3.28226
G01 X3.95681 Y-3.27620
G01 X3.95807 Y-3.27172
G01 X3.95955 Y-3.26730
G01 X3.96123 Y-3.26297
G01 X3.96313 Y-3.25872
G01 X3.96523 Y-3.25456
G01 X3.96753 Y-3.25052
G01 X3.97002 Y-3.24659
G01 X3.97292 Y-3.24247
G01 X3.97580 Y-3.23881
G01 X3.97884 Y-3.23529
G01 X3.98206 Y-3.23192
G01 X3.98572 Y-3.22846
G01 X3.98956 Y-3.22518
G01 X3.99325 Y-3.22235
G01 X3.99707 Y-3.21969
G01 X4.00102 Y-3.21723
G01 X4.00473 Y-3.21514
G01 X4.00924 Y-3.21288
G01 X4.01351 Y-3.21101
G01 X4.01785 Y-3.20935
G01 X4.02227 Y-3.20790
G01 X4.02714 Y-3.20658
G01 X4.03169 Y-3.20558
G01 X4.03628 Y-3.20480
G01 X4.04090 Y-3.20425
G01 X4.04593 Y-3.20391
G01 X4.05058 Y-3.20382
G01 X4.05523 Y-3.20396
G01 X4.05987 Y-3.20433
G01 X4.06487 Y-3.20498
G01 X4.06945 Y-3.20581
G01 X4.07399 Y-3.20686
G01 X4.07846 Y-3.20813
G01 X4.08287 Y-3.20961
G01 X4.08721 Y-3.21131
G01 X4.09146 Y-3.21321
G01 X4.09560 Y-3.21532
G01 X4.09998 Y-3.21782
G01 X4.10389 Y-3.22034
G01 X4.10769 Y-3.22304
G01 X4.11134 Y-3.22592
G01 X4.11485 Y-3.22898
G01 X4.11821 Y-3.23219
G01 X4.12141 Y-3.23557
G01 X4.12445 Y-3.23911
G01 X4.12730 Y-3.24278
G01 X4.13020 Y-3.24691
G01 X4.13267 Y-3.25085
G01 X4.13495 Y-3.25491
G01 X4.13720 Y-3.25942
G01 X4.13906 Y-3.26368
G01 X4.14071 Y-3.26804
G01 X4.14226 Y-3.27284
G01 X4.14347 Y-3.27732
G01 X4.14445 Y-3.28188
G01 X4.14522 Y-3.28647
G01 X4.14576 Y-3.29109
G01 X4.14608 Y-3.29573
G01 X4.14618 Y-3.30039
G01 X4.14605 Y-3.30504
G01 X4.14565 Y-3.31007
G01 X4.14505 Y-3.31468
G01 X4.14431 Y-3.31888
G01 X4.14319 Y-3.32379
G01 X4.14181 Y-3.32864
G01 X4.14032 Y-3.33306
G01 X4.13846 Y-3.33775
G01 X4.13670 Y-3.34163
G01 X4.13459 Y-3.34578
G01 X4.13207 Y-3.35014
G01 X4.12955 Y-3.35406
G01 X4.12684 Y-3.35784
G01 X4.12395 Y-3.36149
G01 X4.12089 Y-3.36499
G01 X4.11794 Y-3.36808
G01 X4.11428 Y-3.37154
G01 X4.11044 Y-3.37481
G01 X4.10675 Y-3.37765
G01 X4.10293 Y-3.38030
G01 X4.09898 Y-3.38277
G01 X4.09492 Y-3.38504
G01 X4.09040 Y-3.38728
G01 X4.08613 Y-3.38913
G01 X4.08178 Y-3.39078
G01 X4.07735 Y-3.39221
G01 X4.07286 Y-3.39342
G01 X4.06831 Y-3.39442
G01 X4.06334 Y-3.39525
G01 X4.05872 Y-3.39578
G01 X4.05407 Y-3.39609
G01 X4.04942 Y-3.39618
G01 X4.04477 Y-3.39603
G01 X4.03974 Y-3.39563
G01 X4.03512 Y-3.39502
G01 X4.03055 Y-3.39419
G01 X4.02601 Y-3.39314
G01 X4.02116 Y-3.39175
G01 X4.01676 Y-3.39025
G01 X4.01207 Y-3.38838
G01 X4.00819 Y-3.38662
G01 X4.00405 Y-3.38449
G01 X4.00002 Y-3.38217
G01 X3.99610 Y-3.37966
G01 X3.99200 Y-3.37672
G01 X3.98836 Y-3.37383
G01 X3.98486 Y-3.37076
G01 X3.98124 Y-3.36725
G01 X3.97807 Y-3.36384
G01 X3.97482 Y-3.35999
G01 X3.97201 Y-3.35628
G01 X3.96937 Y-3.35244
G01 X3.96693 Y-3.34848
G01 X3.96469 Y-3.34441
G01 X3.96264 Y-3.34023
G01 X3.96079 Y-3.33595
G01 X3.95916 Y-3.33159
G01 X3.95774 Y-3.32716
G01 X3.95653 Y-3.32267
G01 X3.95554 Y-3.31812
G01 X3.95453 Y-3.31163
G01 X3.94792 Y-3.29999
G01 X3.94810 Y-3.29384
G01 X3.94862 Y-3.28801
G01 X3.94862 Y-3.24094
G01 X3.94886 Y-3.23977
G01 X3.95166 Y-3.23527
G01 X3.95469 Y-3.23088
G01 X3.95792 Y-3.22663
G01 X3.96107 Y-3.22284
G01 X3.96438 Y-3.21918
G01 X3.96813 Y-3.21539
G01 X3.97174 Y-3.21204
G01 X3.97611 Y-3.20834
G01 X3.98034 Y-3.20508
G01 X3.98470 Y-3.20203
G01 X3.98887 Y-3.19938
G01 X3.99348 Y-3.19672
G01 X3.99821 Y-3.19427
G01 X4.00305 Y-3.19203
G01 X4.00799 Y-3.19001
G01 X4.01264 Y-3.18835
G01 X4.01892 Y-3.18644
G01 X4.02530 Y-3.18488
G01 X4.03175 Y-3.18369
G01 X4.03865 Y-3.18281
G01 X4.04521 Y-3.18236
G01 X4.05176 Y-3.18228
G01 X4.05793 Y-3.18253
G01 X4.06446 Y-3.18316
G01 X4.07094 Y-3.18414
G01 X4.07737 Y-3.18549
G01 X4.08371 Y-3.18719
G01 X4.08994 Y-3.18925
G01 X4.09605 Y-3.19164
G01 X4.10202 Y-3.19438
G01 X4.10782 Y-3.19744
G01 X4.11345 Y-3.20083
G01 X4.11855 Y-3.20428
G01 X4.12378 Y-3.20825
G01 X4.12878 Y-3.21250
G01 X4.13353 Y-3.21703
G01 X4.13802 Y-3.22181
G01 X4.14224 Y-3.22683
G01 X4.14640 Y-3.23241
G01 X4.14982 Y-3.23757
G01 X4.15313 Y-3.24321
G01 X4.15614 Y-3.24905
G01 X4.15881 Y-3.25505
G01 X4.16128 Y-3.26156
G01 X4.16325 Y-3.26783
G01 X4.16487 Y-3.27418
G01 X4.16620 Y-3.28102
G01 X4.16703 Y-3.28713
G01 X4.16746 Y-3.29203
G01 X4.16770 Y-3.29696
G01 X4.16771 Y-3.30228
G01 X4.16751 Y-3.30721
G01 X4.16711 Y-3.31211
G01 X4.16644 Y-3.31738
G01 X4.16561 Y-3.32225
G01 X4.16458 Y-3.32706
G01 X4.16335 Y-3.33184
G01 X4.16179 Y-3.33694
G01 X4.16015 Y-3.34157
G01 X4.15816 Y-3.34651
G01 X4.15611 Y-3.35100
G01 X4.15389 Y-3.35539
G01 X4.15148 Y-3.35969
G01 X4.14890 Y-3.36387
G01 X4.14591 Y-3.36828
G01 X4.14322 Y-3.37191
G01 X4.14012 Y-3.37576
G01 X4.13687 Y-3.37947
G01 X4.13348 Y-3.38302
G01 X4.12965 Y-3.38671
G01 X4.12595 Y-3.38996
G01 X4.12211 Y-3.39306
G01 X4.11816 Y-3.39600
G01 X4.11408 Y-3.39877
G01 X4.10956 Y-3.40156
G01 X4.10526 Y-3.40396
G01 X4.09675 Y-3.40806
G01 X4.09182 Y-3.41006
G01 X4.08717 Y-3.41171
G01 X4.08247 Y-3.41317
G01 X4.07772 Y-3.41443
G01 X4.07290 Y-3.41549
G01 X4.06805 Y-3.41634
G01 X4.06317 Y-3.41700
G01 X4.05827 Y-3.41744
G01 X4.05296 Y-3.41770
G01 X4.04802 Y-3.41772
G01 X4.04311 Y-3.41753
G01 X4.03819 Y-3.41714
G01 X4.03291 Y-3.41649
G01 X4.02805 Y-3.41567
G01 X4.02324 Y-3.41465
G01 X4.01846 Y-3.41343
G01 X4.01337 Y-3.41189
G01 X4.00871 Y-3.41026
G01 X4.00377 Y-3.40828
G01 X3.99928 Y-3.40625
G01 X3.99488 Y-3.40403
G01 X3.99058 Y-3.40164
G01 X3.98637 Y-3.39906
G01 X3.98197 Y-3.39609
G01 X3.97800 Y-3.39315
G01 X3.97417 Y-3.39007
G01 X3.97046 Y-3.38681
G01 X3.96691 Y-3.38341
G01 X3.96322 Y-3.37957
G01 X3.95997 Y-3.37587
G01 X3.95663 Y-3.37172
G01 X3.95371 Y-3.36775
G01 X3.95031 Y-3.36263
G01 X3.94874 Y-3.35989
G01 X3.94862 Y-3.35906
G01 X3.94862 Y-3.31198
G01 X3.94810 Y-3.30616
G01 X3.94792 Y-3.29999
G04 P0 ( dwell for no time -- G64 should not smooth over this point )
G00 Z0.08000 ( retract )

G00 X3.86173 Y-3.24281 ( rapid move to begin. )
G01 F180.00000
( Mill infeed pass 1/1 )
G01 Z-0.04000
G04 P0 ( dwell for no time -- G64 should not smooth over this point )
G01 F360.00000
G01 X3.86173 Y-3.24281
G01 X3.86173 Y-3.20344
G01 X3.86185 Y-3.20261
G01 X3.86220 Y-3.20184
G01 X3.86309 Y-3.20095
G01 X3.86427 Y-3.20052
G01 X3.86552 Y-3.20061
G01 X3.86662 Y-3.20121
G01 X3.86717 Y-3.20184
G01 X3.86752 Y-3.20261
G01 X3.86764 Y-3.20344
G01 X3.86764 Y-3.21881
G01 X3.88542 Y-3.20108
G01 X3.88656 Y-3.20055
G01 X3.88781 Y-3.20055
G01 X3.88895 Y-3.20108
G01 X3.88978 Y-3.20202
G01 X3.89007 Y-3.20281
G01 X3.89013 Y-3.20365
G01 X3.88995 Y-3.20447
G01 X3.88955 Y-3.20521
G01 X3.87421 Y-3.22059
G01 X3.88978 Y-3.24139
G01 X3.89007 Y-3.24218
G01 X3.89007 Y-3.24343
G01 X3.88955 Y-3.24458
G01 X3.88860 Y-3.24540
G01 X3.88781 Y-3.24569
G01 X3.88656 Y-3.24569
G01 X3.88577 Y-3.24540
G01 X3.88510 Y-3.24490
G01 X3.86999 Y-3.22481
G01 X3.86764 Y-3.22716
G01 X3.86764 Y-3.24281
G01 X3.86737 Y-3.24404
G01 X3.86662 Y-3.24504
G01 X3.86591 Y-3.24550
G01 X3.86511 Y-3.24573
G01 X3.86427 Y-3.24573
G01 X3.86346 Y-3.24550
G01 X3.86275 Y-3.24504
G01 X3.86220 Y-3.24441
G01 X3.86185 Y-3.24364
G01 X3.86173 Y-3.24281
G04 P0 ( dwell for no time -- G64 should not smooth over this point )
G00 Z0.08000 ( retract )

G00 X3.75550 Y-3.43937 ( rapid move to begin. )
G01 F180.00000
( Mill infeed pass 1/1 )
G01 Z-0.04000
G04 P0 ( dwell for no time -- G64 should not smooth over this point )
G01 F360.00000
G01 X3.75550 Y-3.43937
G01 X3.75553 Y-3.44021
G01 X3.75579 Y-3.44101
G01 X3.75658 Y-3.44199
G01 X3.75770 Y-3.44255
G01 X3.75896 Y-3.44259
G01 X3.75976 Y-3.44233
G01 X3.76391 Y-3.44021
G01 X3.76673 Y-3.43744
G01 X3.76673 Y-3.46486
G01 X3.75844 Y-3.46486
G01 X3.75760 Y-3.46498
G01 X3.75684 Y-3.46532
G01 X3.75595 Y-3.46621
G01 X3.75551 Y-3.46739
G01 X3.75560 Y-3.46864
G01 X3.75595 Y-3.46941
G01 X3.75684 Y-3.47029
G01 X3.75760 Y-3.47064
G01 X3.75844 Y-3.47076
G01 X3.78093 Y-3.47076
G01 X3.78176 Y-3.47064
G01 X3.78287 Y-3.47004
G01 X3.78342 Y-3.46941
G01 X3.78377 Y-3.46864
G01 X3.78385 Y-3.46739
G01 X3.78362 Y-3.46658
G01 X3.78316 Y-3.46588
G01 X3.78216 Y-3.46512
G01 X3.78093 Y-3.46486
G01 X3.77264 Y-3.46486
G01 X3.77261 Y-3.42802
G01 X3.77217 Y-3.42685
G01 X3.77130 Y-3.42597
G01 X3.77013 Y-3.42552
G01 X3.76889 Y-3.42560
G01 X3.76812 Y-3.42593
G01 X3.76748 Y-3.42647
G01 X3.76364 Y-3.43218
G01 X3.76044 Y-3.43539
G01 X3.75643 Y-3.43752
G01 X3.75590 Y-3.43818
G01 X3.75550 Y-3.43937
G04 P0 ( dwell for no time -- G64 should not smooth over this point )
G00 Z0.08000 ( retract )

G00 X3.72389 Y-3.46486 ( rapid move to begin. )
G01 F180.00000
( Mill infeed pass 1/1 )
G01 Z-0.04000
G04 P0 ( dwell for no time -- G64 should not smooth over this point )
G01 F360.00000
G01 X3.72389 Y-3.46486
G01 X3.72983 Y-3.46486
G01 X3.73434 Y-3.46335
G01 X3.73726 Y-3.46043
G01 X3.73878 Y-3.45741
G01 X3.74049 Y-3.45057
G01 X3.74049 Y-3.44568
G01 X3.73878 Y-3.43884
G01 X3.73726 Y-3.43581
G01 X3.73434 Y-3.43289
G01 X3.72984 Y-3.43139
G01 X3.72389 Y-3.43139
G01 X3.72389 Y-3.46486
G01 X3.71799 Y-3.46781
G01 X3.71799 Y-3.42844
G01 X3.71826 Y-3.42721
G01 X3.71901 Y-3.42621
G01 X3.71971 Y-3.42575
G01 X3.72052 Y-3.42552
G01 X3.73031 Y-3.42549
G01 X3.73125 Y-3.42564
G01 X3.73729 Y-3.42769
G01 X3.73803 Y-3.42823
G01 X3.74178 Y-3.43198
G01 X3.74233 Y-3.43274
G01 X3.74433 Y-3.43679
G01 X3.74630 Y-3.44460
G01 X3.74637 Y-3.45130
G01 X3.74433 Y-3.45946
G01 X3.74208 Y-3.46391
G01 X3.73803 Y-3.46802
G01 X3.73729 Y-3.46856
G01 X3.73079 Y-3.47072
G01 X3.72094 Y-3.47076
G01 X3.71971 Y-3.47050
G01 X3.71901 Y-3.47004
G01 X3.71846 Y-3.46941
G01 X3.71811 Y-3.46864
G01 X3.71799 Y-3.46781
G04 P0 ( dwell for no time -- G64 should not smooth over this point )
G00 Z0.08000 ( retract )

G00 X3.65383 Y-3.29884 ( rapid move to begin. )
G01 F180.00000
( Mill infeed pass 1/1 )
G01 Z-0.04000
G04 P0 ( dwell for no time -- G64 should not smooth over this point )
G01 F360.00000
G01 X3.65383 Y-3.29884
G01 X3.65400 Y-3.29418
G01 X3.65443 Y-3.28916
G01 X3.65507 Y-3.28455
G01 X3.65593 Y-3.27998
G01 X3.65701 Y-3.27545
G01 X3.65842 Y-3.27061
G01 X3.65995 Y-3.26621
G01 X3.66169 Y-3.26190
G01 X3.66364 Y-3.25767
G01 X3.66578 Y-3.25354
G01 X3.66813 Y-3.24953
G01 X3.67067 Y-3.24562
G01 X3.67339 Y-3.24185
G01 X3.67630 Y-3.23821
G01 X3.67937 Y-3.23472
G01 X3.68289 Y-3.23110
G01 X3.68630 Y-3.22794
G01 X3.68986 Y-3.22494
G01 X3.69356 Y-3.22212
G01 X3.69739 Y-3.21948
G01 X3.70135 Y-3.21703
G01 X3.70542 Y-3.21477
G01 X3.70960 Y-3.21272
G01 X3.71423 Y-3.21072
G01 X3.71859 Y-3.20910
G01 X3.72302 Y-3.20768
G01 X3.72752 Y-3.20648
G01 X3.73245 Y-3.20544
G01 X3.73705 Y-3.20470
G01 X3.74206 Y-3.20415
G01 X3.74670 Y-3.20388
G01 X3.75136 Y-3.20383
G01 X3.75601 Y-3.20401
G01 X3.76064 Y-3.20441
G01 X3.76526 Y-3.20504
G01 X3.76983 Y-3.20589
G01 X3.77436 Y-3.20696
G01 X3.77883 Y-3.20824
G01 X3.78324 Y-3.20975
G01 X3.78792 Y-3.21161
G01 X3.79180 Y-3.21338
G01 X3.79595 Y-3.21550
G01 X3.79998 Y-3.21782
G01 X3.80390 Y-3.22034
G01 X3.80800 Y-3.22327
G01 X3.81164 Y-3.22617
G01 X3.81514 Y-3.22924
G01 X3.81876 Y-3.23275
G01 X3.82193 Y-3.23615
G01 X3.82518 Y-3.24001
G01 X3.82799 Y-3.24372
G01 X3.83062 Y-3.24756
G01 X3.83307 Y-3.25152
G01 X3.83531 Y-3.25559
G01 X3.83736 Y-3.25977
G01 X3.83935 Y-3.26441
G01 X3.84097 Y-3.26877
G01 X3.84237 Y-3.27321
G01 X3.84356 Y-3.27771
G01 X3.84453 Y-3.28226
G01 X3.84547 Y-3.28837
G01 X3.84547 Y-3.31163
G01 X3.84445 Y-3.31812
G01 X3.84299 Y-3.32455
G01 X3.84158 Y-3.32939
G01 X3.84005 Y-3.33379
G01 X3.83831 Y-3.33810
G01 X3.83636 Y-3.34233
G01 X3.83421 Y-3.34646
G01 X3.83187 Y-3.35047
G01 X3.82933 Y-3.35438
G01 X3.82661 Y-3.35815
G01 X3.82370 Y-3.36179
G01 X3.82063 Y-3.36528
G01 X3.81711 Y-3.36889
G01 X3.81370 Y-3.37206
G01 X3.81014 Y-3.37506
G01 X3.80644 Y-3.37788
G01 X3.80260 Y-3.38052
G01 X3.79865 Y-3.38297
G01 X3.79458 Y-3.38522
G01 X3.79040 Y-3.38728
G01 X3.78577 Y-3.38928
G01 X3.78141 Y-3.39090
G01 X3.77698 Y-3.39232
G01 X3.77248 Y-3.39351
G01 X3.76755 Y-3.39456
G01 X3.76295 Y-3.39530
G01 X3.75794 Y-3.39585
G01 X3.75330 Y-3.39612
G01 X3.74864 Y-3.39617
G01 X3.74399 Y-3.39599
G01 X3.73935 Y-3.39559
G01 X3.73474 Y-3.39496
G01 X3.73017 Y-3.39411
G01 X3.72564 Y-3.39304
G01 X3.72117 Y-3.39175
G01 X3.71676 Y-3.39025
G01 X3.71208 Y-3.38838
G01 X3.70819 Y-3.38662
G01 X3.70405 Y-3.38449
G01 X3.70002 Y-3.38217
G01 X3.69610 Y-3.37966
G01 X3.69200 Y-3.37672
G01 X3.68836 Y-3.37383
G01 X3.68486 Y-3.37076
G01 X3.68124 Y-3.36725
G01 X3.67807 Y-3.36384
G01 X3.67482 Y-3.35999
G01 X3.67201 Y-3.35628
G01 X3.66938 Y-3.35244
G01 X3.66693 Y-3.34848
G01 X3.66469 Y-3.34441
G01 X3.66264 Y-3.34023
G01 X3.66065 Y-3.33559
G01 X3.65903 Y-3.33123
G01 X3.65763 Y-3.32679
G01 X3.65644 Y-3.32229
G01 X3.65547 Y-3.31774
G01 X3.65472 Y-3.31315
G01 X3.65416 Y-3.30813
G01 X3.65388 Y-3.30349
G01 X3.65383 Y-3.29884
G04 P0 ( dwell for no time -- G64 should not smooth over this point )
G00 Z0.08000 ( retract )

G00 X3.63817 Y-3.30017 ( rapid move to begin. )
G01 F180.00000
( Mill infeed pass 1/1 )
G01 Z-0.04000
G04 P0 ( dwell for no time -- G64 should not smooth over this point )
G01 F360.00000
G01 X3.63817 Y-3.30017
G01 X3.63831 Y-3.30562
G01 X3.63868 Y-3.31067
G01 X3.63933 Y-3.31609
G01 X3.64010 Y-3.32070
G01 X3.64115 Y-3.32566
G01 X3.64253 Y-3.33094
G01 X3.64405 Y-3.33577
G01 X3.64577 Y-3.34053
G01 X3.64787 Y-3.34557
G01 X3.65004 Y-3.35014
G01 X3.65261 Y-3.35496
G01 X3.65520 Y-3.35932
G01 X3.65820 Y-3.36387
G01 X3.66119 Y-3.36796
G01 X3.66436 Y-3.37191
G01 X3.66770 Y-3.37572
G01 X3.67149 Y-3.37964
G01 X3.67518 Y-3.38311
G01 X3.67902 Y-3.38641
G01 X3.68301 Y-3.38954
G01 X3.68713 Y-3.39248
G01 X3.69138 Y-3.39524
G01 X3.69610 Y-3.39798
G01 X3.70059 Y-3.40032
G01 X3.70554 Y-3.40261
G01 X3.71024 Y-3.40452
G01 X3.71501 Y-3.40621
G01 X3.71985 Y-3.40769
G01 X3.72514 Y-3.40903
G01 X3.73011 Y-3.41005
G01 X3.73550 Y-3.41088
G01 X3.74053 Y-3.41143
G01 X3.74559 Y-3.41174
G01 X3.75065 Y-3.41183
G01 X3.75572 Y-3.41168
G01 X3.76077 Y-3.41131
G01 X3.76618 Y-3.41065
G01 X3.77118 Y-3.40980
G01 X3.77613 Y-3.40873
G01 X3.78140 Y-3.40733
G01 X3.78623 Y-3.40580
G01 X3.79098 Y-3.40405
G01 X3.79601 Y-3.40192
G01 X3.80058 Y-3.39974
G01 X3.80538 Y-3.39715
G01 X3.80973 Y-3.39454
G01 X3.81395 Y-3.39174
G01 X3.81803 Y-3.38875
G01 X3.82198 Y-3.38558
G01 X3.82579 Y-3.38223
G01 X3.82943 Y-3.37872
G01 X3.83318 Y-3.37475
G01 X3.83648 Y-3.37091
G01 X3.83960 Y-3.36692
G01 X3.84254 Y-3.36279
G01 X3.84547 Y-3.35823
G01 X3.84547 Y-3.33614
G01 X3.84220 Y-3.34382
G01 X3.83816 Y-3.35147
G01 X3.83349 Y-3.35874
G01 X3.82797 Y-3.36589
G01 X3.82211 Y-3.37225
G01 X3.81574 Y-3.37810
G01 X3.80889 Y-3.38338
G01 X3.80163 Y-3.38807
G01 X3.79401 Y-3.39211
G01 X3.78605 Y-3.39550
G01 X3.77784 Y-3.39821
G01 X3.76943 Y-3.40022
G01 X3.76497 Y-3.40098
G01 X3.76049 Y-3.40154
G01 X3.75186 Y-3.40207
G01 X3.74321 Y-3.40186
G01 X3.73461 Y-3.40092
G01 X3.72774 Y-3.39963
G01 X3.72057 Y-3.39775
G01 X3.71357 Y-3.39536
G01 X3.70711 Y-3.39264
G01 X3.70052 Y-3.38929
G01 X3.69450 Y-3.38568
G01 X3.68845 Y-3.38144
G01 X3.68269 Y-3.37675
G01 X3.67759 Y-3.37196
G01 X3.67257 Y-3.36652
G01 X3.66819 Y-3.36106
G01 X3.66398 Y-3.35496
G01 X3.66022 Y-3.34859
G01 X3.65693 Y-3.34195
G01 X3.65414 Y-3.33510
G01 X3.65196 Y-3.32843
G01 X3.65070 Y-3.32366
G01 X3.64967 Y-3.31884
G01 X3.64893 Y-3.31435
G01 X3.64835 Y-3.30945
G01 X3.64803 Y-3.30493
G01 X3.64791 Y-3.29999
G01 X3.64803 Y-3.29506
G01 X3.64839 Y-3.29012
G01 X3.64899 Y-3.28524
G01 X3.64982 Y-3.28037
G01 X3.65079 Y-3.27593
G01 X3.65207 Y-3.27116
G01 X3.65358 Y-3.26646
G01 X3.65532 Y-3.26184
G01 X3.65727 Y-3.25730
G01 X3.65945 Y-3.25286
G01 X3.66183 Y-3.24855
G01 X3.66442 Y-3.24435
G01 X3.66722 Y-3.24027
G01 X3.67020 Y-3.23634
G01 X3.67338 Y-3.23254
G01 X3.67673 Y-3.22892
G01 X3.67996 Y-3.22573
G01 X3.68363 Y-3.22244
G01 X3.68746 Y-3.21931
G01 X3.69143 Y-3.21639
G01 X3.69521 Y-3.21387
G01 X3.69944 Y-3.21131
G01 X3.70379 Y-3.20897
G01 X3.70824 Y-3.20684
G01 X3.71279 Y-3.20494
G01 X3.71745 Y-3.20324
G01 X3.72216 Y-3.20179
G01 X3.72695 Y-3.20055
G01 X3.73177 Y-3.19956
G01 X3.73665 Y-3.19879
G01 X3.74156 Y-3.19826
G01 X3.74649 Y-3.19798
G01 X3.75103 Y-3.19792
G01 X3.75596 Y-3.19809
G01 X3.76089 Y-3.19850
G01 X3.76579 Y-3.19914
G01 X3.77064 Y-3.20002
G01 X3.77545 Y-3.20114
G01 X3.77983 Y-3.20237
G01 X3.78451 Y-3.20393
G01 X3.78912 Y-3.20571
G01 X3.79363 Y-3.20771
G01 X3.79803 Y-3.20992
G01 X3.80200 Y-3.21215
G01 X3.80618 Y-3.21477
G01 X3.81024 Y-3.21759
G01 X3.81415 Y-3.22059
G01 X3.81792 Y-3.22379
G01 X3.82152 Y-3.22716
G01 X3.82497 Y-3.23071
G01 X3.82823 Y-3.23441
G01 X3.83131 Y-3.23827
G01 X3.83420 Y-3.24228
G01 X3.83689 Y-3.24642
G01 X3.83938 Y-3.25068
G01 X3.84149 Y-3.25471
G01 X3.84373 Y-3.25955
G01 X3.84547 Y-3.26386
G01 X3.84547 Y-3.24173
G01 X3.84101 Y-3.23501
G01 X3.83676 Y-3.22944
G01 X3.83243 Y-3.22442
G01 X3.82781 Y-3.21968
G01 X3.82262 Y-3.21495
G01 X3.81746 Y-3.21081
G01 X3.81173 Y-3.20675
G01 X3.80576 Y-3.20307
G01 X3.79958 Y-3.19976
G01 X3.79392 Y-3.19715
G01 X3.78848 Y-3.19500
G01 X3.78332 Y-3.19325
G01 X3.77769 Y-3.19165
G01 X3.77199 Y-3.19035
G01 X3.76624 Y-3.18935
G01 X3.76043 Y-3.18866
G01 X3.75499 Y-3.18828
G01 X3.74915 Y-3.18817
G01 X3.74330 Y-3.18837
G01 X3.73748 Y-3.18887
G01 X3.73169 Y-3.18968
G01 X3.72595 Y-3.19078
G01 X3.72028 Y-3.19219
G01 X3.71469 Y-3.19389
G01 X3.70919 Y-3.19588
G01 X3.70381 Y-3.19815
G01 X3.69855 Y-3.20071
G01 X3.69343 Y-3.20353
G01 X3.68879 Y-3.20641
G01 X3.68399 Y-3.20973
G01 X3.67936 Y-3.21330
G01 X3.67493 Y-3.21711
G01 X3.67070 Y-3.22115
G01 X3.66669 Y-3.22540
G01 X3.66290 Y-3.22985
G01 X3.65936 Y-3.23450
G01 X3.65606 Y-3.23932
G01 X3.65321 Y-3.24398
G01 X3.65042 Y-3.24911
G01 X3.64790 Y-3.25439
G01 X3.64565 Y-3.25978
G01 X3.64394 Y-3.26455
G01 X3.64234 Y-3.26976
G01 X3.64108 Y-3.27467
G01 X3.64004 Y-3.27963
G01 X3.63923 Y-3.28463
G01 X3.63861 Y-3.29005
G01 X3.63828 Y-3.29510
G01 X3.63817 Y-3.30017
G01 X3.63226 Y-3.29976
G01 X3.63239 Y-3.30550
G01 X3.63280 Y-3.31124
G01 X3.63349 Y-3.31693
G01 X3.63445 Y-3.32260
G01 X3.63560 Y-3.32782
G01 X3.63709 Y-3.33336
G01 X3.63885 Y-3.33883
G01 X3.64088 Y-3.34421
G01 X3.64316 Y-3.34947
G01 X3.64570 Y-3.35462
G01 X3.64848 Y-3.35964
G01 X3.65152 Y-3.36453
G01 X3.65478 Y-3.36925
G01 X3.65827 Y-3.37381
G01 X3.66199 Y-3.37820
G01 X3.66589 Y-3.38239
G01 X3.67002 Y-3.38640
G01 X3.67463 Y-3.39045
G01 X3.67914 Y-3.39402
G01 X3.68382 Y-3.39737
G01 X3.68898 Y-3.40069
G01 X3.69397 Y-3.40355
G01 X3.69908 Y-3.40616
G01 X3.70432 Y-3.40851
G01 X3.70968 Y-3.41061
G01 X3.71512 Y-3.41245
G01 X3.72065 Y-3.41402
G01 X3.72662 Y-3.41539
G01 X3.73190 Y-3.41634
G01 X3.73758 Y-3.41708
G01 X3.74331 Y-3.41754
G01 X3.74905 Y-3.41773
G01 X3.75479 Y-3.41764
G01 X3.76053 Y-3.41726
G01 X3.76664 Y-3.41655
G01 X3.77230 Y-3.41560
G01 X3.77830 Y-3.41428
G01 X3.78385 Y-3.41276
G01 X3.78930 Y-3.41098
G01 X3.79467 Y-3.40893
G01 X3.79992 Y-3.40663
G01 X3.80472 Y-3.40425
G01 X3.81008 Y-3.40125
G01 X3.81630 Y-3.39729
G01 X3.82228 Y-3.39293
G01 X3.82826 Y-3.38796
G01 X3.83362 Y-3.38288
G01 X3.83866 Y-3.37746
G01 X3.84358 Y-3.37144
G01 X3.84833 Y-3.36475
G01 X3.85095 Y-3.36058
G01 X3.85127 Y-3.35985
G01 X3.85138 Y-3.35906
G01 X3.85138 Y-3.31198
G01 X3.85192 Y-3.30576
G01 X3.85208 Y-3.29959
G01 X3.85190 Y-3.29382
G01 X3.85138 Y-3.28801
G01 X3.85138 Y-3.24094
G01 X3.85126 Y-3.24011
G01 X3.84791 Y-3.23462
G01 X3.84461 Y-3.22992
G01 X3.84108 Y-3.22539
G01 X3.83733 Y-3.22103
G01 X3.83338 Y-3.21688
G01 X3.82952 Y-3.21317
G01 X3.82519 Y-3.20940
G01 X3.82036 Y-3.20560
G01 X3.81568 Y-3.20229
G01 X3.81082 Y-3.19919
G01 X3.80549 Y-3.19616
G01 X3.80036 Y-3.19358
G01 X3.79510 Y-3.19124
G01 X3.78974 Y-3.18918
G01 X3.78429 Y-3.18737
G01 X3.77875 Y-3.18583
G01 X3.77316 Y-3.18456
G01 X3.76749 Y-3.18357
G01 X3.76181 Y-3.18286
G01 X3.75608 Y-3.18242
G01 X3.75034 Y-3.18226
G01 X3.74458 Y-3.18239
G01 X3.73886 Y-3.18279
G01 X3.73315 Y-3.18348
G01 X3.72749 Y-3.18444
G01 X3.72187 Y-3.18567
G01 X3.71634 Y-3.18718
G01 X3.71050 Y-3.18909
G01 X3.70514 Y-3.19115
G01 X3.69987 Y-3.19347
G01 X3.69474 Y-3.19604
G01 X3.68974 Y-3.19885
G01 X3.68487 Y-3.20192
G01 X3.68017 Y-3.20521
G01 X3.67563 Y-3.20873
G01 X3.67127 Y-3.21246
G01 X3.66738 Y-3.21612
G01 X3.66311 Y-3.22055
G01 X3.65935 Y-3.22487
G01 X3.65578 Y-3.22939
G01 X3.65245 Y-3.23407
G01 X3.64915 Y-3.23925
G01 X3.64630 Y-3.24425
G01 X3.64371 Y-3.24936
G01 X3.64137 Y-3.25461
G01 X3.63928 Y-3.25997
G01 X3.63746 Y-3.26541
G01 X3.63591 Y-3.27093
G01 X3.63463 Y-3.27653
G01 X3.63362 Y-3.28219
G01 X3.63289 Y-3.28789
G01 X3.63244 Y-3.29362
G01 X3.63226 Y-3.29976
G04 P0 ( dwell for no time -- G64 should not smooth over this point )
G00 Z0.08000 ( retract )

G00 X3.44185 Y-3.34133 ( rapid move to begin. )
G01 F180.00000
( Mill infeed pass 1/1 )
G01 Z-0.04000
G04 P0 ( dwell for no time -- G64 should not smooth over this point )
G01 F360.00000
G01 X3.44185 Y-3.34133
G01 X3.44205 Y-3.34054
G01 X3.44251 Y-3.33986
G01 X3.45105 Y-3.33512
G01 X3.45757 Y-3.33086
G01 X3.46432 Y-3.32560
G01 X3.47047 Y-3.31990
G01 X3.47047 Y-3.18010
G01 X3.46432 Y-3.17440
G01 X3.45757 Y-3.16914
G01 X3.45105 Y-3.16488
G01 X3.44251 Y-3.16014
G01 X3.44205 Y-3.15946
G01 X3.44185 Y-3.15867
G01 X3.44208 Y-3.15747
G01 X3.44288 Y-3.15654
G01 X3.44403 Y-3.15614
G01 X3.44523 Y-3.15637
G01 X3.45173 Y-3.15979
G01 X3.45660 Y-3.16277
G01 X3.46163 Y-3.16625
G01 X3.46675 Y-3.17027
G01 X3.47162 Y-3.17462
G01 X3.47481 Y-3.17784
G01 X3.47520 Y-3.17913
G01 X3.47515 Y-3.32132
G01 X3.47452 Y-3.32252
G01 X3.46984 Y-3.32704
G01 X3.46550 Y-3.33076
G01 X3.46097 Y-3.33423
G01 X3.45625 Y-3.33745
G01 X3.45137 Y-3.34041
G01 X3.44523 Y-3.34363
G01 X3.44403 Y-3.34386
G01 X3.44288 Y-3.34346
G01 X3.44208 Y-3.34253
G01 X3.44185 Y-3.34133
G04 P0 ( dwell for no time -- G64 should not smooth over this point )
G00 Z0.08000 ( retract )

G00 X3.29527 Y-3.25000 ( rapid move to begin. )
G01 F180.00000
( Mill infeed pass 1/1 )
G01 Z-0.04000
G04 P0 ( dwell for no time -- G64 should not smooth over this point )
G01 F360.00000
G01 X3.29527 Y-3.25000
G01 X3.29553 Y-3.25735
G01 X3.29636 Y-3.26506
G01 X3.29767 Y-3.27229
G01 X3.29960 Y-3.27978
G01 X3.30194 Y-3.28677
G01 X3.30476 Y-3.29355
G01 X3.30824 Y-3.30047
G01 X3.31201 Y-3.30679
G01 X3.31645 Y-3.31313
G01 X3.32108 Y-3.31884
G01 X3.32639 Y-3.32449
G01 X3.33180 Y-3.32948
G01 X3.33819 Y-3.33454
G01 X3.34461 Y-3.33888
G01 X3.35245 Y-3.34330
G01 X3.35574 Y-3.34491
G01 X3.35694 Y-3.34512
G01 X3.35809 Y-3.34471
G01 X3.35867 Y-3.34413
G01 X3.35902 Y-3.34339
G01 X3.35902 Y-3.34216
G01 X3.35841 Y-3.34110
G01 X3.35774 Y-3.34063
G01 X3.35080 Y-3.33706
G01 X3.34482 Y-3.33340
G01 X3.33911 Y-3.32933
G01 X3.33341 Y-3.32460
G01 X3.32807 Y-3.31947
G01 X3.32288 Y-3.31366
G01 X3.31838 Y-3.30777
G01 X3.31433 Y-3.30158
G01 X3.31092 Y-3.29544
G01 X3.30811 Y-3.28944
G01 X3.30570 Y-3.28327
G01 X3.30360 Y-3.27658
G01 X3.30205 Y-3.27013
G01 X3.30088 Y-3.26321
G01 X3.30022 Y-3.25662
G01 X3.30000 Y-3.25000
G01 X3.30022 Y-3.24338
G01 X3.30088 Y-3.23678
G01 X3.30205 Y-3.22987
G01 X3.30360 Y-3.22342
G01 X3.30570 Y-3.21673
G01 X3.30811 Y-3.21056
G01 X3.31092 Y-3.20456
G01 X3.31433 Y-3.19842
G01 X3.31838 Y-3.19223
G01 X3.32288 Y-3.18634
G01 X3.32807 Y-3.18053
G01 X3.33341 Y-3.17539
G01 X3.33911 Y-3.17067
G01 X3.34482 Y-3.16660
G01 X3.35080 Y-3.16294
G01 X3.35774 Y-3.15937
G01 X3.35841 Y-3.15889
G01 X3.35902 Y-3.15783
G01 X3.35902 Y-3.15661
G01 X3.35867 Y-3.15587
G01 X3.35809 Y-3.15529
G01 X3.35694 Y-3.15487
G01 X3.35574 Y-3.15509
G01 X3.35245 Y-3.15669
G01 X3.34461 Y-3.16112
G01 X3.33819 Y-3.16546
G01 X3.33180 Y-3.17052
G01 X3.32639 Y-3.17551
G01 X3.32108 Y-3.18115
G01 X3.31645 Y-3.18686
G01 X3.31201 Y-3.19321
G01 X3.30824 Y-3.19953
G01 X3.30476 Y-3.20645
G01 X3.30194 Y-3.21323
G01 X3.29960 Y-3.22021
G01 X3.29767 Y-3.22771
G01 X3.29636 Y-3.23494
G01 X3.29553 Y-3.24265
G01 X3.29527 Y-3.25000
G04 P0 ( dwell for no time -- G64 should not smooth over this point )
G00 Z0.08000 ( retract )

G00 X3.28229 Y-3.25665 ( rapid move to begin. )
G01 F180.00000
( Mill infeed pass 1/1 )
G01 Z-0.04000
G04 P0 ( dwell for no time -- G64 should not smooth over this point )
G01 F360.00000
G01 X3.28229 Y-3.25665
G01 X3.28215 Y-3.25675
G01 X3.28109 Y-3.25543
G01 X3.27855 Y-3.25290
G01 X3.27710 Y-3.25575
G01 X3.27578 Y-3.25707
G01 X3.27381 Y-3.25515
G01 X3.27312 Y-3.25476
G01 X3.26489 Y-3.25269
G01 X3.25104 Y-3.25269
G01 X3.24245 Y-3.25493
G01 X3.23776 Y-3.25952
G01 X3.23564 Y-3.26368
G01 X3.23536 Y-3.26454
G01 X3.23536 Y-3.27295
G01 X3.23564 Y-3.27382
G01 X3.23776 Y-3.27797
G01 X3.24245 Y-3.28256
G01 X3.25104 Y-3.28480
G01 X3.26489 Y-3.28480
G01 X3.27348 Y-3.28256
G01 X3.27817 Y-3.27797
G01 X3.28046 Y-3.27339
G01 X3.28060 Y-3.27250
G01 X3.28057 Y-3.26454
G01 X3.27937 Y-3.26183
G01 X3.28192 Y-3.25922
G01 X3.28404 Y-3.25507
G01 X3.28431 Y-3.25427
G01 X3.28434 Y-3.25343
G01 X3.28394 Y-3.25224
G01 X3.28308 Y-3.25132
G01 X3.28192 Y-3.25084
G01 X3.28109 Y-3.25081
G01 X3.27989 Y-3.25121
G01 X3.27897 Y-3.25207
G01 X3.27855 Y-3.25290
G01 X3.28109 Y-3.25543
G01 X3.28215 Y-3.25675
G01 X3.28266 Y-3.25777
G01 X3.26536 Y-3.27479
G01 X3.26532 Y-3.27062
G01 X3.26546 Y-3.26972
G01 X3.26776 Y-3.26514
G01 X3.26795 Y-3.26496
G01 X3.26878 Y-3.26679
G01 X3.26977 Y-3.26802
G01 X3.26977 Y-3.27060
G01 X3.26930 Y-3.27154
G01 X3.26798 Y-3.27285
G01 X3.26535 Y-3.27352
G01 X3.26536 Y-3.27479
G01 X3.26559 Y-3.27560
G01 X3.26605 Y-3.27630
G01 X3.26705 Y-3.27706
G01 X3.26828 Y-3.27732
G01 X3.26950 Y-3.27706
G01 X3.27051 Y-3.27630
G01 X3.27096 Y-3.27560
G01 X3.27120 Y-3.27479
G01 X3.27123 Y-3.27132
G01 X3.27258 Y-3.26862
G01 X3.27470 Y-3.26650
G01 X3.27470 Y-3.27180
G01 X3.27335 Y-3.27450
G01 X3.27052 Y-3.27733
G01 X3.26417 Y-3.27892
G01 X3.25177 Y-3.27892
G01 X3.24542 Y-3.27733
G01 X3.24258 Y-3.27450
G01 X3.24123 Y-3.27180
G01 X3.24123 Y-3.26570
G01 X3.24258 Y-3.26300
G01 X3.24542 Y-3.26017
G01 X3.25177 Y-3.25858
G01 X3.26417 Y-3.25858
G01 X3.27052 Y-3.26017
G01 X3.27160 Y-3.26125
G01 X3.26795 Y-3.26496
G01 X3.26803 Y-3.26528
G01 X3.26770 Y-3.26525
G04 P0 ( dwell for no time -- G64 should not smooth over this point )
G00 Z0.08000 ( retract )

G00 X3.23536 Y-3.22893 ( rapid move to begin. )
G01 F180.00000
( Mill infeed pass 1/1 )
G01 Z-0.04000
G04 P0 ( dwell for no time -- G64 should not smooth over this point )
G01 F360.00000
G01 X3.23536 Y-3.22893
G01 X3.23544 Y-3.23017
G01 X3.23577 Y-3.23094
G01 X3.23631 Y-3.23158
G01 X3.24202 Y-3.23542
G01 X3.24523 Y-3.23862
G01 X3.24737 Y-3.24264
G01 X3.24802 Y-3.24316
G01 X3.24921 Y-3.24356
G01 X3.25046 Y-3.24343
G01 X3.25154 Y-3.24279
G01 X3.25207 Y-3.24213
G01 X3.25239 Y-3.24136
G01 X3.25244 Y-3.24010
G01 X3.25217 Y-3.23930
G01 X3.25005 Y-3.23515
G01 X3.24729 Y-3.23233
G01 X3.27470 Y-3.23233
G01 X3.27470 Y-3.24063
G01 X3.27482 Y-3.24146
G01 X3.27517 Y-3.24222
G01 X3.27605 Y-3.24311
G01 X3.27723 Y-3.24355
G01 X3.27848 Y-3.24346
G01 X3.27925 Y-3.24311
G01 X3.28014 Y-3.24222
G01 X3.28049 Y-3.24146
G01 X3.28060 Y-3.24063
G01 X3.28060 Y-3.21813
G01 X3.28049 Y-3.21730
G01 X3.27988 Y-3.21619
G01 X3.27925 Y-3.21564
G01 X3.27848 Y-3.21529
G01 X3.27723 Y-3.21521
G01 X3.27643 Y-3.21544
G01 X3.27572 Y-3.21590
G01 X3.27497 Y-3.21690
G01 X3.27470 Y-3.21813
G01 X3.27470 Y-3.22642
G01 X3.23786 Y-3.22645
G01 X3.23669 Y-3.22689
G01 X3.23581 Y-3.22776
G01 X3.23536 Y-3.22893
G04 P0 ( dwell for no time -- G64 should not smooth over this point )
G00 Z0.08000 ( retract )

G00 X3.10295 Y-3.49705 ( rapid move to begin. )
G01 F180.00000
( Mill infeed pass 1/1 )
G01 Z-0.04000
G04 P0 ( dwell for no time -- G64 should not smooth over this point )
G01 F360.00000
G01 X3.10295 Y-3.49705
G01 X4.69705 Y-3.49705
G01 X4.69705 Y-2.50122
G01 X4.64878 Y-2.45295
G01 X3.10295 Y-2.45295
G01 X3.10295 Y-3.49705
G01 X3.09705 Y-3.50000
G01 X3.09705 Y-2.45000
G01 X3.09717 Y-2.44917
G01 X3.09752 Y-2.44840
G01 X3.09840 Y-2.44752
G01 X3.09917 Y-2.44717
G01 X3.10000 Y-2.44705
G01 X4.65000 Y-2.44705
G01 X4.65113 Y-2.44727
G01 X4.65209 Y-2.44791
G01 X4.70256 Y-2.49852
G01 X4.70285 Y-2.49924
G01 X4.70295 Y-2.50000
G01 X4.70295 Y-3.50000
G01 X4.70283 Y-3.50083
G01 X4.70248 Y-3.50160
G01 X4.70160 Y-3.50248
G01 X4.70083 Y-3.50283
G01 X4.70000 Y-3.50295
G01 X3.10000 Y-3.50295
G01 X3.09917 Y-3.50283
G01 X3.09840 Y-3.50248
G01 X3.09752 Y-3.50160
G01 X3.09717 Y-3.50083
G01 X3.09705 Y-3.50000

G04 P0 ( dwell for no time -- G64 should not smooth over this point )
G00 Z1.000000 ( retract )

M5 ( Spindle off. )
G04 P1.000000
M9 ( Coolant off. )
M2 ( Program end. )

