( pcb2gcode 3.0.2 )
( Software-independent Gcode )

G94 ( Inches per minute feed rate. )
G20 ( Units == INCHES. )

G90 ( Absolute coordinates. )
G00 S12000 ( RPM spindle speed. )
G64 P0.00040 ( set maximum deviation from commanded toolpath )
G01 F360.00000 ( Feedrate. )


G00 Z1.00000 (Retract to tool change height)
T2
M5      (Spindle stop.)
G04 P1.00000 (Wait for spindle to stop)
(MSG, Change tool bit to mill diameter 0.00472in)
M6      (Tool change.)
M0      (Temporary machine stop.)
M3 ( Spindle on clockwise. )
G04 P1.00000 (Wait for spindle to get up to speed)
G04 P0 ( dwell for no time -- G64 should not smooth over this point )
G00 Z0.08000 ( retract )

G00 X3.35674 Y-3.15723 ( rapid move to begin. )
G01 F180.00000
( Mill infeed pass 1/1 )
G01 Z-0.04000
G04 P0 ( dwell for no time -- G64 should not smooth over this point )
G01 F360.00000
G01 X3.35674 Y-3.15723
G01 X3.34234 Y-3.16542
G01 X3.32945 Y-3.17584
G01 X3.31840 Y-3.18819
G01 X3.30950 Y-3.20217
G01 X3.30297 Y-3.21740
G01 X3.29898 Y-3.23348
G01 X3.29764 Y-3.25000
G01 X3.29898 Y-3.26652
G01 X3.30297 Y-3.28260
G01 X3.30950 Y-3.29783
G01 X3.31840 Y-3.31181
G01 X3.32945 Y-3.32416
G01 X3.34234 Y-3.33458
G01 X3.35674 Y-3.34277
G04 P0 ( dwell for no time -- G64 should not smooth over this point )
G00 Z0.08000 ( retract )

G00 X3.44420 Y-3.34150 ( rapid move to begin. )
G01 F180.00000
( Mill infeed pass 1/1 )
G01 Z-0.04000
G04 P0 ( dwell for no time -- G64 should not smooth over this point )
G01 F360.00000
G01 X3.44420 Y-3.34150
G01 X3.45942 Y-3.33244
G01 X3.47283 Y-3.32087
G01 X3.47283 Y-3.17913
G01 X3.45942 Y-3.16756
G01 X3.44420 Y-3.15850
G04 P0 ( dwell for no time -- G64 should not smooth over this point )
G00 Z0.08000 ( retract )

G00 X3.84764 Y-2.75236 ( rapid move to begin. )
G01 F180.00000
( Mill infeed pass 1/1 )
G01 Z-0.04000
G04 P0 ( dwell for no time -- G64 should not smooth over this point )
G01 F360.00000
G01 X3.84764 Y-2.75236
G01 X3.84764 Y-2.65000
G01 X3.95236 Y-2.65000
G01 X3.95236 Y-2.75236
G01 X3.84764 Y-2.75236
G04 P0 ( dwell for no time -- G64 should not smooth over this point )
G00 Z0.08000 ( retract )

G00 X3.90000 Y-2.54764 ( rapid move to begin. )
G01 F180.00000
( Mill infeed pass 1/1 )
G01 Z-0.04000
G04 P0 ( dwell for no time -- G64 should not smooth over this point )
G01 F360.00000
G01 X3.90000 Y-2.54764
G01 X3.84764 Y-2.54764
G01 X3.84764 Y-2.60000
G04 P0 ( dwell for no time -- G64 should not smooth over this point )
G00 Z0.08000 ( retract )

G00 X4.35674 Y-3.15723 ( rapid move to begin. )
G01 F180.00000
( Mill infeed pass 1/1 )
G01 Z-0.04000
G04 P0 ( dwell for no time -- G64 should not smooth over this point )
G01 F360.00000
G01 X4.35674 Y-3.15723
G01 X4.34234 Y-3.16542
G01 X4.32945 Y-3.17584
G01 X4.31840 Y-3.18819
G01 X4.30950 Y-3.20217
G01 X4.30297 Y-3.21740
G01 X4.29898 Y-3.23348
G01 X4.29764 Y-3.25000
G01 X4.29898 Y-3.26652
G01 X4.30297 Y-3.28260
G01 X4.30950 Y-3.29783
G01 X4.31840 Y-3.31181
G01 X4.32945 Y-3.32416
G01 X4.34234 Y-3.33458
G01 X4.35674 Y-3.34277
G04 P0 ( dwell for no time -- G64 should not smooth over this point )
G00 Z0.08000 ( retract )

G00 X4.44420 Y-3.34150 ( rapid move to begin. )
G01 F180.00000
( Mill infeed pass 1/1 )
G01 Z-0.04000
G04 P0 ( dwell for no time -- G64 should not smooth over this point )
G01 F360.00000
G01 X4.44420 Y-3.34150
G01 X4.45942 Y-3.33244
G01 X4.47283 Y-3.32087
G01 X4.47283 Y-3.17913
G01 X4.45942 Y-3.16756
G01 X4.44420 Y-3.15850

G00 Z1.00000 (Retract to tool change height)
T3
M5      (Spindle stop.)
G04 P1.00000 (Wait for spindle to stop)
(MSG, Change tool bit to mill diameter 0.00591in)
M6      (Tool change.)
M0      (Temporary machine stop.)
M3 ( Spindle on clockwise. )
G04 P1.00000 (Wait for spindle to get up to speed)
G04 P0 ( dwell for no time -- G64 should not smooth over this point )
G00 Z0.08000 ( retract )

G00 X3.25000 Y-2.60000 ( rapid move to begin. )
G01 F180.00000
( Mill infeed pass 1/1 )
G01 Z-0.04000
G04 P0 ( dwell for no time -- G64 should not smooth over this point )
G01 F360.00000
G01 X3.25000 Y-2.60000
G01 X3.25000 Y-2.65000
G01 X3.30000 Y-2.65000
G01 X3.30000 Y-2.85000
G01 X3.25000 Y-2.85000
G01 X3.25000 Y-2.90000
G01 X3.25000 Y-2.85000
G01 X3.20000 Y-2.85000
G01 X3.20000 Y-2.65000
G01 X3.25000 Y-2.65000
G04 P0 ( dwell for no time -- G64 should not smooth over this point )
G00 Z0.08000 ( retract )

G00 X3.33969 Y-2.74156 ( rapid move to begin. )
G01 F180.00000
( Mill infeed pass 1/1 )
G01 Z-0.04000
G04 P0 ( dwell for no time -- G64 should not smooth over this point )
G01 F360.00000
G01 X3.33969 Y-2.74156
G01 X3.33781 Y-2.73781
G01 X3.33406 Y-2.73406
G01 X3.32844 Y-2.73031
G01 X3.36781 Y-2.73031
G01 X3.36781 Y-2.71907
G01 X3.36781 Y-2.74156
G04 P0 ( dwell for no time -- G64 should not smooth over this point )
G00 Z0.08000 ( retract )

G00 X3.36781 Y-2.75656 ( rapid move to begin. )
G01 F180.00000
( Mill infeed pass 1/1 )
G01 Z-0.04000
G04 P0 ( dwell for no time -- G64 should not smooth over this point )
G01 F360.00000
G01 X3.36781 Y-2.75656
G01 X3.34906 Y-2.76968
G01 X3.34906 Y-2.77906
G01 X3.32844 Y-2.77906
G01 X3.32844 Y-2.76406
G01 X3.33031 Y-2.76031
G01 X3.33219 Y-2.75844
G01 X3.33594 Y-2.75656
G01 X3.34156 Y-2.75656
G01 X3.34531 Y-2.75844
G01 X3.34719 Y-2.76031
G01 X3.34906 Y-2.76406
G01 X3.34906 Y-2.77906
G01 X3.36781 Y-2.77906
G04 P0 ( dwell for no time -- G64 should not smooth over this point )
G00 Z0.08000 ( retract )

G00 X3.44344 Y-2.81406 ( rapid move to begin. )
G01 F180.00000
( Mill infeed pass 1/1 )
G01 Z-0.04000
G04 P0 ( dwell for no time -- G64 should not smooth over this point )
G01 F360.00000
G01 X3.44344 Y-2.81406
G01 X3.44156 Y-2.81594
G01 X3.43594 Y-2.81781
G01 X3.43219 Y-2.81781
G01 X3.42657 Y-2.81594
G01 X3.42281 Y-2.81218
G01 X3.42094 Y-2.80844
G01 X3.41907 Y-2.80094
G01 X3.41907 Y-2.79531
G01 X3.42094 Y-2.78781
G01 X3.42281 Y-2.78406
G01 X3.42657 Y-2.78031
G01 X3.43219 Y-2.77844
G01 X3.43594 Y-2.77844
G01 X3.44156 Y-2.78031
G01 X3.44344 Y-2.78219
G04 P0 ( dwell for no time -- G64 should not smooth over this point )
G00 Z0.08000 ( retract )

G00 X3.45844 Y-2.78969 ( rapid move to begin. )
G01 F180.00000
( Mill infeed pass 1/1 )
G01 Z-0.04000
G04 P0 ( dwell for no time -- G64 should not smooth over this point )
G01 F360.00000
G01 X3.45844 Y-2.78969
G01 X3.46218 Y-2.78781
G01 X3.46593 Y-2.78406
G01 X3.46969 Y-2.77844
G01 X3.46969 Y-2.81781
G01 X3.48093 Y-2.81781
G01 X3.45844 Y-2.81781
G04 P0 ( dwell for no time -- G64 should not smooth over this point )
G00 Z0.08000 ( retract )

G00 X3.34931 Y-2.95000 ( rapid move to begin. )
G01 F180.00000
( Mill infeed pass 1/1 )
G01 Z-0.04000
G04 P0 ( dwell for no time -- G64 should not smooth over this point )
G01 F360.00000
G01 X3.34931 Y-2.95000
G01 X3.35083 Y-2.93265
G01 X3.35534 Y-2.91583
G01 X3.36269 Y-2.90005
G01 X3.37268 Y-2.88578
G01 X3.38500 Y-2.87347
G01 X3.39926 Y-2.86348
G01 X3.41504 Y-2.85612
G01 X3.43186 Y-2.85162
G01 X3.44921 Y-2.85010
G01 X3.46656 Y-2.85162
G01 X3.48338 Y-2.85612
G01 X3.49916 Y-2.86348
G01 X3.51343 Y-2.87347
G01 X3.52574 Y-2.88578
G01 X3.53573 Y-2.90005
G01 X3.54309 Y-2.91583
G01 X3.54760 Y-2.93265
G01 X3.54911 Y-2.95000
G01 X3.54760 Y-2.96735
G01 X3.54309 Y-2.98417
G01 X3.53573 Y-2.99995
G01 X3.52574 Y-3.01422
G01 X3.51343 Y-3.02653
G01 X3.49916 Y-3.03652
G01 X3.48338 Y-3.04388
G01 X3.46656 Y-3.04838
G01 X3.44921 Y-3.04990
G01 X3.43186 Y-3.04838
G01 X3.41504 Y-3.04388
G01 X3.39926 Y-3.03652
G01 X3.38500 Y-3.02653
G01 X3.37268 Y-3.01422
G01 X3.36269 Y-2.99995
G01 X3.35534 Y-2.98417
G01 X3.35083 Y-2.96735
G01 X3.34931 Y-2.95000
G04 P0 ( dwell for no time -- G64 should not smooth over this point )
G00 Z0.08000 ( retract )

G00 X3.45216 Y-3.04839 ( rapid move to begin. )
G01 F180.00000
( Mill infeed pass 1/1 )
G01 Z-0.04000
G04 P0 ( dwell for no time -- G64 should not smooth over this point )
G01 F360.00000
G01 X3.45216 Y-3.04839
G01 X3.45216 Y-2.85161
G04 P0 ( dwell for no time -- G64 should not smooth over this point )
G00 Z0.08000 ( retract )

G00 X3.46870 Y-2.85350 ( rapid move to begin. )
G01 F180.00000
( Mill infeed pass 1/1 )
G01 Z-0.04000
G04 P0 ( dwell for no time -- G64 should not smooth over this point )
G01 F360.00000
G01 X3.46870 Y-2.85350
G01 X3.46870 Y-2.93071
G04 P0 ( dwell for no time -- G64 should not smooth over this point )
G00 Z0.08000 ( retract )

G00 X3.47421 Y-2.92413 ( rapid move to begin. )
G01 F180.00000
( Mill infeed pass 1/1 )
G01 Z-0.04000
G04 P0 ( dwell for no time -- G64 should not smooth over this point )
G01 F360.00000
G01 X3.47421 Y-2.92413
G01 X3.47421 Y-2.85480
G04 P0 ( dwell for no time -- G64 should not smooth over this point )
G00 Z0.08000 ( retract )

G00 X3.47972 Y-2.85642 ( rapid move to begin. )
G01 F180.00000
( Mill infeed pass 1/1 )
G01 Z-0.04000
G04 P0 ( dwell for no time -- G64 should not smooth over this point )
G01 F360.00000
G01 X3.47972 Y-2.85642
G01 X3.47972 Y-2.91992
G04 P0 ( dwell for no time -- G64 should not smooth over this point )
G00 Z0.08000 ( retract )

G00 X3.48524 Y-2.91712 ( rapid move to begin. )
G01 F180.00000
( Mill infeed pass 1/1 )
G01 Z-0.04000
G04 P0 ( dwell for no time -- G64 should not smooth over this point )
G01 F360.00000
G01 X3.48524 Y-2.91712
G01 X3.48524 Y-2.85839
G04 P0 ( dwell for no time -- G64 should not smooth over this point )
G00 Z0.08000 ( retract )

G00 X3.49075 Y-2.86079 ( rapid move to begin. )
G01 F180.00000
( Mill infeed pass 1/1 )
G01 Z-0.04000
G04 P0 ( dwell for no time -- G64 should not smooth over this point )
G01 F360.00000
G01 X3.49075 Y-2.86079
G01 X3.49075 Y-2.91539
G04 P0 ( dwell for no time -- G64 should not smooth over this point )
G00 Z0.08000 ( retract )

G00 X3.49626 Y-2.91465 ( rapid move to begin. )
G01 F180.00000
( Mill infeed pass 1/1 )
G01 Z-0.04000
G04 P0 ( dwell for no time -- G64 should not smooth over this point )
G01 F360.00000
G01 X3.49626 Y-2.91465
G01 X3.49626 Y-2.86354
G04 P0 ( dwell for no time -- G64 should not smooth over this point )
G00 Z0.08000 ( retract )

G00 X3.50177 Y-2.86677 ( rapid move to begin. )
G01 F180.00000
( Mill infeed pass 1/1 )
G01 Z-0.04000
G04 P0 ( dwell for no time -- G64 should not smooth over this point )
G01 F360.00000
G01 X3.50177 Y-2.86677
G01 X3.50177 Y-2.91472
G04 P0 ( dwell for no time -- G64 should not smooth over this point )
G00 Z0.08000 ( retract )

G00 X3.50728 Y-2.91571 ( rapid move to begin. )
G01 F180.00000
( Mill infeed pass 1/1 )
G01 Z-0.04000
G04 P0 ( dwell for no time -- G64 should not smooth over this point )
G01 F360.00000
G01 X3.50728 Y-2.91571
G01 X3.50728 Y-2.87051
G04 P0 ( dwell for no time -- G64 should not smooth over this point )
G00 Z0.08000 ( retract )

G00 X3.51280 Y-2.87488 ( rapid move to begin. )
G01 F180.00000
( Mill infeed pass 1/1 )
G01 Z-0.04000
G04 P0 ( dwell for no time -- G64 should not smooth over this point )
G01 F360.00000
G01 X3.51280 Y-2.87488
G01 X3.51280 Y-2.91760
G04 P0 ( dwell for no time -- G64 should not smooth over this point )
G00 Z0.08000 ( retract )

G00 X3.51831 Y-2.92067 ( rapid move to begin. )
G01 F180.00000
( Mill infeed pass 1/1 )
G01 Z-0.04000
G04 P0 ( dwell for no time -- G64 should not smooth over this point )
G01 F360.00000
G01 X3.51831 Y-2.92067
G01 X3.51831 Y-2.87992
G04 P0 ( dwell for no time -- G64 should not smooth over this point )
G00 Z0.08000 ( retract )

G00 X3.52382 Y-2.88579 ( rapid move to begin. )
G01 F180.00000
( Mill infeed pass 1/1 )
G01 Z-0.04000
G04 P0 ( dwell for no time -- G64 should not smooth over this point )
G01 F360.00000
G01 X3.52382 Y-2.88579
G01 X3.52382 Y-2.92528
G04 P0 ( dwell for no time -- G64 should not smooth over this point )
G00 Z0.08000 ( retract )

G00 X3.53484 Y-2.90146 ( rapid move to begin. )
G01 F180.00000
( Mill infeed pass 1/1 )
G01 Z-0.04000
G04 P0 ( dwell for no time -- G64 should not smooth over this point )
G01 F360.00000
G01 X3.53484 Y-2.90146
G01 X3.53484 Y-2.99854
G04 P0 ( dwell for no time -- G64 should not smooth over this point )
G00 Z0.08000 ( retract )

G00 X3.52933 Y-3.00717 ( rapid move to begin. )
G01 F180.00000
( Mill infeed pass 1/1 )
G01 Z-0.04000
G04 P0 ( dwell for no time -- G64 should not smooth over this point )
G01 F360.00000
G01 X3.52933 Y-3.00717
G01 X3.52933 Y-2.96732
G04 P0 ( dwell for no time -- G64 should not smooth over this point )
G00 Z0.08000 ( retract )

G00 X3.54587 Y-2.96858 ( rapid move to begin. )
G01 F180.00000
( Mill infeed pass 1/1 )
G01 Z-0.04000
G04 P0 ( dwell for no time -- G64 should not smooth over this point )
G01 F360.00000
G01 X3.54587 Y-2.96858
G01 X3.54587 Y-2.93142
G04 P0 ( dwell for no time -- G64 should not smooth over this point )
G00 Z0.08000 ( retract )

G00 X3.52933 Y-2.93268 ( rapid move to begin. )
G01 F180.00000
( Mill infeed pass 1/1 )
G01 Z-0.04000
G04 P0 ( dwell for no time -- G64 should not smooth over this point )
G01 F360.00000
G01 X3.52933 Y-2.93268
G01 X3.52933 Y-2.89283
G04 P0 ( dwell for no time -- G64 should not smooth over this point )
G00 Z0.08000 ( retract )

G00 X3.54035 Y-2.91283 ( rapid move to begin. )
G01 F180.00000
( Mill infeed pass 1/1 )
G01 Z-0.04000
G04 P0 ( dwell for no time -- G64 should not smooth over this point )
G01 F360.00000
G01 X3.54035 Y-2.91283
G01 X3.54035 Y-2.98717
G04 P0 ( dwell for no time -- G64 should not smooth over this point )
G00 Z0.08000 ( retract )

G00 X3.52382 Y-2.97472 ( rapid move to begin. )
G01 F180.00000
( Mill infeed pass 1/1 )
G01 Z-0.04000
G04 P0 ( dwell for no time -- G64 should not smooth over this point )
G01 F360.00000
G01 X3.52382 Y-2.97472
G01 X3.52382 Y-3.01421
G04 P0 ( dwell for no time -- G64 should not smooth over this point )
G00 Z0.08000 ( retract )

G00 X3.51831 Y-3.02008 ( rapid move to begin. )
G01 F180.00000
( Mill infeed pass 1/1 )
G01 Z-0.04000
G04 P0 ( dwell for no time -- G64 should not smooth over this point )
G01 F360.00000
G01 X3.51831 Y-3.02008
G01 X3.51831 Y-2.97933
G04 P0 ( dwell for no time -- G64 should not smooth over this point )
G00 Z0.08000 ( retract )

G00 X3.51280 Y-2.98240 ( rapid move to begin. )
G01 F180.00000
( Mill infeed pass 1/1 )
G01 Z-0.04000
G04 P0 ( dwell for no time -- G64 should not smooth over this point )
G01 F360.00000
G01 X3.51280 Y-2.98240
G01 X3.51280 Y-3.02512
G04 P0 ( dwell for no time -- G64 should not smooth over this point )
G00 Z0.08000 ( retract )

G00 X3.50728 Y-3.02949 ( rapid move to begin. )
G01 F180.00000
( Mill infeed pass 1/1 )
G01 Z-0.04000
G04 P0 ( dwell for no time -- G64 should not smooth over this point )
G01 F360.00000
G01 X3.50728 Y-3.02949
G01 X3.50728 Y-2.98429
G04 P0 ( dwell for no time -- G64 should not smooth over this point )
G00 Z0.08000 ( retract )

G00 X3.50177 Y-2.98528 ( rapid move to begin. )
G01 F180.00000
( Mill infeed pass 1/1 )
G01 Z-0.04000
G04 P0 ( dwell for no time -- G64 should not smooth over this point )
G01 F360.00000
G01 X3.50177 Y-2.98528
G01 X3.50177 Y-3.03323
G04 P0 ( dwell for no time -- G64 should not smooth over this point )
G00 Z0.08000 ( retract )

G00 X3.49626 Y-3.03646 ( rapid move to begin. )
G01 F180.00000
( Mill infeed pass 1/1 )
G01 Z-0.04000
G04 P0 ( dwell for no time -- G64 should not smooth over this point )
G01 F360.00000
G01 X3.49626 Y-3.03646
G01 X3.49626 Y-2.98535
G04 P0 ( dwell for no time -- G64 should not smooth over this point )
G00 Z0.08000 ( retract )

G00 X3.49075 Y-2.98461 ( rapid move to begin. )
G01 F180.00000
( Mill infeed pass 1/1 )
G01 Z-0.04000
G04 P0 ( dwell for no time -- G64 should not smooth over this point )
G01 F360.00000
G01 X3.49075 Y-2.98461
G01 X3.49075 Y-3.03921
G04 P0 ( dwell for no time -- G64 should not smooth over this point )
G00 Z0.08000 ( retract )

G00 X3.48524 Y-3.04161 ( rapid move to begin. )
G01 F180.00000
( Mill infeed pass 1/1 )
G01 Z-0.04000
G04 P0 ( dwell for no time -- G64 should not smooth over this point )
G01 F360.00000
G01 X3.48524 Y-3.04161
G01 X3.48524 Y-2.98287
G04 P0 ( dwell for no time -- G64 should not smooth over this point )
G00 Z0.08000 ( retract )

G00 X3.47972 Y-2.98008 ( rapid move to begin. )
G01 F180.00000
( Mill infeed pass 1/1 )
G01 Z-0.04000
G04 P0 ( dwell for no time -- G64 should not smooth over this point )
G01 F360.00000
G01 X3.47972 Y-2.98008
G01 X3.47972 Y-3.04358
G04 P0 ( dwell for no time -- G64 should not smooth over this point )
G00 Z0.08000 ( retract )

G00 X3.47421 Y-3.04520 ( rapid move to begin. )
G01 F180.00000
( Mill infeed pass 1/1 )
G01 Z-0.04000
G04 P0 ( dwell for no time -- G64 should not smooth over this point )
G01 F360.00000
G01 X3.47421 Y-3.04520
G01 X3.47421 Y-2.97587
G04 P0 ( dwell for no time -- G64 should not smooth over this point )
G00 Z0.08000 ( retract )

G00 X3.46319 Y-2.94626 ( rapid move to begin. )
G01 F180.00000
( Mill infeed pass 1/1 )
G01 Z-0.04000
G04 P0 ( dwell for no time -- G64 should not smooth over this point )
G01 F360.00000
G01 X3.46319 Y-2.94626
G01 X3.46319 Y-2.85256
G04 P0 ( dwell for no time -- G64 should not smooth over this point )
G00 Z0.08000 ( retract )

G00 X3.45768 Y-2.85193 ( rapid move to begin. )
G01 F180.00000
( Mill infeed pass 1/1 )
G01 Z-0.04000
G04 P0 ( dwell for no time -- G64 should not smooth over this point )
G01 F360.00000
G01 X3.45768 Y-2.85193
G01 X3.45768 Y-3.04807
G04 P0 ( dwell for no time -- G64 should not smooth over this point )
G00 Z0.08000 ( retract )

G00 X3.46319 Y-3.04744 ( rapid move to begin. )
G01 F180.00000
( Mill infeed pass 1/1 )
G01 Z-0.04000
G04 P0 ( dwell for no time -- G64 should not smooth over this point )
G01 F360.00000
G01 X3.46319 Y-3.04744
G01 X3.46319 Y-2.95374
G04 P0 ( dwell for no time -- G64 should not smooth over this point )
G00 Z0.08000 ( retract )

G00 X3.46339 Y-2.95528 ( rapid move to begin. )
G01 F180.00000
( Mill infeed pass 1/1 )
G01 Z-0.04000
G04 P0 ( dwell for no time -- G64 should not smooth over this point )
G01 F360.00000
G01 X3.46339 Y-2.95528
G01 X3.46650 Y-2.96537
G01 X3.47245 Y-2.97410
G01 X3.48071 Y-2.98068
G01 X3.49054 Y-2.98454
G01 X3.50107 Y-2.98533
G01 X3.51137 Y-2.98298
G01 X3.52052 Y-2.97770
G01 X3.52770 Y-2.96996
G01 X3.53228 Y-2.96044
G01 X3.53386 Y-2.95000
G01 X3.53228 Y-2.93955
G01 X3.52770 Y-2.93004
G01 X3.52052 Y-2.92230
G01 X3.51137 Y-2.91702
G01 X3.50107 Y-2.91467
G01 X3.49054 Y-2.91546
G01 X3.48071 Y-2.91931
G01 X3.47245 Y-2.92590
G01 X3.46650 Y-2.93463
G01 X3.46339 Y-2.94472
G01 X3.46339 Y-2.95528
G04 P0 ( dwell for no time -- G64 should not smooth over this point )
G00 Z0.08000 ( retract )

G00 X3.46870 Y-2.96929 ( rapid move to begin. )
G01 F180.00000
( Mill infeed pass 1/1 )
G01 Z-0.04000
G04 P0 ( dwell for no time -- G64 should not smooth over this point )
G01 F360.00000
G01 X3.46870 Y-2.96929
G01 X3.46870 Y-3.04650
G04 P0 ( dwell for no time -- G64 should not smooth over this point )
G00 Z0.08000 ( retract )

G00 X3.27765 Y-3.24063 ( rapid move to begin. )
G01 F180.00000
( Mill infeed pass 1/1 )
G01 Z-0.04000
G04 P0 ( dwell for no time -- G64 should not smooth over this point )
G01 F360.00000
G01 X3.27765 Y-3.24063
G01 X3.27765 Y-3.21813
G01 X3.27765 Y-3.22938
G01 X3.23828 Y-3.22938
G01 X3.24391 Y-3.23313
G01 X3.24766 Y-3.23688
G01 X3.24953 Y-3.24063
G04 P0 ( dwell for no time -- G64 should not smooth over this point )
G00 Z0.08000 ( retract )

G00 X3.28140 Y-3.25375 ( rapid move to begin. )
G01 F180.00000
( Mill infeed pass 1/1 )
G01 Z-0.04000
G04 P0 ( dwell for no time -- G64 should not smooth over this point )
G01 F360.00000
G01 X3.28140 Y-3.25375
G01 X3.27953 Y-3.25750
G01 X3.27578 Y-3.26125
G01 X3.27203 Y-3.25750
G01 X3.26453 Y-3.25562
G01 X3.25141 Y-3.25562
G01 X3.24391 Y-3.25750
G01 X3.24016 Y-3.26125
G01 X3.23828 Y-3.26500
G01 X3.23828 Y-3.27250
G01 X3.24016 Y-3.27625
G01 X3.24391 Y-3.28000
G01 X3.25141 Y-3.28187
G01 X3.26453 Y-3.28187
G01 X3.27203 Y-3.28000
G01 X3.27578 Y-3.27625
G01 X3.27765 Y-3.27250
G01 X3.27765 Y-3.26500
G01 X3.27578 Y-3.26125
G01 X3.27015 Y-3.26687
G01 X3.26828 Y-3.27062
G01 X3.26828 Y-3.27437
G04 P0 ( dwell for no time -- G64 should not smooth over this point )
G00 Z0.08000 ( retract )

G00 X3.10000 Y-3.50000 ( rapid move to begin. )
G01 F180.00000
( Mill infeed pass 1/1 )
G01 Z-0.04000
G04 P0 ( dwell for no time -- G64 should not smooth over this point )
G01 F360.00000
G01 X3.10000 Y-3.50000
G01 X3.10000 Y-2.45000
G01 X4.65000 Y-2.45000
G01 X4.70000 Y-2.50000
G01 X4.70000 Y-3.50000
G01 X3.10000 Y-3.50000
G04 P0 ( dwell for no time -- G64 should not smooth over this point )
G00 Z0.08000 ( retract )

G00 X3.72094 Y-3.46781 ( rapid move to begin. )
G01 F180.00000
( Mill infeed pass 1/1 )
G01 Z-0.04000
G04 P0 ( dwell for no time -- G64 should not smooth over this point )
G01 F360.00000
G01 X3.72094 Y-3.46781
G01 X3.72094 Y-3.42844
G01 X3.73031 Y-3.42844
G01 X3.73594 Y-3.43031
G01 X3.73969 Y-3.43406
G01 X3.74156 Y-3.43781
G01 X3.74344 Y-3.44531
G01 X3.74344 Y-3.45094
G01 X3.74156 Y-3.45844
G01 X3.73969 Y-3.46218
G01 X3.73594 Y-3.46593
G01 X3.73031 Y-3.46781
G01 X3.72094 Y-3.46781
G04 P0 ( dwell for no time -- G64 should not smooth over this point )
G00 Z0.08000 ( retract )

G00 X3.75844 Y-3.46781 ( rapid move to begin. )
G01 F180.00000
( Mill infeed pass 1/1 )
G01 Z-0.04000
G04 P0 ( dwell for no time -- G64 should not smooth over this point )
G01 F360.00000
G01 X3.75844 Y-3.46781
G01 X3.78093 Y-3.46781
G01 X3.76968 Y-3.46781
G01 X3.76968 Y-3.42844
G01 X3.76593 Y-3.43406
G01 X3.76219 Y-3.43781
G01 X3.75844 Y-3.43969
G04 P0 ( dwell for no time -- G64 should not smooth over this point )
G00 Z0.08000 ( retract )

G00 X3.88719 Y-3.24281 ( rapid move to begin. )
G01 F180.00000
( Mill infeed pass 1/1 )
G01 Z-0.04000
G04 P0 ( dwell for no time -- G64 should not smooth over this point )
G01 F360.00000
G01 X3.88719 Y-3.24281
G01 X3.87031 Y-3.22031
G04 P0 ( dwell for no time -- G64 should not smooth over this point )
G00 Z0.08000 ( retract )

G00 X3.88719 Y-3.20344 ( rapid move to begin. )
G01 F180.00000
( Mill infeed pass 1/1 )
G01 Z-0.04000
G04 P0 ( dwell for no time -- G64 should not smooth over this point )
G01 F360.00000
G01 X3.88719 Y-3.20344
G01 X3.86469 Y-3.22594
G01 X3.86469 Y-3.24281
G01 X3.86469 Y-3.20344
G04 P0 ( dwell for no time -- G64 should not smooth over this point )
G00 Z0.08000 ( retract )

G00 X3.84783 Y-3.23996 ( rapid move to begin. )
G01 F180.00000
( Mill infeed pass 1/1 )
G01 Z-0.04000
G04 P0 ( dwell for no time -- G64 should not smooth over this point )
G01 F360.00000
G01 X3.84783 Y-3.23996
G01 X3.83685 Y-3.22495
G01 X3.82358 Y-3.21190
G01 X3.80838 Y-3.20117
G01 X3.79165 Y-3.19304
G01 X3.77382 Y-3.18772
G01 X3.75537 Y-3.18534
G01 X3.73678 Y-3.18598
G01 X3.71853 Y-3.18961
G01 X3.70111 Y-3.19615
G01 X3.68498 Y-3.20541
G01 X3.67055 Y-3.21716
G01 X3.65821 Y-3.23108
G01 X3.64828 Y-3.24681
G01 X3.64103 Y-3.26394
G01 X3.63663 Y-3.28202
G01 X3.63522 Y-3.30057
G01 X3.63682 Y-3.31911
G01 X3.64139 Y-3.33714
G01 X3.64882 Y-3.35420
G01 X3.65890 Y-3.36983
G01 X3.67138 Y-3.38363
G01 X3.68593 Y-3.39523
G01 X3.70215 Y-3.40433
G01 X3.71964 Y-3.41069
G01 X3.73792 Y-3.41414
G01 X3.75652 Y-3.41460
G01 X3.77494 Y-3.41204
G01 X3.79272 Y-3.40654
G01 X3.80937 Y-3.39824
G01 X3.82446 Y-3.38736
G01 X3.83759 Y-3.37418
G01 X3.84843 Y-3.35906
G01 X3.84843 Y-3.30784
G01 X3.84913 Y-3.30000
G01 X3.84754 Y-3.28230
G01 X3.84281 Y-3.26517
G01 X3.83510 Y-3.24916
G01 X3.82465 Y-3.23478
G01 X3.81181 Y-3.22249
G01 X3.79698 Y-3.21271
G01 X3.78063 Y-3.20572
G01 X3.76331 Y-3.20176
G01 X3.74555 Y-3.20097
G01 X3.72794 Y-3.20335
G01 X3.71104 Y-3.20885
G01 X3.69539 Y-3.21727
G01 X3.68149 Y-3.22835
G01 X3.66980 Y-3.24173
G01 X3.66068 Y-3.25699
G01 X3.65444 Y-3.27363
G01 X3.65127 Y-3.29111
G01 X3.65127 Y-3.30889
G01 X3.65444 Y-3.32637
G01 X3.66068 Y-3.34301
G01 X3.66980 Y-3.35827
G01 X3.68149 Y-3.37165
G01 X3.69539 Y-3.38273
G01 X3.71104 Y-3.39115
G01 X3.72794 Y-3.39664
G01 X3.74555 Y-3.39903
G01 X3.76331 Y-3.39823
G01 X3.78063 Y-3.39428
G01 X3.79698 Y-3.38729
G01 X3.81181 Y-3.37750
G01 X3.82465 Y-3.36522
G01 X3.83510 Y-3.35084
G01 X3.84281 Y-3.33483
G01 X3.84754 Y-3.31770
G01 X3.84843 Y-3.30784
G01 X3.84843 Y-3.24094
G04 P0 ( dwell for no time -- G64 should not smooth over this point )
G00 Z0.08000 ( retract )

G00 X3.95157 Y-3.35906 ( rapid move to begin. )
G01 F180.00000
( Mill infeed pass 1/1 )
G01 Z-0.04000
G04 P0 ( dwell for no time -- G64 should not smooth over this point )
G01 F360.00000
G01 X3.95157 Y-3.35906
G01 X3.95157 Y-3.28942
G01 X3.95444 Y-3.27363
G01 X3.96068 Y-3.25699
G01 X3.96980 Y-3.24173
G01 X3.98149 Y-3.22835
G01 X3.99539 Y-3.21727
G01 X4.01104 Y-3.20885
G01 X4.02794 Y-3.20335
G01 X4.04555 Y-3.20097
G01 X4.06331 Y-3.20176
G01 X4.08063 Y-3.20572
G01 X4.09697 Y-3.21271
G01 X4.11181 Y-3.22249
G01 X4.12465 Y-3.23478
G01 X4.13510 Y-3.24916
G01 X4.14281 Y-3.26517
G01 X4.14754 Y-3.28230
G01 X4.14913 Y-3.30000
G01 X4.14754 Y-3.31770
G01 X4.14281 Y-3.33483
G01 X4.13510 Y-3.35084
G01 X4.12465 Y-3.36522
G01 X4.11181 Y-3.37750
G01 X4.09697 Y-3.38729
G01 X4.08063 Y-3.39428
G01 X4.06331 Y-3.39823
G01 X4.04555 Y-3.39903
G01 X4.02794 Y-3.39664
G01 X4.01104 Y-3.39115
G01 X3.99539 Y-3.38273
G01 X3.98149 Y-3.37165
G01 X3.96980 Y-3.35827
G01 X3.96068 Y-3.34301
G01 X3.95444 Y-3.32637
G01 X3.95127 Y-3.30889
G01 X3.95127 Y-3.29111
G01 X3.95157 Y-3.28942
G01 X3.95157 Y-3.24094
G01 X3.96241 Y-3.22582
G01 X3.97554 Y-3.21264
G01 X3.99063 Y-3.20176
G01 X4.00728 Y-3.19346
G01 X4.02506 Y-3.18796
G01 X4.04348 Y-3.18540
G01 X4.06208 Y-3.18586
G01 X4.08036 Y-3.18931
G01 X4.09785 Y-3.19566
G01 X4.11407 Y-3.20477
G01 X4.12862 Y-3.21637
G01 X4.14109 Y-3.23017
G01 X4.15118 Y-3.24580
G01 X4.15861 Y-3.26286
G01 X4.16318 Y-3.28089
G01 X4.16478 Y-3.29943
G01 X4.16337 Y-3.31798
G01 X4.15897 Y-3.33605
G01 X4.15172 Y-3.35319
G01 X4.14179 Y-3.36892
G01 X4.12945 Y-3.38284
G01 X4.11502 Y-3.39459
G01 X4.09889 Y-3.40385
G01 X4.08147 Y-3.41038
G01 X4.06322 Y-3.41402
G01 X4.04463 Y-3.41466
G01 X4.02618 Y-3.41228
G01 X4.00835 Y-3.40696
G01 X3.99162 Y-3.39882
G01 X3.97642 Y-3.38809
G01 X3.96315 Y-3.37505
G01 X3.95217 Y-3.36003
G04 P0 ( dwell for no time -- G64 should not smooth over this point )
G00 Z0.08000 ( retract )

G00 X3.93718 Y-3.35344 ( rapid move to begin. )
G01 F180.00000
( Mill infeed pass 1/1 )
G01 Z-0.04000
G04 P0 ( dwell for no time -- G64 should not smooth over this point )
G01 F360.00000
G01 X3.93718 Y-3.35344
G01 X3.91469 Y-3.37594
G01 X3.91469 Y-3.39281
G01 X3.91469 Y-3.35344
G04 P0 ( dwell for no time -- G64 should not smooth over this point )
G00 Z0.08000 ( retract )

G00 X3.92031 Y-3.37031 ( rapid move to begin. )
G01 F180.00000
( Mill infeed pass 1/1 )
G01 Z-0.04000
G04 P0 ( dwell for no time -- G64 should not smooth over this point )
G01 F360.00000
G01 X3.92031 Y-3.37031
G01 X3.93718 Y-3.39281
G04 P0 ( dwell for no time -- G64 should not smooth over this point )
G00 Z0.08000 ( retract )

G00 X4.02094 Y-3.46781 ( rapid move to begin. )
G01 F180.00000
( Mill infeed pass 1/1 )
G01 Z-0.04000
G04 P0 ( dwell for no time -- G64 should not smooth over this point )
G01 F360.00000
G01 X4.02094 Y-3.46781
G01 X4.02094 Y-3.42844
G01 X4.03031 Y-3.42844
G01 X4.03594 Y-3.43031
G01 X4.03969 Y-3.43406
G01 X4.04156 Y-3.43781
G01 X4.04344 Y-3.44531
G01 X4.04344 Y-3.45094
G01 X4.04156 Y-3.45844
G01 X4.03969 Y-3.46218
G01 X4.03594 Y-3.46593
G01 X4.03031 Y-3.46781
G01 X4.02094 Y-3.46781
G04 P0 ( dwell for no time -- G64 should not smooth over this point )
G00 Z0.08000 ( retract )

G00 X4.08093 Y-3.46781 ( rapid move to begin. )
G01 F180.00000
( Mill infeed pass 1/1 )
G01 Z-0.04000
G04 P0 ( dwell for no time -- G64 should not smooth over this point )
G01 F360.00000
G01 X4.08093 Y-3.46781
G01 X4.05656 Y-3.46781
G01 X4.07906 Y-3.44531
G01 X4.08093 Y-3.43969
G01 X4.08093 Y-3.43594
G01 X4.07906 Y-3.43219
G01 X4.07718 Y-3.43031
G01 X4.07343 Y-3.42844
G01 X4.06406 Y-3.42844
G01 X4.06031 Y-3.43031
G01 X4.05844 Y-3.43219
G04 P0 ( dwell for no time -- G64 should not smooth over this point )
G00 Z0.08000 ( retract )

G00 X4.24203 Y-3.24063 ( rapid move to begin. )
G01 F180.00000
( Mill infeed pass 1/1 )
G01 Z-0.04000
G04 P0 ( dwell for no time -- G64 should not smooth over this point )
G01 F360.00000
G01 X4.24203 Y-3.24063
G01 X4.24016 Y-3.23875
G01 X4.23828 Y-3.23500
G01 X4.23828 Y-3.22563
G01 X4.24016 Y-3.22188
G01 X4.24203 Y-3.22000
G01 X4.24578 Y-3.21813
G01 X4.24953 Y-3.21813
G01 X4.25516 Y-3.22000
G01 X4.27765 Y-3.24250
G01 X4.27765 Y-3.21813
G04 P0 ( dwell for no time -- G64 should not smooth over this point )
G00 Z0.08000 ( retract )

G00 X4.26828 Y-3.27437 ( rapid move to begin. )
G01 F180.00000
( Mill infeed pass 1/1 )
G01 Z-0.04000
G04 P0 ( dwell for no time -- G64 should not smooth over this point )
G01 F360.00000
G01 X4.26828 Y-3.27437
G01 X4.26828 Y-3.27062
G01 X4.27015 Y-3.26687
G01 X4.27578 Y-3.26125
G01 X4.27765 Y-3.26500
G01 X4.27765 Y-3.27250
G01 X4.27578 Y-3.27625
G01 X4.27203 Y-3.28000
G01 X4.26453 Y-3.28187
G01 X4.25141 Y-3.28187
G01 X4.24391 Y-3.28000
G01 X4.24016 Y-3.27625
G01 X4.23828 Y-3.27250
G01 X4.23828 Y-3.26500
G01 X4.24016 Y-3.26125
G01 X4.24391 Y-3.25750
G01 X4.25141 Y-3.25562
G01 X4.26453 Y-3.25562
G01 X4.27203 Y-3.25750
G01 X4.27578 Y-3.26125
G01 X4.27953 Y-3.25750
G01 X4.28140 Y-3.25375
G04 P0 ( dwell for no time -- G64 should not smooth over this point )
G00 Z0.08000 ( retract )

G00 X4.34783 Y-3.04839 ( rapid move to begin. )
G01 F180.00000
( Mill infeed pass 1/1 )
G01 Z-0.04000
G04 P0 ( dwell for no time -- G64 should not smooth over this point )
G01 F360.00000
G01 X4.34783 Y-3.04839
G01 X4.34783 Y-2.85161
G04 P0 ( dwell for no time -- G64 should not smooth over this point )
G00 Z0.08000 ( retract )

G00 X4.34232 Y-2.85193 ( rapid move to begin. )
G01 F180.00000
( Mill infeed pass 1/1 )
G01 Z-0.04000
G04 P0 ( dwell for no time -- G64 should not smooth over this point )
G01 F360.00000
G01 X4.34232 Y-2.85193
G01 X4.34232 Y-3.04807
G04 P0 ( dwell for no time -- G64 should not smooth over this point )
G00 Z0.08000 ( retract )

G00 X4.33681 Y-3.04744 ( rapid move to begin. )
G01 F180.00000
( Mill infeed pass 1/1 )
G01 Z-0.04000
G04 P0 ( dwell for no time -- G64 should not smooth over this point )
G01 F360.00000
G01 X4.33681 Y-3.04744
G01 X4.33681 Y-2.95374
G04 P0 ( dwell for no time -- G64 should not smooth over this point )
G00 Z0.08000 ( retract )

G00 X4.33681 Y-2.94626 ( rapid move to begin. )
G01 F180.00000
( Mill infeed pass 1/1 )
G01 Z-0.04000
G04 P0 ( dwell for no time -- G64 should not smooth over this point )
G01 F360.00000
G01 X4.33681 Y-2.94626
G01 X4.33681 Y-2.85256
G04 P0 ( dwell for no time -- G64 should not smooth over this point )
G00 Z0.08000 ( retract )

G00 X4.33130 Y-2.85350 ( rapid move to begin. )
G01 F180.00000
( Mill infeed pass 1/1 )
G01 Z-0.04000
G04 P0 ( dwell for no time -- G64 should not smooth over this point )
G01 F360.00000
G01 X4.33130 Y-2.85350
G01 X4.33130 Y-2.93071
G04 P0 ( dwell for no time -- G64 should not smooth over this point )
G00 Z0.08000 ( retract )

G00 X4.32579 Y-2.92413 ( rapid move to begin. )
G01 F180.00000
( Mill infeed pass 1/1 )
G01 Z-0.04000
G04 P0 ( dwell for no time -- G64 should not smooth over this point )
G01 F360.00000
G01 X4.32579 Y-2.92413
G01 X4.32579 Y-2.85480
G04 P0 ( dwell for no time -- G64 should not smooth over this point )
G00 Z0.08000 ( retract )

G00 X4.32027 Y-2.85642 ( rapid move to begin. )
G01 F180.00000
( Mill infeed pass 1/1 )
G01 Z-0.04000
G04 P0 ( dwell for no time -- G64 should not smooth over this point )
G01 F360.00000
G01 X4.32027 Y-2.85642
G01 X4.32027 Y-2.91992
G04 P0 ( dwell for no time -- G64 should not smooth over this point )
G00 Z0.08000 ( retract )

G00 X4.31476 Y-2.91712 ( rapid move to begin. )
G01 F180.00000
( Mill infeed pass 1/1 )
G01 Z-0.04000
G04 P0 ( dwell for no time -- G64 should not smooth over this point )
G01 F360.00000
G01 X4.31476 Y-2.91712
G01 X4.31476 Y-2.85839
G04 P0 ( dwell for no time -- G64 should not smooth over this point )
G00 Z0.08000 ( retract )

G00 X4.30925 Y-2.86079 ( rapid move to begin. )
G01 F180.00000
( Mill infeed pass 1/1 )
G01 Z-0.04000
G04 P0 ( dwell for no time -- G64 should not smooth over this point )
G01 F360.00000
G01 X4.30925 Y-2.86079
G01 X4.30925 Y-2.91539
G04 P0 ( dwell for no time -- G64 should not smooth over this point )
G00 Z0.08000 ( retract )

G00 X4.30374 Y-2.91465 ( rapid move to begin. )
G01 F180.00000
( Mill infeed pass 1/1 )
G01 Z-0.04000
G04 P0 ( dwell for no time -- G64 should not smooth over this point )
G01 F360.00000
G01 X4.30374 Y-2.91465
G01 X4.30374 Y-2.86354
G04 P0 ( dwell for no time -- G64 should not smooth over this point )
G00 Z0.08000 ( retract )

G00 X4.29823 Y-2.86677 ( rapid move to begin. )
G01 F180.00000
( Mill infeed pass 1/1 )
G01 Z-0.04000
G04 P0 ( dwell for no time -- G64 should not smooth over this point )
G01 F360.00000
G01 X4.29823 Y-2.86677
G01 X4.29823 Y-2.91472
G04 P0 ( dwell for no time -- G64 should not smooth over this point )
G00 Z0.08000 ( retract )

G00 X4.29272 Y-2.91571 ( rapid move to begin. )
G01 F180.00000
( Mill infeed pass 1/1 )
G01 Z-0.04000
G04 P0 ( dwell for no time -- G64 should not smooth over this point )
G01 F360.00000
G01 X4.29272 Y-2.91571
G01 X4.29272 Y-2.87051
G04 P0 ( dwell for no time -- G64 should not smooth over this point )
G00 Z0.08000 ( retract )

G00 X4.28720 Y-2.87488 ( rapid move to begin. )
G01 F180.00000
( Mill infeed pass 1/1 )
G01 Z-0.04000
G04 P0 ( dwell for no time -- G64 should not smooth over this point )
G01 F360.00000
G01 X4.28720 Y-2.87488
G01 X4.28720 Y-2.91760
G04 P0 ( dwell for no time -- G64 should not smooth over this point )
G00 Z0.08000 ( retract )

G00 X4.28169 Y-2.92067 ( rapid move to begin. )
G01 F180.00000
( Mill infeed pass 1/1 )
G01 Z-0.04000
G04 P0 ( dwell for no time -- G64 should not smooth over this point )
G01 F360.00000
G01 X4.28169 Y-2.92067
G01 X4.28169 Y-2.87992
G04 P0 ( dwell for no time -- G64 should not smooth over this point )
G00 Z0.08000 ( retract )

G00 X4.27618 Y-2.88579 ( rapid move to begin. )
G01 F180.00000
( Mill infeed pass 1/1 )
G01 Z-0.04000
G04 P0 ( dwell for no time -- G64 should not smooth over this point )
G01 F360.00000
G01 X4.27618 Y-2.88579
G01 X4.27618 Y-2.92528
G04 P0 ( dwell for no time -- G64 should not smooth over this point )
G00 Z0.08000 ( retract )

G00 X4.25964 Y-2.91283 ( rapid move to begin. )
G01 F180.00000
( Mill infeed pass 1/1 )
G01 Z-0.04000
G04 P0 ( dwell for no time -- G64 should not smooth over this point )
G01 F360.00000
G01 X4.25964 Y-2.91283
G01 X4.25964 Y-2.98717
G04 P0 ( dwell for no time -- G64 should not smooth over this point )
G00 Z0.08000 ( retract )

G00 X4.26516 Y-2.99854 ( rapid move to begin. )
G01 F180.00000
( Mill infeed pass 1/1 )
G01 Z-0.04000
G04 P0 ( dwell for no time -- G64 should not smooth over this point )
G01 F360.00000
G01 X4.26516 Y-2.99854
G01 X4.26516 Y-2.90146
G04 P0 ( dwell for no time -- G64 should not smooth over this point )
G00 Z0.08000 ( retract )

G00 X4.27067 Y-2.89283 ( rapid move to begin. )
G01 F180.00000
( Mill infeed pass 1/1 )
G01 Z-0.04000
G04 P0 ( dwell for no time -- G64 should not smooth over this point )
G01 F360.00000
G01 X4.27067 Y-2.89283
G01 X4.27067 Y-2.93268
G04 P0 ( dwell for no time -- G64 should not smooth over this point )
G00 Z0.08000 ( retract )

G00 X4.26654 Y-2.95528 ( rapid move to begin. )
G01 F180.00000
( Mill infeed pass 1/1 )
G01 Z-0.04000
G04 P0 ( dwell for no time -- G64 should not smooth over this point )
G01 F360.00000
G01 X4.26654 Y-2.95528
G01 X4.26654 Y-2.94472
G01 X4.26965 Y-2.93463
G01 X4.27560 Y-2.92590
G01 X4.28386 Y-2.91931
G01 X4.29369 Y-2.91546
G01 X4.30422 Y-2.91467
G01 X4.31452 Y-2.91702
G01 X4.32367 Y-2.92230
G01 X4.33085 Y-2.93004
G01 X4.33543 Y-2.93955
G01 X4.33701 Y-2.95000
G01 X4.33543 Y-2.96044
G01 X4.33085 Y-2.96996
G01 X4.32367 Y-2.97770
G01 X4.31452 Y-2.98298
G01 X4.30422 Y-2.98533
G01 X4.29369 Y-2.98454
G01 X4.28386 Y-2.98068
G01 X4.27560 Y-2.97410
G01 X4.26965 Y-2.96537
G01 X4.26654 Y-2.95528
G04 P0 ( dwell for no time -- G64 should not smooth over this point )
G00 Z0.08000 ( retract )

G00 X4.25089 Y-2.95000 ( rapid move to begin. )
G01 F180.00000
( Mill infeed pass 1/1 )
G01 Z-0.04000
G04 P0 ( dwell for no time -- G64 should not smooth over this point )
G01 F360.00000
G01 X4.25089 Y-2.95000
G01 X4.25240 Y-2.96735
G01 X4.25691 Y-2.98417
G01 X4.26427 Y-2.99995
G01 X4.27426 Y-3.01422
G01 X4.28657 Y-3.02653
G01 X4.30084 Y-3.03652
G01 X4.31662 Y-3.04388
G01 X4.33344 Y-3.04838
G01 X4.35079 Y-3.04990
G01 X4.36813 Y-3.04838
G01 X4.38495 Y-3.04388
G01 X4.40074 Y-3.03652
G01 X4.41500 Y-3.02653
G01 X4.42732 Y-3.01422
G01 X4.43730 Y-2.99995
G01 X4.44466 Y-2.98417
G01 X4.44917 Y-2.96735
G01 X4.45069 Y-2.95000
G01 X4.44917 Y-2.93265
G01 X4.44466 Y-2.91583
G01 X4.43730 Y-2.90005
G01 X4.42732 Y-2.88578
G01 X4.41500 Y-2.87347
G01 X4.40074 Y-2.86348
G01 X4.38495 Y-2.85612
G01 X4.36813 Y-2.85162
G01 X4.35079 Y-2.85010
G01 X4.33344 Y-2.85162
G01 X4.31662 Y-2.85612
G01 X4.30084 Y-2.86348
G01 X4.28657 Y-2.87347
G01 X4.27426 Y-2.88578
G01 X4.26427 Y-2.90005
G01 X4.25691 Y-2.91583
G01 X4.25240 Y-2.93265
G01 X4.25089 Y-2.95000
G04 P0 ( dwell for no time -- G64 should not smooth over this point )
G00 Z0.08000 ( retract )

G00 X4.25413 Y-2.93142 ( rapid move to begin. )
G01 F180.00000
( Mill infeed pass 1/1 )
G01 Z-0.04000
G04 P0 ( dwell for no time -- G64 should not smooth over this point )
G01 F360.00000
G01 X4.25413 Y-2.93142
G01 X4.25413 Y-2.96858
G04 P0 ( dwell for no time -- G64 should not smooth over this point )
G00 Z0.08000 ( retract )

G00 X4.27067 Y-2.96732 ( rapid move to begin. )
G01 F180.00000
( Mill infeed pass 1/1 )
G01 Z-0.04000
G04 P0 ( dwell for no time -- G64 should not smooth over this point )
G01 F360.00000
G01 X4.27067 Y-2.96732
G01 X4.27067 Y-3.00717
G04 P0 ( dwell for no time -- G64 should not smooth over this point )
G00 Z0.08000 ( retract )

G00 X4.27618 Y-3.01421 ( rapid move to begin. )
G01 F180.00000
( Mill infeed pass 1/1 )
G01 Z-0.04000
G04 P0 ( dwell for no time -- G64 should not smooth over this point )
G01 F360.00000
G01 X4.27618 Y-3.01421
G01 X4.27618 Y-2.97472
G04 P0 ( dwell for no time -- G64 should not smooth over this point )
G00 Z0.08000 ( retract )

G00 X4.28169 Y-2.97933 ( rapid move to begin. )
G01 F180.00000
( Mill infeed pass 1/1 )
G01 Z-0.04000
G04 P0 ( dwell for no time -- G64 should not smooth over this point )
G01 F360.00000
G01 X4.28169 Y-2.97933
G01 X4.28169 Y-3.02008
G04 P0 ( dwell for no time -- G64 should not smooth over this point )
G00 Z0.08000 ( retract )

G00 X4.30925 Y-3.03921 ( rapid move to begin. )
G01 F180.00000
( Mill infeed pass 1/1 )
G01 Z-0.04000
G04 P0 ( dwell for no time -- G64 should not smooth over this point )
G01 F360.00000
G01 X4.30925 Y-3.03921
G01 X4.30925 Y-2.98461
G04 P0 ( dwell for no time -- G64 should not smooth over this point )
G00 Z0.08000 ( retract )

G00 X4.30374 Y-2.98535 ( rapid move to begin. )
G01 F180.00000
( Mill infeed pass 1/1 )
G01 Z-0.04000
G04 P0 ( dwell for no time -- G64 should not smooth over this point )
G01 F360.00000
G01 X4.30374 Y-2.98535
G01 X4.30374 Y-3.03646
G04 P0 ( dwell for no time -- G64 should not smooth over this point )
G00 Z0.08000 ( retract )

G00 X4.29823 Y-3.03323 ( rapid move to begin. )
G01 F180.00000
( Mill infeed pass 1/1 )
G01 Z-0.04000
G04 P0 ( dwell for no time -- G64 should not smooth over this point )
G01 F360.00000
G01 X4.29823 Y-3.03323
G01 X4.29823 Y-2.98528
G04 P0 ( dwell for no time -- G64 should not smooth over this point )
G00 Z0.08000 ( retract )

G00 X4.29272 Y-2.98429 ( rapid move to begin. )
G01 F180.00000
( Mill infeed pass 1/1 )
G01 Z-0.04000
G04 P0 ( dwell for no time -- G64 should not smooth over this point )
G01 F360.00000
G01 X4.29272 Y-2.98429
G01 X4.29272 Y-3.02949
G04 P0 ( dwell for no time -- G64 should not smooth over this point )
G00 Z0.08000 ( retract )

G00 X4.28720 Y-3.02512 ( rapid move to begin. )
G01 F180.00000
( Mill infeed pass 1/1 )
G01 Z-0.04000
G04 P0 ( dwell for no time -- G64 should not smooth over this point )
G01 F360.00000
G01 X4.28720 Y-3.02512
G01 X4.28720 Y-2.98240
G04 P0 ( dwell for no time -- G64 should not smooth over this point )
G00 Z0.08000 ( retract )

G00 X4.31476 Y-2.98287 ( rapid move to begin. )
G01 F180.00000
( Mill infeed pass 1/1 )
G01 Z-0.04000
G04 P0 ( dwell for no time -- G64 should not smooth over this point )
G01 F360.00000
G01 X4.31476 Y-2.98287
G01 X4.31476 Y-3.04161
G04 P0 ( dwell for no time -- G64 should not smooth over this point )
G00 Z0.08000 ( retract )

G00 X4.32027 Y-3.04358 ( rapid move to begin. )
G01 F180.00000
( Mill infeed pass 1/1 )
G01 Z-0.04000
G04 P0 ( dwell for no time -- G64 should not smooth over this point )
G01 F360.00000
G01 X4.32027 Y-3.04358
G01 X4.32027 Y-2.98008
G04 P0 ( dwell for no time -- G64 should not smooth over this point )
G00 Z0.08000 ( retract )

G00 X4.32579 Y-2.97587 ( rapid move to begin. )
G01 F180.00000
( Mill infeed pass 1/1 )
G01 Z-0.04000
G04 P0 ( dwell for no time -- G64 should not smooth over this point )
G01 F360.00000
G01 X4.32579 Y-2.97587
G01 X4.32579 Y-3.04520
G04 P0 ( dwell for no time -- G64 should not smooth over this point )
G00 Z0.08000 ( retract )

G00 X4.33130 Y-3.04650 ( rapid move to begin. )
G01 F180.00000
( Mill infeed pass 1/1 )
G01 Z-0.04000
G04 P0 ( dwell for no time -- G64 should not smooth over this point )
G01 F360.00000
G01 X4.33130 Y-3.04650
G01 X4.33130 Y-2.96929
G04 P0 ( dwell for no time -- G64 should not smooth over this point )
G00 Z0.08000 ( retract )

G00 X4.66781 Y-2.77906 ( rapid move to begin. )
G01 F180.00000
( Mill infeed pass 1/1 )
G01 Z-0.04000
G04 P0 ( dwell for no time -- G64 should not smooth over this point )
G01 F360.00000
G01 X4.66781 Y-2.77906
G01 X4.64906 Y-2.77906
G01 X4.64906 Y-2.76406
G01 X4.64719 Y-2.76031
G01 X4.64531 Y-2.75844
G01 X4.64156 Y-2.75656
G01 X4.63594 Y-2.75656
G01 X4.63219 Y-2.75844
G01 X4.63031 Y-2.76031
G01 X4.62844 Y-2.76406
G01 X4.62844 Y-2.77906
G01 X4.64906 Y-2.77906
G01 X4.64906 Y-2.76968
G01 X4.66781 Y-2.75656
G04 P0 ( dwell for no time -- G64 should not smooth over this point )
G00 Z0.08000 ( retract )

G00 X4.64156 Y-2.72282 ( rapid move to begin. )
G01 F180.00000
( Mill infeed pass 1/1 )
G01 Z-0.04000
G04 P0 ( dwell for no time -- G64 should not smooth over this point )
G01 F360.00000
G01 X4.64156 Y-2.72282
G01 X4.66781 Y-2.72282
G01 X4.65469 Y-2.72282
G01 X4.65469 Y-2.71719
G01 X4.65469 Y-2.74156
G01 X4.62657 Y-2.73219
G04 P0 ( dwell for no time -- G64 should not smooth over this point )
G00 Z0.08000 ( retract )

G00 X4.55000 Y-2.65000 ( rapid move to begin. )
G01 F180.00000
( Mill infeed pass 1/1 )
G01 Z-0.04000
G04 P0 ( dwell for no time -- G64 should not smooth over this point )
G01 F360.00000
G01 X4.55000 Y-2.65000
G01 X4.50000 Y-2.65000
G01 X4.50000 Y-2.85000
G01 X4.55000 Y-2.85000
G01 X4.55000 Y-2.90000
G01 X4.55000 Y-2.85000
G01 X4.60000 Y-2.85000
G01 X4.60000 Y-2.65000
G01 X4.55000 Y-2.65000
G01 X4.55000 Y-2.60000
G04 P0 ( dwell for no time -- G64 should not smooth over this point )
G00 Z0.08000 ( retract )

G00 X4.35844 Y-2.78219 ( rapid move to begin. )
G01 F180.00000
( Mill infeed pass 1/1 )
G01 Z-0.04000
G04 P0 ( dwell for no time -- G64 should not smooth over this point )
G01 F360.00000
G01 X4.35844 Y-2.78219
G01 X4.36031 Y-2.78031
G01 X4.36406 Y-2.77844
G01 X4.37343 Y-2.77844
G01 X4.37718 Y-2.78031
G01 X4.37906 Y-2.78219
G01 X4.38093 Y-2.78594
G01 X4.38093 Y-2.78969
G01 X4.37906 Y-2.79531
G01 X4.35656 Y-2.81781
G01 X4.38093 Y-2.81781
G04 P0 ( dwell for no time -- G64 should not smooth over this point )
G00 Z0.08000 ( retract )

G00 X4.34344 Y-2.81406 ( rapid move to begin. )
G01 F180.00000
( Mill infeed pass 1/1 )
G01 Z-0.04000
G04 P0 ( dwell for no time -- G64 should not smooth over this point )
G01 F360.00000
G01 X4.34344 Y-2.81406
G01 X4.34156 Y-2.81594
G01 X4.33594 Y-2.81781
G01 X4.33219 Y-2.81781
G01 X4.32657 Y-2.81594
G01 X4.32282 Y-2.81218
G01 X4.32094 Y-2.80844
G01 X4.31907 Y-2.80094
G01 X4.31907 Y-2.79531
G01 X4.32094 Y-2.78781
G01 X4.32282 Y-2.78406
G01 X4.32657 Y-2.78031
G01 X4.33219 Y-2.77844
G01 X4.33594 Y-2.77844
G01 X4.34156 Y-2.78031
G01 X4.34344 Y-2.78219
G04 P0 ( dwell for no time -- G64 should not smooth over this point )
G00 Z0.08000 ( retract )

G00 X4.26781 Y-2.77906 ( rapid move to begin. )
G01 F180.00000
( Mill infeed pass 1/1 )
G01 Z-0.04000
G04 P0 ( dwell for no time -- G64 should not smooth over this point )
G01 F360.00000
G01 X4.26781 Y-2.77906
G01 X4.24906 Y-2.77906
G01 X4.24906 Y-2.76406
G01 X4.24719 Y-2.76031
G01 X4.24531 Y-2.75844
G01 X4.24156 Y-2.75656
G01 X4.23594 Y-2.75656
G01 X4.23219 Y-2.75844
G01 X4.23031 Y-2.76031
G01 X4.22844 Y-2.76406
G01 X4.22844 Y-2.77906
G01 X4.24906 Y-2.77906
G01 X4.24906 Y-2.76968
G01 X4.26781 Y-2.75656
G04 P0 ( dwell for no time -- G64 should not smooth over this point )
G00 Z0.08000 ( retract )

G00 X4.26406 Y-2.74344 ( rapid move to begin. )
G01 F180.00000
( Mill infeed pass 1/1 )
G01 Z-0.04000
G04 P0 ( dwell for no time -- G64 should not smooth over this point )
G01 F360.00000
G01 X4.26406 Y-2.74344
G01 X4.26593 Y-2.74156
G01 X4.26781 Y-2.73781
G01 X4.26781 Y-2.72656
G01 X4.26593 Y-2.72282
G01 X4.26406 Y-2.72094
G01 X4.26031 Y-2.71907
G01 X4.25094 Y-2.71907
G01 X4.24719 Y-2.72094
G01 X4.24531 Y-2.72282
G01 X4.24344 Y-2.72656
G01 X4.24344 Y-2.73219
G01 X4.22844 Y-2.71907
G01 X4.22844 Y-2.74344
G04 P0 ( dwell for no time -- G64 should not smooth over this point )
G00 Z0.08000 ( retract )

G00 X4.15000 Y-2.65000 ( rapid move to begin. )
G01 F180.00000
( Mill infeed pass 1/1 )
G01 Z-0.04000
G04 P0 ( dwell for no time -- G64 should not smooth over this point )
G01 F360.00000
G01 X4.15000 Y-2.65000
G01 X4.10000 Y-2.65000
G01 X4.10000 Y-2.85000
G01 X4.15000 Y-2.85000
G01 X4.15000 Y-2.90000
G01 X4.15000 Y-2.85000
G01 X4.20000 Y-2.85000
G01 X4.20000 Y-2.65000
G01 X4.15000 Y-2.65000
G01 X4.15000 Y-2.60000
G04 P0 ( dwell for no time -- G64 should not smooth over this point )
G00 Z0.08000 ( retract )

G00 X3.90844 Y-2.49796 ( rapid move to begin. )
G01 F180.00000
( Mill infeed pass 1/1 )
G01 Z-0.04000
G04 P0 ( dwell for no time -- G64 should not smooth over this point )
G01 F360.00000
G01 X3.90844 Y-2.49796
G01 X3.91219 Y-2.49608
G01 X3.91594 Y-2.49233
G01 X3.91968 Y-2.48671
G01 X3.91968 Y-2.52608
G01 X3.93093 Y-2.52608
G01 X3.90844 Y-2.52608
G04 P0 ( dwell for no time -- G64 should not smooth over this point )
G00 Z0.08000 ( retract )

G00 X3.87094 Y-2.50733 ( rapid move to begin. )
G01 F180.00000
( Mill infeed pass 1/1 )
G01 Z-0.04000
G04 P0 ( dwell for no time -- G64 should not smooth over this point )
G01 F360.00000
G01 X3.87094 Y-2.50733
G01 X3.87094 Y-2.48671
G01 X3.88594 Y-2.48671
G01 X3.88969 Y-2.48858
G01 X3.89156 Y-2.49046
G01 X3.89344 Y-2.49421
G01 X3.89344 Y-2.49983
G01 X3.89156 Y-2.50358
G01 X3.88969 Y-2.50545
G01 X3.88594 Y-2.50733
G01 X3.87094 Y-2.50733
G01 X3.87094 Y-2.52608
G04 P0 ( dwell for no time -- G64 should not smooth over this point )
G00 Z0.08000 ( retract )

G00 X3.76781 Y-2.71907 ( rapid move to begin. )
G01 F180.00000
( Mill infeed pass 1/1 )
G01 Z-0.04000
G04 P0 ( dwell for no time -- G64 should not smooth over this point )
G01 F360.00000
G01 X3.76781 Y-2.71907
G01 X3.76781 Y-2.74344
G01 X3.74531 Y-2.72094
G01 X3.73969 Y-2.71907
G01 X3.73594 Y-2.71907
G01 X3.73219 Y-2.72094
G01 X3.73031 Y-2.72282
G01 X3.72844 Y-2.72656
G01 X3.72844 Y-2.73594
G01 X3.73031 Y-2.73969
G01 X3.73219 Y-2.74156
G04 P0 ( dwell for no time -- G64 should not smooth over this point )
G00 Z0.08000 ( retract )

G00 X3.76781 Y-2.77906 ( rapid move to begin. )
G01 F180.00000
( Mill infeed pass 1/1 )
G01 Z-0.04000
G04 P0 ( dwell for no time -- G64 should not smooth over this point )
G01 F360.00000
G01 X3.76781 Y-2.77906
G01 X3.74906 Y-2.77906
G01 X3.74906 Y-2.76406
G01 X3.74719 Y-2.76031
G01 X3.74531 Y-2.75844
G01 X3.74156 Y-2.75656
G01 X3.73594 Y-2.75656
G01 X3.73219 Y-2.75844
G01 X3.73031 Y-2.76031
G01 X3.72844 Y-2.76406
G01 X3.72844 Y-2.77906
G01 X3.74906 Y-2.77906
G01 X3.74906 Y-2.76968
G01 X3.76781 Y-2.75656
G04 P0 ( dwell for no time -- G64 should not smooth over this point )
G00 Z0.08000 ( retract )

G00 X3.65000 Y-2.65000 ( rapid move to begin. )
G01 F180.00000
( Mill infeed pass 1/1 )
G01 Z-0.04000
G04 P0 ( dwell for no time -- G64 should not smooth over this point )
G01 F360.00000
G01 X3.65000 Y-2.65000
G01 X3.60000 Y-2.65000
G01 X3.60000 Y-2.85000
G01 X3.65000 Y-2.85000
G01 X3.65000 Y-2.90000
G01 X3.65000 Y-2.85000
G01 X3.70000 Y-2.85000
G01 X3.70000 Y-2.65000
G01 X3.65000 Y-2.65000
G01 X3.65000 Y-2.60000

G04 P0 ( dwell for no time -- G64 should not smooth over this point )
G00 Z1.000000 ( retract )

M5 ( Spindle off. )
G04 P1.000000
M9 ( Coolant off. )
M2 ( Program end. )

