( pcb2gcode 2.5.0 )
( Software-independent Gcode )

G94 ( Millimeters per minute feed rate. )
G21 ( Units == Millimeters. )

G90 ( Absolute coordinates. )
G00 S10000 ( RPM spindle speed. )
G01 F360.00000 ( Feedrate. )


G00 Z50.00000 (Retract to tool change height)
T1
M5      (Spindle stop.)
G04 P1.00000 (Wait for spindle to stop)
(MSG, Change tool bit to mill diameter 0.00000mm)
M6      (Tool change.)
M0      (Temporary machine stop.)
M3 ( Spindle on clockwise. )
G04 P1.00000 (Wait for spindle to get up to speed)
G04 P0 ( dwell for no time -- G64 should not smooth over this point )
G00 Z10.00000 ( retract )

G00 X0.75768 Y8.62393 ( rapid move to begin. )
G01 F30.00000
( Mill infeed pass 1/1 )
G01 Z-0.10000
G04 P0 ( dwell for no time -- G64 should not smooth over this point )
G01 F360.00000
G01 X0.75768 Y8.62393
G01 X0.75768 Y9.51293
G01 X1.01168 Y9.51293
G01 X1.01168 Y8.87794
G01 X1.64668 Y8.87794
G01 X1.64668 Y8.62393
G01 X0.75768 Y8.62393
G04 P0 ( dwell for no time -- G64 should not smooth over this point )
G00 Z10.00000 ( retract )

G00 X1.90068 Y8.62393 ( rapid move to begin. )
G01 F30.00000
( Mill infeed pass 1/1 )
G01 Z-0.10000
G04 P0 ( dwell for no time -- G64 should not smooth over this point )
G01 F360.00000
G01 X1.90068 Y8.62393
G01 X2.78968 Y8.62393
G01 X2.78968 Y9.51293
G01 X2.53568 Y9.51293
G01 X2.53568 Y8.87794
G01 X1.90068 Y8.87794
G01 X1.90068 Y8.62393
G04 P0 ( dwell for no time -- G64 should not smooth over this point )
G00 Z10.00000 ( retract )

G00 X0.75768 Y9.76694 ( rapid move to begin. )
G01 F30.00000
( Mill infeed pass 1/1 )
G01 Z-0.10000
G04 P0 ( dwell for no time -- G64 should not smooth over this point )
G01 F360.00000
G01 X0.75768 Y9.76694
G01 X1.01168 Y9.76694
G01 X1.01168 Y10.40193
G01 X1.64668 Y10.40193
G01 X1.64668 Y10.65593
G01 X0.75768 Y10.65593
G01 X0.75768 Y9.76694
G04 P0 ( dwell for no time -- G64 should not smooth over this point )
G00 Z10.00000 ( retract )

G00 X1.90068 Y10.40193 ( rapid move to begin. )
G01 F30.00000
( Mill infeed pass 1/1 )
G01 Z-0.10000
G04 P0 ( dwell for no time -- G64 should not smooth over this point )
G01 F360.00000
G01 X1.90068 Y10.40193
G01 X1.90068 Y10.65593
G01 X2.78968 Y10.65593
G01 X2.78968 Y9.76694
G01 X2.53568 Y9.76694
G01 X2.53568 Y10.40193
G01 X1.90068 Y10.40193
G04 P0 ( dwell for no time -- G64 should not smooth over this point )
G00 Z10.00000 ( retract )

G00 X3.23418 Y14.46593 ( rapid move to begin. )
G01 F30.00000
( Mill infeed pass 1/1 )
G01 Z-0.10000
G04 P0 ( dwell for no time -- G64 should not smooth over this point )
G01 F360.00000
G01 X3.23418 Y14.46593
G01 X3.23418 Y15.35493
G01 X3.48818 Y15.35493
G01 X3.48818 Y14.71994
G01 X3.93268 Y14.71994
G01 X3.93268 Y14.46593
G01 X3.23418 Y14.46593
G04 P0 ( dwell for no time -- G64 should not smooth over this point )
G00 Z10.00000 ( retract )

G00 X4.18668 Y14.46593 ( rapid move to begin. )
G01 F30.00000
( Mill infeed pass 1/1 )
G01 Z-0.10000
G04 P0 ( dwell for no time -- G64 should not smooth over this point )
G01 F360.00000
G01 X4.18668 Y14.46593
G01 X4.18668 Y14.71994
G01 X4.63118 Y14.71994
G01 X4.63118 Y15.35493
G01 X4.88518 Y15.35493
G01 X4.88518 Y14.46593
G01 X4.18668 Y14.46593
G04 P0 ( dwell for no time -- G64 should not smooth over this point )
G00 Z10.00000 ( retract )

G00 X3.23418 Y15.60893 ( rapid move to begin. )
G01 F30.00000
( Mill infeed pass 1/1 )
G01 Z-0.10000
G04 P0 ( dwell for no time -- G64 should not smooth over this point )
G01 F360.00000
G01 X3.23418 Y15.60893
G01 X3.48818 Y15.60893
G01 X3.48818 Y16.24394
G01 X3.93268 Y16.24394
G01 X3.93268 Y16.49793
G01 X3.23418 Y16.49793
G01 X3.23418 Y15.60893
G04 P0 ( dwell for no time -- G64 should not smooth over this point )
G00 Z10.00000 ( retract )

G00 X4.18668 Y16.24394 ( rapid move to begin. )
G01 F30.00000
( Mill infeed pass 1/1 )
G01 Z-0.10000
G04 P0 ( dwell for no time -- G64 should not smooth over this point )
G01 F360.00000
G01 X4.18668 Y16.24394
G01 X4.63118 Y16.24394
G01 X4.63118 Y15.60893
G01 X4.88518 Y15.60893
G01 X4.88518 Y16.49793
G01 X4.18668 Y16.49793
G01 X4.18668 Y16.24394
G04 P0 ( dwell for no time -- G64 should not smooth over this point )
G00 Z10.00000 ( retract )

G00 X3.23418 Y17.51393 ( rapid move to begin. )
G01 F30.00000
( Mill infeed pass 1/1 )
G01 Z-0.10000
G04 P0 ( dwell for no time -- G64 should not smooth over this point )
G01 F360.00000
G01 X3.23418 Y17.51393
G01 X3.23418 Y18.40293
G01 X3.48818 Y18.40293
G01 X3.48818 Y17.76793
G01 X3.93268 Y17.76793
G01 X3.93268 Y17.51393
G01 X3.23418 Y17.51393
G04 P0 ( dwell for no time -- G64 should not smooth over this point )
G00 Z10.00000 ( retract )

G00 X3.23418 Y18.65694 ( rapid move to begin. )
G01 F30.00000
( Mill infeed pass 1/1 )
G01 Z-0.10000
G04 P0 ( dwell for no time -- G64 should not smooth over this point )
G01 F360.00000
G01 X3.23418 Y18.65694
G01 X3.23418 Y19.54594
G01 X3.93268 Y19.54594
G01 X3.93268 Y19.29193
G01 X3.48818 Y19.29193
G01 X3.48818 Y18.65694
G01 X3.23418 Y18.65694
G04 P0 ( dwell for no time -- G64 should not smooth over this point )
G00 Z10.00000 ( retract )

G00 X0.39014 Y22.21293 ( rapid move to begin. )
G01 F30.00000
( Mill infeed pass 1/1 )
G01 Z-0.10000
G04 P0 ( dwell for no time -- G64 should not smooth over this point )
G01 F360.00000
G01 X0.39014 Y22.21293
G01 X0.40386 Y22.10778
G01 X0.49352 Y21.89163
G01 X0.63602 Y21.70595
G01 X0.82166 Y21.56346
G01 X1.03784 Y21.47379
G01 X1.14300 Y21.46008
G01 X1.14300 Y21.71776
G01 X1.05067 Y21.74400
G01 X0.96728 Y21.78172
G01 X0.89019 Y21.83102
G01 X0.82095 Y21.89091
G01 X0.76109 Y21.96013
G01 X0.71178 Y22.03722
G01 X0.67407 Y22.12061
G01 X0.64783 Y22.21293
G01 X0.39014 Y22.21293
G04 P0 ( dwell for no time -- G64 should not smooth over this point )
G00 Z10.00000 ( retract )

G00 X0.39014 Y22.46693 ( rapid move to begin. )
G01 F30.00000
( Mill infeed pass 1/1 )
G01 Z-0.10000
G04 P0 ( dwell for no time -- G64 should not smooth over this point )
G01 F360.00000
G01 X0.39014 Y22.46693
G01 X0.40386 Y22.57209
G01 X0.49352 Y22.78824
G01 X0.63602 Y22.97392
G01 X0.82166 Y23.11641
G01 X1.03784 Y23.20607
G01 X1.14300 Y23.21979
G01 X1.14300 Y22.96208
G01 X1.05067 Y22.93584
G01 X0.96728 Y22.89813
G01 X0.89019 Y22.84882
G01 X0.82095 Y22.78893
G01 X0.76109 Y22.71972
G01 X0.71178 Y22.64263
G01 X0.67407 Y22.55924
G01 X0.64783 Y22.46693
G01 X0.39014 Y22.46693
G04 P0 ( dwell for no time -- G64 should not smooth over this point )
G00 Z10.00000 ( retract )

G00 X1.39700 Y22.96208 ( rapid move to begin. )
G01 F30.00000
( Mill infeed pass 1/1 )
G01 Z-0.10000
G04 P0 ( dwell for no time -- G64 should not smooth over this point )
G01 F360.00000
G01 X1.39700 Y22.96208
G01 X1.39700 Y23.21979
G01 X1.50216 Y23.20607
G01 X1.71831 Y23.11641
G01 X1.90398 Y22.97392
G01 X2.04648 Y22.78824
G01 X2.13614 Y22.57209
G01 X2.14986 Y22.46693
G01 X1.89215 Y22.46693
G01 X1.86591 Y22.55924
G01 X1.82819 Y22.64263
G01 X1.77889 Y22.71972
G01 X1.71900 Y22.78893
G01 X1.64976 Y22.84882
G01 X1.57269 Y22.89813
G01 X1.48930 Y22.93584
G01 X1.39700 Y22.96208
G04 P0 ( dwell for no time -- G64 should not smooth over this point )
G00 Z10.00000 ( retract )

G00 X1.66014 Y24.75293 ( rapid move to begin. )
G01 F30.00000
( Mill infeed pass 1/1 )
G01 Z-0.10000
G04 P0 ( dwell for no time -- G64 should not smooth over this point )
G01 F360.00000
G01 X1.66014 Y24.75293
G01 X1.67386 Y24.64778
G01 X1.76352 Y24.43163
G01 X1.90602 Y24.24595
G01 X2.09169 Y24.10346
G01 X2.30784 Y24.01380
G01 X2.41300 Y24.00008
G01 X2.41300 Y24.25776
G01 X2.32067 Y24.28400
G01 X2.23728 Y24.32172
G01 X2.16019 Y24.37102
G01 X2.09098 Y24.43091
G01 X2.03109 Y24.50013
G01 X1.98178 Y24.57722
G01 X1.94407 Y24.66061
G01 X1.91783 Y24.75293
G01 X1.66014 Y24.75293
G04 P0 ( dwell for no time -- G64 should not smooth over this point )
G00 Z10.00000 ( retract )

G00 X1.66014 Y25.00693 ( rapid move to begin. )
G01 F30.00000
( Mill infeed pass 1/1 )
G01 Z-0.10000
G04 P0 ( dwell for no time -- G64 should not smooth over this point )
G01 F360.00000
G01 X1.66014 Y25.00693
G01 X1.67386 Y25.11209
G01 X1.76352 Y25.32824
G01 X1.90602 Y25.51392
G01 X2.09169 Y25.65641
G01 X2.30784 Y25.74607
G01 X2.41300 Y25.75979
G01 X2.41300 Y25.50208
G01 X2.32067 Y25.47584
G01 X2.23728 Y25.43813
G01 X2.16019 Y25.38882
G01 X2.09098 Y25.32893
G01 X2.03109 Y25.25972
G01 X1.98178 Y25.18263
G01 X1.94407 Y25.09924
G01 X1.91783 Y25.00693
G01 X1.66014 Y25.00693
G04 P0 ( dwell for no time -- G64 should not smooth over this point )
G00 Z10.00000 ( retract )

G00 X2.66700 Y25.50208 ( rapid move to begin. )
G01 F30.00000
( Mill infeed pass 1/1 )
G01 Z-0.10000
G04 P0 ( dwell for no time -- G64 should not smooth over this point )
G01 F360.00000
G01 X2.66700 Y25.50208
G01 X2.66700 Y25.75979
G01 X2.77216 Y25.74607
G01 X2.98831 Y25.65641
G01 X3.17398 Y25.51392
G01 X3.31640 Y25.32824
G01 X3.40614 Y25.11209
G01 X3.41986 Y25.00693
G01 X3.16215 Y25.00693
G01 X3.13591 Y25.09924
G01 X3.09819 Y25.18263
G01 X3.04889 Y25.25972
G01 X2.98900 Y25.32893
G01 X2.91978 Y25.38882
G01 X2.84269 Y25.43813
G01 X2.75930 Y25.47584
G01 X2.66700 Y25.50208
G04 P0 ( dwell for no time -- G64 should not smooth over this point )
G00 Z10.00000 ( retract )

G00 X2.66700 Y24.00008 ( rapid move to begin. )
G01 F30.00000
( Mill infeed pass 1/1 )
G01 Z-0.10000
G04 P0 ( dwell for no time -- G64 should not smooth over this point )
G01 F360.00000
G01 X2.66700 Y24.00008
G01 X2.77216 Y24.01380
G01 X2.98831 Y24.10346
G01 X3.17398 Y24.24595
G01 X3.31640 Y24.43163
G01 X3.40614 Y24.64778
G01 X3.41986 Y24.75293
G01 X3.16215 Y24.75293
G01 X3.13591 Y24.66061
G01 X3.09819 Y24.57722
G01 X3.04889 Y24.50013
G01 X2.98900 Y24.43091
G01 X2.91978 Y24.37102
G01 X2.84269 Y24.32172
G01 X2.75930 Y24.28400
G01 X2.66700 Y24.25776
G01 X2.66700 Y24.00008
G04 P0 ( dwell for no time -- G64 should not smooth over this point )
G00 Z10.00000 ( retract )

G00 X1.39700 Y21.46008 ( rapid move to begin. )
G01 F30.00000
( Mill infeed pass 1/1 )
G01 Z-0.10000
G04 P0 ( dwell for no time -- G64 should not smooth over this point )
G01 F360.00000
G01 X1.39700 Y21.46008
G01 X1.50216 Y21.47379
G01 X1.71831 Y21.56346
G01 X1.90398 Y21.70595
G01 X2.04648 Y21.89163
G01 X2.13614 Y22.10778
G01 X2.14986 Y22.21293
G01 X1.89215 Y22.21293
G01 X1.86591 Y22.12061
G01 X1.82819 Y22.03722
G01 X1.77889 Y21.96013
G01 X1.71900 Y21.89091
G01 X1.64976 Y21.83102
G01 X1.57269 Y21.78172
G01 X1.48930 Y21.74400
G01 X1.39700 Y21.71776
G01 X1.39700 Y21.46008
G04 P0 ( dwell for no time -- G64 should not smooth over this point )
G00 Z10.00000 ( retract )

G00 X4.18668 Y19.29193 ( rapid move to begin. )
G01 F30.00000
( Mill infeed pass 1/1 )
G01 Z-0.10000
G04 P0 ( dwell for no time -- G64 should not smooth over this point )
G01 F360.00000
G01 X4.18668 Y19.29193
G01 X4.63118 Y19.29193
G01 X4.63118 Y18.65694
G01 X4.88518 Y18.65694
G01 X4.88518 Y19.54594
G01 X4.18668 Y19.54594
G01 X4.18668 Y19.29193
G04 P0 ( dwell for no time -- G64 should not smooth over this point )
G00 Z10.00000 ( retract )

G00 X4.18668 Y17.51393 ( rapid move to begin. )
G01 F30.00000
( Mill infeed pass 1/1 )
G01 Z-0.10000
G04 P0 ( dwell for no time -- G64 should not smooth over this point )
G01 F360.00000
G01 X4.18668 Y17.51393
G01 X4.88518 Y17.51393
G01 X4.88518 Y18.40293
G01 X4.63118 Y18.40293
G01 X4.63118 Y17.76793
G01 X4.18668 Y17.76793
G01 X4.18668 Y17.51393
G04 P0 ( dwell for no time -- G64 should not smooth over this point )
G00 Z10.00000 ( retract )

G00 X5.21157 Y18.49133 ( rapid move to begin. )
G01 F30.00000
( Mill infeed pass 1/1 )
G01 Z-0.10000
G04 P0 ( dwell for no time -- G64 should not smooth over this point )
G01 F360.00000
G01 X5.21157 Y18.49133
G01 X5.22554 Y18.38642
G01 X5.31495 Y18.17002
G01 X5.45744 Y17.98434
G01 X5.64337 Y17.84185
G01 X5.85953 Y17.75219
G01 X5.96468 Y17.73847
G01 X5.96468 Y17.99615
G01 X5.87235 Y18.02239
G01 X5.78896 Y18.06011
G01 X5.71188 Y18.10941
G01 X5.64266 Y18.16931
G01 X5.58277 Y18.23852
G01 X5.53347 Y18.31561
G01 X5.49575 Y18.39900
G01 X5.46951 Y18.49133
G01 X5.21157 Y18.49133
G04 P0 ( dwell for no time -- G64 should not smooth over this point )
G00 Z10.00000 ( retract )

G00 X5.21157 Y18.74533 ( rapid move to begin. )
G01 F30.00000
( Mill infeed pass 1/1 )
G01 Z-0.10000
G04 P0 ( dwell for no time -- G64 should not smooth over this point )
G01 F360.00000
G01 X5.21157 Y18.74533
G01 X5.22554 Y18.85048
G01 X5.31495 Y19.06664
G01 X5.45744 Y19.25231
G01 X5.64337 Y19.39506
G01 X5.85953 Y19.48447
G01 X5.96468 Y19.49844
G01 X5.96468 Y19.24047
G01 X5.87235 Y19.21424
G01 X5.78896 Y19.17652
G01 X5.71188 Y19.12722
G01 X5.64266 Y19.06732
G01 X5.58277 Y18.99811
G01 X5.53347 Y18.92102
G01 X5.49575 Y18.83763
G01 X5.46951 Y18.74533
G01 X5.21157 Y18.74533
G04 P0 ( dwell for no time -- G64 should not smooth over this point )
G00 Z10.00000 ( retract )

G00 X6.21868 Y19.24047 ( rapid move to begin. )
G01 F30.00000
( Mill infeed pass 1/1 )
G01 Z-0.10000
G04 P0 ( dwell for no time -- G64 should not smooth over this point )
G01 F360.00000
G01 X6.21868 Y19.24047
G01 X6.21868 Y19.49844
G01 X6.32358 Y19.48447
G01 X6.53999 Y19.39506
G01 X6.72567 Y19.25231
G01 X6.86816 Y19.06664
G01 X6.95782 Y18.85048
G01 X6.97154 Y18.74533
G01 X6.71383 Y18.74533
G01 X6.68759 Y18.83763
G01 X6.64985 Y18.92102
G01 X6.60057 Y18.99811
G01 X6.54068 Y19.06732
G01 X6.47146 Y19.12722
G01 X6.39437 Y19.17652
G01 X6.31099 Y19.21424
G01 X6.21868 Y19.24047
G04 P0 ( dwell for no time -- G64 should not smooth over this point )
G00 Z10.00000 ( retract )

G00 X6.21868 Y17.73847 ( rapid move to begin. )
G01 F30.00000
( Mill infeed pass 1/1 )
G01 Z-0.10000
G04 P0 ( dwell for no time -- G64 should not smooth over this point )
G01 F360.00000
G01 X6.21868 Y17.73847
G01 X6.32358 Y17.75219
G01 X6.53999 Y17.84185
G01 X6.72567 Y17.98434
G01 X6.86816 Y18.17002
G01 X6.95782 Y18.38642
G01 X6.97154 Y18.49133
G01 X6.71383 Y18.49133
G01 X6.68759 Y18.39900
G01 X6.64985 Y18.31561
G01 X6.60057 Y18.23852
G01 X6.54068 Y18.16931
G01 X6.47146 Y18.10941
G01 X6.39437 Y18.06011
G01 X6.31099 Y18.02239
G01 X6.21868 Y17.99615
G01 X6.21868 Y17.73847
G04 P0 ( dwell for no time -- G64 should not smooth over this point )
G00 Z10.00000 ( retract )

G00 X6.21868 Y16.19247 ( rapid move to begin. )
G01 F30.00000
( Mill infeed pass 1/1 )
G01 Z-0.10000
G04 P0 ( dwell for no time -- G64 should not smooth over this point )
G01 F360.00000
G01 X6.21868 Y16.19247
G01 X6.31099 Y16.16624
G01 X6.39437 Y16.12852
G01 X6.47146 Y16.07922
G01 X6.54068 Y16.01932
G01 X6.60057 Y15.95011
G01 X6.64985 Y15.87302
G01 X6.68759 Y15.78963
G01 X6.71383 Y15.69733
G01 X6.97154 Y15.69733
G01 X6.95782 Y15.80248
G01 X6.86816 Y16.01864
G01 X6.72567 Y16.20431
G01 X6.53999 Y16.34706
G01 X6.32358 Y16.43647
G01 X6.21868 Y16.45044
G01 X6.21868 Y16.19247
G04 P0 ( dwell for no time -- G64 should not smooth over this point )
G00 Z10.00000 ( retract )

G00 X5.21157 Y15.44333 ( rapid move to begin. )
G01 F30.00000
( Mill infeed pass 1/1 )
G01 Z-0.10000
G04 P0 ( dwell for no time -- G64 should not smooth over this point )
G01 F360.00000
G01 X5.21157 Y15.44333
G01 X5.22554 Y15.33843
G01 X5.31495 Y15.12202
G01 X5.45744 Y14.93634
G01 X5.64337 Y14.79385
G01 X5.85953 Y14.70419
G01 X5.96468 Y14.69047
G01 X5.96468 Y14.94815
G01 X5.87235 Y14.97439
G01 X5.78896 Y15.01211
G01 X5.71188 Y15.06141
G01 X5.64266 Y15.12131
G01 X5.58277 Y15.19052
G01 X5.53347 Y15.26761
G01 X5.49575 Y15.35100
G01 X5.46951 Y15.44333
G01 X5.21157 Y15.44333
G04 P0 ( dwell for no time -- G64 should not smooth over this point )
G00 Z10.00000 ( retract )

G00 X5.21157 Y15.69733 ( rapid move to begin. )
G01 F30.00000
( Mill infeed pass 1/1 )
G01 Z-0.10000
G04 P0 ( dwell for no time -- G64 should not smooth over this point )
G01 F360.00000
G01 X5.21157 Y15.69733
G01 X5.22554 Y15.80248
G01 X5.31495 Y16.01864
G01 X5.45744 Y16.20431
G01 X5.64337 Y16.34706
G01 X5.85953 Y16.43647
G01 X5.96468 Y16.45044
G01 X5.96468 Y16.19247
G01 X5.87235 Y16.16624
G01 X5.78896 Y16.12852
G01 X5.71188 Y16.07922
G01 X5.64266 Y16.01932
G01 X5.58277 Y15.95011
G01 X5.53347 Y15.87302
G01 X5.49575 Y15.78963
G01 X5.46951 Y15.69733
G01 X5.21157 Y15.69733
G04 P0 ( dwell for no time -- G64 should not smooth over this point )
G00 Z10.00000 ( retract )

G00 X6.21868 Y14.69047 ( rapid move to begin. )
G01 F30.00000
( Mill infeed pass 1/1 )
G01 Z-0.10000
G04 P0 ( dwell for no time -- G64 should not smooth over this point )
G01 F360.00000
G01 X6.21868 Y14.69047
G01 X6.21868 Y14.94815
G01 X6.31099 Y14.97439
G01 X6.39437 Y15.01211
G01 X6.47146 Y15.06141
G01 X6.54068 Y15.12131
G01 X6.60057 Y15.19052
G01 X6.64985 Y15.26761
G01 X6.68759 Y15.35100
G01 X6.71383 Y15.44333
G01 X6.97154 Y15.44333
G01 X6.95782 Y15.33843
G01 X6.86816 Y15.12202
G01 X6.72567 Y14.93634
G01 X6.53999 Y14.79385
G01 X6.32358 Y14.70419
G01 X6.21868 Y14.69047
G04 P0 ( dwell for no time -- G64 should not smooth over this point )
G00 Z10.00000 ( retract )

G00 X6.11937 Y12.93266 ( rapid move to begin. )
G01 F30.00000
( Mill infeed pass 1/1 )
G01 Z-0.10000
G04 P0 ( dwell for no time -- G64 should not smooth over this point )
G01 F360.00000
G01 X6.11937 Y12.93266
G01 X6.25221 Y12.92393
G01 X6.36519 Y12.93876
G01 X6.41970 Y12.95880
G01 X6.53275 Y13.00907
G01 X6.62239 Y13.04221
G01 X6.78459 Y13.06683
G01 X6.86844 Y13.07170
G01 X7.05703 Y13.04755
G01 X7.13659 Y13.02375
G01 X7.28843 Y12.95872
G01 X7.36884 Y12.90470
G01 X7.48480 Y12.81105
G01 X7.55625 Y12.72451
G01 X7.62653 Y12.62609
G01 X7.68325 Y12.49959
G01 X7.71601 Y12.41097
G01 X7.73054 Y12.32743
G01 X7.74626 Y12.17991
G01 X7.73532 Y12.06668
G01 X7.71568 Y11.94897
G01 X7.66572 Y11.81798
G01 X7.63079 Y11.74168
G01 X7.57009 Y11.65347
G01 X7.48477 Y11.54882
G01 X7.33933 Y11.43378
G01 X7.29978 Y11.40717
G01 X7.16978 Y11.34890
G01 X7.08467 Y11.31773
G01 X7.01096 Y11.30455
G01 X6.85366 Y11.28738
G01 X6.75096 Y11.29693
G01 X6.65721 Y11.31108
G01 X6.62244 Y11.31791
G01 X6.56511 Y11.33815
G01 X6.41350 Y11.40369
G01 X6.26829 Y11.50861
G01 X6.20321 Y11.54328
G01 X6.12247 Y11.56780
G01 X6.06120 Y11.58110
G01 X6.00781 Y11.76990
G01 X5.97860 Y11.92721
G01 X5.96268 Y12.09619
G01 X5.96080 Y12.19286
G01 X5.96969 Y12.35870
G01 X5.98437 Y12.47036
G01 X6.02000 Y12.63998
G01 X6.05211 Y12.75100
G01 X6.11937 Y12.93266
G01 X6.10697 Y12.97341
G01 X6.11563 Y13.06177
G01 X6.14502 Y13.18565
G01 X6.20593 Y13.27800
G01 X6.46527 Y13.53734
G01 X6.50603 Y13.57071
G01 X6.55853 Y13.57597
G01 X11.46122 Y13.57597
G01 X11.52020 Y13.56934
G01 X11.56299 Y13.52217
G01 X11.64704 Y13.41760
G01 X11.71103 Y13.36347
G01 X11.80503 Y13.29522
G01 X11.90363 Y13.25100
G01 X11.98977 Y13.21958
G01 X12.16025 Y13.19484
G01 X12.25172 Y13.19835
G01 X12.38545 Y13.21918
G01 X12.45850 Y13.24564
G01 X12.57000 Y13.29571
G01 X12.63033 Y13.33757
G01 X12.70704 Y13.39827
G01 X12.72832 Y13.41725
G01 X12.77325 Y13.47010
G01 X12.84983 Y13.57561
G01 X12.87793 Y13.63457
G01 X12.92636 Y13.75992
G01 X12.94671 Y13.88877
G01 X12.95227 Y13.95791
G01 X12.93685 Y14.09972
G01 X12.91872 Y14.17904
G01 X12.88283 Y14.27008
G01 X12.84994 Y14.34026
G01 X12.77069 Y14.44894
G01 X12.72842 Y14.49870
G01 X12.70376 Y14.52029
G01 X12.57008 Y14.62029
G01 X12.45464 Y14.67173
G01 X12.37778 Y14.69855
G01 X12.28108 Y14.71404
G01 X12.18766 Y14.72296
G01 X12.07513 Y14.71148
G01 X11.98971 Y14.69647
G01 X11.86525 Y14.64859
G01 X11.80544 Y14.61991
G01 X11.75400 Y14.58486
G01 X11.64687 Y14.49842
G01 X11.56299 Y14.39367
G01 X11.51956 Y14.34633
G01 X11.46122 Y14.33987
G01 X6.35864 Y14.33987
G01 X6.23773 Y14.31968
G01 X6.20011 Y14.30871
G01 X6.17974 Y14.29809
G01 X6.12242 Y14.26190
G01 X6.06631 Y14.21887
G01 X5.31871 Y13.47122
G01 X5.26430 Y13.39804
G01 X5.22877 Y13.33721
G01 X5.21515 Y13.28938
G01 X5.19892 Y13.19185
G01 X5.19765 Y13.02702
G01 X5.18488 Y12.94493
G01 X5.14657 Y12.86284
G01 X5.09905 Y12.78649
G01 X5.15026 Y12.61095
G01 X5.17436 Y12.49634
G01 X5.19527 Y12.34074
G01 X5.20253 Y12.17399
G01 X5.19887 Y12.06607
G01 X5.17802 Y11.88481
G01 X5.14185 Y11.71552
G01 X5.09885 Y11.57366
G01 X5.01363 Y11.55456
G01 X4.93804 Y11.52865
G01 X4.87416 Y11.48999
G01 X4.75973 Y11.40717
G01 X4.64081 Y11.35332
G01 X4.54467 Y11.31773
G01 X4.45828 Y11.30259
G01 X4.31366 Y11.28738
G01 X4.21096 Y11.29693
G01 X4.11721 Y11.31108
G01 X4.08244 Y11.31791
G01 X4.02514 Y11.33815
G01 X3.86710 Y11.40676
G01 X3.79435 Y11.45812
G01 X3.68252 Y11.54872
G01 X3.60797 Y11.63935
G01 X3.54091 Y11.73381
G01 X3.48595 Y11.85553
G01 X3.45138 Y11.94895
G01 X3.42826 Y12.09693
G01 X3.42085 Y12.17994
G01 X3.43106 Y12.28641
G01 X3.45178 Y12.41077
G01 X3.49923 Y12.53635
G01 X3.53393 Y12.61280
G01 X3.58714 Y12.69271
G01 X3.64482 Y12.76695
G01 X3.69237 Y12.81991
G01 X3.76672 Y12.88072
G01 X3.86730 Y12.95273
G01 X3.98097 Y13.00432
G01 X4.08244 Y13.04221
G01 X4.16397 Y13.05649
G01 X4.31366 Y13.07249
G01 X4.42389 Y13.06200
G01 X4.54457 Y13.04193
G01 X4.66270 Y12.99748
G01 X4.75999 Y12.95309
G01 X4.89379 Y12.85575
G01 X4.97307 Y12.81720
G01 X5.09905 Y12.78649
G01 X5.13159 Y12.68207
G01 X5.17149 Y12.51199
G01 X5.18739 Y12.41186
G01 X5.20085 Y12.25705
G01 X5.19971 Y12.07999
G01 X5.18048 Y11.89985
G01 X5.14185 Y11.71552
G01 X5.09885 Y11.57366
G01 X5.14657 Y11.49701
G01 X5.18488 Y11.41491
G01 X5.19765 Y11.33284
G01 X5.19765 Y11.12685
G01 X5.19242 Y11.07435
G01 X5.15902 Y11.03358
G01 X4.66321 Y10.53777
G01 X4.60517 Y10.49371
G01 X4.43901 Y10.51994
G01 X4.31368 Y10.53249
G01 X4.14718 Y10.51377
G01 X4.08275 Y10.50112
G01 X4.01089 Y10.47615
G01 X3.86753 Y10.41235
G01 X3.77213 Y10.34478
G01 X3.68262 Y10.27102
G01 X3.57716 Y10.13887
G01 X3.54152 Y10.08568
G01 X3.51574 Y10.03364
G01 X3.45178 Y9.87077
G01 X3.43065 Y9.74214
G01 X3.42153 Y9.63991
G01 X3.44208 Y9.45960
G01 X3.45224 Y9.40920
G01 X3.47185 Y9.35190
G01 X3.54084 Y9.19376
G01 X3.60235 Y9.10679
G01 X3.68259 Y9.00880
G01 X3.76740 Y8.93859
G01 X3.85473 Y8.87524
G01 X3.96149 Y8.82371
G01 X4.08252 Y8.77794
G01 X4.18828 Y8.75985
G01 X4.31366 Y8.74756
G01 X4.41300 Y8.75647
G01 X4.51952 Y8.77280
G01 X4.54449 Y8.77816
G01 X4.63215 Y8.80989
G01 X4.75978 Y8.86717
G01 X4.83019 Y8.91619
G01 X4.94449 Y9.00910
G01 X5.00266 Y9.07799
G01 X5.08638 Y9.19383
G01 X5.12166 Y9.26869
G01 X5.17543 Y9.40902
G01 X5.18907 Y9.48314
G01 X5.20560 Y9.63963
G01 X5.19920 Y9.71857
G01 X5.16433 Y9.94453
G01 X5.20845 Y10.00270
G01 X5.84030 Y10.63465
G01 X5.90329 Y10.72088
G01 X5.93123 Y10.76838
G01 X5.95089 Y10.84951
G01 X5.96156 Y10.92698
G01 X5.96156 Y11.33892
G01 X5.97433 Y11.42101
G01 X6.01264 Y11.50310
G01 X6.06120 Y11.58110
G04 P0 ( dwell for no time -- G64 should not smooth over this point )
G00 Z10.00000 ( retract )

G00 X5.96085 Y9.63993 ( rapid move to begin. )
G01 F30.00000
( Mill infeed pass 1/1 )
G01 Z-0.10000
G04 P0 ( dwell for no time -- G64 should not smooth over this point )
G01 F360.00000
G01 X5.96085 Y9.63993
G01 X5.96826 Y9.55693
G01 X5.99138 Y9.40895
G01 X6.02595 Y9.31553
G01 X6.08091 Y9.19381
G01 X6.14797 Y9.09935
G01 X6.22252 Y9.00872
G01 X6.33435 Y8.91812
G01 X6.40710 Y8.86676
G01 X6.49912 Y8.82462
G01 X6.62252 Y8.77788
G01 X6.73755 Y8.75858
G01 X6.85366 Y8.74723
G01 X6.99828 Y8.76257
G01 X7.08462 Y8.77773
G01 X7.18081 Y8.81332
G01 X7.29978 Y8.86717
G01 X7.39658 Y8.93600
G01 X7.48477 Y9.00882
G01 X7.57009 Y9.11347
G01 X7.62686 Y9.19356
G01 X7.66572 Y9.27798
G01 X7.71568 Y9.40897
G01 X7.73532 Y9.52668
G01 X7.74626 Y9.63991
G01 X7.73054 Y9.78743
G01 X7.71601 Y9.87097
G01 X7.68325 Y9.95959
G01 X7.62653 Y10.08609
G01 X7.55625 Y10.18451
G01 X7.48480 Y10.27105
G01 X7.36884 Y10.36470
G01 X7.30001 Y10.41309
G01 X7.20270 Y10.45748
G01 X7.08457 Y10.50193
G01 X6.96389 Y10.52200
G01 X6.85366 Y10.53249
G01 X6.70397 Y10.51649
G01 X6.62244 Y10.50221
G01 X6.52097 Y10.46432
G01 X6.40728 Y10.41273
G01 X6.30672 Y10.34072
G01 X6.22254 Y10.27110
G01 X6.12714 Y10.15271
G01 X6.08056 Y10.08624
G01 X6.03923 Y9.99635
G01 X5.99178 Y9.87077
G01 X5.97106 Y9.74641
G01 X5.96085 Y9.63993
G04 P0 ( dwell for no time -- G64 should not smooth over this point )
G00 Z10.00000 ( retract )

G00 X8.50085 Y12.17994 ( rapid move to begin. )
G01 F30.00000
( Mill infeed pass 1/1 )
G01 Z-0.10000
G04 P0 ( dwell for no time -- G64 should not smooth over this point )
G01 F360.00000
G01 X8.50085 Y12.17994
G01 X8.51106 Y12.28641
G01 X8.53178 Y12.41077
G01 X8.57923 Y12.53635
G01 X8.62056 Y12.62624
G01 X8.66714 Y12.69271
G01 X8.76254 Y12.81110
G01 X8.84672 Y12.88072
G01 X8.94730 Y12.95273
G01 X9.06097 Y13.00432
G01 X9.16244 Y13.04221
G01 X9.24397 Y13.05649
G01 X9.39366 Y13.07249
G01 X9.50389 Y13.06200
G01 X9.62457 Y13.04193
G01 X9.74270 Y12.99748
G01 X9.84001 Y12.95309
G01 X9.90884 Y12.90470
G01 X10.02480 Y12.81105
G01 X10.09625 Y12.72451
G01 X10.16653 Y12.62609
G01 X10.22325 Y12.49959
G01 X10.25601 Y12.41097
G01 X10.27054 Y12.32743
G01 X10.28626 Y12.17991
G01 X10.27532 Y12.06668
G01 X10.25568 Y11.94897
G01 X10.20572 Y11.81798
G01 X10.16686 Y11.73356
G01 X10.11009 Y11.65347
G01 X10.02477 Y11.54882
G01 X9.93658 Y11.47600
G01 X9.83978 Y11.40717
G01 X9.72081 Y11.35332
G01 X9.62467 Y11.31773
G01 X9.53828 Y11.30259
G01 X9.39366 Y11.28738
G01 X9.27755 Y11.29863
G01 X9.16244 Y11.31791
G01 X9.03912 Y11.36462
G01 X8.94710 Y11.40676
G01 X8.87435 Y11.45812
G01 X8.76252 Y11.54872
G01 X8.68797 Y11.63935
G01 X8.62091 Y11.73381
G01 X8.56595 Y11.85553
G01 X8.53138 Y11.94895
G01 X8.50826 Y12.09693
G01 X8.50085 Y12.17994
G04 P0 ( dwell for no time -- G64 should not smooth over this point )
G00 Z10.00000 ( retract )

G00 X8.50085 Y9.63993 ( rapid move to begin. )
G01 F30.00000
( Mill infeed pass 1/1 )
G01 Z-0.10000
G04 P0 ( dwell for no time -- G64 should not smooth over this point )
G01 F360.00000
G01 X8.50085 Y9.63993
G01 X8.51106 Y9.74641
G01 X8.53178 Y9.87077
G01 X8.57923 Y9.99635
G01 X8.62056 Y10.08624
G01 X8.66714 Y10.15271
G01 X8.76254 Y10.27110
G01 X8.84672 Y10.34072
G01 X8.94730 Y10.41273
G01 X9.06097 Y10.46432
G01 X9.16244 Y10.50221
G01 X9.24397 Y10.51649
G01 X9.39366 Y10.53249
G01 X9.50389 Y10.52200
G01 X9.62457 Y10.50193
G01 X9.74270 Y10.45748
G01 X9.84001 Y10.41309
G01 X9.90884 Y10.36470
G01 X10.02480 Y10.27105
G01 X10.09625 Y10.18451
G01 X10.16653 Y10.08609
G01 X10.22325 Y9.95959
G01 X10.25601 Y9.87097
G01 X10.27054 Y9.78743
G01 X10.28626 Y9.63991
G01 X10.27532 Y9.52668
G01 X10.25568 Y9.40897
G01 X10.20572 Y9.27798
G01 X10.16686 Y9.19356
G01 X10.11009 Y9.11347
G01 X10.02477 Y9.00882
G01 X9.93658 Y8.93600
G01 X9.83978 Y8.86717
G01 X9.72081 Y8.81332
G01 X9.62462 Y8.77773
G01 X9.53828 Y8.76257
G01 X9.39366 Y8.74723
G01 X9.27755 Y8.75858
G01 X9.16252 Y8.77788
G01 X9.03912 Y8.82462
G01 X8.94710 Y8.86676
G01 X8.87435 Y8.91812
G01 X8.76252 Y9.00872
G01 X8.68797 Y9.09935
G01 X8.62091 Y9.19381
G01 X8.56595 Y9.31553
G01 X8.53138 Y9.40895
G01 X8.50826 Y9.55693
G01 X8.50085 Y9.63993
G04 P0 ( dwell for no time -- G64 should not smooth over this point )
G00 Z10.00000 ( retract )

G00 X12.50719 Y4.46634 ( rapid move to begin. )
G01 F30.00000
( Mill infeed pass 1/1 )
G01 Z-0.10000
G04 P0 ( dwell for no time -- G64 should not smooth over this point )
G01 F360.00000
G01 X12.50719 Y4.46634
G01 X12.57399 Y4.53314
G01 X12.75766 Y4.53314
G01 X12.82446 Y4.46634
G01 X12.50719 Y4.46634
G04 P0 ( dwell for no time -- G64 should not smooth over this point )
G00 Z10.00000 ( retract )

G00 X10.94110 Y4.23324 ( rapid move to begin. )
G01 F30.00000
( Mill infeed pass 1/1 )
G01 Z-0.10000
G04 P0 ( dwell for no time -- G64 should not smooth over this point )
G01 F360.00000
G01 X10.94110 Y4.23324
G01 X10.97430 Y4.26644
G01 X11.23302 Y4.26644
G01 X11.23302 Y4.19989
G01 X10.97437 Y4.19989
G01 X10.94110 Y4.23324
G04 P0 ( dwell for no time -- G64 should not smooth over this point )
G00 Z10.00000 ( retract )

G00 X10.09993 Y2.46659 ( rapid move to begin. )
G01 F30.00000
( Mill infeed pass 1/1 )
G01 Z-0.10000
G04 P0 ( dwell for no time -- G64 should not smooth over this point )
G01 F360.00000
G01 X10.09993 Y2.46659
G01 X10.09993 Y2.79984
G01 X10.35837 Y2.79984
G01 X10.43318 Y2.72506
G01 X10.43318 Y2.54122
G01 X10.35842 Y2.46659
G01 X10.09993 Y2.46659
G04 P0 ( dwell for no time -- G64 should not smooth over this point )
G00 Z10.00000 ( retract )

G00 X10.90795 Y2.46659 ( rapid move to begin. )
G01 F30.00000
( Mill infeed pass 1/1 )
G01 Z-0.10000
G04 P0 ( dwell for no time -- G64 should not smooth over this point )
G01 F360.00000
G01 X10.90795 Y2.46659
G01 X10.97437 Y2.53314
G01 X11.15822 Y2.53314
G01 X11.22477 Y2.46659
G01 X10.90795 Y2.46659
G04 P0 ( dwell for no time -- G64 should not smooth over this point )
G00 Z10.00000 ( retract )

G00 X10.09993 Y0.46660 ( rapid move to begin. )
G01 F30.00000
( Mill infeed pass 1/1 )
G01 Z-0.10000
G04 P0 ( dwell for no time -- G64 should not smooth over this point )
G01 F360.00000
G01 X10.09993 Y0.46660
G01 X10.09993 Y0.79985
G01 X10.35837 Y0.79985
G01 X10.43318 Y0.72507
G01 X10.43318 Y0.54125
G01 X10.35842 Y0.46660
G01 X10.09993 Y0.46660
G04 P0 ( dwell for no time -- G64 should not smooth over this point )
G00 Z10.00000 ( retract )

G00 X6.35010 Y3.49989 ( rapid move to begin. )
G01 F30.00000
( Mill infeed pass 1/1 )
G01 Z-0.10000
G04 P0 ( dwell for no time -- G64 should not smooth over this point )
G01 F360.00000
G01 X6.35010 Y3.49989
G01 X5.69989 Y2.89979
G01 X4.90004 Y2.09995
G01 X4.33220 Y1.49990
G01 X3.69580 Y0.89573
G01 X2.80449 Y0.00000
G01 X3.69580 Y0.89573
G01 X4.33220 Y1.49990
G01 X7.29242 Y1.49609
G01 X8.79018 Y1.50106
G01 X9.98885 Y1.49990
G01 X10.08352 Y1.50350
G01 X10.26678 Y1.52994
G01 X10.39912 Y1.50741
G01 X10.73280 Y1.46977
G01 X10.97775 Y1.36350
G01 X11.40198 Y1.36728
G01 X11.53282 Y1.40307
G01 X11.69543 Y1.37676
G01 X11.99932 Y1.34849
G01 X12.13228 Y1.38394
G01 X12.38877 Y1.36644
G01 X12.76490 Y1.36634
G01 X12.86571 Y1.40653
G01 X13.06639 Y1.42664
G01 X13.17978 Y1.43264
G01 X13.34948 Y1.42464
G01 X13.47602 Y1.40437
G01 X13.66472 Y1.36746
G01 X13.81973 Y1.28933
G01 X14.05064 Y1.40312
G01 X14.39883 Y1.52184
G01 X14.56182 Y1.50454
G01 X14.66517 Y1.49972
G01 X15.13022 Y1.49990
G01 X15.50645 Y1.37696
G01 X15.40452 Y1.11473
G01 X15.27556 Y0.72883
G01 X15.26718 Y0.68019
G01 X15.26484 Y0.61730
G01 X15.27139 Y0.55844
G01 X15.28630 Y0.50246
G01 X15.22098 Y0.34379
G01 X15.20116 Y0.27219
G01 X15.19865 Y0.00000
G01 X12.06571 Y0.00000
G01 X12.06566 Y0.10521
G01 X12.05662 Y0.18377
G01 X12.03490 Y0.25667
G01 X11.99932 Y0.32982
G01 X11.99932 Y1.34849
G01 X12.13228 Y1.38394
G01 X12.13249 Y1.95489
G01 X12.13462 Y2.01501
G01 X12.14166 Y2.07086
G01 X12.16142 Y2.14757
G01 X12.18768 Y2.21003
G01 X12.21727 Y2.25981
G01 X12.27130 Y2.32667
G01 X12.29307 Y2.41879
G01 X12.26944 Y2.52006
G01 X12.26508 Y2.59611
G01 X12.26688 Y3.25544
G01 X12.41120 Y3.30403
G01 X12.57016 Y3.36601
G01 X12.47468 Y3.61053
G01 X12.35349 Y3.96659
G01 X12.28578 Y4.13090
G01 X12.27298 Y4.17258
G01 X12.26693 Y4.21048
G01 X12.26825 Y4.53400
G01 X12.27607 Y4.57281
G01 X12.32009 Y4.70520
G01 X12.33000 Y4.78297
G01 X12.33320 Y4.92666
G01 X12.33241 Y5.90865
G01 X12.53259 Y5.91650
G01 X12.79906 Y5.91650
G01 X13.00002 Y5.90812
G01 X13.08522 Y5.91299
G01 X13.59888 Y5.91650
G01 X13.78476 Y5.90921
G01 X13.94874 Y5.89260
G01 X14.31176 Y5.99727
G01 X14.35400 Y6.00583
G01 X14.75047 Y6.04876
G01 X15.06576 Y6.03405
G01 X15.34211 Y6.04957
G01 X15.65029 Y6.02722
G01 X15.93731 Y5.96984
G01 X16.12463 Y5.91312
G01 X16.19512 Y5.90842
G01 X16.39748 Y5.91622
G01 X16.66283 Y5.91289
G01 X16.81340 Y5.91589
G01 X17.06621 Y5.90240
G01 X17.33090 Y5.91650
G01 X17.59763 Y5.91650
G01 X17.79455 Y5.90842
G01 X17.98257 Y5.91622
G01 X18.12638 Y5.91650
G01 X18.42102 Y5.89907
G01 X18.66920 Y5.86003
G01 X18.91739 Y5.79506
G01 X19.12884 Y5.88462
G01 X19.46364 Y5.98673
G01 X19.80390 Y6.04093
G01 X20.00098 Y6.04985
G01 X20.54456 Y6.04957
G01 X20.82043 Y6.03133
G01 X21.13872 Y5.96984
G01 X21.32597 Y5.91315
G01 X21.39963 Y5.90868
G01 X21.58738 Y5.91622
G01 X21.99790 Y5.91650
G01 X22.23275 Y5.90499
G01 X22.34824 Y5.89239
G01 X22.66251 Y5.98673
G01 X23.05761 Y6.04451
G01 X23.09917 Y6.04670
G01 X23.48616 Y6.03133
G01 X23.51743 Y6.02722
G01 X23.86348 Y5.95320
G01 X23.99348 Y5.91243
G01 X24.13201 Y5.91650
G01 X24.39845 Y5.91650
G01 X24.59553 Y5.90840
G01 X24.84961 Y5.91543
G01 X25.06665 Y5.90250
G01 X25.21803 Y5.91299
G01 X25.53518 Y5.90837
G01 X25.73147 Y5.91650
G01 X25.99817 Y5.91650
G01 X26.19916 Y5.90812
G01 X26.28433 Y5.91299
G01 X26.79776 Y5.91650
G01 X26.98361 Y5.90921
G01 X27.35392 Y5.85597
G01 X27.76149 Y5.73441
G01 X27.80304 Y5.71845
G01 X28.07863 Y5.59689
G01 X28.38549 Y5.42463
G01 X28.73583 Y5.18475
G01 X29.08615 Y4.89450
G01 X29.42270 Y4.57391
G01 X29.71772 Y4.25559
G01 X30.01272 Y3.90215
G01 X30.30771 Y3.51356
G01 X30.47688 Y3.27746
G01 X30.89354 Y3.06921
G01 X31.32981 Y2.82153
G01 X31.89864 Y2.45488
G01 X32.49681 Y2.01394
G01 X33.23120 Y1.39842
G01 X33.96557 Y0.69761
G01 X34.37920 Y0.28420
G01 X34.65579 Y0.00000
G01 X0.00000 Y0.00000
G01 X0.00000 Y27.41993
G01 X45.72000 Y27.41993
G01 X45.72000 Y0.00000
G01 X34.65579 Y0.00000
G01 X34.37920 Y0.28420
G01 X33.96557 Y0.69761
G01 X33.23120 Y1.39842
G01 X32.49681 Y2.01394
G01 X31.89864 Y2.45488
G01 X31.32981 Y2.82153
G01 X30.89354 Y3.06921
G01 X30.47688 Y3.27746
G01 X29.95480 Y3.18541
G01 X29.59992 Y3.12862
G01 X28.46723 Y2.96675
G01 X27.26558 Y2.61777
G01 X27.06444 Y2.56931
G01 X26.73335 Y2.50015
G01 X26.72850 Y1.75382
G01 X26.73203 Y1.22309
G01 X26.71945 Y1.07000
G01 X26.67457 Y0.87384
G01 X26.66456 Y0.78806
G01 X26.66479 Y0.60848
G01 X26.68138 Y0.50112
G01 X26.66883 Y0.43619
G01 X26.66502 Y0.33058
G01 X26.70269 Y0.25011
G01 X26.76873 Y0.05413
G01 X26.78194 Y0.00000
G01 X25.39086 Y0.00000
G01 X25.37496 Y0.06878
G01 X25.34575 Y0.13988
G01 X25.28209 Y0.26241
G01 X25.22959 Y0.33254
G01 X25.31669 Y0.54257
G01 X25.32845 Y0.58778
G01 X25.33233 Y0.62804
G01 X25.33284 Y2.35697
G01 X24.93363 Y2.36969
G01 X24.83490 Y2.48323
G01 X24.62444 Y2.76167
G01 X24.38895 Y3.11437
G01 X24.22441 Y3.21711
G01 X23.93193 Y3.37025
G01 X23.93434 Y3.67127
G01 X23.93165 Y3.91828
G01 X23.92944 Y3.96027
G01 X23.91540 Y4.04622
G01 X23.89464 Y4.10713
G01 X23.76640 Y4.36192
G01 X23.66802 Y4.56943
G01 X23.66749 Y4.69067
G01 X23.68875 Y4.84198
G01 X23.99348 Y5.91243
G01 X24.13201 Y5.91650
G01 X24.39845 Y5.91650
G01 X24.59553 Y5.90840
G01 X24.60046 Y5.43174
G01 X24.59932 Y4.81018
G01 X24.60963 Y4.71180
G01 X24.62845 Y4.64416
G01 X24.65131 Y4.58495
G01 X24.66210 Y4.53888
G01 X24.66823 Y4.19425
G01 X24.67897 Y4.14825
G01 X24.71646 Y4.03941
G01 X24.72533 Y3.99303
G01 X24.73157 Y3.90119
G01 X24.73107 Y3.83225
G01 X24.47641 Y3.31828
G01 X24.38895 Y3.11437
G01 X24.22441 Y3.21711
G01 X23.93193 Y3.37025
G01 X23.67608 Y3.44975
G01 X23.46957 Y3.49133
G01 X23.33219 Y3.50009
G01 X23.18784 Y3.50017
G01 X23.06571 Y3.50766
G01 X22.79914 Y3.53685
G01 X22.60437 Y3.64523
G01 X22.38284 Y3.56202
G01 X22.26589 Y3.52953
G01 X22.11555 Y3.49641
G01 X21.85472 Y3.31097
G01 X21.77029 Y3.25646
G01 X21.56790 Y3.15095
G01 X21.53427 Y2.83606
G01 X21.59777 Y2.77048
G01 X21.70791 Y2.64401
G01 X21.78578 Y2.52542
G01 X21.80689 Y2.48376
G01 X21.83775 Y2.40665
G01 X21.85883 Y2.31910
G01 X21.86981 Y2.17180
G01 X21.90542 Y2.00622
G01 X21.92538 Y1.88895
G01 X21.93252 Y1.76662
G01 X21.93242 Y1.45519
G01 X21.79544 Y1.36860
G01 X21.60834 Y1.42999
G01 X21.46836 Y1.46957
G01 X21.26699 Y1.51481
G01 X21.14522 Y1.50277
G01 X21.06244 Y1.49969
G01 X20.77517 Y1.50094
G01 X20.60067 Y1.51468
G01 X20.39955 Y1.47023
G01 X20.31947 Y1.48471
G01 X20.13816 Y1.49939
G01 X18.81861 Y1.50147
G01 X18.22922 Y2.33167
G01 X18.00527 Y2.35501
G01 X17.80070 Y2.57713
G01 X17.59994 Y2.75925
G01 X17.40593 Y2.92311
G01 X17.12979 Y3.12484
G01 X16.79776 Y3.27513
G01 X16.53184 Y3.34823
G01 X16.26461 Y3.37276
G01 X15.93301 Y3.35313
G01 X15.93116 Y2.84731
G01 X15.93695 Y2.74853
G01 X15.94681 Y2.69354
G01 X15.99141 Y2.55854
G01 X16.00548 Y2.43675
G01 X16.01475 Y2.40548
G01 X16.03212 Y2.36733
G01 X16.00622 Y2.29845
G01 X15.99796 Y2.23319
G01 X15.99656 Y1.83004
G01 X16.00195 Y1.41374
G01 X15.83058 Y1.36368
G01 X15.73149 Y1.37262
G01 X15.59834 Y1.39141
G01 X15.50645 Y1.37696
G01 X15.13022 Y1.49990
G01 X15.13401 Y1.95306
G01 X15.14721 Y2.03952
G01 X15.19253 Y2.17945
G01 X15.19834 Y2.23330
G01 X15.19834 Y2.49974
G01 X15.19288 Y2.55179
G01 X15.14721 Y2.69354
G01 X15.13746 Y2.74846
G01 X15.13317 Y2.80294
G01 X15.13126 Y3.14058
G01 X15.13423 Y3.36634
G01 X15.36807 Y3.36746
G01 X15.53139 Y3.37988
G01 X15.52959 Y3.94617
G01 X15.52438 Y4.00101
G01 X15.51272 Y4.05473
G01 X15.47132 Y4.17571
G01 X15.46553 Y4.24899
G01 X15.47134 Y4.29108
G01 X15.48465 Y4.33527
G01 X15.55410 Y4.50098
G01 X15.53865 Y4.55869
G01 X15.53220 Y4.61742
G01 X15.53464 Y4.68005
G01 X15.54310 Y4.72844
G01 X15.56995 Y4.80652
G01 X15.59745 Y4.86171
G01 X15.78054 Y5.14607
G01 X15.95694 Y5.50296
G01 X16.12463 Y5.91312
G01 X16.19512 Y5.90842
G01 X16.20004 Y5.43123
G01 X16.19700 Y5.08721
G01 X16.19951 Y4.80289
G01 X16.20370 Y4.74850
G01 X16.21333 Y4.69359
G01 X16.25079 Y4.58483
G01 X16.26156 Y4.53885
G01 X16.26464 Y4.49976
G01 X16.26535 Y3.87414
G01 X16.26154 Y3.63207
G01 X16.26461 Y3.37276
G01 X15.93301 Y3.35313
G01 X15.93116 Y2.84731
G01 X15.93695 Y2.74853
G01 X15.94681 Y2.69354
G01 X15.99141 Y2.55854
G01 X16.00548 Y2.43675
G01 X16.01475 Y2.40548
G01 X16.03212 Y2.36733
G01 X16.70096 Y2.36654
G01 X16.97134 Y2.37043
G01 X17.99107 Y2.36822
G01 X18.00527 Y2.35501
G01 X17.88886 Y2.24970
G01 X17.58259 Y1.95870
G01 X17.39582 Y1.78966
G01 X17.19758 Y1.66324
G01 X17.03207 Y1.56855
G01 X16.85775 Y1.48440
G01 X16.74386 Y1.43322
G01 X16.27726 Y1.43322
G01 X16.13350 Y1.42677
G01 X16.00195 Y1.41374
G01 X15.83058 Y1.36368
G01 X15.93167 Y0.96464
G01 X15.93479 Y0.77051
G01 X15.94904 Y0.68252
G01 X15.98046 Y0.60137
G01 X16.03459 Y0.49472
G01 X16.06474 Y0.44587
G01 X16.06743 Y0.18928
G01 X16.07861 Y0.12911
G01 X16.11478 Y0.00000
G01 X16.64769 Y0.00000
G01 X16.62483 Y0.08684
G01 X16.59893 Y0.16464
G01 X16.56786 Y0.25446
G01 X16.53118 Y0.34341
G01 X16.53118 Y0.40223
G01 X16.57561 Y0.49977
G01 X16.63101 Y0.66652
G01 X16.64546 Y0.72065
G01 X16.65463 Y0.77023
G01 X16.66339 Y0.89682
G01 X16.66481 Y1.03274
G01 X16.74386 Y1.43322
G01 X17.03207 Y1.56855
G01 X17.19758 Y1.66324
G01 X17.39582 Y1.78966
G01 X17.39956 Y1.43175
G01 X17.39910 Y0.80294
G01 X17.40339 Y0.74846
G01 X17.41315 Y0.69355
G01 X17.45417 Y0.57292
G01 X17.46349 Y0.51961
G01 X17.46898 Y0.44910
G01 X17.48089 Y0.40536
G01 X17.49814 Y0.36733
G01 X17.42770 Y0.22812
G01 X17.39141 Y0.16932
G01 X17.39727 Y0.09987
G01 X17.39684 Y0.00000
G01 X17.39727 Y0.09987
G01 X17.39141 Y0.16932
G01 X17.42770 Y0.22812
G01 X17.49814 Y0.36733
G01 X18.16705 Y0.36655
G01 X18.43743 Y0.37043
G01 X18.87741 Y0.36949
G01 X18.86986 Y0.24783
G01 X18.86552 Y0.00000
G01 X18.86986 Y0.24783
G01 X18.87741 Y0.36949
G01 X18.88876 Y0.43327
G01 X18.86824 Y0.64760
G01 X18.81861 Y1.50147
G01 X18.22922 Y2.33167
G01 X18.00527 Y2.35501
G01 X17.80070 Y2.57713
G01 X17.59994 Y2.75925
G01 X17.37482 Y2.94714
G01 X17.12979 Y3.12484
G01 X16.79776 Y3.27513
G01 X16.53184 Y3.34823
G01 X16.26461 Y3.37276
G01 X15.93301 Y3.35313
G01 X15.53139 Y3.37988
G01 X15.36807 Y3.36746
G01 X15.15478 Y3.36588
G01 X15.13423 Y3.36634
G01 X15.06553 Y3.38442
G01 X14.93162 Y3.37274
G01 X14.78808 Y3.36680
G01 X14.66517 Y3.37276
G01 X14.33241 Y3.40269
G01 X14.32918 Y2.90279
G01 X14.31757 Y2.78661
G01 X14.27797 Y2.61551
G01 X14.26832 Y2.55361
G01 X14.26525 Y2.32982
G01 X14.30083 Y2.25666
G01 X14.32001 Y2.20269
G01 X14.36507 Y2.06657
G01 X14.38869 Y1.96286
G01 X14.39774 Y1.85638
G01 X14.39883 Y1.52184
G01 X14.39774 Y1.85638
G01 X14.38869 Y1.96286
G01 X14.36507 Y2.06657
G01 X14.32001 Y2.20269
G01 X14.30083 Y2.25666
G01 X14.26525 Y2.32982
G01 X14.26832 Y2.55361
G01 X14.27797 Y2.61551
G01 X14.31757 Y2.78661
G01 X14.32918 Y2.90279
G01 X14.33241 Y3.40269
G01 X13.99868 Y3.58437
G01 X13.99868 Y3.91701
G01 X14.07983 Y4.09994
G01 X14.11735 Y4.19420
G01 X14.17927 Y4.42255
G01 X14.18587 Y4.46410
G01 X14.19705 Y4.67507
G01 X14.19489 Y4.71663
G01 X14.16858 Y4.89979
G01 X13.94874 Y5.89260
G01 X14.16858 Y4.89979
G01 X14.19489 Y4.71663
G01 X14.19705 Y4.67507
G01 X14.18587 Y4.46410
G01 X14.17927 Y4.42255
G01 X14.11735 Y4.19420
G01 X14.07983 Y4.09994
G01 X13.99868 Y3.91701
G01 X13.99868 Y3.58437
G01 X13.72885 Y3.45597
G01 X13.73518 Y3.10063
G01 X13.73076 Y2.43677
G01 X13.75606 Y2.41678
G01 X13.78450 Y2.33957
G01 X13.79426 Y2.29146
G01 X13.70307 Y2.10716
G01 X13.68237 Y2.04643
G01 X13.67465 Y2.00993
G01 X13.66799 Y1.95024
G01 X13.66505 Y1.85552
G01 X13.66365 Y1.51442
G01 X13.66472 Y1.36746
G01 X13.81973 Y1.28933
G01 X13.83050 Y1.21755
G01 X13.90825 Y0.86713
G01 X13.93147 Y0.64869
G01 X13.92634 Y0.51745
G01 X13.90226 Y0.36723
G01 X13.92293 Y0.24745
G01 X13.93129 Y0.14181
G01 X13.93172 Y0.00000
G01 X13.04910 Y0.00000
G01 X13.04435 Y0.02649
G01 X13.01283 Y0.12908
G01 X13.00160 Y0.18918
G01 X12.99873 Y0.44582
G01 X12.96873 Y0.49439
G01 X12.91382 Y0.60317
G01 X12.88341 Y0.68255
G01 X12.86888 Y0.77071
G01 X12.86502 Y0.96523
G01 X12.76490 Y1.36634
G01 X12.86571 Y1.40653
G01 X12.86642 Y2.30038
G01 X12.82243 Y2.34229
G01 X12.80190 Y2.44729
G01 X12.79934 Y2.50322
G01 X12.80886 Y2.59941
G01 X12.85146 Y2.78658
G01 X12.86302 Y2.90269
G01 X12.86706 Y3.09408
G01 X12.86584 Y3.33019
G01 X12.71013 Y3.35542
G01 X12.57016 Y3.36601
G01 X12.41120 Y3.30403
G01 X12.26688 Y3.25544
G01 X11.99944 Y3.22570
G01 X11.86594 Y3.20352
G01 X11.40003 Y3.30693
G01 X11.39891 Y2.87731
G01 X11.40325 Y2.76746
G01 X11.41222 Y2.70632
G01 X11.42449 Y2.65984
G01 X11.48768 Y2.50952
G01 X11.52812 Y2.33053
G01 X11.53190 Y2.23975
G01 X11.52561 Y2.18379
G01 X11.51136 Y2.11099
G01 X11.52398 Y2.04500
G01 X11.53196 Y1.93284
G01 X11.53399 Y1.80746
G01 X11.53282 Y1.40307
G01 X11.40198 Y1.36728
G01 X11.39848 Y0.85659
G01 X11.40033 Y0.36820
G01 X11.23124 Y0.24054
G01 X11.20625 Y0.19832
G01 X11.19998 Y0.09995
G01 X11.19947 Y0.00000
G01 X10.44504 Y0.00000
G01 X10.50402 Y0.08933
G01 X10.55014 Y0.16871
G01 X10.64362 Y0.38903
G01 X10.66236 Y0.45410
G01 X10.66653 Y0.49977
G01 X10.66668 Y0.63838
G01 X10.67051 Y0.67927
G01 X10.67907 Y0.71389
G01 X10.69980 Y0.76645
G01 X10.81159 Y0.99121
G01 X10.93186 Y1.22113
G01 X10.97775 Y1.36350
G01 X10.73280 Y1.46977
G01 X10.73287 Y1.84130
G01 X10.72650 Y1.99664
G01 X10.71174 Y2.06540
G01 X10.70041 Y2.09807
G01 X10.65329 Y2.19151
G01 X10.60646 Y2.30012
G01 X10.65225 Y2.41381
G01 X10.66411 Y2.46545
G01 X10.66952 Y2.53883
G01 X10.68502 Y2.59799
G01 X10.76193 Y2.78836
G01 X10.89005 Y3.17251
G01 X10.96891 Y3.36741
G01 X10.73374 Y3.47015
G01 X10.73193 Y3.94274
G01 X10.72418 Y4.00977
G01 X10.71646 Y4.04625
G01 X10.69579 Y4.10713
G01 X10.56754 Y4.36192
G01 X10.46904 Y4.56931
G01 X10.46851 Y4.69064
G01 X10.48532 Y4.82102
G01 X10.50750 Y4.91058
G01 X10.79343 Y5.91238
G01 X10.93292 Y5.91650
G01 X11.19962 Y5.91650
G01 X11.39655 Y5.90842
G01 X11.40148 Y5.43128
G01 X11.40033 Y4.81005
G01 X11.41067 Y4.71170
G01 X11.46200 Y4.54533
G01 X11.46617 Y4.49976
G01 X11.46617 Y4.23332
G01 X11.46924 Y4.19425
G01 X11.48001 Y4.14820
G01 X11.51753 Y4.03944
G01 X11.52642 Y3.99306
G01 X11.53272 Y3.90075
G01 X11.53290 Y3.83375
G01 X11.29812 Y3.36306
G01 X11.40003 Y3.30693
G01 X11.29812 Y3.36306
G01 X11.19960 Y3.36702
G01 X10.96891 Y3.36741
G01 X10.73374 Y3.47015
G01 X10.53259 Y3.49253
G01 X10.42152 Y3.49898
G01 X6.35010 Y3.49989
G01 X6.90199 Y4.10192
G01 X7.71230 Y4.91170
G01 X8.01119 Y5.18998
G01 X8.35162 Y5.45767
G01 X8.65388 Y5.65597
G01 X8.95617 Y5.81177
G01 X9.21504 Y5.91589
G01 X9.46366 Y5.98673
G01 X9.85876 Y6.04451
G01 X10.12185 Y6.04662
G01 X10.38497 Y6.01660
G01 X10.79343 Y5.91238
G01 X10.93292 Y5.91650
G01 X11.19962 Y5.91650
G01 X11.39655 Y5.90842
G01 X11.65050 Y5.91543
G01 X11.86754 Y5.90250
G01 X12.01892 Y5.91299
G01 X12.33241 Y5.90865
G01 X12.53259 Y5.91650
G01 X12.79906 Y5.91650
G01 X13.00002 Y5.90812
G01 X12.99830 Y4.92651
G01 X13.00119 Y4.78312
G01 X13.01059 Y4.70550
G01 X13.02802 Y4.64434
G01 X13.05118 Y4.58630
G01 X13.06436 Y4.52239
G01 X13.06548 Y4.35597
G01 X13.05872 Y4.30553
G01 X13.04773 Y4.26938
G01 X13.01618 Y4.20393
G01 X12.99286 Y4.16911
G01 X12.99865 Y4.09989
G01 X12.99972 Y3.89273
G01 X12.99644 Y3.36614
G01 X12.86584 Y3.33019
G01 X12.99644 Y3.36614
G01 X13.18832 Y3.36674
G01 X13.37640 Y3.37769
G01 X13.58123 Y3.41663
G01 X13.72885 Y3.45597
G01 X13.99868 Y3.58437
G01 X14.33241 Y3.40269
G01 X14.37566 Y3.39862
G01 X14.66517 Y3.37276
G01 X14.78808 Y3.36680
G01 X14.93162 Y3.37274
G01 X15.06553 Y3.38442
G01 X15.13423 Y3.36634
G01 X15.15478 Y3.36588
G01 X15.36807 Y3.36746
G01 X15.53139 Y3.37988
G01 X15.93301 Y3.35313
G01 X16.26461 Y3.37276
G01 X16.53184 Y3.34823
G01 X16.79776 Y3.27513
G01 X17.12979 Y3.12484
G01 X17.12948 Y3.93024
G01 X17.12519 Y3.98470
G01 X17.11546 Y4.03949
G01 X17.07446 Y4.16032
G01 X17.06423 Y4.23332
G01 X17.06621 Y5.90240
G01 X17.33090 Y5.91650
G01 X17.59763 Y5.91650
G01 X17.79455 Y5.90842
G01 X17.79948 Y5.43123
G01 X17.79643 Y5.08721
G01 X17.79882 Y4.80296
G01 X17.80276 Y4.74878
G01 X17.81218 Y4.69372
G01 X17.85536 Y4.56687
G01 X17.86298 Y4.52247
G01 X17.86875 Y4.44909
G01 X17.88066 Y4.40535
G01 X17.89793 Y4.36733
G01 X19.13567 Y4.36979
G01 X17.89793 Y4.36733
G01 X17.82750 Y4.22786
G01 X17.79133 Y4.16923
G01 X17.79567 Y4.13690
G01 X17.79783 Y4.03027
G01 X17.79521 Y3.55940
G01 X17.80141 Y3.07978
G01 X17.80070 Y2.57713
G01 X18.00527 Y2.35501
G01 X18.22922 Y2.33167
G01 X18.52755 Y2.68117
G01 X19.19989 Y3.62240
G01 X19.19943 Y4.19204
G01 X19.13567 Y4.36979
G01 X19.08223 Y4.64688
G01 X18.91739 Y5.79506
G01 X19.08223 Y4.64688
G01 X19.13567 Y4.36979
G01 X19.19943 Y4.19204
G01 X19.19989 Y3.62240
G01 X19.44964 Y3.58346
G01 X20.13331 Y3.50771
G01 X20.27710 Y3.50015
G01 X20.39976 Y3.50766
G01 X20.59943 Y3.52971
G01 X20.66630 Y3.49994
G01 X20.66668 Y2.75598
G01 X20.67311 Y2.70670
G01 X20.68599 Y2.66446
G01 X20.70928 Y2.61531
G01 X20.73280 Y2.57818
G01 X20.73229 Y2.28791
G01 X20.70595 Y2.24701
G01 X20.63712 Y2.10713
G01 X20.61639 Y2.04625
G01 X20.60865 Y2.00978
G01 X20.60237 Y1.96035
G01 X20.59953 Y1.88633
G01 X20.60067 Y1.51468
G01 X20.39955 Y1.47023
G01 X20.40181 Y0.85113
G01 X20.41124 Y0.78735
G01 X20.43466 Y0.70546
G01 X20.47710 Y0.61328
G01 X20.49732 Y0.57841
G01 X20.43781 Y0.43360
G01 X20.40946 Y0.33551
G01 X20.45144 Y0.20848
G01 X20.46064 Y0.16817
G01 X20.46625 Y0.09990
G01 X20.46648 Y0.00000
G01 X21.06709 Y0.00000
G01 X21.06590 Y0.06490
G01 X21.11667 Y0.17640
G01 X21.17380 Y0.26515
G01 X21.23257 Y0.33391
G01 X21.44834 Y0.55027
G01 X21.51393 Y0.63284
G01 X21.53823 Y0.67147
G01 X21.58083 Y0.75405
G01 X21.64103 Y0.89830
G01 X21.79417 Y1.35014
G01 X21.79544 Y1.36860
G01 X21.60834 Y1.42999
G01 X21.46836 Y1.46957
G01 X21.26699 Y1.51481
G01 X21.26442 Y2.13693
G01 X21.25284 Y2.20243
G01 X21.20930 Y2.33515
G01 X21.23524 Y2.42674
G01 X21.28695 Y2.53843
G01 X21.36856 Y2.65801
G01 X21.45426 Y2.75549
G01 X21.53427 Y2.83606
G01 X21.56790 Y3.15095
G01 X21.09480 Y3.48846
G01 X21.19960 Y3.66527
G01 X21.34121 Y3.88435
G01 X21.36536 Y3.93418
G01 X21.44344 Y4.12280
G01 X21.46087 Y4.18130
G01 X21.46630 Y4.23332
G01 X21.46620 Y4.49976
G01 X21.46313 Y4.53885
G01 X21.44756 Y4.59806
G01 X21.41502 Y4.69351
G01 X21.40354 Y4.75821
G01 X21.40036 Y4.81000
G01 X21.39963 Y5.90868
G01 X21.40036 Y4.81000
G01 X21.40354 Y4.75821
G01 X21.41502 Y4.69351
G01 X21.44756 Y4.59806
G01 X21.46313 Y4.53885
G01 X21.46620 Y4.49976
G01 X21.46630 Y4.23332
G01 X21.46087 Y4.18130
G01 X21.44344 Y4.12280
G01 X21.36536 Y3.93418
G01 X21.34121 Y3.88435
G01 X21.19960 Y3.66527
G01 X21.09480 Y3.48846
G01 X20.93801 Y3.49938
G01 X20.66630 Y3.49994
G01 X20.59943 Y3.52971
G01 X20.59899 Y3.78973
G01 X20.59219 Y3.89997
G01 X20.57403 Y4.00134
G01 X20.54982 Y4.10251
G01 X20.53417 Y4.20525
G01 X20.53311 Y4.49976
G01 X20.54672 Y4.62011
G01 X20.62640 Y4.67314
G01 X20.67471 Y4.71030
G01 X20.73765 Y4.77693
G01 X20.89292 Y5.00512
G01 X20.98195 Y5.14607
G01 X21.15835 Y5.50296
G01 X21.32597 Y5.91315
G01 X21.39963 Y5.90868
G01 X21.58738 Y5.91622
G01 X21.99790 Y5.91650
G01 X22.23275 Y5.90499
G01 X22.34824 Y5.89239
G01 X22.52777 Y5.09615
G01 X22.62698 Y4.78373
G01 X22.65992 Y4.60642
G01 X22.66582 Y4.49976
G01 X22.66572 Y4.23329
G01 X22.66020 Y4.13573
G01 X22.61392 Y3.75285
G01 X22.60437 Y3.64523
G01 X22.79914 Y3.53685
G01 X22.79927 Y1.52174
G01 X22.93236 Y1.47785
G01 X22.93300 Y0.73965
G01 X22.93800 Y0.70841
G01 X22.95147 Y0.66396
G01 X22.97501 Y0.61473
G01 X23.02081 Y0.54849
G01 X23.07199 Y0.49314
G01 X22.96511 Y0.23355
G01 X22.89543 Y0.08760
G01 X22.87326 Y0.00000
G01 X21.93722 Y0.00000
G01 X21.95949 Y0.13927
G01 X21.98256 Y0.21318
G01 X22.11418 Y0.53383
G01 X22.12939 Y0.59149
G01 X22.13242 Y0.64539
G01 X22.12624 Y0.69070
G01 X22.10389 Y0.75585
G01 X22.00018 Y0.96741
G01 X21.79417 Y1.35014
G01 X21.79544 Y1.36860
G01 X21.79417 Y1.35014
G01 X22.00018 Y0.96741
G01 X22.10389 Y0.75585
G01 X22.12624 Y0.69070
G01 X22.13242 Y0.64539
G01 X22.12939 Y0.59149
G01 X22.11418 Y0.53383
G01 X21.98256 Y0.21318
G01 X21.95949 Y0.13927
G01 X21.93722 Y0.00000
G01 X23.73300 Y0.00000
G01 X23.73102 Y0.26426
G01 X23.72017 Y0.35563
G01 X23.81237 Y0.44813
G01 X23.87026 Y0.52093
G01 X23.91547 Y0.60086
G01 X23.98972 Y0.77724
G01 X24.03251 Y0.91846
G01 X24.09248 Y1.26009
G01 X24.13201 Y1.45379
G01 X24.13201 Y1.56700
G01 X24.13201 Y1.45379
G01 X24.29246 Y1.16944
G01 X24.38905 Y0.98646
G01 X24.64008 Y0.48118
G01 X24.59845 Y0.43294
G01 X24.45802 Y0.29248
G01 X24.40800 Y0.23261
G01 X24.36896 Y0.17231
G01 X24.34321 Y0.12085
G01 X24.30074 Y0.00000
G01 X23.73300 Y0.00000
G01 X26.07226 Y0.00000
G01 X26.08125 Y0.04628
G01 X26.10203 Y0.10714
G01 X26.17084 Y0.24689
G01 X26.19723 Y0.28781
G01 X26.19774 Y0.57826
G01 X26.17414 Y0.61544
G01 X26.15090 Y0.66457
G01 X26.13805 Y0.70678
G01 X26.13162 Y0.75598
G01 X26.12944 Y1.36276
G01 X26.13261 Y1.54978
G01 X26.12822 Y2.49100
G01 X26.08890 Y2.49286
G01 X25.98984 Y2.79027
G01 X25.84602 Y3.18554
G01 X25.66573 Y3.63250
G01 X25.56043 Y3.94477
G01 X25.47501 Y4.16034
G01 X25.46492 Y4.23007
G01 X25.46487 Y4.49976
G01 X25.47501 Y4.57274
G01 X25.51981 Y4.70545
G01 X25.53025 Y4.78401
G01 X25.53025 Y5.43380
G01 X25.53518 Y5.90837
G01 X25.73147 Y5.91650
G01 X25.99817 Y5.91650
G01 X26.19916 Y5.90812
G01 X26.20028 Y4.78315
G01 X26.20965 Y4.70553
G01 X26.22707 Y4.64429
G01 X26.25580 Y4.56682
G01 X26.26434 Y4.51096
G01 X26.26444 Y4.35597
G01 X26.25771 Y4.30545
G01 X26.24668 Y4.26928
G01 X26.22817 Y4.22770
G01 X26.19197 Y4.16918
G01 X26.19776 Y4.09989
G01 X26.19865 Y3.67441
G01 X26.19479 Y3.42798
G01 X26.20602 Y2.50045
G01 X26.73335 Y2.50015
G01 X26.20602 Y2.50045
G01 X26.12822 Y2.49100
G01 X26.08890 Y2.49286
G01 X25.72184 Y2.41379
G01 X25.33284 Y2.35697
G01 X24.93363 Y2.36969
G01 X24.13201 Y1.56700
G01 X23.93556 Y1.55844
G01 X23.46554 Y1.50774
G01 X23.34283 Y1.50012
G01 X23.13054 Y1.49781
G01 X22.93236 Y1.47785
G01 X22.79927 Y1.52174
G01 X22.66638 Y1.50759
G01 X22.54326 Y1.50000
G01 X22.40006 Y1.50000
G01 X22.29632 Y1.49504
G01 X21.93242 Y1.45519
G04 P0 ( dwell for no time -- G64 should not smooth over this point )
G00 Z10.00000 ( retract )

G00 X22.36584 Y0.27470 ( rapid move to begin. )
G01 F30.00000
( Mill infeed pass 1/1 )
G01 Z-0.10000
G04 P0 ( dwell for no time -- G64 should not smooth over this point )
G01 F360.00000
G01 X22.36584 Y0.27470
G01 X22.44062 Y0.19990
G01 X22.62429 Y0.19990
G01 X22.69909 Y0.27470
G01 X22.69909 Y0.72507
G01 X22.62429 Y0.79985
G01 X22.44062 Y0.79985
G01 X22.36584 Y0.72507
G01 X22.36584 Y0.27470
G04 P0 ( dwell for no time -- G64 should not smooth over this point )
G00 Z10.00000 ( retract )

G00 X20.09991 Y2.27470 ( rapid move to begin. )
G01 F30.00000
( Mill infeed pass 1/1 )
G01 Z-0.10000
G04 P0 ( dwell for no time -- G64 should not smooth over this point )
G01 F360.00000
G01 X20.09991 Y2.27470
G01 X20.09991 Y2.72506
G01 X20.17469 Y2.79984
G01 X20.35835 Y2.79984
G01 X20.43316 Y2.72506
G01 X20.43316 Y2.27470
G01 X20.35835 Y2.19989
G01 X20.17469 Y2.19989
G01 X20.09991 Y2.27470
G04 P0 ( dwell for no time -- G64 should not smooth over this point )
G00 Z10.00000 ( retract )

G00 X16.90596 Y0.46660 ( rapid move to begin. )
G01 F30.00000
( Mill infeed pass 1/1 )
G01 Z-0.10000
G04 P0 ( dwell for no time -- G64 should not smooth over this point )
G01 F360.00000
G01 X16.90596 Y0.46660
G01 X17.22272 Y0.46660
G01 X17.15618 Y0.53315
G01 X16.97251 Y0.53315
G01 X16.90596 Y0.46660
G04 P0 ( dwell for no time -- G64 should not smooth over this point )
G00 Z10.00000 ( retract )

G00 X15.47289 Y0.23330 ( rapid move to begin. )
G01 F30.00000
( Mill infeed pass 1/1 )
G01 Z-0.10000
G04 P0 ( dwell for no time -- G64 should not smooth over this point )
G01 F360.00000
G01 X15.47289 Y0.23330
G01 X15.50624 Y0.19990
G01 X15.76489 Y0.19990
G01 X15.76489 Y0.26670
G01 X15.50624 Y0.26670
G01 X15.47289 Y0.23330
G04 P0 ( dwell for no time -- G64 should not smooth over this point )
G00 Z10.00000 ( retract )

G00 X14.63180 Y0.19990 ( rapid move to begin. )
G01 F30.00000
( Mill infeed pass 1/1 )
G01 Z-0.10000
G04 P0 ( dwell for no time -- G64 should not smooth over this point )
G01 F360.00000
G01 X14.63180 Y0.19990
G01 X14.63180 Y0.79985
G01 X14.89024 Y0.79985
G01 X14.96504 Y0.72507
G01 X14.96504 Y0.27470
G01 X14.89024 Y0.19990
G01 X14.63180 Y0.19990
G04 P0 ( dwell for no time -- G64 should not smooth over this point )
G00 Z10.00000 ( retract )

G00 X14.63180 Y2.27470 ( rapid move to begin. )
G01 F30.00000
( Mill infeed pass 1/1 )
G01 Z-0.10000
G04 P0 ( dwell for no time -- G64 should not smooth over this point )
G01 F360.00000
G01 X14.63180 Y2.27470
G01 X14.70657 Y2.19989
G01 X14.89024 Y2.19989
G01 X14.96504 Y2.27470
G01 X14.96504 Y2.45836
G01 X14.89024 Y2.53314
G01 X14.70657 Y2.53314
G01 X14.63180 Y2.45836
G01 X14.63180 Y2.27470
G04 P0 ( dwell for no time -- G64 should not smooth over this point )
G00 Z10.00000 ( retract )

G00 X15.73954 Y4.23324 ( rapid move to begin. )
G01 F30.00000
( Mill infeed pass 1/1 )
G01 Z-0.10000
G04 P0 ( dwell for no time -- G64 should not smooth over this point )
G01 F360.00000
G01 X15.73954 Y4.23324
G01 X15.77287 Y4.19989
G01 X16.03134 Y4.19989
G01 X16.03134 Y4.26644
G01 X15.77282 Y4.26644
G01 X15.73954 Y4.23324
G04 P0 ( dwell for no time -- G64 should not smooth over this point )
G00 Z10.00000 ( retract )

G00 X17.30550 Y4.46634 ( rapid move to begin. )
G01 F30.00000
( Mill infeed pass 1/1 )
G01 Z-0.10000
G04 P0 ( dwell for no time -- G64 should not smooth over this point )
G01 F360.00000
G01 X17.30550 Y4.46634
G01 X17.62282 Y4.46634
G01 X17.55615 Y4.53314
G01 X17.37230 Y4.53314
G01 X17.30550 Y4.46634
G04 P0 ( dwell for no time -- G64 should not smooth over this point )
G00 Z10.00000 ( retract )

G00 X20.89975 Y4.27469 ( rapid move to begin. )
G01 F30.00000
( Mill infeed pass 1/1 )
G01 Z-0.10000
G04 P0 ( dwell for no time -- G64 should not smooth over this point )
G01 F360.00000
G01 X20.89975 Y4.27469
G01 X20.97453 Y4.19989
G01 X21.15820 Y4.19989
G01 X21.23300 Y4.27469
G01 X21.23300 Y4.45836
G01 X21.15820 Y4.53314
G01 X20.97453 Y4.53314
G01 X20.89975 Y4.45836
G01 X20.89975 Y4.27469
G04 P0 ( dwell for no time -- G64 should not smooth over this point )
G00 Z10.00000 ( retract )

G00 X21.69935 Y4.19989 ( rapid move to begin. )
G01 F30.00000
( Mill infeed pass 1/1 )
G01 Z-0.10000
G04 P0 ( dwell for no time -- G64 should not smooth over this point )
G01 F360.00000
G01 X21.69935 Y4.19989
G01 X21.95797 Y4.19989
G01 X22.03259 Y4.27464
G01 X22.03259 Y4.45841
G01 X21.95797 Y4.53314
G01 X21.69935 Y4.53314
G01 X21.69935 Y4.19989
G04 P0 ( dwell for no time -- G64 should not smooth over this point )
G00 Z10.00000 ( retract )

G00 X22.23249 Y2.27470 ( rapid move to begin. )
G01 F30.00000
( Mill infeed pass 1/1 )
G01 Z-0.10000
G04 P0 ( dwell for no time -- G64 should not smooth over this point )
G01 F360.00000
G01 X22.23249 Y2.27470
G01 X22.23249 Y2.72506
G01 X22.30727 Y2.79984
G01 X22.49112 Y2.79984
G01 X22.56574 Y2.72512
G01 X22.56574 Y2.27465
G01 X22.49112 Y2.19989
G01 X22.30727 Y2.19989
G01 X22.23249 Y2.27470
G04 P0 ( dwell for no time -- G64 should not smooth over this point )
G00 Z10.00000 ( retract )

G00 X23.03234 Y2.27470 ( rapid move to begin. )
G01 F30.00000
( Mill infeed pass 1/1 )
G01 Z-0.10000
G04 P0 ( dwell for no time -- G64 should not smooth over this point )
G01 F360.00000
G01 X23.03234 Y2.27470
G01 X23.03234 Y2.72506
G01 X23.10712 Y2.79984
G01 X23.29078 Y2.79984
G01 X23.36559 Y2.72506
G01 X23.36559 Y2.27470
G01 X23.29078 Y2.19989
G01 X23.10712 Y2.19989
G01 X23.03234 Y2.27470
G04 P0 ( dwell for no time -- G64 should not smooth over this point )
G00 Z10.00000 ( retract )

G00 X25.56495 Y0.27465 ( rapid move to begin. )
G01 F30.00000
( Mill infeed pass 1/1 )
G01 Z-0.10000
G04 P0 ( dwell for no time -- G64 should not smooth over this point )
G01 F360.00000
G01 X25.56495 Y0.27465
G01 X25.56495 Y0.72512
G01 X25.63955 Y0.79985
G01 X25.82342 Y0.79985
G01 X25.89820 Y0.72507
G01 X25.89820 Y0.27470
G01 X25.82342 Y0.19990
G01 X25.63955 Y0.19990
G01 X25.56495 Y0.27465
G04 P0 ( dwell for no time -- G64 should not smooth over this point )
G00 Z10.00000 ( retract )

G00 X27.03106 Y0.27470 ( rapid move to begin. )
G01 F30.00000
( Mill infeed pass 1/1 )
G01 Z-0.10000
G04 P0 ( dwell for no time -- G64 should not smooth over this point )
G01 F360.00000
G01 X27.03106 Y0.27470
G01 X27.03106 Y0.32520
G01 X27.10579 Y0.39980
G01 X27.28956 Y0.39980
G01 X27.36431 Y0.32520
G01 X27.36431 Y0.27470
G01 X27.28951 Y0.19990
G01 X27.10584 Y0.19990
G01 X27.03106 Y0.27470
G04 P0 ( dwell for no time -- G64 should not smooth over this point )
G00 Z10.00000 ( retract )

G00 X27.03106 Y0.67452 ( rapid move to begin. )
G01 F30.00000
( Mill infeed pass 1/1 )
G01 Z-0.10000
G04 P0 ( dwell for no time -- G64 should not smooth over this point )
G01 F360.00000
G01 X27.03106 Y0.67452
G01 X27.03106 Y0.72507
G01 X27.10584 Y0.79985
G01 X27.28951 Y0.79985
G01 X27.36431 Y0.72507
G01 X27.36431 Y0.67452
G01 X27.28951 Y0.59969
G01 X27.10584 Y0.59969
G01 X27.03106 Y0.67452
G04 P0 ( dwell for no time -- G64 should not smooth over this point )
G00 Z10.00000 ( retract )

G00 X24.14008 Y4.23324 ( rapid move to begin. )
G01 F30.00000
( Mill infeed pass 1/1 )
G01 Z-0.10000
G04 P0 ( dwell for no time -- G64 should not smooth over this point )
G01 F360.00000
G01 X24.14008 Y4.23324
G01 X24.17336 Y4.26644
G01 X24.43188 Y4.26644
G01 X24.43188 Y4.19989
G01 X24.17341 Y4.19989
G01 X24.14008 Y4.23324
G04 P0 ( dwell for no time -- G64 should not smooth over this point )
G00 Z10.00000 ( retract )

G00 X25.70604 Y4.46634 ( rapid move to begin. )
G01 F30.00000
( Mill infeed pass 1/1 )
G01 Z-0.10000
G04 P0 ( dwell for no time -- G64 should not smooth over this point )
G01 F360.00000
G01 X25.70604 Y4.46634
G01 X25.77285 Y4.53314
G01 X25.95669 Y4.53314
G01 X26.02337 Y4.46634
G01 X25.70604 Y4.46634
G04 P0 ( dwell for no time -- G64 should not smooth over this point )
G00 Z10.00000 ( retract )

G00 X33.79775 Y8.24293 ( rapid move to begin. )
G01 F30.00000
( Mill infeed pass 1/1 )
G01 Z-0.10000
G04 P0 ( dwell for no time -- G64 should not smooth over this point )
G01 F360.00000
G01 X33.79775 Y8.24293
G01 X33.81553 Y8.10781
G01 X33.91662 Y7.86371
G01 X34.07740 Y7.65391
G01 X34.28721 Y7.49287
G01 X34.53155 Y7.39178
G01 X34.66668 Y7.37400
G01 X34.66668 Y7.63069
G01 X34.55126 Y7.66011
G01 X34.44839 Y7.70405
G01 X34.34502 Y7.76884
G01 X34.26061 Y7.84225
G01 X34.18804 Y7.92739
G01 X34.12899 Y8.02239
G01 X34.08469 Y8.12510
G01 X34.05444 Y8.24293
G01 X33.79775 Y8.24293
G04 P0 ( dwell for no time -- G64 should not smooth over this point )
G00 Z10.00000 ( retract )

G00 X36.45291 Y10.90994 ( rapid move to begin. )
G01 F30.00000
( Mill infeed pass 1/1 )
G01 Z-0.10000
G04 P0 ( dwell for no time -- G64 should not smooth over this point )
G01 F360.00000
G01 X36.45291 Y10.90994
G01 X36.46175 Y11.00503
G01 X36.48324 Y11.13785
G01 X36.52335 Y11.24529
G01 X36.57115 Y11.35024
G01 X36.65078 Y11.46038
G01 X36.71090 Y11.53269
G01 X36.78552 Y11.59462
G01 X36.89345 Y11.67227
G01 X37.00003 Y11.72098
G01 X37.10574 Y11.76038
G01 X37.24148 Y11.78220
G01 X37.33366 Y11.79071
G01 X37.43173 Y11.78146
G01 X37.56134 Y11.76035
G01 X37.67275 Y11.71867
G01 X37.77376 Y11.67242
G01 X37.88573 Y11.59147
G01 X37.95646 Y11.53272
G01 X38.01283 Y11.46503
G01 X38.09609 Y11.35032
G01 X38.14587 Y11.24059
G01 X38.18407 Y11.13777
G01 X38.20617 Y10.99995
G01 X38.21448 Y10.90994
G01 X38.20627 Y10.82073
G01 X38.18418 Y10.68207
G01 X38.14122 Y10.56808
G01 X38.09604 Y10.46975
G01 X38.01331 Y10.35550
G01 X37.95644 Y10.28710
G01 X37.88573 Y10.22835
G01 X37.77376 Y10.14743
G01 X37.67275 Y10.10117
G01 X37.56134 Y10.05947
G01 X37.43173 Y10.03836
G01 X37.33366 Y10.02911
G01 X37.24148 Y10.03765
G01 X37.10579 Y10.05962
G01 X37.00015 Y10.09881
G01 X36.89335 Y10.14743
G01 X36.77691 Y10.23206
G01 X36.71090 Y10.28713
G01 X36.65080 Y10.35947
G01 X36.57125 Y10.46985
G01 X36.52375 Y10.57354
G01 X36.48324 Y10.68202
G01 X36.46175 Y10.81479
G01 X36.45291 Y10.90994
G04 P0 ( dwell for no time -- G64 should not smooth over this point )
G00 Z10.00000 ( retract )

G00 X38.73957 Y12.64933 ( rapid move to begin. )
G01 F30.00000
( Mill infeed pass 1/1 )
G01 Z-0.10000
G04 P0 ( dwell for no time -- G64 should not smooth over this point )
G01 F360.00000
G01 X38.73957 Y12.64933
G01 X38.75354 Y12.54443
G01 X38.84295 Y12.32802
G01 X38.98544 Y12.14234
G01 X39.17137 Y11.99985
G01 X39.38753 Y11.91019
G01 X39.49268 Y11.89647
G01 X39.49268 Y12.15415
G01 X39.40035 Y12.18039
G01 X39.31696 Y12.21811
G01 X39.23988 Y12.26741
G01 X39.17066 Y12.32731
G01 X39.11077 Y12.39652
G01 X39.06147 Y12.47361
G01 X39.02375 Y12.55700
G01 X38.99751 Y12.64933
G01 X38.73957 Y12.64933
G04 P0 ( dwell for no time -- G64 should not smooth over this point )
G00 Z10.00000 ( retract )

G00 X38.73957 Y12.90333 ( rapid move to begin. )
G01 F30.00000
( Mill infeed pass 1/1 )
G01 Z-0.10000
G04 P0 ( dwell for no time -- G64 should not smooth over this point )
G01 F360.00000
G01 X38.73957 Y12.90333
G01 X38.75354 Y13.00848
G01 X38.84295 Y13.22464
G01 X38.98544 Y13.41057
G01 X39.17137 Y13.55280
G01 X39.38753 Y13.64244
G01 X39.49268 Y13.65644
G01 X39.49268 Y13.39847
G01 X39.40035 Y13.37224
G01 X39.31696 Y13.33452
G01 X39.23988 Y13.28522
G01 X39.17066 Y13.22532
G01 X39.11077 Y13.15611
G01 X39.06147 Y13.07902
G01 X39.02375 Y12.99563
G01 X38.99751 Y12.90333
G01 X38.73957 Y12.90333
G04 P0 ( dwell for no time -- G64 should not smooth over this point )
G00 Z10.00000 ( retract )

G00 X39.74668 Y11.89647 ( rapid move to begin. )
G01 F30.00000
( Mill infeed pass 1/1 )
G01 Z-0.10000
G04 P0 ( dwell for no time -- G64 should not smooth over this point )
G01 F360.00000
G01 X39.74668 Y11.89647
G01 X39.74668 Y12.15415
G01 X39.83899 Y12.18039
G01 X39.92237 Y12.21811
G01 X39.99946 Y12.26741
G01 X40.06868 Y12.32731
G01 X40.12857 Y12.39652
G01 X40.17787 Y12.47361
G01 X40.21559 Y12.55700
G01 X40.24183 Y12.64933
G01 X40.49954 Y12.64933
G01 X40.48557 Y12.54443
G01 X40.39616 Y12.32802
G01 X40.25367 Y12.14234
G01 X40.06799 Y11.99985
G01 X39.85158 Y11.91019
G01 X39.74668 Y11.89647
G04 P0 ( dwell for no time -- G64 should not smooth over this point )
G00 Z10.00000 ( retract )

G00 X39.74668 Y13.39847 ( rapid move to begin. )
G01 F30.00000
( Mill infeed pass 1/1 )
G01 Z-0.10000
G04 P0 ( dwell for no time -- G64 should not smooth over this point )
G01 F360.00000
G01 X39.74668 Y13.39847
G01 X39.74668 Y13.65644
G01 X39.85158 Y13.64244
G01 X40.06799 Y13.55280
G01 X40.25367 Y13.41057
G01 X40.39616 Y13.22464
G01 X40.48557 Y13.00848
G01 X40.49954 Y12.90333
G01 X40.24183 Y12.90333
G01 X40.21559 Y12.99563
G01 X40.17787 Y13.07902
G01 X40.12857 Y13.15611
G01 X40.06868 Y13.22532
G01 X39.99946 Y13.28522
G01 X39.92237 Y13.33452
G01 X39.83899 Y13.37224
G01 X39.74668 Y13.39847
G04 P0 ( dwell for no time -- G64 should not smooth over this point )
G00 Z10.00000 ( retract )

G00 X39.93167 Y15.68003 ( rapid move to begin. )
G01 F30.00000
( Mill infeed pass 1/1 )
G01 Z-0.10000
G04 P0 ( dwell for no time -- G64 should not smooth over this point )
G01 F360.00000
G01 X39.93167 Y15.68003
G01 X39.94628 Y15.52661
G01 X39.97396 Y15.36116
G01 X40.03865 Y15.18981
G01 X40.09652 Y15.06380
G01 X40.16743 Y14.96311
G01 X40.29240 Y14.80894
G01 X40.41120 Y14.71079
G01 X40.54775 Y14.61326
G01 X40.71422 Y14.53820
G01 X40.84477 Y14.49001
G01 X40.95549 Y14.47035
G01 X41.16349 Y14.44810
G01 X41.31691 Y14.46271
G01 X41.48234 Y14.49040
G01 X41.65374 Y14.55511
G01 X41.77965 Y14.61290
G01 X41.88043 Y14.68394
G01 X42.03459 Y14.80894
G01 X42.13273 Y14.92773
G01 X42.23022 Y15.06413
G01 X42.30535 Y15.23075
G01 X42.35346 Y15.36111
G01 X42.37317 Y15.47205
G01 X42.39539 Y15.68003
G01 X42.38079 Y15.83347
G01 X42.35315 Y15.99865
G01 X42.28836 Y16.17028
G01 X42.23067 Y16.29601
G01 X42.15953 Y16.39697
G01 X42.03456 Y16.55112
G01 X41.91577 Y16.64927
G01 X41.77949 Y16.74660
G01 X41.61269 Y16.82181
G01 X41.48247 Y16.86989
G01 X41.37144 Y16.88960
G01 X41.16349 Y16.91183
G01 X41.01005 Y16.89722
G01 X40.84485 Y16.86959
G01 X40.67327 Y16.80479
G01 X40.54744 Y16.74706
G01 X40.44658 Y16.67604
G01 X40.29240 Y16.55112
G01 X40.19426 Y16.43228
G01 X40.09687 Y16.29585
G01 X40.02174 Y16.12923
G01 X39.97361 Y15.99877
G01 X39.95392 Y15.88800
G01 X39.93167 Y15.68003
G04 P0 ( dwell for no time -- G64 should not smooth over this point )
G00 Z10.00000 ( retract )

G00 X37.46068 Y14.99400 ( rapid move to begin. )
G01 F30.00000
( Mill infeed pass 1/1 )
G01 Z-0.10000
G04 P0 ( dwell for no time -- G64 should not smooth over this point )
G01 F360.00000
G01 X37.46068 Y14.99400
G01 X37.46068 Y15.25069
G01 X37.57125 Y15.27848
G01 X37.67442 Y15.32174
G01 X37.77823 Y15.38582
G01 X37.86314 Y15.45864
G01 X37.93627 Y15.54330
G01 X38.00071 Y15.64691
G01 X38.04430 Y15.74993
G01 X38.07287 Y15.86293
G01 X38.32962 Y15.86293
G01 X38.31184 Y15.72781
G01 X38.21049 Y15.48371
G01 X38.04971 Y15.27391
G01 X37.83990 Y15.11287
G01 X37.59556 Y15.01178
G01 X37.46068 Y14.99400
G04 P0 ( dwell for no time -- G64 should not smooth over this point )
G00 Z10.00000 ( retract )

G00 X36.45291 Y13.44993 ( rapid move to begin. )
G01 F30.00000
( Mill infeed pass 1/1 )
G01 Z-0.10000
G04 P0 ( dwell for no time -- G64 should not smooth over this point )
G01 F360.00000
G01 X36.45291 Y13.44993
G01 X36.46175 Y13.54503
G01 X36.48324 Y13.67785
G01 X36.52335 Y13.78529
G01 X36.57115 Y13.89024
G01 X36.65078 Y14.00038
G01 X36.71090 Y14.07269
G01 X36.78552 Y14.13462
G01 X36.89345 Y14.21227
G01 X37.00003 Y14.26098
G01 X37.10574 Y14.30038
G01 X37.24148 Y14.32220
G01 X37.33366 Y14.33071
G01 X37.43173 Y14.32146
G01 X37.56134 Y14.30035
G01 X37.67275 Y14.25867
G01 X37.77376 Y14.21242
G01 X37.88573 Y14.13147
G01 X37.95646 Y14.07272
G01 X38.01283 Y14.00503
G01 X38.09609 Y13.89032
G01 X38.14587 Y13.78059
G01 X38.18407 Y13.67775
G01 X38.20617 Y13.53995
G01 X38.21448 Y13.44993
G01 X38.20627 Y13.36073
G01 X38.18418 Y13.22207
G01 X38.14122 Y13.10808
G01 X38.09604 Y13.00978
G01 X38.01331 Y12.89553
G01 X37.95644 Y12.82708
G01 X37.88573 Y12.76835
G01 X37.77376 Y12.68743
G01 X37.67275 Y12.64117
G01 X37.56134 Y12.59947
G01 X37.43173 Y12.57836
G01 X37.33366 Y12.56911
G01 X37.24148 Y12.57765
G01 X37.10579 Y12.59962
G01 X37.00015 Y12.63881
G01 X36.89335 Y12.68743
G01 X36.77691 Y12.77206
G01 X36.71090 Y12.82710
G01 X36.65083 Y12.89947
G01 X36.57125 Y13.00991
G01 X36.52375 Y13.11354
G01 X36.48321 Y13.22202
G01 X36.46175 Y13.35479
G01 X36.45291 Y13.44993
G04 P0 ( dwell for no time -- G64 should not smooth over this point )
G00 Z10.00000 ( retract )

G00 X34.22373 Y15.18831 ( rapid move to begin. )
G01 F30.00000
( Mill infeed pass 1/1 )
G01 Z-0.10000
G04 P0 ( dwell for no time -- G64 should not smooth over this point )
G01 F360.00000
G01 X34.22373 Y15.18831
G01 X34.19787 Y15.28869
G01 X34.16757 Y15.36098
G01 X34.13501 Y15.40995
G01 X34.06033 Y15.50695
G01 X34.03125 Y15.54991
G01 X34.01240 Y15.58828
G01 X33.94956 Y15.74277
G01 X33.93168 Y15.82425
G01 X33.91291 Y15.98993
G01 X33.93168 Y16.15557
G01 X33.94956 Y16.23705
G01 X33.98335 Y16.32529
G01 X34.02266 Y16.41343
G01 X34.06785 Y16.48353
G01 X34.17070 Y16.61264
G01 X34.24550 Y16.67464
G01 X34.35342 Y16.75227
G01 X34.46003 Y16.80098
G01 X34.56574 Y16.84038
G01 X34.70148 Y16.86220
G01 X34.79366 Y16.87071
G01 X34.89173 Y16.86146
G01 X35.02134 Y16.84035
G01 X35.13275 Y16.79867
G01 X35.23379 Y16.75239
G01 X35.35632 Y16.66387
G01 X35.42104 Y16.62923
G01 X35.50354 Y16.60487
G01 X35.56729 Y16.59092
G01 X35.61464 Y16.66700
G01 X35.65294 Y16.74909
G01 X35.66571 Y16.83116
G01 X35.66571 Y17.68869
G01 X35.65299 Y17.77060
G01 X35.61484 Y17.85252
G01 X35.56701 Y17.92948
G01 X35.61484 Y17.85252
G01 X35.65299 Y17.77060
G01 X35.66571 Y17.68869
G01 X35.66571 Y16.83116
G01 X35.65294 Y16.74909
G01 X35.61464 Y16.66700
G01 X35.56729 Y16.59092
G01 X35.61540 Y16.42976
G01 X35.64969 Y16.26067
G01 X35.66216 Y16.16166
G01 X35.67059 Y15.98386
G01 X35.66323 Y15.82920
G01 X35.65350 Y15.74513
G01 X35.63742 Y15.64899
G01 X35.61390 Y15.54406
G01 X35.59813 Y15.48658
G01 X35.52358 Y15.39827
G01 X35.39721 Y15.27081
G01 X35.26264 Y15.15885
G01 X35.15502 Y15.13355
G01 X35.05149 Y15.11562
G01 X34.87979 Y15.09908
G01 X34.78385 Y15.09702
G01 X34.62757 Y15.10472
G01 X34.53082 Y15.11635
G01 X34.42592 Y15.13487
G01 X34.33580 Y15.15570
G01 X34.22373 Y15.18831
G01 X34.14123 Y15.13695
G01 X34.05914 Y15.09865
G01 X33.97707 Y15.08587
G01 X32.88563 Y15.08587
G01 X32.81558 Y15.07663
G01 X32.72691 Y15.05519
G01 X32.64494 Y15.00472
G01 X32.59331 Y14.96487
G01 X30.07015 Y12.44168
G01 X30.01084 Y12.39690
G01 X29.82392 Y12.42705
G01 X29.71366 Y12.43736
G01 X29.54396 Y12.41826
G01 X29.48272 Y12.40620
G01 X29.39275 Y12.37409
G01 X29.26720 Y12.31796
G01 X29.12562 Y12.21280
G01 X29.08323 Y12.17541
G01 X29.04012 Y12.12601
G01 X28.94086 Y11.99106
G01 X28.88536 Y11.86772
G01 X28.85125 Y11.77592
G01 X28.83400 Y11.67323
G01 X28.82130 Y11.54493
G01 X28.84173 Y11.36627
G01 X28.85191 Y11.31410
G01 X28.86913 Y11.26396
G01 X28.94048 Y11.09856
G01 X29.03029 Y10.97656
G01 X29.06331 Y10.92451
G01 X29.09489 Y10.83998
G01 X29.11551 Y10.75268
G01 X29.26319 Y10.70869
G01 X29.40972 Y10.67783
G01 X29.55635 Y10.65886
G01 X29.70017 Y10.65197
G01 X29.86496 Y10.65832
G01 X30.01040 Y10.67653
G01 X30.14993 Y10.70524
G01 X30.31193 Y10.75233
G01 X30.38996 Y10.70376
G01 X30.47218 Y10.66536
G01 X30.55442 Y10.65256
G01 X32.62546 Y10.65238
G01 X32.65912 Y10.64908
G01 X32.72081 Y10.63869
G01 X32.78436 Y10.62243
G01 X32.83580 Y10.59218
G01 X32.89953 Y10.54666
G01 X33.40524 Y10.04448
G01 X33.44596 Y10.01111
G01 X33.49854 Y10.00587
G01 X33.97707 Y10.00587
G01 X34.05914 Y10.01865
G01 X34.14123 Y10.05695
G01 X34.22373 Y10.10831
G01 X34.33580 Y10.07570
G01 X34.42592 Y10.05487
G01 X34.53082 Y10.03635
G01 X34.62757 Y10.02472
G01 X34.78385 Y10.01702
G01 X34.87979 Y10.01908
G01 X35.06694 Y10.03790
G01 X35.22624 Y10.06940
G01 X35.31852 Y10.09406
G01 X35.34913 Y10.17646
G01 X35.37011 Y10.22071
G01 X35.41131 Y10.28134
G01 X35.47331 Y10.35553
G01 X35.55604 Y10.46975
G01 X35.60122 Y10.56808
G01 X35.64418 Y10.68207
G01 X35.66627 Y10.82073
G01 X35.67448 Y10.90994
G01 X35.65479 Y11.08055
G01 X35.64407 Y11.13777
G01 X35.63160 Y11.17417
G01 X35.60092 Y11.25250
G01 X35.55609 Y11.35032
G01 X35.47283 Y11.46503
G01 X35.41646 Y11.53272
G01 X35.34573 Y11.59147
G01 X35.23376 Y11.67242
G01 X35.13275 Y11.71867
G01 X35.02134 Y11.76035
G01 X34.89173 Y11.78146
G01 X34.79366 Y11.79071
G01 X34.70148 Y11.78220
G01 X34.56574 Y11.76038
G01 X34.46003 Y11.72098
G01 X34.35342 Y11.67227
G01 X34.24550 Y11.59464
G01 X34.17070 Y11.53264
G01 X34.06785 Y11.40353
G01 X34.02266 Y11.33343
G01 X33.98335 Y11.24529
G01 X33.94956 Y11.15705
G01 X33.93168 Y11.07557
G01 X33.91291 Y10.90994
G01 X33.93168 Y10.74425
G01 X33.94956 Y10.66277
G01 X34.01238 Y10.50828
G01 X34.03125 Y10.46985
G01 X34.06031 Y10.42693
G01 X34.13498 Y10.32998
G01 X34.16757 Y10.28095
G01 X34.19787 Y10.20869
G01 X34.22373 Y10.10831
G01 X34.35472 Y10.07095
G01 X34.51410 Y10.03887
G01 X34.62757 Y10.02472
G01 X34.78385 Y10.01702
G01 X34.89457 Y10.01984
G01 X35.05149 Y10.03562
G01 X35.15502 Y10.05355
G01 X35.31852 Y10.09406
G01 X35.43452 Y10.02027
G01 X35.50938 Y9.96213
G01 X35.59228 Y9.88489
G01 X36.48682 Y8.99023
G01 X36.60369 Y8.91990
G01 X36.64527 Y8.94286
G01 X36.69828 Y8.98103
G01 X36.79495 Y9.06196
G01 X36.89340 Y9.13237
G01 X37.01029 Y9.18515
G01 X37.10569 Y9.22053
G01 X37.19444 Y9.23595
G01 X37.33366 Y9.25025
G01 X37.44338 Y9.24001
G01 X37.62273 Y9.21268
G01 X37.67948 Y9.25601
G01 X39.34031 Y10.91687
G01 X39.43088 Y10.98263
G01 X39.48641 Y11.01113
G01 X39.54729 Y11.02578
G01 X39.63264 Y11.03787
G01 X42.92468 Y11.03777
G01 X43.03001 Y11.02136
G01 X43.08295 Y11.00676
G01 X43.21932 Y10.92258
G01 X43.29123 Y10.94059
G01 X43.38371 Y10.97435
G01 X43.41429 Y10.98055
G01 X43.58604 Y11.00506
G01 X43.66359 Y11.01113
G01 X43.70088 Y11.00877
G01 X43.79331 Y10.99906
G01 X43.94330 Y10.97432
G01 X44.08140 Y10.92251
G01 X44.20408 Y10.86612
G01 X44.32894 Y10.77681
G01 X44.42818 Y10.69457
G01 X44.52920 Y10.57074
G01 X44.59994 Y10.47057
G01 X44.66382 Y10.32911
G01 X44.70809 Y10.20973
G01 X44.73512 Y10.03971
G01 X44.74520 Y9.92998
G01 X44.73633 Y9.83104
G01 X44.70789 Y9.65004
G01 X44.65894 Y9.51893
G01 X44.59971 Y9.38931
G01 X44.49442 Y9.24423
G01 X44.41815 Y9.15624
G01 X44.33806 Y9.09023
G01 X44.20398 Y8.99378
G01 X44.07136 Y8.93326
G01 X43.94337 Y8.88563
G01 X43.77045 Y8.85812
G01 X43.66359 Y8.84862
G01 X43.53822 Y8.86038
G01 X43.41200 Y8.87992
G01 X43.38368 Y8.88599
G01 X43.29587 Y8.91723
G01 X43.17843 Y8.96686
G01 X43.12318 Y8.99404
G01 X43.04660 Y9.04664
G01 X42.89933 Y9.16572
G01 X42.78155 Y9.31121
G01 X42.72765 Y9.38954
G01 X42.65369 Y9.55505
G01 X42.61950 Y9.65004
G01 X42.61394 Y9.67618
G01 X42.59435 Y9.80176
G01 X42.58234 Y9.93005
G01 X42.59158 Y10.02995
G01 X42.59209 Y10.08205
G01 X42.58158 Y10.14905
G01 X42.56334 Y10.21834
G01 X42.50060 Y10.24682
G01 X42.38092 Y10.27397
G01 X41.40172 Y10.27397
G01 X41.28267 Y10.24710
G01 X41.16362 Y10.16648
G01 X41.04455 Y10.24710
G01 X40.92550 Y10.27397
G01 X39.83251 Y10.27397
G01 X39.78003 Y10.26874
G01 X39.73927 Y10.23536
G01 X38.21966 Y8.71583
G01 X38.17592 Y8.65843
G01 X38.20203 Y8.49180
G01 X38.21425 Y8.36986
G01 X38.20373 Y8.26066
G01 X38.18400 Y8.14210
G01 X38.13762 Y8.01969
G01 X38.09563 Y7.93003
G01 X38.00003 Y7.79902
G01 X37.95593 Y7.74758
G01 X37.84059 Y7.65399
G01 X37.77369 Y7.60758
G01 X37.66254 Y7.55698
G01 X37.56142 Y7.51916
G01 X37.44166 Y7.49965
G01 X37.33366 Y7.48922
G01 X37.23805 Y7.49816
G01 X37.10572 Y7.51939
G01 X36.99325 Y7.56181
G01 X36.89353 Y7.60773
G01 X36.76970 Y7.69790
G01 X36.71148 Y7.74769
G01 X36.67209 Y7.79302
G01 X36.60630 Y7.87870
G01 X36.53610 Y7.98492
G01 X36.42142 Y8.01891
G01 X36.37397 Y8.04616
G01 X36.30602 Y8.09422
G01 X36.00508 Y8.39186
G01 X35.93803 Y8.44088
G01 X35.85291 Y8.47184
G01 X35.76561 Y8.49219
G01 X35.69678 Y8.62124
G01 X35.62751 Y8.73115
G01 X35.55403 Y8.83168
G01 X35.47618 Y8.92421
G01 X35.40130 Y9.00232
G01 X35.32246 Y9.07499
G01 X35.22972 Y9.15007
G01 X35.14247 Y9.21197
G01 X35.01547 Y9.23275
G01 X34.89477 Y9.24387
G01 X34.77103 Y9.24667
G01 X34.66254 Y9.24189
G01 X34.54133 Y9.22861
G01 X34.41723 Y9.20636
G01 X34.31553 Y9.18157
G01 X34.19300 Y9.14334
G01 X34.11659 Y9.19089
G01 X34.03450 Y9.22919
G01 X33.95241 Y9.24197
G01 X33.29864 Y9.24197
G01 X33.17771 Y9.26216
G01 X33.14012 Y9.27313
G01 X33.11975 Y9.28375
G01 X33.04167 Y9.33524
G01 X33.00639 Y9.36305
G01 X32.51891 Y9.85030
G01 X32.47817 Y9.88367
G01 X32.42564 Y9.88891
G01 X30.72968 Y9.88891
G01 X30.60649 Y9.86015
G01 X30.47568 Y9.89386
G01 X28.95168 Y9.89386
G01 X28.82085 Y9.86015
G01 X28.82468 Y9.75703
G01 X28.82468 Y9.13778
G01 X28.79994 Y9.02571
G01 X28.69768 Y9.00587
G01 X25.45918 Y9.00587
G01 X25.35690 Y9.02571
G01 X25.33216 Y9.13778
G01 X25.33216 Y9.38593
G01 X25.31039 Y9.49114
G01 X25.20516 Y9.51293
G01 X24.06218 Y9.51293
G01 X23.95695 Y9.49114
G01 X23.93518 Y9.38593
G01 X23.93518 Y7.86194
G01 X23.95695 Y7.75670
G01 X24.06218 Y7.73491
G01 X25.20516 Y7.73491
G01 X25.31039 Y7.75670
G01 X25.33216 Y7.86194
G01 X25.33216 Y8.11009
G01 X25.35690 Y8.22213
G01 X25.45918 Y8.24197
G01 X28.69768 Y8.24197
G01 X28.80101 Y8.22173
G01 X28.84454 Y8.13852
G01 X28.95168 Y8.11594
G01 X30.47568 Y8.11594
G01 X30.58089 Y8.13770
G01 X30.60266 Y8.24293
G01 X30.60266 Y9.75703
G01 X30.60649 Y9.86015
G01 X30.47568 Y9.89386
G01 X28.95168 Y9.89386
G01 X28.82085 Y9.86015
G01 X28.69768 Y9.88891
G01 X27.57147 Y9.88891
G01 X27.45837 Y9.90694
G01 X27.41303 Y9.91949
G01 X27.38300 Y9.93615
G01 X27.33294 Y9.96859
G01 X27.27937 Y10.01006
G01 X26.54607 Y10.74334
G01 X26.50528 Y10.77676
G01 X26.45283 Y10.78197
G01 X25.45918 Y10.78197
G01 X25.35690 Y10.76213
G01 X25.33216 Y10.65009
G01 X25.33216 Y10.40193
G01 X25.31039 Y10.29670
G01 X25.20516 Y10.27493
G01 X24.06218 Y10.27493
G01 X23.95695 Y10.29670
G01 X23.93518 Y10.40193
G01 X23.93518 Y11.92594
G01 X23.95695 Y12.03114
G01 X24.06218 Y12.05291
G01 X25.20516 Y12.05291
G01 X25.31039 Y12.03114
G01 X25.33216 Y11.92594
G01 X25.33216 Y11.67778
G01 X25.35690 Y11.56571
G01 X25.45918 Y11.54587
G01 X26.65268 Y11.54587
G01 X26.74056 Y11.53317
G01 X26.81130 Y11.51555
G01 X26.88267 Y11.47201
G01 X26.94480 Y11.42492
G01 X27.67805 Y10.69147
G01 X27.71887 Y10.65802
G01 X27.77134 Y10.65281
G01 X28.87269 Y10.65271
G01 X28.95483 Y10.66549
G01 X29.03700 Y10.70381
G01 X29.11551 Y10.75268
G01 X29.26319 Y10.70869
G01 X29.43449 Y10.67379
G01 X29.57835 Y10.65705
G01 X29.70017 Y10.65197
G01 X29.84302 Y10.65660
G01 X29.98681 Y10.67280
G01 X30.12214 Y10.69861
G01 X30.31193 Y10.75233
G01 X30.32458 Y10.81326
G01 X30.35846 Y10.91382
G01 X30.39643 Y10.97702
G01 X30.48620 Y11.09904
G01 X30.55480 Y11.25522
G01 X30.57510 Y11.31413
G01 X30.59105 Y11.40155
G01 X30.60621 Y11.54493
G01 X30.59321 Y11.67320
G01 X30.56570 Y11.84222
G01 X30.61051 Y11.90158
G01 X32.99226 Y14.28333
G01 X33.03303 Y14.31674
G01 X33.08551 Y14.32197
G01 X33.95241 Y14.32197
G01 X34.03443 Y14.30922
G01 X34.11642 Y14.27099
G01 X34.19259 Y14.22364
G01 X34.35614 Y14.27223
G01 X34.53204 Y14.30734
G01 X34.70115 Y14.32441
G01 X34.87898 Y14.32476
G01 X34.97628 Y14.31734
G01 X35.13262 Y14.29408
G01 X35.23635 Y14.27096
G01 X35.37034 Y14.23149
G01 X35.39043 Y14.16154
G01 X35.42457 Y14.07371
G01 X35.55609 Y13.89032
G01 X35.60587 Y13.78059
G01 X35.64407 Y13.67775
G01 X35.66617 Y13.53995
G01 X35.67448 Y13.44993
G01 X35.65657 Y13.29014
G01 X35.64418 Y13.22207
G01 X35.63531 Y13.19604
G01 X35.60122 Y13.10808
G01 X35.55604 Y13.00978
G01 X35.47331 Y12.89553
G01 X35.41644 Y12.82708
G01 X35.34573 Y12.76835
G01 X35.23376 Y12.68743
G01 X35.13275 Y12.64117
G01 X35.02134 Y12.59947
G01 X34.89173 Y12.57836
G01 X34.79366 Y12.56911
G01 X34.70148 Y12.57765
G01 X34.56579 Y12.59962
G01 X34.46015 Y12.63881
G01 X34.37285 Y12.67762
G01 X34.30179 Y12.72289
G01 X34.17072 Y12.82718
G01 X34.06790 Y12.95631
G01 X34.03128 Y13.00985
G01 X34.01240 Y13.04828
G01 X33.97918 Y13.12471
G01 X33.94321 Y13.22202
G01 X33.92175 Y13.35479
G01 X33.91291 Y13.44993
G01 X33.93369 Y13.62758
G01 X33.94324 Y13.67785
G01 X33.95398 Y13.70937
G01 X34.02266 Y13.87343
G01 X34.06074 Y13.93363
G01 X34.11794 Y14.01016
G01 X34.15314 Y14.07432
G01 X34.17913 Y14.16042
G01 X34.19259 Y14.22364
G01 X34.35614 Y14.27223
G01 X34.46084 Y14.29527
G01 X34.61708 Y14.31795
G01 X34.78466 Y14.32682
G01 X34.89213 Y14.32408
G01 X35.06140 Y14.30640
G01 X35.21913 Y14.27523
G01 X35.37034 Y14.23149
G01 X35.46719 Y14.29769
G01 X35.51629 Y14.32418
G01 X35.59691 Y14.35270
G01 X35.62157 Y14.36619
G01 X35.73031 Y14.44305
G01 X36.30851 Y15.02115
G01 X36.35891 Y15.08775
G01 X36.39853 Y15.15511
G01 X36.44141 Y15.30030
G01 X36.47737 Y15.36471
G01 X36.52672 Y15.43611
G01 X36.48476 Y15.59344
G01 X36.46663 Y15.68580
G01 X36.44770 Y15.83197
G01 X36.44095 Y15.97221
G01 X36.44659 Y16.13464
G01 X36.46663 Y16.29402
G01 X36.50198 Y16.45760
G01 X36.53175 Y16.56029
G01 X36.48060 Y16.64254
G01 X36.44237 Y16.72453
G01 X36.42962 Y16.80654
G01 X36.42962 Y17.71333
G01 X36.44237 Y17.79532
G01 X36.48060 Y17.87731
G01 X36.53198 Y17.95993
G01 X36.49238 Y18.10047
G01 X36.46117 Y18.25976
G01 X36.44875 Y18.36080
G01 X36.44074 Y18.53161
G01 X36.44875 Y18.69902
G01 X36.46137 Y18.80113
G01 X36.49551 Y18.97210
G01 X36.53198 Y19.09991
G01 X36.62202 Y19.12249
G01 X36.69622 Y19.15152
G01 X36.75357 Y19.18843
G01 X36.89342 Y19.29227
G01 X37.00003 Y19.34098
G01 X37.10574 Y19.38038
G01 X37.24148 Y19.40220
G01 X37.33366 Y19.41071
G01 X37.50224 Y19.39140
G01 X37.58359 Y19.37299
G01 X37.74907 Y19.30471
G01 X37.77376 Y19.29242
G01 X37.82065 Y19.26036
G01 X37.95644 Y19.15274
G01 X38.05585 Y19.02828
G01 X38.09614 Y18.97012
G01 X38.10765 Y18.94683
G01 X38.14585 Y18.86059
G01 X38.18407 Y18.75775
G01 X38.20617 Y18.61995
G01 X38.21448 Y18.52991
G01 X38.20627 Y18.44073
G01 X38.18418 Y18.30207
G01 X38.14615 Y18.20004
G01 X38.11234 Y18.12295
G01 X38.09604 Y18.08978
G01 X38.06231 Y18.04050
G01 X37.95644 Y17.90708
G01 X37.82065 Y17.79946
G01 X37.74907 Y17.75511
G01 X37.58359 Y17.68686
G01 X37.50221 Y17.66844
G01 X37.33366 Y17.64911
G01 X37.24148 Y17.65765
G01 X37.10579 Y17.67962
G01 X37.00015 Y17.71881
G01 X36.89332 Y17.76745
G01 X36.75344 Y17.87126
G01 X36.69624 Y17.90830
G01 X36.62205 Y17.93733
G01 X36.53198 Y17.95993
G01 X36.49238 Y18.10047
G01 X36.46117 Y18.25976
G01 X36.44875 Y18.36080
G01 X36.44074 Y18.53161
G01 X36.44875 Y18.69902
G01 X36.46137 Y18.80113
G01 X36.49551 Y18.97210
G01 X36.53198 Y19.09991
G01 X36.48060 Y19.18254
G01 X36.44237 Y19.26453
G01 X36.42962 Y19.34652
G01 X36.42962 Y19.80291
G01 X36.41809 Y19.88569
G01 X36.39901 Y19.96138
G01 X36.35733 Y20.03072
G01 X36.30836 Y20.09524
G01 X35.67981 Y20.72391
G01 X35.63658 Y20.78050
G01 X35.66338 Y20.95724
G01 X35.67407 Y21.06991
G01 X35.66023 Y21.20529
G01 X35.64626 Y21.28837
G01 X35.61438 Y21.37948
G01 X35.55599 Y21.51027
G01 X35.48738 Y21.60636
G01 X35.41611 Y21.69236
G01 X35.30882 Y21.77981
G01 X35.23143 Y21.83392
G01 X35.14199 Y21.87473
G01 X35.02127 Y21.92015
G01 X34.92437 Y21.93709
G01 X34.80575 Y21.94977
G01 X34.70425 Y21.94245
G01 X34.56572 Y21.92048
G01 X34.46869 Y21.88444
G01 X34.35330 Y21.83244
G01 X34.26290 Y21.76805
G01 X34.17098 Y21.69239
G01 X34.10186 Y21.60892
G01 X34.03102 Y21.51037
G01 X33.98731 Y21.41469
G01 X33.94316 Y21.29787
G01 X33.92454 Y21.18675
G01 X33.91360 Y21.07900
G01 X33.92150 Y20.97756
G01 X33.93587 Y20.87964
G01 X33.94344 Y20.84194
G01 X33.96760 Y20.77446
G01 X33.98624 Y20.69478
G01 X33.98449 Y20.59356
G01 X33.96127 Y20.46445
G01 X34.03829 Y20.37936
G01 X34.17766 Y20.24667
G01 X34.28398 Y20.16067
G01 X34.40148 Y20.07779
G01 X34.52937 Y19.99993
G01 X34.66927 Y19.92714
G01 X34.82398 Y19.85937
G01 X34.96079 Y19.80949
G01 X34.98118 Y19.78909
G01 X35.10956 Y19.71972
G01 X35.21029 Y19.65853
G01 X35.38014 Y19.53943
G01 X35.43630 Y19.43616
G01 X35.48840 Y19.32922
G01 X35.55408 Y19.16844
G01 X35.60524 Y19.00796
G01 X35.64476 Y18.83009
G01 X35.66340 Y18.68790
G01 X35.67011 Y18.56890
G01 X35.66942 Y18.46717
G01 X35.66041 Y18.34149
G01 X35.64651 Y18.23977
G01 X35.62198 Y18.11736
G01 X35.58779 Y17.99140
G01 X35.56701 Y17.92948
G01 X35.45662 Y17.90327
G01 X35.36775 Y17.86372
G01 X35.23351 Y17.76776
G01 X35.14039 Y17.72448
G01 X35.03595 Y17.68427
G01 X34.91786 Y17.66184
G01 X34.79366 Y17.64911
G01 X34.66970 Y17.66181
G01 X34.50501 Y17.68744
G01 X34.44768 Y17.64378
G01 X33.79821 Y16.99456
G01 X33.73387 Y16.94569
G01 X33.66452 Y16.90367
G01 X33.57613 Y16.88262
G01 X33.51903 Y16.87492
G01 X33.46478 Y16.88206
G01 X33.38962 Y16.89859
G01 X30.72968 Y16.89862
G01 X30.59643 Y16.86491
G01 X30.47568 Y16.89113
G01 X28.95168 Y16.89113
G01 X28.83091 Y16.86491
G01 X28.82468 Y16.75193
G01 X28.82468 Y15.99578
G01 X28.79994 Y15.88371
G01 X28.69768 Y15.86387
G01 X25.45918 Y15.86387
G01 X25.35690 Y15.88371
G01 X25.33216 Y15.99578
G01 X25.33216 Y16.24394
G01 X25.31039 Y16.34914
G01 X25.20516 Y16.37093
G01 X24.06218 Y16.37093
G01 X23.95695 Y16.34914
G01 X23.93518 Y16.24394
G01 X23.93518 Y14.71994
G01 X23.95695 Y14.61470
G01 X24.06218 Y14.59293
G01 X25.20516 Y14.59293
G01 X25.31039 Y14.61470
G01 X25.33216 Y14.71994
G01 X25.33216 Y14.96809
G01 X25.35690 Y15.08013
G01 X25.45918 Y15.09997
G01 X29.19291 Y15.09799
G01 X29.23515 Y15.10093
G01 X30.47568 Y15.10093
G01 X30.58089 Y15.12270
G01 X30.60266 Y15.22794
G01 X30.60266 Y16.75193
G01 X30.59643 Y16.86491
G01 X30.47568 Y16.89113
G01 X28.95168 Y16.89113
G01 X28.83091 Y16.86491
G01 X28.69768 Y16.89862
G01 X23.34336 Y16.89862
G01 X23.29043 Y16.89329
G01 X23.25009 Y16.86016
G01 X23.09846 Y16.70853
G01 X23.02388 Y16.57703
G01 X23.04948 Y16.44167
G01 X23.07039 Y16.42770
G01 X23.17318 Y16.37977
G01 X23.27839 Y16.34914
G01 X23.30018 Y16.24394
G01 X23.30018 Y14.71994
G01 X23.27839 Y14.61470
G01 X23.17318 Y14.59293
G01 X23.11552 Y14.59293
G01 X23.00346 Y14.56820
G01 X22.98362 Y14.46593
G01 X22.98362 Y12.17991
G01 X23.00346 Y12.07765
G01 X23.11552 Y12.05291
G01 X23.17318 Y12.05291
G01 X23.27839 Y12.03114
G01 X23.30018 Y11.92594
G01 X23.30018 Y10.40193
G01 X23.27839 Y10.29670
G01 X23.17318 Y10.27493
G01 X23.11552 Y10.27493
G01 X23.00346 Y10.25020
G01 X22.98362 Y10.14794
G01 X22.98362 Y9.63991
G01 X23.00346 Y9.53765
G01 X23.11552 Y9.51293
G01 X23.17318 Y9.51293
G01 X23.27839 Y9.49114
G01 X23.30018 Y9.38593
G01 X23.30018 Y7.86194
G01 X23.27839 Y7.75670
G01 X23.17318 Y7.73491
G01 X22.03016 Y7.73491
G01 X21.92495 Y7.75670
G01 X21.90316 Y7.86194
G01 X21.90316 Y9.38593
G01 X21.92495 Y9.49114
G01 X22.03016 Y9.51293
G01 X22.08759 Y9.51293
G01 X22.19980 Y9.53773
G01 X22.21959 Y9.63991
G01 X22.21959 Y10.14794
G01 X22.19980 Y10.25012
G01 X22.08759 Y10.27493
G01 X22.03016 Y10.27493
G01 X21.92495 Y10.29670
G01 X21.90316 Y10.40193
G01 X21.90316 Y11.92594
G01 X21.92495 Y12.03114
G01 X22.03016 Y12.05291
G01 X22.08759 Y12.05291
G01 X22.19980 Y12.07773
G01 X22.21959 Y12.17991
G01 X22.21959 Y14.46593
G01 X22.19980 Y14.56812
G01 X22.08759 Y14.59293
G01 X22.03016 Y14.59293
G01 X21.92495 Y14.61470
G01 X21.90316 Y14.71994
G01 X21.90316 Y16.24394
G01 X21.92495 Y16.34914
G01 X22.03016 Y16.37093
G01 X22.08759 Y16.37093
G01 X22.19998 Y16.39580
G01 X22.21979 Y16.49793
G01 X22.21997 Y16.73888
G01 X22.22630 Y16.79362
G01 X22.24989 Y16.89748
G01 X22.30084 Y16.97962
G01 X22.34072 Y17.03126
G01 X22.82596 Y17.51594
G01 X22.85233 Y17.53753
G01 X22.90315 Y17.57365
G01 X22.95942 Y17.60695
G01 X23.03805 Y17.62623
G01 X23.10514 Y17.63570
G01 X23.23592 Y17.61211
G01 X28.89275 Y17.61211
G01 X28.97462 Y17.62483
G01 X29.05651 Y17.66301
G01 X29.14010 Y17.71498
G01 X29.32059 Y17.66692
G01 X29.42585 Y17.64711
G01 X29.59390 Y17.62821
G01 X29.70525 Y17.62425
G01 X29.86105 Y17.63022
G01 X29.97355 Y17.64287
G01 X30.13220 Y17.67258
G01 X30.28678 Y17.71526
G01 X30.30499 Y17.78795
G01 X30.33870 Y17.87802
G01 X30.37652 Y17.93573
G01 X30.48686 Y18.08356
G01 X30.52572 Y18.16799
G01 X30.57568 Y18.29897
G01 X30.59532 Y18.41668
G01 X30.60626 Y18.52991
G01 X30.59054 Y18.67743
G01 X30.57601 Y18.76097
G01 X30.51134 Y18.92437
G01 X30.48655 Y18.97606
G01 X30.46440 Y19.00895
G01 X30.40842 Y19.08452
G01 X30.34459 Y19.16110
G01 X30.22884 Y19.25467
G01 X30.14843 Y19.30872
G01 X30.06270 Y19.34748
G01 X29.94457 Y19.39193
G01 X29.82389 Y19.41200
G01 X29.71366 Y19.42249
G01 X29.56397 Y19.40649
G01 X29.46895 Y19.38759
G01 X29.38097 Y19.35432
G01 X29.26730 Y19.30273
G01 X29.16672 Y19.23072
G01 X29.08254 Y19.16110
G01 X28.98714 Y19.04271
G01 X28.94056 Y18.97624
G01 X28.89923 Y18.88635
G01 X28.85178 Y18.76077
G01 X28.83106 Y18.63641
G01 X28.82085 Y18.52991
G01 X28.82826 Y18.44693
G01 X28.85138 Y18.29895
G01 X28.88595 Y18.20553
G01 X28.94091 Y18.08381
G01 X29.07360 Y17.90428
G01 X29.11297 Y17.81952
G01 X29.14010 Y17.71498
G01 X29.23931 Y17.68638
G01 X29.41020 Y17.64965
G01 X29.51264 Y17.63540
G01 X29.69087 Y17.62437
G01 X29.86105 Y17.63022
G01 X29.97355 Y17.64287
G01 X30.13220 Y17.67258
G01 X30.28678 Y17.71526
G01 X30.37083 Y17.66301
G01 X30.45272 Y17.62483
G01 X30.53461 Y17.61211
G01 X33.28060 Y17.61211
G01 X33.33372 Y17.61744
G01 X33.37390 Y17.65043
G01 X33.90748 Y18.18391
G01 X33.95081 Y18.24063
G01 X33.91121 Y18.51563
G01 X33.88251 Y18.54967
G01 X32.28459 Y20.14758
G01 X32.24446 Y20.18048
G01 X32.19247 Y20.18566
G01 X3.10462 Y20.18566
G01 X3.05285 Y20.18053
G01 X3.01254 Y20.14751
G01 X2.69606 Y19.83105
G01 X2.66306 Y19.79074
G01 X2.65791 Y19.73897
G01 X2.65791 Y19.54594
G01 X2.68623 Y19.42445
G01 X2.69486 Y19.41802
G01 X2.72618 Y19.29193
G01 X2.72618 Y17.76793
G01 X2.69486 Y17.64182
G01 X2.68623 Y17.63540
G01 X2.65791 Y17.51393
G01 X2.65791 Y16.49793
G01 X2.68623 Y16.37645
G01 X2.69486 Y16.37002
G01 X2.72618 Y16.24394
G01 X2.72618 Y14.71994
G01 X2.69486 Y14.59382
G01 X2.68623 Y14.58740
G01 X2.65791 Y14.46593
G01 X2.65791 Y12.44252
G01 X2.64808 Y12.34392
G01 X2.66642 Y12.17988
G01 X2.65519 Y12.06586
G01 X2.63583 Y11.94892
G01 X2.59006 Y11.82812
G01 X2.54599 Y11.73406
G01 X2.47574 Y11.63465
G01 X2.40472 Y11.54887
G01 X2.31592 Y11.47549
G01 X2.21983 Y11.40706
G01 X2.04130 Y11.33058
G01 X2.00444 Y11.31857
G01 X1.92253 Y11.30336
G01 X1.77366 Y11.28738
G01 X1.62735 Y11.30297
G01 X1.53060 Y11.32164
G01 X1.39733 Y11.37404
G01 X1.32710 Y11.40676
G01 X1.20670 Y11.49477
G01 X1.13596 Y11.55593
G01 X1.04661 Y11.66779
G01 X1.00048 Y11.73356
G01 X0.94765 Y11.85161
G01 X0.91138 Y11.94895
G01 X0.88963 Y12.08522
G01 X0.88168 Y12.16784
G01 X0.88814 Y12.26205
G01 X0.91125 Y12.41092
G01 X0.96426 Y12.54803
G01 X1.00048 Y12.62629
G01 X1.05367 Y12.70155
G01 X1.14229 Y12.81079
G01 X1.21686 Y12.87262
G01 X1.38666 Y12.99507
G01 X1.39743 Y13.06995
G01 X1.39743 Y14.46593
G01 X1.36911 Y14.58740
G01 X1.36047 Y14.59382
G01 X1.32916 Y14.71994
G01 X1.32916 Y16.24394
G01 X1.36047 Y16.37002
G01 X1.36911 Y16.37645
G01 X1.39743 Y16.49793
G01 X1.39743 Y17.51393
G01 X1.36911 Y17.63540
G01 X1.36047 Y17.64182
G01 X1.32916 Y17.76793
G01 X1.32916 Y19.29193
G01 X1.36047 Y19.41802
G01 X1.36911 Y19.42445
G01 X1.39743 Y19.54594
G01 X1.39743 Y20.04540
G01 X1.41011 Y20.16338
G01 X1.42489 Y20.23224
G01 X1.48285 Y20.36844
G01 X1.56271 Y20.47601
G01 X2.33802 Y21.25553
G01 X2.43383 Y21.33242
G01 X2.47528 Y21.36056
G01 X2.50447 Y21.37519
G01 X2.62679 Y21.42358
G01 X2.69682 Y21.43587
G01 X2.79819 Y21.44616
G01 X22.08759 Y21.44616
G01 X22.19797 Y21.46955
G01 X22.21959 Y21.57641
G01 X22.21959 Y22.59393
G01 X22.19980 Y22.69612
G01 X22.08759 Y22.72094
G01 X22.03016 Y22.72094
G01 X21.92495 Y22.74270
G01 X21.90316 Y22.84793
G01 X21.90316 Y24.37191
G01 X21.92495 Y24.47714
G01 X22.03016 Y24.49893
G01 X22.08759 Y24.49893
G01 X22.19980 Y24.52373
G01 X22.21959 Y24.62593
G01 X22.21959 Y25.13393
G01 X22.19980 Y25.23612
G01 X22.08759 Y25.26093
G01 X22.03016 Y25.26093
G01 X21.92495 Y25.28270
G01 X21.90316 Y25.38793
G01 X21.90316 Y26.91191
G01 X21.92495 Y27.01714
G01 X22.03016 Y27.03891
G01 X23.17318 Y27.03891
G01 X23.27839 Y27.01714
G01 X23.30018 Y26.91191
G01 X23.30018 Y25.38793
G01 X23.27839 Y25.28270
G01 X23.17318 Y25.26093
G01 X23.11552 Y25.26093
G01 X23.00346 Y25.23620
G01 X22.98362 Y25.13393
G01 X22.98362 Y24.62593
G01 X23.00346 Y24.52365
G01 X23.11552 Y24.49893
G01 X23.17318 Y24.49893
G01 X23.27839 Y24.47714
G01 X23.30018 Y24.37191
G01 X23.30018 Y22.84793
G01 X23.27839 Y22.74270
G01 X23.17318 Y22.72094
G01 X23.11552 Y22.72094
G01 X23.00346 Y22.69620
G01 X22.98362 Y22.59393
G01 X22.98362 Y21.57641
G01 X23.00529 Y21.46948
G01 X23.11552 Y21.44616
G01 X32.52066 Y21.44443
G01 X32.67052 Y21.42355
G01 X32.72658 Y21.40354
G01 X32.82226 Y21.36084
G01 X32.88134 Y21.31929
G01 X32.95929 Y21.25548
G01 X33.65177 Y20.56303
G01 X33.74301 Y20.50288
G01 X33.86534 Y20.47385
G01 X33.96127 Y20.46445
G04 P0 ( dwell for no time -- G64 should not smooth over this point )
G00 Z10.00000 ( retract )

G00 X31.87268 Y22.31047 ( rapid move to begin. )
G01 F30.00000
( Mill infeed pass 1/1 )
G01 Z-0.10000
G04 P0 ( dwell for no time -- G64 should not smooth over this point )
G01 F360.00000
G01 X31.87268 Y22.31047
G01 X31.87268 Y22.56815
G01 X31.96499 Y22.59439
G01 X32.04837 Y22.63211
G01 X32.12546 Y22.68141
G01 X32.19468 Y22.74131
G01 X32.25457 Y22.81052
G01 X32.30387 Y22.88761
G01 X32.34159 Y22.97100
G01 X32.36783 Y23.06333
G01 X32.62554 Y23.06333
G01 X32.61182 Y22.95842
G01 X32.52216 Y22.74202
G01 X32.37967 Y22.55634
G01 X32.19399 Y22.41385
G01 X31.97758 Y22.32419
G01 X31.87268 Y22.31047
G04 P0 ( dwell for no time -- G64 should not smooth over this point )
G00 Z10.00000 ( retract )

G00 X31.87268 Y23.81247 ( rapid move to begin. )
G01 F30.00000
( Mill infeed pass 1/1 )
G01 Z-0.10000
G04 P0 ( dwell for no time -- G64 should not smooth over this point )
G01 F360.00000
G01 X31.87268 Y23.81247
G01 X31.87268 Y24.07044
G01 X31.97758 Y24.05647
G01 X32.19399 Y23.96681
G01 X32.37967 Y23.82456
G01 X32.52216 Y23.63864
G01 X32.61182 Y23.42248
G01 X32.62554 Y23.31733
G01 X32.36783 Y23.31733
G01 X32.34159 Y23.40963
G01 X32.30387 Y23.49302
G01 X32.25457 Y23.57011
G01 X32.19468 Y23.63932
G01 X32.12546 Y23.69922
G01 X32.04837 Y23.74852
G01 X31.96499 Y23.78624
G01 X31.87268 Y23.81247
G04 P0 ( dwell for no time -- G64 should not smooth over this point )
G00 Z10.00000 ( retract )

G00 X29.11498 Y24.72253 ( rapid move to begin. )
G01 F30.00000
( Mill infeed pass 1/1 )
G01 Z-0.10000
G04 P0 ( dwell for no time -- G64 should not smooth over this point )
G01 F360.00000
G01 X29.11498 Y24.72253
G01 X29.03685 Y24.67389
G01 X28.95476 Y24.63559
G01 X28.87269 Y24.62281
G01 X28.53334 Y24.62281
G01 X28.48087 Y24.62802
G01 X28.44008 Y24.66144
G01 X26.69083 Y26.41092
G01 X26.62425 Y26.46121
G01 X26.55705 Y26.50099
G01 X26.50401 Y26.51536
G01 X26.39865 Y26.53177
G01 X25.45918 Y26.53185
G01 X25.35690 Y26.55169
G01 X25.33216 Y26.66378
G01 X25.33216 Y26.91191
G01 X25.31039 Y27.01714
G01 X25.20516 Y27.03891
G01 X24.06218 Y27.03891
G01 X23.95695 Y27.01714
G01 X23.93518 Y26.91191
G01 X23.93518 Y25.38793
G01 X23.95695 Y25.28270
G01 X24.06218 Y25.26093
G01 X25.20516 Y25.26093
G01 X25.31039 Y25.28270
G01 X25.33216 Y25.38793
G01 X25.33216 Y25.63607
G01 X25.35690 Y25.74813
G01 X25.45918 Y25.76797
G01 X26.19883 Y25.76797
G01 X26.25128 Y25.76276
G01 X26.29207 Y25.72934
G01 X28.04137 Y23.98006
G01 X28.10561 Y23.93124
G01 X28.17492 Y23.88921
G01 X28.23812 Y23.87303
G01 X28.33352 Y23.85931
G01 X28.69766 Y23.85926
G01 X28.82082 Y23.83056
G01 X28.95168 Y23.86416
G01 X30.47566 Y23.86391
G01 X30.60263 Y23.83216
G01 X30.72958 Y23.73691
G01 X30.84355 Y23.62291
G01 X30.72958 Y23.73691
G01 X30.60263 Y23.83216
G01 X30.47566 Y23.86391
G01 X28.95168 Y23.86416
G01 X28.82082 Y23.83056
G01 X28.82468 Y23.72703
G01 X28.82468 Y23.48878
G01 X28.79994 Y23.37671
G01 X28.69768 Y23.35687
G01 X25.48151 Y23.35687
G01 X25.42901 Y23.36211
G01 X25.38819 Y23.39556
G01 X25.34003 Y23.44791
G01 X25.33216 Y23.51113
G01 X25.33216 Y24.37191
G01 X25.31039 Y24.47714
G01 X25.20516 Y24.49893
G01 X24.06218 Y24.49893
G01 X23.95695 Y24.47714
G01 X23.93518 Y24.37191
G01 X23.93518 Y22.84793
G01 X23.95695 Y22.74270
G01 X24.06218 Y22.72094
G01 X24.93162 Y22.72094
G01 X24.98758 Y22.71476
G01 X25.07770 Y22.64969
G01 X25.12306 Y22.62388
G01 X25.17630 Y22.60945
G01 X25.28166 Y22.59307
G01 X28.69768 Y22.59297
G01 X28.79994 Y22.57316
G01 X28.82468 Y22.46107
G01 X28.82468 Y22.21293
G01 X28.84645 Y22.10770
G01 X28.95168 Y22.08593
G01 X30.47568 Y22.08593
G01 X30.58089 Y22.10770
G01 X30.60266 Y22.21293
G01 X30.60266 Y23.12581
G01 X30.63049 Y23.24468
G01 X30.71393 Y23.36355
G01 X30.81495 Y23.47145
G01 X30.84355 Y23.62291
G01 X31.04436 Y23.75903
G01 X31.11835 Y23.81534
G01 X31.31942 Y23.98072
G01 X31.33743 Y24.08974
G01 X31.36836 Y24.19256
G01 X31.42325 Y24.27143
G01 X31.61124 Y24.45936
G01 X31.65201 Y24.49274
G01 X31.70453 Y24.49797
G01 X33.96460 Y24.49797
G01 X34.04669 Y24.48519
G01 X34.12879 Y24.44689
G01 X34.20801 Y24.39756
G01 X34.37092 Y24.44435
G01 X34.54392 Y24.47722
G01 X34.71306 Y24.49302
G01 X34.87938 Y24.49276
G01 X34.97826 Y24.48522
G01 X35.13539 Y24.46185
G01 X35.24072 Y24.43838
G01 X35.37900 Y24.39751
G01 X35.39561 Y24.32726
G01 X35.42688 Y24.23582
G01 X35.46521 Y24.17453
G01 X35.55614 Y24.05012
G01 X35.60585 Y23.94059
G01 X35.64407 Y23.83775
G01 X35.66617 Y23.69995
G01 X35.67448 Y23.60994
G01 X35.66627 Y23.52073
G01 X35.64418 Y23.38207
G01 X35.60122 Y23.26808
G01 X35.55604 Y23.16978
G01 X35.47331 Y23.05553
G01 X35.41644 Y22.98708
G01 X35.34573 Y22.92835
G01 X35.23376 Y22.84743
G01 X35.13275 Y22.80117
G01 X35.05512 Y22.77097
G01 X35.02134 Y22.75947
G01 X34.97425 Y22.75045
G01 X34.79366 Y22.72911
G01 X34.63092 Y22.74748
G01 X34.56579 Y22.75962
G01 X34.53895 Y22.76851
G01 X34.37285 Y22.83762
G01 X34.30179 Y22.88289
G01 X34.17072 Y22.98718
G01 X34.06790 Y23.11631
G01 X34.03128 Y23.16985
G01 X34.01240 Y23.20828
G01 X33.94956 Y23.36277
G01 X33.93168 Y23.44425
G01 X33.91291 Y23.60994
G01 X33.93168 Y23.77557
G01 X33.94956 Y23.85705
G01 X33.98337 Y23.94529
G01 X34.02272 Y24.03340
G01 X34.06079 Y24.09360
G01 X34.12203 Y24.17440
G01 X34.16417 Y24.24402
G01 X34.19300 Y24.33338
G01 X34.20801 Y24.39756
G01 X34.37092 Y24.44435
G01 X34.52934 Y24.47511
G01 X34.62873 Y24.48717
G01 X34.79797 Y24.49482
G01 X34.96457 Y24.48659
G01 X35.06417 Y24.47417
G01 X35.22269 Y24.44283
G01 X35.37900 Y24.39751
G01 X35.45830 Y24.44689
G01 X35.54039 Y24.48519
G01 X35.62248 Y24.49797
G01 X36.05068 Y24.49797
G01 X36.11532 Y24.50628
G01 X36.18174 Y24.52058
G01 X36.20917 Y24.52858
G01 X36.23683 Y24.54377
G01 X36.27849 Y24.57023
G01 X36.34275 Y24.61900
G01 X36.98766 Y25.26378
G01 X37.04501 Y25.30744
G01 X37.20970 Y25.28181
G01 X37.33366 Y25.26911
G01 X37.44079 Y25.27958
G01 X37.56142 Y25.29916
G01 X37.72982 Y25.36708
G01 X37.80536 Y25.38997
G01 X37.87244 Y25.34097
G01 X42.62250 Y20.59092
G01 X42.66626 Y20.53341
G01 X42.64845 Y20.45165
G01 X42.61571 Y20.35345
G01 X42.59003 Y20.18182
G01 X42.58206 Y20.08995
G01 X42.59130 Y19.98668
G01 X42.61889 Y19.80987
G01 X42.68363 Y19.64240
G01 X42.72689 Y19.54911
G01 X42.82956 Y19.40817
G01 X42.89885 Y19.32523
G01 X42.96819 Y19.26692
G01 X43.12313 Y19.15396
G01 X43.29199 Y19.07875
G01 X43.38366 Y19.04591
G01 X43.53822 Y19.02038
G01 X43.66359 Y19.00880
G01 X43.80268 Y19.02214
G01 X43.94342 Y19.04535
G01 X44.06257 Y19.08970
G01 X44.20408 Y19.15363
G01 X44.29392 Y19.21652
G01 X44.42788 Y19.32569
G01 X44.54901 Y19.47591
G01 X44.59953 Y19.54941
G01 X44.67136 Y19.70971
G01 X44.70733 Y19.81017
G01 X44.73732 Y20.00047
G01 X44.74484 Y20.08505
G01 X44.73732 Y20.17949
G01 X44.70804 Y20.36971
G01 X44.67192 Y20.46892
G01 X44.61373 Y20.60252
G01 X44.59978 Y20.63049
G01 X44.53123 Y20.72795
G01 X44.42841 Y20.85480
G01 X44.30098 Y20.95815
G01 X44.20415 Y21.02627
G01 X44.07070 Y21.08693
G01 X43.94330 Y21.13432
G01 X43.81485 Y21.15627
G01 X43.72386 Y21.16673
G01 X43.66359 Y21.17115
G01 X43.63161 Y21.16920
G01 X43.52948 Y21.15856
G01 X43.38356 Y21.13460
G01 X43.28274 Y21.09876
G01 X43.22061 Y21.08705
G01 X43.16268 Y21.13110
G01 X38.25105 Y26.04267
G01 X38.21803 Y26.08290
G01 X38.20757 Y26.22799
G01 X38.18415 Y26.37780
G01 X38.15029 Y26.46972
G01 X38.08989 Y26.59995
G01 X37.98735 Y26.73622
G01 X37.95560 Y26.77188
G01 X37.89921 Y26.82060
G01 X37.77391 Y26.91265
G01 X37.62776 Y26.97668
G01 X37.56122 Y26.99990
G01 X37.51684 Y27.00889
G01 X37.38786 Y27.02618
G01 X37.33366 Y27.02982
G01 X37.23805 Y27.02169
G01 X37.10838 Y27.00106
G01 X37.00341 Y26.96225
G01 X36.89322 Y26.91265
G01 X36.79701 Y26.84348
G01 X36.71133 Y26.77226
G01 X36.61700 Y26.65585
G01 X36.57176 Y26.58989
G01 X36.54118 Y26.52667
G01 X36.48370 Y26.37772
G01 X36.46597 Y26.27683
G01 X36.45291 Y26.14991
G01 X36.46437 Y26.03477
G01 X36.49142 Y25.86167
G01 X36.44748 Y25.80391
G01 X36.00813 Y25.36467
G01 X35.89180 Y25.29482
G01 X35.72436 Y25.32532
G01 X35.63404 Y25.28001
G01 X35.54374 Y25.26487
G01 X34.04362 Y25.26474
G01 X33.90847 Y25.29850
G01 X33.77331 Y25.39985
G01 X33.65845 Y25.51471
G01 X31.47096 Y25.51448
G01 X31.36577 Y25.50841
G01 X31.25922 Y25.49337
G01 X31.14959 Y25.46855
G01 X31.07675 Y25.44684
G01 X30.96443 Y25.40536
G01 X30.88830 Y25.25456
G01 X30.79664 Y25.10092
G01 X30.72508 Y24.99690
G01 X30.60273 Y24.84425
G01 X30.51780 Y24.80320
G01 X30.39440 Y24.75184
G01 X30.27604 Y24.71062
G01 X30.16179 Y24.67828
G01 X30.04950 Y24.65365
G01 X29.92951 Y24.63508
G01 X29.82189 Y24.62530
G01 X29.65638 Y24.62289
G01 X29.56100 Y24.62850
G01 X29.39730 Y24.65014
G01 X29.25173 Y24.68174
G01 X29.11498 Y24.72253
G01 X29.10164 Y24.78367
G01 X29.05925 Y24.90236
G01 X28.94071 Y25.06868
G01 X28.88894 Y25.18349
G01 X28.84858 Y25.29850
G01 X28.83106 Y25.40843
G01 X28.82118 Y25.51494
G01 X28.83421 Y25.64488
G01 X28.85125 Y25.74592
G01 X28.88188 Y25.82906
G01 X28.94076 Y25.96111
G01 X29.00797 Y26.05547
G01 X29.08275 Y26.14592
G01 X29.18483 Y26.22959
G01 X29.25234 Y26.27805
G01 X29.34820 Y26.32553
G01 X29.48254 Y26.37686
G01 X29.58661 Y26.39479
G01 X29.71366 Y26.40754
G01 X29.82305 Y26.39713
G01 X30.01094 Y26.36690
G01 X30.13415 Y26.45918
G01 X30.20350 Y26.50170
G01 X30.25630 Y26.51536
G01 X30.36166 Y26.53177
G01 X33.78962 Y26.53187
G01 X33.89188 Y26.55169
G01 X33.91662 Y26.66378
G01 X33.91662 Y26.90000
G01 X33.93839 Y27.00520
G01 X34.04362 Y27.02700
G01 X35.54374 Y27.02700
G01 X35.64877 Y27.00528
G01 X35.67062 Y26.90000
G01 X35.67062 Y25.50653
G01 X35.69302 Y25.39987
G01 X35.72436 Y25.32532
G04 P0 ( dwell for no time -- G64 should not smooth over this point )
G00 Z10.00000 ( retract )

G00 X37.46068 Y24.34915 ( rapid move to begin. )
G01 F30.00000
( Mill infeed pass 1/1 )
G01 Z-0.10000
