( pcb2gcode 3.0.3 )
( Software-independent Gcode )

G94 ( Inches per minute feed rate. )
G20 ( Units == INCHES. )

G90 ( Absolute coordinates. )
G00 S12000 ( RPM spindle speed. )
G64 P0.00040 ( set maximum deviation from commanded toolpath )
G01 F360.00000 ( Feedrate. )


G00 Z1.00000 (Retract to tool change height)
T1
M5      (Spindle stop.)
G04 P1.00000 (Wait for spindle to stop)
(MSG, Change tool bit to mill diameter 0.00000in)
M6      (Tool change.)
M0      (Temporary machine stop.)
M3 ( Spindle on clockwise. )
G04 P1.00000 (Wait for spindle to get up to speed)
G04 P0 ( dwell for no time -- G64 should not smooth over this point )
G00 Z0.08000 ( retract )

G00 X0.06201 Y1.10712 ( rapid move to begin. )
G01 F180.00000
( Mill infeed pass 1/1 )
G01 Z-0.04000
G04 P0 ( dwell for no time -- G64 should not smooth over this point )
G01 F360.00000
G01 X0.06201 Y1.10712
G01 X0.06341 Y1.10729
G01 X0.06417 Y1.10759
G01 X0.06519 Y1.10825
G01 X0.11201 Y1.15505
G01 X0.15883 Y1.10825
G01 X0.15985 Y1.10759
G01 X0.16060 Y1.10729
G01 X0.16221 Y1.10709
G01 X0.16341 Y1.10729
G01 X0.16417 Y1.10759
G01 X0.16549 Y1.10853
G01 X0.16643 Y1.10985
G01 X0.16672 Y1.11060
G01 X0.16692 Y1.11180
G01 X0.16672 Y1.11341
G01 X0.16643 Y1.11417
G01 X0.16576 Y1.11519
G01 X0.11897 Y1.16201
G01 X0.16576 Y1.20883
G01 X0.16643 Y1.20985
G01 X0.16672 Y1.21060
G01 X0.16690 Y1.21201
G01 X0.15507 Y1.21201
G01 X0.11201 Y1.16897
G01 X0.06895 Y1.21201
G01 X0.06201 Y1.21201
G01 X0.06201 Y1.20507
G01 X0.10505 Y1.16201
G01 X0.06201 Y1.11895
G01 X0.06201 Y1.10712
G01 X0.14710 Y0.53502
G01 X0.14712 Y1.03702
G01 X0.14741 Y1.03941
G01 X0.14800 Y1.04175
G01 X0.14886 Y1.04400
G01 X0.14999 Y1.04612
G01 X0.15138 Y1.04809
G01 X0.15299 Y1.04988
G01 X0.15481 Y1.05146
G01 X0.15681 Y1.05280
G01 X0.15859 Y1.05372
G01 X0.16046 Y1.05446
G01 X0.16239 Y1.05501
G01 X0.16436 Y1.05536
G01 X0.16637 Y1.05550
G01 X0.17839 Y1.05550
G01 X0.20035 Y1.08844
G01 X0.17202 Y1.08844
G01 X0.17042 Y1.08866
G01 X0.16930 Y1.08910
G01 X0.16829 Y1.08977
G01 X0.16719 Y1.09094
G01 X0.16660 Y1.09200
G01 X0.16624 Y1.09315
G01 X0.16611 Y1.09435
G01 X0.16624 Y1.09555
G01 X0.16660 Y1.09670
G01 X0.16744 Y1.09807
G01 X0.16861 Y1.09917
G01 X0.17004 Y1.09991
G01 X0.17202 Y1.10025
G01 X0.21179 Y1.10024
G01 X0.21334 Y1.09992
G01 X0.21442 Y1.09942
G01 X0.21566 Y1.09842
G01 X0.21640 Y1.09748
G01 X0.21705 Y1.09603
G01 X0.21729 Y1.09446
G01 X0.21711 Y1.09288
G01 X0.21651 Y1.09141
G01 X0.19259 Y1.05550
G01 X0.22517 Y1.05550
G01 X0.22517 Y1.06623
G01 X0.22528 Y1.06739
G01 X0.22579 Y1.06887
G01 X0.22881 Y1.07486
G01 X0.22986 Y1.07617
G01 X0.23124 Y1.07713
G01 X0.23722 Y1.08011
G01 X0.23834 Y1.08045
G01 X0.23951 Y1.08057
G01 X0.25076 Y1.08057
G01 X0.25192 Y1.08045
G01 X0.25340 Y1.07995
G01 X0.25902 Y1.07713
G01 X0.26070 Y1.07587
G01 X0.26166 Y1.07449
G01 X0.26448 Y1.06887
G01 X0.26489 Y1.06777
G01 X0.26509 Y1.06662
G01 X0.26510 Y1.06060
G01 X0.26488 Y1.05900
G01 X0.26443 Y1.05787
G01 X0.26376 Y1.05686
G01 X0.26217 Y1.05550
G01 X0.27860 Y1.05550
G01 X0.27865 Y1.07547
G01 X0.27909 Y1.07702
G01 X0.27968 Y1.07807
G01 X0.28047 Y1.07898
G01 X0.28144 Y1.07971
G01 X0.28253 Y1.08023
G01 X0.28370 Y1.08051
G01 X0.28571 Y1.08044
G01 X0.28686 Y1.08008
G01 X0.28791 Y1.07949
G01 X0.28934 Y1.07806
G01 X0.29347 Y1.08011
G01 X0.29497 Y1.08052
G01 X0.30178 Y1.08055
G01 X0.30335 Y1.08023
G01 X0.30445 Y1.07971
G01 X0.30541 Y1.07898
G01 X0.30620 Y1.07807
G01 X0.30679 Y1.07702
G01 X0.30723 Y1.07547
G01 X0.30727 Y1.07426
G01 X0.30706 Y1.07307
G01 X0.30662 Y1.07195
G01 X0.30541 Y1.07035
G01 X0.30373 Y1.06925
G01 X0.30178 Y1.06877
G01 X0.29715 Y1.06876
G01 X0.29363 Y1.06700
G01 X0.29217 Y1.06554
G01 X0.29041 Y1.06202
G01 X0.29041 Y1.05550
G01 X0.31234 Y1.05550
G01 X0.31234 Y1.06341
G01 X0.31266 Y1.06534
G01 X0.31616 Y1.07234
G01 X0.31970 Y1.07603
G01 X0.32123 Y1.07713
G01 X0.32795 Y1.08036
G01 X0.32950 Y1.08057
G01 X0.33793 Y1.08057
G01 X0.33910 Y1.08045
G01 X0.34022 Y1.08011
G01 X0.34653 Y1.07695
G01 X0.34773 Y1.07603
G01 X0.35127 Y1.07234
G01 X0.35447 Y1.06606
G01 X0.35497 Y1.06458
G01 X0.35509 Y1.06341
G01 X0.35509 Y1.05550
G01 X0.40567 Y1.05549
G01 X0.40767 Y1.05530
G01 X0.40963 Y1.05492
G01 X0.41304 Y1.05372
G01 X0.41584 Y1.05216
G01 X0.41835 Y1.05016
G01 X0.42050 Y1.04777
G01 X0.42204 Y1.04543
G01 X0.42338 Y1.04251
G01 X0.42422 Y1.03941
G01 X0.42454 Y1.03622
G01 X0.42435 Y1.03302
G01 X0.42363 Y1.02989
G01 X0.42242 Y1.02692
G01 X0.42098 Y1.02451
G01 X0.41892 Y1.02204
G01 X0.41650 Y1.01994
G01 X0.41377 Y1.01826
G01 X0.41079 Y1.01705
G01 X0.40806 Y1.01639
G01 X0.40486 Y1.01613
G01 X0.18645 Y1.01613
G01 X0.18645 Y0.81741
G01 X0.33344 Y0.81741
G01 X0.33584 Y0.81726
G01 X0.33937 Y0.81649
G01 X0.34125 Y0.81579
G01 X0.34304 Y0.81490
G01 X0.34602 Y0.81286
G01 X0.34857 Y0.81031
G01 X0.35062 Y0.80733
G01 X0.35208 Y0.80403
G01 X0.35292 Y0.80052
G01 X0.35310 Y0.79692
G01 X0.35271 Y0.79374
G01 X0.35166 Y0.79028
G01 X0.35000 Y0.78708
G01 X0.34777 Y0.78424
G01 X0.34539 Y0.78209
G01 X0.34234 Y0.78017
G01 X0.33898 Y0.77884
G01 X0.33584 Y0.77819
G01 X0.33344 Y0.77804
G01 X0.18645 Y0.77804
G01 X0.18639 Y0.53421
G01 X0.18576 Y0.53066
G01 X0.18450 Y0.52728
G01 X0.18288 Y0.52451
G01 X0.18054 Y0.52176
G01 X0.17775 Y0.51948
G01 X0.17458 Y0.51775
G01 X0.17115 Y0.51663
G01 X0.16757 Y0.51615
G01 X0.16556 Y0.51617
G01 X0.16357 Y0.51639
G01 X0.16161 Y0.51682
G01 X0.15970 Y0.51745
G01 X0.15647 Y0.51904
G01 X0.15481 Y0.52018
G01 X0.15328 Y0.52148
G01 X0.15189 Y0.52293
G01 X0.15066 Y0.52451
G01 X0.14886 Y0.52764
G01 X0.14767 Y0.53105
G01 X0.14728 Y0.53302
G01 X0.14710 Y0.53502
G04 P0 ( dwell for no time -- G64 should not smooth over this point )
G00 Z0.08000 ( retract )

G00 X0.23698 Y1.06218 ( rapid move to begin. )
G01 F180.00000
( Mill infeed pass 1/1 )
G01 Z-0.04000
G04 P0 ( dwell for no time -- G64 should not smooth over this point )
G01 F360.00000
G01 X0.23698 Y1.06218
G01 X0.23698 Y1.06483
G01 X0.23829 Y1.06745
G01 X0.24090 Y1.06876
G01 X0.24936 Y1.06876
G01 X0.25198 Y1.06745
G01 X0.25301 Y1.06539
G01 X0.23698 Y1.06218
G04 P0 ( dwell for no time -- G64 should not smooth over this point )
G00 Z0.08000 ( retract )

G00 X0.32415 Y1.05550 ( rapid move to begin. )
G01 F180.00000
( Mill infeed pass 1/1 )
G01 Z-0.04000
G04 P0 ( dwell for no time -- G64 should not smooth over this point )
G01 F360.00000
G01 X0.32415 Y1.05550
G01 X0.32415 Y1.06202
G01 X0.32592 Y1.06554
G01 X0.32737 Y1.06700
G01 X0.33089 Y1.06876
G01 X0.33654 Y1.06876
G01 X0.34006 Y1.06700
G01 X0.34152 Y1.06554
G01 X0.34328 Y1.06202
G01 X0.34328 Y1.05550
G01 X0.32415 Y1.05550
G04 P0 ( dwell for no time -- G64 should not smooth over this point )
G00 Z0.08000 ( retract )

G00 X0.57565 Y0.86915 ( rapid move to begin. )
G01 F180.00000
( Mill infeed pass 1/1 )
G01 Z-0.04000
G04 P0 ( dwell for no time -- G64 should not smooth over this point )
G01 F360.00000
G01 X0.57565 Y0.86915
G01 X0.57569 Y0.53461
G01 X0.57592 Y0.53262
G01 X0.57634 Y0.53066
G01 X0.57760 Y0.52728
G01 X0.57857 Y0.52552
G01 X0.57970 Y0.52386
G01 X0.58215 Y0.52121
G01 X0.58504 Y0.51904
G01 X0.58680 Y0.51808
G01 X0.58865 Y0.51730
G01 X0.59057 Y0.51672
G01 X0.59254 Y0.51633
G01 X0.59454 Y0.51615
G01 X0.59654 Y0.51617
G01 X0.60011 Y0.51672
G01 X0.60315 Y0.51775
G01 X0.60632 Y0.51948
G01 X0.60912 Y0.52176
G01 X0.61145 Y0.52451
G01 X0.61307 Y0.52728
G01 X0.61434 Y0.53066
G01 X0.61496 Y0.53421
G01 X0.61502 Y0.76927
G01 X0.63533 Y0.80987
G01 X0.65462 Y0.82916
G01 X0.69522 Y0.84947
G01 X0.73980 Y0.84953
G01 X0.74297 Y0.85005
G01 X0.74601 Y0.85108
G01 X0.74884 Y0.85259
G01 X0.75139 Y0.85454
G01 X0.75307 Y0.85626
G01 X0.75454 Y0.85817
G01 X0.75575 Y0.86025
G01 X0.75684 Y0.86284
G01 X0.75755 Y0.86556
G01 X0.75785 Y0.86795
G01 X0.75785 Y0.87035
G01 X0.75755 Y0.87274
G01 X0.75697 Y0.87508
G01 X0.75593 Y0.87769
G01 X0.75476 Y0.87979
G01 X0.75333 Y0.88174
G01 X0.75168 Y0.88349
G01 X0.74983 Y0.88503
G01 X0.74781 Y0.88633
G01 X0.74564 Y0.88738
G01 X0.74374 Y0.88804
G01 X0.74179 Y0.88851
G01 X0.73820 Y0.88884
G01 X0.69018 Y0.88883
G01 X0.68742 Y0.88858
G01 X0.68472 Y0.88794
G01 X0.68177 Y0.88676
G01 X0.63277 Y0.86218
G01 X0.63082 Y0.86084
G01 X0.62932 Y0.85954
G01 X0.61502 Y0.84525
G01 X0.61502 Y0.86955
G01 X0.61469 Y0.87274
G01 X0.61371 Y0.87622
G01 X0.61232 Y0.87911
G01 X0.61048 Y0.88174
G01 X0.60792 Y0.88429
G01 X0.60632 Y0.88549
G01 X0.60424 Y0.88671
G01 X0.60203 Y0.88766
G01 X0.59972 Y0.88834
G01 X0.59734 Y0.88873
G01 X0.59494 Y0.88883
G01 X0.59254 Y0.88864
G01 X0.59057 Y0.88825
G01 X0.58827 Y0.88752
G01 X0.58644 Y0.88671
G01 X0.58436 Y0.88549
G01 X0.58245 Y0.88403
G01 X0.58073 Y0.88234
G01 X0.57923 Y0.88046
G01 X0.57816 Y0.87876
G01 X0.57712 Y0.87659
G01 X0.57645 Y0.87470
G01 X0.57599 Y0.87274
G01 X0.57565 Y0.86915
G04 P0 ( dwell for no time -- G64 should not smooth over this point )
G00 Z0.08000 ( retract )

G00 X0.86137 Y0.63106 ( rapid move to begin. )
G01 F180.00000
( Mill infeed pass 1/1 )
G01 Z-0.04000
G04 P0 ( dwell for no time -- G64 should not smooth over this point )
G01 F360.00000
G01 X0.86137 Y0.63106
G01 X0.86137 Y0.77391
G01 X0.86151 Y0.77629
G01 X0.86215 Y0.77940
G01 X0.86327 Y0.78236
G01 X0.88823 Y0.83206
G01 X0.89067 Y0.83517
G01 X0.91562 Y0.86008
G01 X0.91749 Y0.86154
G01 X0.91952 Y0.86277
G01 X0.96894 Y0.88741
G01 X0.97158 Y0.88826
G01 X0.97471 Y0.88877
G01 X0.98636 Y0.88884
G01 X0.99904 Y0.90498
G01 X0.98644 Y0.92101
G01 X0.98580 Y0.92204
G01 X0.98522 Y0.92396
G01 X0.98525 Y0.92557
G01 X0.98589 Y0.92747
G01 X0.98713 Y0.92905
G01 X0.98882 Y0.93012
G01 X0.99078 Y0.93056
G01 X0.99277 Y0.93032
G01 X0.99457 Y0.92943
G01 X0.99573 Y0.92831
G01 X1.00655 Y0.91454
G01 X1.01737 Y0.92831
G01 X1.01821 Y0.92918
G01 X1.01957 Y0.93004
G01 X1.02111 Y0.93050
G01 X1.02272 Y0.93053
G01 X1.02465 Y0.92995
G01 X1.02627 Y0.92877
G01 X1.02701 Y0.92782
G01 X1.02755 Y0.92673
G01 X1.02792 Y0.92476
G01 X1.02782 Y0.92356
G01 X1.02747 Y0.92240
G01 X1.02666 Y0.92101
G01 X1.01406 Y0.90498
G01 X1.02674 Y0.88884
G01 X1.04851 Y0.88882
G01 X1.05166 Y0.88844
G01 X1.05434 Y0.88769
G01 X1.05652 Y0.88676
G01 X1.10414 Y0.86295
G01 X1.10748 Y0.86084
G01 X1.10926 Y0.85926
G01 X1.13307 Y0.83545
G01 X1.13535 Y0.83272
G01 X1.13676 Y0.83034
G01 X1.16091 Y0.78200
G01 X1.16216 Y0.77824
G01 X1.16264 Y0.77431
G01 X1.16264 Y0.63106
G01 X1.16250 Y0.62868
G01 X1.16187 Y0.62557
G01 X1.16074 Y0.62261
G01 X1.13676 Y0.57463
G01 X1.13557 Y0.57258
G01 X1.13335 Y0.56980
G01 X1.10926 Y0.54571
G01 X1.10748 Y0.54413
G01 X1.10553 Y0.54279
G01 X1.05617 Y0.51804
G01 X1.05396 Y0.51715
G01 X1.05166 Y0.51653
G01 X1.04772 Y0.51613
G01 X0.97629 Y0.51613
G01 X0.97392 Y0.51628
G01 X0.97043 Y0.51703
G01 X0.96749 Y0.51821
G01 X0.91952 Y0.54220
G01 X0.91716 Y0.54366
G01 X0.91504 Y0.54543
G01 X0.89067 Y0.56980
G01 X0.88844 Y0.57258
G01 X0.88726 Y0.57463
G01 X0.86295 Y0.62333
G01 X0.86177 Y0.62711
G01 X0.86137 Y0.63106
G04 P0 ( dwell for no time -- G64 should not smooth over this point )
G00 Z0.08000 ( retract )

G00 X0.90074 Y0.63570 ( rapid move to begin. )
G01 F180.00000
( Mill infeed pass 1/1 )
G01 Z-0.04000
G04 P0 ( dwell for no time -- G64 should not smooth over this point )
G01 F360.00000
G01 X0.90074 Y0.63570
G01 X0.92104 Y0.59510
G01 X0.94033 Y0.57581
G01 X0.98094 Y0.55550
G01 X1.04307 Y0.55550
G01 X1.08368 Y0.57581
G01 X1.10297 Y0.59510
G01 X1.12327 Y0.63570
G01 X1.12327 Y0.76927
G01 X1.10297 Y0.80987
G01 X1.08368 Y0.82916
G01 X1.04307 Y0.84947
G01 X0.98094 Y0.84947
G01 X0.94033 Y0.82916
G01 X0.92104 Y0.80987
G01 X0.90074 Y0.76927
G01 X0.90074 Y0.63570
G01 X1.00021 Y0.71141
G01 X1.00058 Y0.70903
G01 X1.00142 Y0.70678
G01 X1.00269 Y0.70475
G01 X1.00436 Y0.70301
G01 X1.00633 Y0.70165
G01 X1.00817 Y0.70084
G01 X1.01051 Y0.70029
G01 X1.01291 Y0.70023
G01 X1.01527 Y0.70066
G01 X1.01714 Y0.70137
G01 X1.01919 Y0.70263
G01 X1.02094 Y0.70428
G01 X1.02212 Y0.70590
G01 X1.02314 Y0.70807
G01 X1.02371 Y0.71041
G01 X1.02381 Y0.71241
G01 X1.02349 Y0.71479
G01 X1.02269 Y0.71706
G01 X1.02144 Y0.71911
G01 X1.01981 Y0.72087
G01 X1.01785 Y0.72227
G01 X1.01604 Y0.72311
G01 X1.01371 Y0.72370
G01 X1.01131 Y0.72380
G01 X1.00932 Y0.72351
G01 X1.00705 Y0.72273
G01 X1.00498 Y0.72150
G01 X1.00321 Y0.71989
G01 X1.00180 Y0.71794
G01 X1.00094 Y0.71613
G01 X1.00033 Y0.71381
G01 X1.00021 Y0.71141
G04 P0 ( dwell for no time -- G64 should not smooth over this point )
G00 Z0.08000 ( retract )

G00 X1.00138 Y0.88884 ( rapid move to begin. )
G01 F180.00000
( Mill infeed pass 1/1 )
G01 Z-0.04000
G04 P0 ( dwell for no time -- G64 should not smooth over this point )
G01 F360.00000
G01 X1.00138 Y0.88884
G01 X1.00655 Y0.89542
G01 X1.01172 Y0.88884
G01 X1.00138 Y0.88884
G04 P0 ( dwell for no time -- G64 should not smooth over this point )
G00 Z0.08000 ( retract )

G00 X1.03862 Y0.91663 ( rapid move to begin. )
G01 F180.00000
( Mill infeed pass 1/1 )
G01 Z-0.04000
G04 P0 ( dwell for no time -- G64 should not smooth over this point )
G01 F360.00000
G01 X1.03862 Y0.91663
G01 X1.03883 Y0.91782
G01 X1.03927 Y0.91894
G01 X1.03993 Y0.91995
G01 X1.04111 Y0.92105
G01 X1.04216 Y0.92164
G01 X1.04331 Y0.92201
G01 X1.04452 Y0.92213
G01 X1.09031 Y0.92208
G01 X1.09149 Y0.92179
G01 X1.09258 Y0.92127
G01 X1.09409 Y0.91995
G01 X1.09507 Y0.91820
G01 X1.09541 Y0.91623
G01 X1.09529 Y0.91503
G01 X1.09493 Y0.91387
G01 X1.09382 Y0.91220
G01 X1.09291 Y0.91140
G01 X1.09186 Y0.91081
G01 X1.09071 Y0.91045
G01 X1.08951 Y0.91032
G01 X1.04411 Y0.91034
G01 X1.04216 Y0.91081
G01 X1.04048 Y0.91191
G01 X1.03927 Y0.91351
G01 X1.03866 Y0.91542
G01 X1.03862 Y0.91663
G01 X1.03866 Y0.89855
G01 X1.03927 Y0.89664
G01 X1.04048 Y0.89504
G01 X1.04216 Y0.89394
G01 X1.04411 Y0.89346
G01 X1.08951 Y0.89345
G01 X1.09071 Y0.89357
G01 X1.09186 Y0.89394
G01 X1.09291 Y0.89453
G01 X1.09382 Y0.89532
G01 X1.09493 Y0.89700
G01 X1.09529 Y0.89815
G01 X1.09541 Y0.89935
G01 X1.09507 Y0.90133
G01 X1.09409 Y0.90308
G01 X1.09258 Y0.90440
G01 X1.09149 Y0.90492
G01 X1.09031 Y0.90520
G01 X1.04452 Y0.90526
G01 X1.04331 Y0.90514
G01 X1.04216 Y0.90477
G01 X1.04111 Y0.90418
G01 X1.03993 Y0.90308
G01 X1.03927 Y0.90207
G01 X1.03883 Y0.90095
G01 X1.03862 Y0.89976
G04 P0 ( dwell for no time -- G64 should not smooth over this point )
G00 Z0.08000 ( retract )

G00 X1.10709 Y0.96201 ( rapid move to begin. )
G01 F180.00000
( Mill infeed pass 1/1 )
G01 Z-0.04000
G04 P0 ( dwell for no time -- G64 should not smooth over this point )
G01 F360.00000
G01 X1.10709 Y0.96201
G01 X1.10715 Y0.96120
G01 X1.10750 Y0.96003
G01 X1.10812 Y0.95899
G01 X1.10867 Y0.95839
G01 X1.10966 Y0.95768
G01 X1.11120 Y0.95715
G01 X1.11241 Y0.95710
G01 X1.11398 Y0.95750
G01 X1.11534 Y0.95839
G01 X1.11634 Y0.95967
G01 X1.11691 Y0.96160
G01 X1.11693 Y1.01201
G01 X1.11686 Y1.01282
G01 X1.11651 Y1.01398
G01 X1.11589 Y1.01503
G01 X1.11534 Y1.01563
G01 X1.11398 Y1.01651
G01 X1.11282 Y1.01686
G01 X1.11120 Y1.01686
G01 X1.11003 Y1.01651
G01 X1.10867 Y1.01563
G01 X1.10768 Y1.01435
G01 X1.10724 Y1.01322
G01 X1.10710 Y1.01241
G01 X1.10709 Y0.96201
G01 X1.10893 Y0.88570
G01 X1.10940 Y0.88765
G01 X1.11050 Y0.88932
G01 X1.11141 Y0.89012
G01 X1.11247 Y0.89071
G01 X1.11442 Y0.89118
G01 X1.12579 Y0.89120
G01 X1.12579 Y0.92728
G01 X1.12434 Y0.92585
G01 X1.12308 Y0.92500
G01 X1.11709 Y0.92203
G01 X1.11594 Y0.92168
G01 X1.11473 Y0.92157
G01 X1.11353 Y0.92171
G01 X1.11239 Y0.92209
G01 X1.11134 Y0.92270
G01 X1.11045 Y0.92351
G01 X1.10973 Y0.92448
G01 X1.10923 Y0.92558
G01 X1.10896 Y0.92676
G01 X1.10893 Y0.92796
G01 X1.10944 Y0.92991
G01 X1.11056 Y0.93157
G01 X1.11182 Y0.93256
G01 X1.11694 Y0.93514
G01 X1.12148 Y0.93967
G01 X1.12728 Y0.94827
G01 X1.12851 Y0.94932
G01 X1.12999 Y0.95000
G01 X1.13119 Y0.95023
G01 X1.13241 Y0.95021
G01 X1.13360 Y0.94994
G01 X1.13505 Y0.94921
G01 X1.13598 Y0.94841
G01 X1.13672 Y0.94745
G01 X1.13725 Y0.94635
G01 X1.13754 Y0.94516
G01 X1.13760 Y0.89120
G01 X1.14897 Y0.89118
G01 X1.15092 Y0.89071
G01 X1.15229 Y0.88987
G01 X1.15339 Y0.88870
G01 X1.15398 Y0.88765
G01 X1.15441 Y0.88610
G01 X1.15446 Y0.88489
G01 X1.15413 Y0.88332
G01 X1.15361 Y0.88222
G01 X1.15288 Y0.88126
G01 X1.15163 Y0.88025
G01 X1.15016 Y0.87961
G01 X1.14856 Y0.87939
G01 X1.11442 Y0.87940
G01 X1.11247 Y0.87988
G01 X1.11109 Y0.88071
G01 X1.10999 Y0.88189
G01 X1.10913 Y0.88370
G01 X1.10893 Y0.88570
G04 P0 ( dwell for no time -- G64 should not smooth over this point )
G00 Z0.08000 ( retract )

G00 X1.16516 Y0.94174 ( rapid move to begin. )
G01 F180.00000
( Mill infeed pass 1/1 )
G01 Z-0.04000
G04 P0 ( dwell for no time -- G64 should not smooth over this point )
G01 F360.00000
G01 X1.16516 Y0.94174
G01 X1.16532 Y0.94293
G01 X1.16573 Y0.94407
G01 X1.16636 Y0.94510
G01 X1.17031 Y0.94905
G01 X1.17152 Y0.94976
G01 X1.17287 Y0.95017
G01 X1.17408 Y0.95025
G01 X1.17527 Y0.95009
G01 X1.17623 Y0.94976
G01 X1.17728 Y0.94917
G01 X1.18114 Y0.94542
G01 X1.18183 Y0.94443
G01 X1.18231 Y0.94332
G01 X1.18256 Y0.94214
G01 X1.18251 Y0.94053
G01 X1.18202 Y0.93900
G01 X1.18139 Y0.93797
G01 X1.17744 Y0.93402
G01 X1.17632 Y0.93335
G01 X1.17480 Y0.93289
G01 X1.17361 Y0.93282
G01 X1.17243 Y0.93300
G01 X1.17131 Y0.93340
G01 X1.17030 Y0.93403
G01 X1.16636 Y0.93797
G01 X1.16573 Y0.93900
G01 X1.16524 Y0.94053
G01 X1.16516 Y0.94174
G01 X1.16797 Y0.88529
G01 X1.16802 Y0.92547
G01 X1.16831 Y0.92664
G01 X1.16883 Y0.92773
G01 X1.17015 Y0.92924
G01 X1.17190 Y0.93023
G01 X1.17387 Y0.93057
G01 X1.17508 Y0.93044
G01 X1.17623 Y0.93008
G01 X1.17790 Y0.92898
G01 X1.17870 Y0.92807
G01 X1.17929 Y0.92702
G01 X1.17966 Y0.92586
G01 X1.17978 Y0.92466
G01 X1.17972 Y0.88449
G01 X1.17912 Y0.88258
G01 X1.17790 Y0.88098
G01 X1.17623 Y0.87988
G01 X1.17468 Y0.87944
G01 X1.17347 Y0.87940
G01 X1.17228 Y0.87961
G01 X1.17116 Y0.88005
G01 X1.17015 Y0.88071
G01 X1.16905 Y0.88189
G01 X1.16846 Y0.88294
G01 X1.16809 Y0.88409
G01 X1.16797 Y0.88529
G04 P0 ( dwell for no time -- G64 should not smooth over this point )
G00 Z0.08000 ( retract )

G00 X1.19609 Y0.88529 ( rapid move to begin. )
G01 F180.00000
( Mill infeed pass 1/1 )
G01 Z-0.04000
G04 P0 ( dwell for no time -- G64 should not smooth over this point )
G01 F360.00000
G01 X1.19609 Y0.88529
G01 X1.19610 Y0.92507
G01 X1.19643 Y0.92664
G01 X1.19695 Y0.92773
G01 X1.19768 Y0.92869
G01 X1.19893 Y0.92971
G01 X1.20040 Y0.93035
G01 X1.20240 Y0.93055
G01 X1.20435 Y0.93008
G01 X1.20596 Y0.92903
G01 X1.20815 Y0.93011
G01 X1.20965 Y0.93052
G01 X1.21965 Y0.93052
G01 X1.22115 Y0.93011
G01 X1.22750 Y0.92693
G01 X1.22852 Y0.92617
G01 X1.22934 Y0.92522
G01 X1.23275 Y0.91851
G01 X1.23309 Y0.91739
G01 X1.23321 Y0.91623
G01 X1.23320 Y0.88489
G01 X1.23287 Y0.88332
G01 X1.23235 Y0.88222
G01 X1.23162 Y0.88126
G01 X1.23071 Y0.88047
G01 X1.22966 Y0.87988
G01 X1.22811 Y0.87944
G01 X1.22650 Y0.87944
G01 X1.22533 Y0.87973
G01 X1.22424 Y0.88025
G01 X1.22327 Y0.88098
G01 X1.22248 Y0.88189
G01 X1.22174 Y0.88332
G01 X1.22140 Y0.88529
G01 X1.22140 Y0.91483
G01 X1.22009 Y0.91745
G01 X1.21747 Y0.91876
G01 X1.21183 Y0.91876
G01 X1.20831 Y0.91700
G01 X1.20790 Y0.91659
G01 X1.20790 Y0.88529
G01 X1.20768 Y0.88370
G01 X1.20724 Y0.88258
G01 X1.20658 Y0.88157
G01 X1.20540 Y0.88047
G01 X1.20397 Y0.87973
G01 X1.20240 Y0.87940
G01 X1.20079 Y0.87951
G01 X1.19928 Y0.88005
G01 X1.19771 Y0.88129
G01 X1.19609 Y0.88529
G01 X1.19631 Y0.88370
G01 X1.19695 Y0.88222
G01 X1.19771 Y0.88129
G01 X1.33756 Y0.53582
G01 X1.33776 Y0.53302
G01 X1.33836 Y0.53027
G01 X1.33934 Y0.52764
G01 X1.34068 Y0.52518
G01 X1.34263 Y0.52263
G01 X1.34466 Y0.52068
G01 X1.34694 Y0.51904
G01 X1.34980 Y0.51759
G01 X1.35247 Y0.51672
G01 X1.35564 Y0.51620
G01 X1.35845 Y0.51617
G01 X1.36163 Y0.51663
G01 X1.36431 Y0.51745
G01 X1.36720 Y0.51884
G01 X1.36983 Y0.52068
G01 X1.37186 Y0.52263
G01 X1.37358 Y0.52484
G01 X1.37515 Y0.52764
G01 X1.37613 Y0.53027
G01 X1.37678 Y0.53341
G01 X1.37693 Y0.53582
G01 X1.37693 Y0.81338
G01 X1.39271 Y0.82916
G01 X1.43332 Y0.84947
G01 X1.49546 Y0.84947
G01 X1.53305 Y0.83067
G01 X1.55184 Y0.79308
G01 X1.55184 Y0.53582
G01 X1.55199 Y0.53341
G01 X1.55253 Y0.53066
G01 X1.55331 Y0.52838
G01 X1.55435 Y0.52621
G01 X1.55589 Y0.52386
G01 X1.55775 Y0.52176
G01 X1.55957 Y0.52018
G01 X1.56157 Y0.51884
G01 X1.56372 Y0.51775
G01 X1.56598 Y0.51693
G01 X1.56873 Y0.51633
G01 X1.57113 Y0.51614
G01 X1.57353 Y0.51624
G01 X1.57591 Y0.51663
G01 X1.57860 Y0.51745
G01 X1.58079 Y0.51845
G01 X1.58284 Y0.51971
G01 X1.58472 Y0.52121
G01 X1.58614 Y0.52263
G01 X1.58764 Y0.52451
G01 X1.58890 Y0.52656
G01 X1.58990 Y0.52875
G01 X1.59053 Y0.53066
G01 X1.59101 Y0.53302
G01 X1.59121 Y0.53542
G01 X1.59118 Y0.79891
G01 X1.59064 Y0.80244
G01 X1.58931 Y0.80617
G01 X1.56436 Y0.85587
G01 X1.56297 Y0.85779
G01 X1.56107 Y0.85981
G01 X1.55923 Y0.86131
G01 X1.55688 Y0.86277
G01 X1.50855 Y0.88693
G01 X1.50596 Y0.88794
G01 X1.50287 Y0.88864
G01 X1.50010 Y0.88884
G01 X1.42867 Y0.88884
G01 X1.42512 Y0.88851
G01 X1.42243 Y0.88782
G01 X1.42023 Y0.88693
G01 X1.37693 Y0.86529
G01 X1.37693 Y0.86955
G01 X1.37673 Y0.87195
G01 X1.37613 Y0.87470
G01 X1.37531 Y0.87696
G01 X1.37402 Y0.87945
G01 X1.37238 Y0.88174
G01 X1.37044 Y0.88376
G01 X1.36822 Y0.88549
G01 X1.36579 Y0.88689
G01 X1.36318 Y0.88792
G01 X1.36044 Y0.88857
G01 X1.35765 Y0.88883
G01 X1.35444 Y0.88864
G01 X1.35170 Y0.88804
G01 X1.34907 Y0.88706
G01 X1.34660 Y0.88571
G01 X1.34466 Y0.88429
G01 X1.34291 Y0.88264
G01 X1.34137 Y0.88079
G01 X1.34006 Y0.87876
G01 X1.33902 Y0.87659
G01 X1.33825 Y0.87431
G01 X1.33776 Y0.87195
G01 X1.33756 Y0.86955
G01 X1.33756 Y0.53582
G04 P0 ( dwell for no time -- G64 should not smooth over this point )
G00 Z0.08000 ( retract )

G00 X1.75021 Y0.36141 ( rapid move to begin. )
G01 F180.00000
( Mill infeed pass 1/1 )
G01 Z-0.04000
G04 P0 ( dwell for no time -- G64 should not smooth over this point )
G01 F360.00000
G01 X1.75021 Y0.36141
G01 X1.75033 Y0.36381
G01 X1.75094 Y0.36613
G01 X1.75180 Y0.36794
G01 X1.75321 Y0.36989
G01 X1.75498 Y0.37150
G01 X1.75705 Y0.37273
G01 X1.75932 Y0.37351
G01 X1.76131 Y0.37380
G01 X1.76371 Y0.37370
G01 X1.76604 Y0.37311
G01 X1.76785 Y0.37227
G01 X1.76981 Y0.37087
G01 X1.77144 Y0.36911
G01 X1.77269 Y0.36706
G01 X1.77349 Y0.36479
G01 X1.77381 Y0.36241
G01 X1.77371 Y0.36041
G01 X1.77314 Y0.35807
G01 X1.77212 Y0.35590
G01 X1.77094 Y0.35428
G01 X1.76919 Y0.35263
G01 X1.76714 Y0.35137
G01 X1.76527 Y0.35066
G01 X1.76291 Y0.35023
G01 X1.76051 Y0.35029
G01 X1.75817 Y0.35084
G01 X1.75633 Y0.35165
G01 X1.75436 Y0.35301
G01 X1.75269 Y0.35475
G01 X1.75142 Y0.35678
G01 X1.75058 Y0.35903
G01 X1.75021 Y0.36141
G01 X1.75021 Y0.61141
G01 X1.75033 Y0.61381
G01 X1.75094 Y0.61613
G01 X1.75180 Y0.61794
G01 X1.75321 Y0.61989
G01 X1.75498 Y0.62150
G01 X1.75705 Y0.62273
G01 X1.75932 Y0.62351
G01 X1.76131 Y0.62380
G01 X1.76371 Y0.62370
G01 X1.76604 Y0.62311
G01 X1.76785 Y0.62227
G01 X1.76981 Y0.62087
G01 X1.77144 Y0.61911
G01 X1.77269 Y0.61706
G01 X1.77349 Y0.61479
G01 X1.77381 Y0.61241
G01 X1.77371 Y0.61041
G01 X1.77314 Y0.60807
G01 X1.77212 Y0.60590
G01 X1.77094 Y0.60428
G01 X1.76919 Y0.60263
G01 X1.76714 Y0.60137
G01 X1.76527 Y0.60066
G01 X1.76291 Y0.60023
G01 X1.76051 Y0.60029
G01 X1.75817 Y0.60084
G01 X1.75633 Y0.60165
G01 X1.75436 Y0.60301
G01 X1.75269 Y0.60475
G01 X1.75142 Y0.60678
G01 X1.75058 Y0.60903
G01 X1.71853 Y0.86835
G01 X1.71871 Y0.87195
G01 X1.71955 Y0.87546
G01 X1.72102 Y0.87876
G01 X1.72306 Y0.88174
G01 X1.72561 Y0.88429
G01 X1.72859 Y0.88633
G01 X1.73189 Y0.88780
G01 X1.73460 Y0.88851
G01 X1.73780 Y0.88883
G01 X1.78994 Y0.88884
G01 X1.79001 Y1.03742
G01 X1.79053 Y1.04059
G01 X1.79140 Y1.04326
G01 X1.79285 Y1.04612
G01 X1.79449 Y1.04840
G01 X1.79674 Y1.05069
G01 X1.79932 Y1.05259
G01 X1.80219 Y1.05404
G01 X1.80486 Y1.05492
G01 X1.80682 Y1.05530
G01 X1.80882 Y1.05549
G01 X1.81083 Y1.05547
G01 X1.81322 Y1.05517
G01 X1.81517 Y1.05471
G01 X1.81707 Y1.05404
G01 X1.81888 Y1.05319
G01 X1.82060 Y1.05216
G01 X1.82221 Y1.05095
G01 X1.82369 Y1.04959
G01 X1.82526 Y1.04777
G01 X1.82640 Y1.04612
G01 X1.82736 Y1.04436
G01 X1.82814 Y1.04251
G01 X1.82872 Y1.04059
G01 X1.82911 Y1.03862
G01 X1.82931 Y1.03582
G01 X1.82931 Y0.88884
G01 X1.92867 Y0.88884
G01 X1.93108 Y0.88869
G01 X1.93422 Y0.88804
G01 X1.93685 Y0.88706
G01 X1.93965 Y0.88549
G01 X1.94186 Y0.88376
G01 X1.94381 Y0.88174
G01 X1.94545 Y0.87945
G01 X1.94690 Y0.87659
G01 X1.94777 Y0.87392
G01 X1.94816 Y0.87195
G01 X1.94834 Y0.86995
G01 X1.94816 Y0.86635
G01 X1.94777 Y0.86438
G01 X1.94719 Y0.86246
G01 X1.94641 Y0.86061
G01 X1.94545 Y0.85885
G01 X1.94431 Y0.85719
G01 X1.94301 Y0.85566
G01 X1.94156 Y0.85427
G01 X1.93998 Y0.85304
G01 X1.93828 Y0.85197
G01 X1.93648 Y0.85108
G01 X1.93460 Y0.85038
G01 X1.93266 Y0.84987
G01 X1.93068 Y0.84957
G01 X1.92867 Y0.84947
G01 X1.82931 Y0.84947
G01 X1.82931 Y0.61189
G01 X1.84811 Y0.57430
G01 X1.88570 Y0.55550
G01 X1.93028 Y0.55544
G01 X1.93344 Y0.55492
G01 X1.93611 Y0.55404
G01 X1.93898 Y0.55259
G01 X1.94126 Y0.55095
G01 X1.94273 Y0.54959
G01 X1.94431 Y0.54777
G01 X1.94565 Y0.54578
G01 X1.94674 Y0.54363
G01 X1.94756 Y0.54136
G01 X1.94803 Y0.53941
G01 X1.94832 Y0.53702
G01 X1.94832 Y0.53461
G01 X1.94803 Y0.53222
G01 X1.94744 Y0.52989
G01 X1.94658 Y0.52764
G01 X1.94545 Y0.52552
G01 X1.94431 Y0.52386
G01 X1.94273 Y0.52204
G01 X1.94095 Y0.52043
G01 X1.93898 Y0.51904
G01 X1.93648 Y0.51775
G01 X1.93422 Y0.51693
G01 X1.93187 Y0.51639
G01 X1.92948 Y0.51615
G01 X1.88066 Y0.51614
G01 X1.87868 Y0.51628
G01 X1.87634 Y0.51671
G01 X1.87407 Y0.51741
G01 X1.87225 Y0.51821
G01 X1.82393 Y0.54239
G01 X1.82192 Y0.54366
G01 X1.81980 Y0.54543
G01 X1.81819 Y0.54718
G01 X1.81680 Y0.54910
G01 X1.79185 Y0.59880
G01 X1.79061 Y0.60215
G01 X1.79000 Y0.60566
G01 X1.78994 Y0.84947
G01 X1.73820 Y0.84947
G01 X1.73619 Y0.84957
G01 X1.73421 Y0.84987
G01 X1.73151 Y0.85064
G01 X1.72894 Y0.85178
G01 X1.72656 Y0.85327
G01 X1.72442 Y0.85509
G01 X1.72256 Y0.85719
G01 X1.72102 Y0.85954
G01 X1.71982 Y0.86208
G01 X1.71910 Y0.86438
G01 X1.71871 Y0.86635
G01 X1.71853 Y0.86835
G04 P0 ( dwell for no time -- G64 should not smooth over this point )
G00 Z0.08000 ( retract )

G00 X1.90710 Y0.66160 ( rapid move to begin. )
G01 F180.00000
( Mill infeed pass 1/1 )
G01 Z-0.04000
G04 P0 ( dwell for no time -- G64 should not smooth over this point )
G01 F360.00000
G01 X1.90710 Y0.66160
G01 X1.90715 Y0.66282
G01 X1.90735 Y0.66361
G01 X1.90768 Y0.66435
G01 X1.90839 Y0.66534
G01 X1.90898 Y0.66589
G01 X1.91003 Y0.66651
G01 X1.91120 Y0.66686
G01 X1.96241 Y0.66691
G01 X1.96322 Y0.66678
G01 X1.96435 Y0.66634
G01 X1.96563 Y0.66534
G01 X1.96651 Y0.66398
G01 X1.96686 Y0.66282
G01 X1.96693 Y0.66201
G01 X1.96686 Y0.66120
G01 X1.96651 Y0.66003
G01 X1.96563 Y0.65867
G01 X1.96503 Y0.65813
G01 X1.96398 Y0.65750
G01 X1.96282 Y0.65715
G01 X1.96201 Y0.65709
G01 X1.91160 Y0.65710
G01 X1.91003 Y0.65750
G01 X1.90867 Y0.65839
G01 X1.90768 Y0.65967
G01 X1.90724 Y0.66080
G01 X1.90710 Y0.66160
G01 X1.95548 Y0.81589
G01 X1.96254 Y0.76662
G01 X1.96268 Y0.76462
G01 X1.96328 Y0.76312
G01 X1.96454 Y0.76157
G01 X1.96589 Y0.76069
G01 X1.96742 Y0.76021
G01 X1.96903 Y0.76016
G01 X1.97021 Y0.76040
G01 X1.97131 Y0.76088
G01 X1.97230 Y0.76158
G01 X1.97473 Y0.76399
G01 X1.97825 Y0.76575
G01 X1.98952 Y0.76575
G01 X1.99304 Y0.76399
G01 X1.99450 Y0.76253
G01 X1.99626 Y0.75901
G01 X1.99626 Y0.74774
G01 X1.99450 Y0.74422
G01 X1.99304 Y0.74276
G01 X1.98952 Y0.74100
G01 X1.97825 Y0.74100
G01 X1.97473 Y0.74276
G01 X1.97230 Y0.74517
G01 X1.97096 Y0.74605
G01 X1.96902 Y0.74660
G01 X1.96702 Y0.74646
G01 X1.96588 Y0.74605
G01 X1.96485 Y0.74543
G01 X1.96397 Y0.74460
G01 X1.96327 Y0.74362
G01 X1.96279 Y0.74251
G01 X1.96254 Y0.74133
G01 X1.96254 Y0.74012
G01 X1.96279 Y0.73894
G01 X1.96327 Y0.73783
G01 X1.96397 Y0.73684
G01 X1.96762 Y0.73323
G01 X1.96859 Y0.73263
G01 X1.97494 Y0.72951
G01 X1.97686 Y0.72919
G01 X1.99092 Y0.72919
G01 X1.99283 Y0.72951
G01 X1.99918 Y0.73263
G01 X2.00072 Y0.73373
G01 X2.00425 Y0.73742
G01 X2.00745 Y0.74370
G01 X2.00795 Y0.74518
G01 X2.00807 Y0.74634
G01 X2.00807 Y0.76041
G01 X2.00786 Y0.76195
G01 X2.00463 Y0.76867
G01 X2.00353 Y0.77021
G01 X1.99984 Y0.77374
G01 X1.99356 Y0.77694
G01 X1.99246 Y0.77735
G01 X1.99092 Y0.77756
G01 X1.97686 Y0.77756
G01 X1.97549 Y0.77740
G01 X1.97657 Y0.78825
G01 X1.99935 Y0.78825
G01 X2.00095 Y0.78846
G01 X2.00207 Y0.78891
G01 X2.00308 Y0.78957
G01 X2.00393 Y0.79042
G01 X2.00460 Y0.79143
G01 X2.00504 Y0.79256
G01 X2.00524 Y0.79375
G01 X2.00520 Y0.79496
G01 X2.00492 Y0.79613
G01 X2.00418 Y0.79756
G01 X2.00276 Y0.79898
G01 X2.00133 Y0.79972
G01 X1.99976 Y0.80004
G01 X1.97123 Y0.80006
G01 X1.97005 Y0.79994
G01 X1.96857 Y0.79942
G01 X1.96757 Y0.79878
G01 X1.96647 Y0.79765
G01 X1.96587 Y0.79663
G01 X1.96541 Y0.79513
G01 X1.96254 Y0.76662
G01 X1.95548 Y0.81589
G01 X1.93442 Y0.73730
G01 X1.93480 Y0.73574
G01 X1.93559 Y0.73434
G01 X1.93923 Y0.73064
G01 X1.94024 Y0.72994
G01 X1.94136 Y0.72945
G01 X1.94256 Y0.72922
G01 X1.94379 Y0.72923
G01 X1.94528 Y0.72960
G01 X1.94668 Y0.73039
G01 X1.95063 Y0.73434
G01 X1.95125 Y0.73537
G01 X1.95166 Y0.73651
G01 X1.95182 Y0.73771
G01 X1.95166 Y0.73931
G01 X1.95125 Y0.74044
G01 X1.95063 Y0.74148
G01 X1.94684 Y0.74530
G01 X1.94583 Y0.74596
G01 X1.94470 Y0.74641
G01 X1.94351 Y0.74661
G01 X1.94250 Y0.74660
G01 X1.94113 Y0.74629
G01 X1.93970 Y0.74555
G01 X1.93585 Y0.74179
G01 X1.93549 Y0.74128
G01 X1.93442 Y0.73730
G01 X1.93442 Y0.73851
G01 X1.93467 Y0.73969
G01 X1.93549 Y0.74128
G01 X1.95548 Y0.81589
G01 X1.95573 Y0.81748
G01 X1.95661 Y0.81928
G01 X1.95773 Y0.82044
G01 X1.95875 Y0.82109
G01 X1.96351 Y0.82347
G01 X1.96479 Y0.82475
G01 X1.96914 Y0.83561
G01 X1.95570 Y0.87326
G01 X1.95550 Y0.87525
G01 X1.95597 Y0.87720
G01 X1.95680 Y0.87858
G01 X1.95765 Y0.87944
G01 X1.95903 Y0.88027
G01 X1.96057 Y0.88071
G01 X1.96218 Y0.88071
G01 X1.96373 Y0.88028
G01 X1.96511 Y0.87945
G01 X1.96596 Y0.87859
G01 X1.96695 Y0.87685
G01 X1.97545 Y0.85305
G01 X1.98395 Y0.87685
G01 X1.98447 Y0.87794
G01 X1.98520 Y0.87890
G01 X1.98611 Y0.87969
G01 X1.98792 Y0.88055
G01 X1.98992 Y0.88075
G01 X1.99187 Y0.88027
G01 X1.99292 Y0.87968
G01 X1.99383 Y0.87888
G01 X1.99493 Y0.87720
G01 X1.99540 Y0.87525
G01 X1.99519 Y0.87326
G01 X1.98101 Y0.83350
G01 X1.97531 Y0.81924
G01 X1.97427 Y0.81754
G01 X1.97031 Y0.81372
G01 X1.96403 Y0.81052
G01 X1.96211 Y0.80994
G01 X1.96090 Y0.80992
G01 X1.95933 Y0.81027
G01 X1.95791 Y0.81103
G01 X1.95675 Y0.81214
G01 X1.95594 Y0.81353
G01 X1.95572 Y0.81427
G04 P0 ( dwell for no time -- G64 should not smooth over this point )
G00 Z0.08000 ( retract )

G00 X2.00612 Y0.84995 ( rapid move to begin. )
G01 F180.00000
( Mill infeed pass 1/1 )
G01 Z-0.04000
G04 P0 ( dwell for no time -- G64 should not smooth over this point )
G01 F360.00000
G01 X2.00612 Y0.84995
G01 X2.00632 Y0.85114
G01 X2.00676 Y0.85227
G01 X2.00743 Y0.85328
G01 X2.00860 Y0.85438
G01 X2.00965 Y0.85497
G01 X2.01081 Y0.85533
G01 X2.01201 Y0.85546
G01 X2.05781 Y0.85540
G01 X2.05898 Y0.85512
G01 X2.06007 Y0.85460
G01 X2.06158 Y0.85328
G01 X2.06257 Y0.85153
G01 X2.06291 Y0.84955
G01 X2.06278 Y0.84835
G01 X2.06242 Y0.84720
G01 X2.06183 Y0.84615
G01 X2.06103 Y0.84524
G01 X2.05935 Y0.84413
G01 X2.05820 Y0.84377
G01 X2.05700 Y0.84365
G01 X2.01160 Y0.84366
G01 X2.00965 Y0.84413
G01 X2.00798 Y0.84524
G01 X2.00679 Y0.84680
G01 X2.00612 Y0.84995
G01 X2.00612 Y0.86683
G01 X2.00632 Y0.86802
G01 X2.00676 Y0.86914
G01 X2.00743 Y0.87015
G01 X2.00860 Y0.87125
G01 X2.00965 Y0.87184
G01 X2.01081 Y0.87221
G01 X2.01201 Y0.87233
G01 X2.05781 Y0.87227
G01 X2.05898 Y0.87199
G01 X2.06007 Y0.87147
G01 X2.06158 Y0.87015
G01 X2.06257 Y0.86840
G01 X2.06291 Y0.86642
G01 X2.06278 Y0.86522
G01 X2.06242 Y0.86407
G01 X2.06183 Y0.86302
G01 X2.06103 Y0.86211
G01 X2.05935 Y0.86101
G01 X2.05820 Y0.86064
G01 X2.05700 Y0.86052
G01 X2.01160 Y0.86053
G01 X2.00965 Y0.86101
G01 X2.00798 Y0.86211
G01 X2.00676 Y0.86371
G01 X2.00616 Y0.86562
G01 X2.00612 Y0.86683
G01 X2.00616 Y0.84875
G01 X2.00679 Y0.84680
G01 X2.01917 Y0.78917
G01 X2.01996 Y0.78777
G01 X2.02359 Y0.78408
G01 X2.02458 Y0.78338
G01 X2.02569 Y0.78290
G01 X2.02687 Y0.78265
G01 X2.02808 Y0.78265
G01 X2.02955 Y0.78300
G01 X2.03094 Y0.78375
G01 X2.03499 Y0.78777
G01 X2.03562 Y0.78880
G01 X2.03610 Y0.79034
G01 X2.03619 Y0.79154
G01 X2.03602 Y0.79274
G01 X2.03562 Y0.79388
G01 X2.03499 Y0.79491
G01 X2.03120 Y0.79873
G01 X2.03037 Y0.79930
G01 X2.02926 Y0.79978
G01 X2.02808 Y0.80003
G01 X2.02687 Y0.80003
G01 X2.02550 Y0.79972
G01 X2.02407 Y0.79898
G01 X2.02021 Y0.79522
G01 X2.01951 Y0.79423
G01 X2.01903 Y0.79313
G01 X2.01879 Y0.79194
G01 X2.01879 Y0.79074
G01 X2.02169 Y0.73389
G01 X2.02206 Y0.73274
G01 X2.02265 Y0.73169
G01 X2.02375 Y0.73052
G01 X2.02476 Y0.72985
G01 X2.02588 Y0.72941
G01 X2.02707 Y0.72920
G01 X2.02828 Y0.72925
G01 X2.03019 Y0.72985
G01 X2.03179 Y0.73107
G01 X2.03289 Y0.73274
G01 X2.03332 Y0.73429
G01 X2.03338 Y0.77447
G01 X2.03325 Y0.77567
G01 X2.03289 Y0.77682
G01 X2.03230 Y0.77787
G01 X2.03150 Y0.77878
G01 X2.02983 Y0.77988
G01 X2.02867 Y0.78025
G01 X2.02747 Y0.78037
G01 X2.02550 Y0.78003
G01 X2.02375 Y0.77905
G01 X2.02243 Y0.77753
G01 X2.02191 Y0.77644
G01 X2.02162 Y0.77527
G01 X2.02157 Y0.73510
G04 P0 ( dwell for no time -- G64 should not smooth over this point )
G00 Z0.08000 ( retract )

G00 X2.04969 Y0.73510 ( rapid move to begin. )
G01 F180.00000
( Mill infeed pass 1/1 )
G01 Z-0.04000
G04 P0 ( dwell for no time -- G64 should not smooth over this point )
G01 F360.00000
G01 X2.04969 Y0.73510
G01 X2.04970 Y0.77487
G01 X2.05003 Y0.77644
G01 X2.05055 Y0.77753
G01 X2.05156 Y0.77878
G01 X2.05253 Y0.77951
G01 X2.05400 Y0.78015
G01 X2.05600 Y0.78036
G01 X2.05795 Y0.77988
G01 X2.05956 Y0.77884
G01 X2.06175 Y0.77991
G01 X2.06325 Y0.78032
G01 X2.07325 Y0.78032
G01 X2.07475 Y0.77991
G01 X2.08110 Y0.77673
G01 X2.08212 Y0.77598
G01 X2.08294 Y0.77502
G01 X2.08635 Y0.76832
G01 X2.08669 Y0.76720
G01 X2.08681 Y0.76603
G01 X2.08680 Y0.73469
G01 X2.08647 Y0.73312
G01 X2.08595 Y0.73203
G01 X2.08522 Y0.73107
G01 X2.08431 Y0.73027
G01 X2.08326 Y0.72968
G01 X2.08171 Y0.72925
G01 X2.08010 Y0.72925
G01 X2.07893 Y0.72953
G01 X2.07784 Y0.73005
G01 X2.07687 Y0.73078
G01 X2.07608 Y0.73169
G01 X2.07534 Y0.73312
G01 X2.07500 Y0.73510
G01 X2.07500 Y0.76464
G01 X2.07369 Y0.76725
G01 X2.07107 Y0.76856
G01 X2.06543 Y0.76856
G01 X2.06191 Y0.76680
G01 X2.06150 Y0.76640
G01 X2.06150 Y0.73510
G01 X2.06128 Y0.73350
G01 X2.06084 Y0.73238
G01 X2.06018 Y0.73137
G01 X2.05900 Y0.73027
G01 X2.05757 Y0.72953
G01 X2.05600 Y0.72920
G01 X2.05439 Y0.72931
G01 X2.05288 Y0.72985
G01 X2.05156 Y0.73078
G01 X2.05055 Y0.73203
G01 X2.04991 Y0.73350
G01 X2.04969 Y0.73510

G04 P0 ( dwell for no time -- G64 should not smooth over this point )
G00 Z1.000000 ( retract )

M5 ( Spindle off. )
G04 P1.000000
M9 ( Coolant off. )
M2 ( Program end. )

