( pcb2gcode 3.0.2 )
( Software-independent Gcode )

G94 ( Inches per minute feed rate. )
G20 ( Units == INCHES. )

G90 ( Absolute coordinates. )
G00 S12000 ( RPM spindle speed. )
G64 P0.00040 ( set maximum deviation from commanded toolpath )
G01 F360.00000 ( Feedrate. )


G00 Z1.00000 (Retract to tool change height)
T1
M5      (Spindle stop.)
G04 P1.00000 (Wait for spindle to stop)
(MSG, Change tool bit to mill diameter 0.00000in)
M6      (Tool change.)
M0      (Temporary machine stop.)
M3 ( Spindle on clockwise. )
G04 P1.00000 (Wait for spindle to get up to speed)
( Piece #1, position [0;0] )

G04 P0 ( dwell for no time -- G64 should not smooth over this point )
G00 Z0.08000 ( retract )

G00 X0.55836 Y-0.55561 ( rapid move to begin. )
G01 F180.00000
( Mill infeed pass 1/1 )
G01 Z-0.04000
G04 P0 ( dwell for no time -- G64 should not smooth over this point )
G01 F360.00000
G01 X0.55836 Y-0.55561
G01 X0.55849 Y-0.55764
G01 X0.55900 Y-0.56002
G01 X0.55954 Y-0.56155
G01 X0.56043 Y-0.56336
G01 X0.56156 Y-0.56505
G01 X0.56290 Y-0.56657
G01 X0.74407 Y-0.74775
G01 X0.74560 Y-0.74909
G01 X0.74764 Y-0.75041
G01 X0.75024 Y-0.75153
G01 X0.75261 Y-0.75210
G01 X0.75503 Y-0.75229
G01 X1.22890 Y-0.75221
G01 X1.23129 Y-0.75176
G01 X1.23358 Y-0.75095
G01 X1.23572 Y-0.74979
G01 X1.23765 Y-0.74831
G01 X1.26667 Y-0.71932
G01 X1.26871 Y-0.71680
G01 X1.26970 Y-0.71504
G01 X1.27045 Y-0.71315
G01 X1.27095 Y-0.71119
G01 X1.27119 Y-0.70917
G01 X1.27121 Y-0.67736
G01 X1.29311 Y-0.67736
G01 X1.29311 Y-0.65349
G01 X1.41831 Y-0.65349
G01 X1.41831 Y-0.67736
G01 X1.49311 Y-0.67736
G01 X1.49311 Y-0.59862
G01 X1.41831 Y-0.59862
G01 X1.41831 Y-0.62249
G01 X1.29311 Y-0.62249
G01 X1.29311 Y-0.59862
G01 X1.21831 Y-0.59862
G01 X1.21831 Y-0.67736
G01 X1.24021 Y-0.67736
G01 X1.24021 Y-0.70194
G01 X1.22086 Y-0.72129
G01 X0.76145 Y-0.72129
G01 X0.58936 Y-0.54919
G01 X0.58936 Y-0.15512
G01 X0.62284 Y-0.12164
G01 X0.97866 Y-0.12164
G01 X0.98068 Y-0.12151
G01 X0.98267 Y-0.12111
G01 X0.98459 Y-0.12046
G01 X0.98641 Y-0.11956
G01 X0.98809 Y-0.11844
G01 X0.98962 Y-0.11710
G01 X1.12723 Y0.02051
G01 X1.15181 Y0.02051
G01 X1.15181 Y-0.03289
G01 X1.28961 Y-0.03289
G01 X1.28961 Y0.08299
G01 X1.33681 Y0.13019
G01 X1.33681 Y0.08521
G01 X1.47461 Y0.08521
G01 X1.47461 Y0.22301
G01 X1.33681 Y0.22301
G01 X1.33681 Y0.16948
G01 X1.33441 Y0.16897
G01 X1.33214 Y0.16810
G01 X1.33003 Y0.16688
G01 X1.32814 Y0.16535
G01 X1.26769 Y0.10491
G01 X1.15181 Y0.10491
G01 X1.15181 Y0.05151
G01 X1.11959 Y0.05146
G01 X1.11719 Y0.05108
G01 X1.11488 Y0.05033
G01 X1.11271 Y0.04922
G01 X1.11105 Y0.04805
G01 X0.97224 Y-0.09064
G01 X0.61642 Y-0.09064
G01 X0.61440 Y-0.09077
G01 X0.61202 Y-0.09128
G01 X0.61011 Y-0.09198
G01 X0.60798 Y-0.09314
G01 X0.60605 Y-0.09462
G01 X0.56290 Y-0.13774
G01 X0.56156 Y-0.13927
G01 X0.56024 Y-0.14131
G01 X0.55912 Y-0.14391
G01 X0.55855 Y-0.14628
G01 X0.55836 Y-0.14870
G01 X0.55836 Y-0.55561
G04 P0 ( dwell for no time -- G64 should not smooth over this point )
G00 Z0.08000 ( retract )

G00 X0.75651 Y-0.66589 ( rapid move to begin. )
G01 F180.00000
( Mill infeed pass 1/1 )
G01 Z-0.04000
G04 P0 ( dwell for no time -- G64 should not smooth over this point )
G01 F360.00000
G01 X0.75651 Y-0.66589
G01 X0.75672 Y-0.66321
G01 X0.75719 Y-0.66057
G01 X0.75792 Y-0.65798
G01 X0.75890 Y-0.65548
G01 X0.76011 Y-0.65308
G01 X0.76156 Y-0.65082
G01 X0.76336 Y-0.64853
G01 X0.76523 Y-0.64660
G01 X0.76746 Y-0.64473
G01 X0.76968 Y-0.64322
G01 X0.77204 Y-0.64193
G01 X0.77472 Y-0.64080
G01 X0.77729 Y-0.64002
G01 X0.77993 Y-0.63948
G01 X0.78260 Y-0.63921
G01 X0.82759 Y-0.63917
G01 X0.83204 Y-0.63957
G01 X0.83467 Y-0.64016
G01 X0.83722 Y-0.64100
G01 X0.83988 Y-0.64218
G01 X0.84221 Y-0.64352
G01 X0.84440 Y-0.64507
G01 X0.84643 Y-0.64683
G01 X0.84828 Y-0.64879
G01 X0.84998 Y-0.65098
G01 X1.07418 Y-0.65098
G01 X1.11844 Y-0.63483
G01 X1.11889 Y-0.63142
G01 X1.11959 Y-0.62830
G01 X1.12055 Y-0.62524
G01 X1.12194 Y-0.62192
G01 X1.12343 Y-0.61909
G01 X1.12517 Y-0.61640
G01 X1.12713 Y-0.61387
G01 X1.12958 Y-0.61123
G01 X1.13228 Y-0.60884
G01 X1.13486 Y-0.60694
G01 X1.13759 Y-0.60527
G01 X1.14045 Y-0.60384
G01 X1.14343 Y-0.60266
G01 X1.14650 Y-0.60174
G01 X1.14963 Y-0.60109
G01 X1.15321 Y-0.60067
G01 X1.15721 Y-0.60062
G01 X1.16080 Y-0.60094
G01 X1.16434 Y-0.60160
G01 X1.16818 Y-0.60273
G01 X1.17187 Y-0.60426
G01 X1.17504 Y-0.60597
G01 X1.17835 Y-0.60822
G01 X1.18140 Y-0.61081
G01 X1.18416 Y-0.61371
G01 X1.18636 Y-0.61656
G01 X1.18828 Y-0.61961
G01 X1.19006 Y-0.62320
G01 X1.19132 Y-0.62657
G01 X1.19234 Y-0.63044
G01 X1.19294 Y-0.63439
G01 X1.19311 Y-0.63799
G01 X1.19300 Y-0.64079
G01 X1.19269 Y-0.64358
G01 X1.19217 Y-0.64633
G01 X1.19144 Y-0.64903
G01 X1.19052 Y-0.65168
G01 X1.18939 Y-0.65425
G01 X1.18808 Y-0.65672
G01 X1.18659 Y-0.65909
G01 X1.18492 Y-0.66135
G01 X1.18309 Y-0.66347
G01 X1.18111 Y-0.66544
G01 X1.17898 Y-0.66727
G01 X1.17673 Y-0.66893
G01 X1.17435 Y-0.67042
G01 X1.17187 Y-0.67172
G01 X1.16930 Y-0.67284
G01 X1.16434 Y-0.67438
G01 X1.16159 Y-0.67493
G01 X1.15881 Y-0.67526
G01 X1.15601 Y-0.67539
G01 X1.15321 Y-0.67531
G01 X1.14806 Y-0.67460
G01 X1.14305 Y-0.67319
G01 X1.14045 Y-0.67214
G01 X1.13794 Y-0.67090
G01 X1.13553 Y-0.66948
G01 X1.13322 Y-0.66788
G01 X1.12924 Y-0.66442
G01 X1.08237 Y-0.68153
G01 X1.08048 Y-0.68209
G01 X1.07815 Y-0.68244
G01 X0.84998 Y-0.68248
G01 X0.84820 Y-0.68476
G01 X0.84635 Y-0.68671
G01 X0.84431 Y-0.68846
G01 X0.84212 Y-0.69001
G01 X0.83978 Y-0.69134
G01 X0.83732 Y-0.69243
G01 X0.83477 Y-0.69328
G01 X0.83215 Y-0.69387
G01 X0.82747 Y-0.69429
G01 X0.78293 Y-0.69427
G01 X0.78048 Y-0.69406
G01 X0.77805 Y-0.69363
G01 X0.77568 Y-0.69299
G01 X0.77316 Y-0.69205
G01 X0.77094 Y-0.69097
G01 X0.76883 Y-0.68970
G01 X0.76684 Y-0.68825
G01 X0.76483 Y-0.68648
G01 X0.76300 Y-0.68451
G01 X0.76149 Y-0.68256
G01 X0.76017 Y-0.68048
G01 X0.75904 Y-0.67829
G01 X0.75810 Y-0.67601
G01 X0.75738 Y-0.67366
G01 X0.75683 Y-0.67103
G01 X0.75656 Y-0.66858
G01 X0.75651 Y-0.66589
G04 P0 ( dwell for no time -- G64 should not smooth over this point )
G00 Z0.08000 ( retract )

G00 X0.75653 Y-0.50796 ( rapid move to begin. )
G01 F180.00000
( Mill infeed pass 1/1 )
G01 Z-0.04000
G04 P0 ( dwell for no time -- G64 should not smooth over this point )
G01 F360.00000
G01 X0.75653 Y-0.50796
G01 X0.75685 Y-0.50485
G01 X0.75753 Y-0.50179
G01 X0.75855 Y-0.49882
G01 X0.75989 Y-0.49599
G01 X0.76156 Y-0.49334
G01 X0.76351 Y-0.49088
G01 X0.76573 Y-0.48867
G01 X0.76818 Y-0.48672
G01 X0.77084 Y-0.48507
G01 X0.77388 Y-0.48364
G01 X0.77686 Y-0.48265
G01 X0.77993 Y-0.48200
G01 X0.78305 Y-0.48171
G01 X0.82759 Y-0.48169
G01 X0.83204 Y-0.48209
G01 X0.83488 Y-0.48274
G01 X0.83743 Y-0.48360
G01 X0.83988 Y-0.48470
G01 X0.84221 Y-0.48603
G01 X0.84440 Y-0.48759
G01 X0.84643 Y-0.48935
G01 X0.84828 Y-0.49130
G01 X0.84998 Y-0.49350
G01 X1.44199 Y-0.49350
G01 X1.68996 Y-0.24553
G01 X1.69004 Y-0.18637
G01 X1.69038 Y-0.18437
G01 X1.69083 Y-0.18282
G01 X1.69221 Y-0.17988
G01 X1.69415 Y-0.17729
G01 X1.69658 Y-0.17516
G01 X1.69831 Y-0.17409
G01 X1.70053 Y-0.17312
G01 X1.70288 Y-0.17250
G01 X1.70530 Y-0.17225
G01 X1.83711 Y-0.17224
G01 X1.83901 Y-0.17007
G01 X1.84139 Y-0.16793
G01 X1.84403 Y-0.16610
G01 X1.84650 Y-0.16478
G01 X1.84949 Y-0.16362
G01 X1.85220 Y-0.16291
G01 X1.85538 Y-0.16247
G01 X1.85818 Y-0.16242
G01 X1.86216 Y-0.16287
G01 X1.86602 Y-0.16394
G01 X1.86967 Y-0.16560
G01 X1.87301 Y-0.16781
G01 X1.87597 Y-0.17051
G01 X1.87847 Y-0.17364
G01 X1.88045 Y-0.17712
G01 X1.88186 Y-0.18087
G01 X1.88249 Y-0.18360
G01 X1.88279 Y-0.18599
G01 X1.88286 Y-0.18879
G01 X1.88262 Y-0.19159
G01 X1.88207 Y-0.19434
G01 X1.88123 Y-0.19702
G01 X1.88010 Y-0.19958
G01 X1.87869 Y-0.20201
G01 X1.87703 Y-0.20427
G01 X1.87513 Y-0.20633
G01 X1.87333 Y-0.20793
G01 X1.87105 Y-0.20956
G01 X1.86860 Y-0.21094
G01 X1.86602 Y-0.21204
G01 X1.86334 Y-0.21286
G01 X1.86098 Y-0.21331
G01 X1.85778 Y-0.21358
G01 X1.85418 Y-0.21339
G01 X1.85103 Y-0.21281
G01 X1.84761 Y-0.21168
G01 X1.84472 Y-0.21029
G01 X1.84171 Y-0.20830
G01 X1.83929 Y-0.20619
G01 X1.83711 Y-0.20374
G01 X1.72146 Y-0.20374
G01 X1.72146 Y-0.25193
G01 X1.72607 Y-0.25432
G01 X1.73033 Y-0.25730
G01 X1.73416 Y-0.26081
G01 X1.73726 Y-0.26448
G01 X1.74008 Y-0.26884
G01 X1.74216 Y-0.27316
G01 X1.74369 Y-0.27771
G01 X1.74471 Y-0.28281
G01 X1.74504 Y-0.28679
G01 X1.74493 Y-0.29119
G01 X1.74440 Y-0.29515
G01 X1.74347 Y-0.29904
G01 X1.74216 Y-0.30282
G01 X1.74028 Y-0.30679
G01 X1.73819 Y-0.31021
G01 X1.73577 Y-0.31339
G01 X1.73245 Y-0.31686
G01 X1.72906 Y-0.31966
G01 X1.72504 Y-0.32227
G01 X1.72072 Y-0.32437
G01 X1.71657 Y-0.32581
G01 X1.71188 Y-0.32685
G01 X1.70711 Y-0.32732
G01 X1.70231 Y-0.32720
G01 X1.69796 Y-0.32657
G01 X1.69332 Y-0.32534
G01 X1.68887 Y-0.32356
G01 X1.68466 Y-0.32124
G01 X1.68108 Y-0.31869
G01 X1.67753 Y-0.31546
G01 X1.67440 Y-0.31183
G01 X1.67190 Y-0.30813
G01 X1.45965 Y-0.52039
G01 X1.45810 Y-0.52175
G01 X1.45674 Y-0.52268
G01 X1.45492 Y-0.52364
G01 X1.45299 Y-0.52435
G01 X1.45098 Y-0.52481
G01 X1.44851 Y-0.52500
G01 X0.84998 Y-0.52500
G01 X0.84820 Y-0.52728
G01 X0.84635 Y-0.52923
G01 X0.84431 Y-0.53098
G01 X0.84212 Y-0.53253
G01 X0.83978 Y-0.53386
G01 X0.83732 Y-0.53495
G01 X0.83477 Y-0.53580
G01 X0.83215 Y-0.53639
G01 X0.82770 Y-0.53681
G01 X0.78383 Y-0.53681
G01 X0.77959 Y-0.53645
G01 X0.77525 Y-0.53537
G01 X0.77134 Y-0.53370
G01 X0.76755 Y-0.53132
G01 X0.76435 Y-0.52852
G01 X0.76149 Y-0.52508
G01 X0.75933 Y-0.52142
G01 X0.75768 Y-0.51726
G01 X0.75694 Y-0.51421
G01 X0.75656 Y-0.51110
G01 X0.75653 Y-0.50796
G04 P0 ( dwell for no time -- G64 should not smooth over this point )
G00 Z0.08000 ( retract )

G00 X0.61636 Y-0.28839 ( rapid move to begin. )
G01 F180.00000
( Mill infeed pass 1/1 )
G01 Z-0.04000
G04 P0 ( dwell for no time -- G64 should not smooth over this point )
G01 F360.00000
G01 X0.61636 Y-0.28839
G01 X0.61660 Y-0.29238
G01 X0.61717 Y-0.29594
G01 X0.61817 Y-0.29981
G01 X0.61941 Y-0.30319
G01 X0.62114 Y-0.30679
G01 X0.62300 Y-0.30987
G01 X0.62539 Y-0.31308
G01 X0.62781 Y-0.31575
G01 X0.63047 Y-0.31818
G01 X0.63366 Y-0.32058
G01 X0.63673 Y-0.32246
G01 X0.64021 Y-0.32416
G01 X0.64029 Y-0.51982
G01 X0.64074 Y-0.52222
G01 X0.64155 Y-0.52451
G01 X0.64271 Y-0.52665
G01 X0.64446 Y-0.52887
G01 X0.71453 Y-0.59895
G01 X0.71638 Y-0.60053
G01 X0.71846 Y-0.60180
G01 X0.72148 Y-0.60296
G01 X0.72468 Y-0.60347
G01 X0.76127 Y-0.60349
G01 X0.76314 Y-0.60594
G01 X0.76515 Y-0.60804
G01 X0.76737 Y-0.60993
G01 X0.76978 Y-0.61156
G01 X0.77234 Y-0.61294
G01 X0.77504 Y-0.61403
G01 X0.77784 Y-0.61484
G01 X0.78070 Y-0.61535
G01 X0.78405 Y-0.61555
G01 X0.82747 Y-0.61555
G01 X0.83038 Y-0.61539
G01 X0.83456 Y-0.61460
G01 X0.83856 Y-0.61317
G01 X0.84212 Y-0.61127
G01 X0.84552 Y-0.60872
G01 X0.84849 Y-0.60568
G01 X0.85096 Y-0.60222
G01 X0.85287 Y-0.59842
G01 X0.85417 Y-0.59437
G01 X0.85483 Y-0.59017
G01 X0.85484 Y-0.58592
G01 X0.85420 Y-0.58172
G01 X0.85291 Y-0.57767
G01 X0.85102 Y-0.57386
G01 X0.84871 Y-0.57056
G01 X0.84577 Y-0.56748
G01 X0.84240 Y-0.56490
G01 X0.83948 Y-0.56324
G01 X0.83616 Y-0.56188
G01 X0.83292 Y-0.56100
G01 X0.82938 Y-0.56051
G01 X0.78215 Y-0.56050
G01 X0.77904 Y-0.56089
G01 X0.77600 Y-0.56164
G01 X0.77306 Y-0.56272
G01 X0.77026 Y-0.56413
G01 X0.76764 Y-0.56586
G01 X0.76523 Y-0.56786
G01 X0.76307 Y-0.57013
G01 X0.76127 Y-0.57249
G01 X0.73192 Y-0.57249
G01 X0.67121 Y-0.51178
G01 X0.67121 Y-0.32416
G01 X0.67469 Y-0.32246
G01 X0.67776 Y-0.32058
G01 X0.68095 Y-0.31818
G01 X0.68360 Y-0.31575
G01 X0.68602 Y-0.31308
G01 X0.68841 Y-0.30987
G01 X0.69028 Y-0.30679
G01 X0.69200 Y-0.30319
G01 X0.69324 Y-0.29981
G01 X0.69425 Y-0.29594
G01 X0.69481 Y-0.29238
G01 X0.69506 Y-0.28839
G01 X0.69493 Y-0.28479
G01 X0.69440 Y-0.28083
G01 X0.69347 Y-0.27694
G01 X0.69224 Y-0.27338
G01 X0.76213 Y-0.20349
G01 X0.78012 Y-0.20349
G01 X0.78012 Y-0.21358
G01 X0.83130 Y-0.21358
G01 X0.83130 Y-0.16240
G01 X0.78012 Y-0.16240
G01 X0.78012 Y-0.17249
G01 X0.75409 Y-0.17258
G01 X0.75209 Y-0.17292
G01 X0.74978 Y-0.17367
G01 X0.74796 Y-0.17457
G01 X0.74595 Y-0.17595
G01 X0.67032 Y-0.25146
G01 X0.66657 Y-0.25017
G01 X0.66267 Y-0.24926
G01 X0.65871 Y-0.24876
G01 X0.65511 Y-0.24865
G01 X0.65112 Y-0.24891
G01 X0.64717 Y-0.24958
G01 X0.64332 Y-0.25064
G01 X0.63996 Y-0.25193
G01 X0.63638 Y-0.25372
G01 X0.63300 Y-0.25585
G01 X0.63016 Y-0.25806
G01 X0.62725 Y-0.26081
G01 X0.62464 Y-0.26384
G01 X0.62257 Y-0.26678
G01 X0.62077 Y-0.26990
G01 X0.61911 Y-0.27354
G01 X0.61794 Y-0.27694
G01 X0.61702 Y-0.28083
G01 X0.61649 Y-0.28479
G01 X0.61636 Y-0.28839
G04 P0 ( dwell for no time -- G64 should not smooth over this point )
G00 Z0.08000 ( retract )

G00 X0.61636 Y0.11201 ( rapid move to begin. )
G01 F180.00000
( Mill infeed pass 1/1 )
G01 Z-0.04000
G04 P0 ( dwell for no time -- G64 should not smooth over this point )
G01 F360.00000
G01 X0.61636 Y0.11201
G01 X0.61652 Y0.10841
G01 X0.61702 Y0.10485
G01 X0.61783 Y0.10134
G01 X0.61896 Y0.09792
G01 X0.62041 Y0.09463
G01 X0.62235 Y0.09113
G01 X0.62440 Y0.08817
G01 X0.62671 Y0.08541
G01 X0.62926 Y0.08287
G01 X0.63203 Y0.08058
G01 X0.63500 Y0.07855
G01 X0.63851 Y0.07662
G01 X0.64181 Y0.07519
G01 X0.64523 Y0.07408
G01 X0.64874 Y0.07328
G01 X0.65231 Y0.07280
G01 X0.65551 Y0.07266
G01 X0.65871 Y0.07277
G01 X0.66188 Y0.07315
G01 X0.66463 Y0.07368
G01 X0.66772 Y0.07453
G01 X0.67035 Y0.07548
G01 X0.67291 Y0.07662
G01 X0.67573 Y0.07813
G01 X0.67841 Y0.07987
G01 X0.68095 Y0.08182
G01 X0.68332 Y0.08397
G01 X0.68524 Y0.08601
G01 X0.68726 Y0.08849
G01 X0.68885 Y0.09080
G01 X0.69046 Y0.09356
G01 X0.69177 Y0.09626
G01 X1.01965 Y0.09626
G01 X1.02095 Y0.09356
G01 X1.02257 Y0.09080
G01 X1.02440 Y0.08817
G01 X1.02644 Y0.08571
G01 X1.02867 Y0.08342
G01 X1.03108 Y0.08131
G01 X1.03366 Y0.07942
G01 X1.03638 Y0.07773
G01 X1.03923 Y0.07627
G01 X1.04219 Y0.07505
G01 X1.04523 Y0.07408
G01 X1.04835 Y0.07335
G01 X1.05152 Y0.07288
G01 X1.05471 Y0.07267
G01 X1.05791 Y0.07272
G01 X1.06109 Y0.07303
G01 X1.06541 Y0.07387
G01 X1.06998 Y0.07534
G01 X1.07398 Y0.07716
G01 X1.07776 Y0.07942
G01 X1.08126 Y0.08208
G01 X1.08444 Y0.08512
G01 X1.08726 Y0.08849
G01 X1.08969 Y0.09216
G01 X1.09169 Y0.09608
G01 X1.09324 Y0.10019
G01 X1.09433 Y0.10445
G01 X1.09496 Y0.10921
G01 X1.09503 Y0.11361
G01 X1.09460 Y0.11799
G01 X1.09369 Y0.12229
G01 X1.09224 Y0.12662
G01 X1.20863 Y0.24301
G01 X1.55279 Y0.24301
G01 X1.66917 Y0.12662
G01 X1.66783 Y0.12267
G01 X1.66688 Y0.11838
G01 X1.66641 Y0.11401
G01 X1.66641 Y0.10997
G01 X1.42009 Y-0.01319
G01 X1.33681 Y-0.01319
G01 X1.33681 Y-0.15099
G01 X1.47461 Y-0.15099
G01 X1.47461 Y-0.02115
G01 X1.68050 Y0.08179
G01 X1.68433 Y0.07897
G01 X1.68815 Y0.07679
G01 X1.69256 Y0.07492
G01 X1.69678 Y0.07368
G01 X1.70152 Y0.07288
G01 X1.70591 Y0.07266
G01 X1.71030 Y0.07293
G01 X1.71463 Y0.07368
G01 X1.71885 Y0.07492
G01 X1.72327 Y0.07679
G01 X1.72742 Y0.07919
G01 X1.73095 Y0.08182
G01 X1.73416 Y0.08483
G01 X1.73726 Y0.08849
G01 X1.73969 Y0.09216
G01 X1.74177 Y0.09626
G01 X2.06965 Y0.09626
G01 X2.07095 Y0.09356
G01 X2.07257 Y0.09080
G01 X2.07416 Y0.08849
G01 X2.07617 Y0.08601
G01 X2.07810 Y0.08397
G01 X2.08047 Y0.08182
G01 X2.08300 Y0.07987
G01 X2.08534 Y0.07834
G01 X2.08779 Y0.07697
G01 X2.09070 Y0.07563
G01 X2.09332 Y0.07466
G01 X2.09640 Y0.07378
G01 X2.09914 Y0.07321
G01 X2.10231 Y0.07280
G01 X2.10511 Y0.07266
G01 X2.10831 Y0.07274
G01 X2.11188 Y0.07315
G01 X2.11541 Y0.07387
G01 X2.11885 Y0.07492
G01 X2.12255 Y0.07644
G01 X2.12573 Y0.07813
G01 X2.12906 Y0.08034
G01 X2.13186 Y0.08261
G01 X2.13444 Y0.08512
G01 X2.13677 Y0.08786
G01 X2.13885 Y0.09080
G01 X2.14065 Y0.09391
G01 X2.14231 Y0.09755
G01 X2.14347 Y0.10096
G01 X2.14433 Y0.10445
G01 X2.14489 Y0.10841
G01 X2.14506 Y0.11201
G01 X2.14489 Y0.11560
G01 X2.14433 Y0.11956
G01 X2.14347 Y0.12306
G01 X2.14231 Y0.12646
G01 X2.14065 Y0.13010
G01 X2.13885 Y0.13322
G01 X2.13677 Y0.13616
G01 X2.13416 Y0.13919
G01 X2.13126 Y0.14194
G01 X2.12841 Y0.14415
G01 X2.12504 Y0.14628
G01 X2.12182 Y0.14791
G01 X2.11810 Y0.14936
G01 X2.11463 Y0.15033
G01 X2.11070 Y0.15104
G01 X2.10711 Y0.15133
G01 X2.10431 Y0.15133
G01 X2.10112 Y0.15109
G01 X2.09796 Y0.15059
G01 X2.09523 Y0.14994
G01 X2.09256 Y0.14910
G01 X2.08959 Y0.14791
G01 X2.08466 Y0.14526
G01 X2.08016 Y0.14194
G01 X2.07781 Y0.13976
G01 X2.07591 Y0.13771
G01 X2.07416 Y0.13552
G01 X2.07235 Y0.13288
G01 X2.07095 Y0.13046
G01 X2.06965 Y0.12776
G01 X1.74177 Y0.12776
G01 X1.74008 Y0.13116
G01 X1.73819 Y0.13422
G01 X1.73577 Y0.13740
G01 X1.73332 Y0.14004
G01 X1.73033 Y0.14270
G01 X1.72742 Y0.14482
G01 X1.72398 Y0.14686
G01 X1.72072 Y0.14838
G01 X1.71695 Y0.14972
G01 X1.71346 Y0.15059
G01 X1.70950 Y0.15117
G01 X1.70591 Y0.15136
G01 X1.70231 Y0.15121
G01 X1.69835 Y0.15066
G01 X1.69485 Y0.14983
G01 X1.69109 Y0.14854
G01 X1.56988 Y0.26975
G01 X1.56799 Y0.27128
G01 X1.56588 Y0.27250
G01 X1.56361 Y0.27337
G01 X1.56163 Y0.27382
G01 X1.55921 Y0.27401
G01 X1.20221 Y0.27401
G01 X1.19938 Y0.27375
G01 X1.19628 Y0.27283
G01 X1.19377 Y0.27151
G01 X1.19154 Y0.26975
G01 X1.07032 Y0.14854
G01 X1.06657 Y0.14983
G01 X1.06307 Y0.15066
G01 X1.05910 Y0.15121
G01 X1.05551 Y0.15136
G01 X1.05191 Y0.15117
G01 X1.04796 Y0.15059
G01 X1.04446 Y0.14972
G01 X1.04070 Y0.14838
G01 X1.03743 Y0.14686
G01 X1.03399 Y0.14482
G01 X1.03108 Y0.14270
G01 X1.02810 Y0.14004
G01 X1.02565 Y0.13740
G01 X1.02323 Y0.13422
G01 X1.02133 Y0.13116
G01 X1.01965 Y0.12776
G01 X0.69177 Y0.12776
G01 X0.69046 Y0.13046
G01 X0.68906 Y0.13288
G01 X0.68726 Y0.13552
G01 X0.68551 Y0.13771
G01 X0.68360 Y0.13976
G01 X0.68126 Y0.14194
G01 X0.67675 Y0.14526
G01 X0.67182 Y0.14791
G01 X0.66885 Y0.14910
G01 X0.66618 Y0.14994
G01 X0.66346 Y0.15059
G01 X0.66030 Y0.15109
G01 X0.65711 Y0.15133
G01 X0.65431 Y0.15133
G01 X0.65072 Y0.15104
G01 X0.64678 Y0.15033
G01 X0.64332 Y0.14936
G01 X0.63959 Y0.14791
G01 X0.63638 Y0.14628
G01 X0.63300 Y0.14415
G01 X0.63016 Y0.14194
G01 X0.62725 Y0.13919
G01 X0.62464 Y0.13616
G01 X0.62257 Y0.13322
G01 X0.62077 Y0.13010
G01 X0.61911 Y0.12646
G01 X0.61794 Y0.12306
G01 X0.61709 Y0.11956
G01 X0.61652 Y0.11560
G01 X0.61636 Y0.11201
G04 P0 ( dwell for no time -- G64 should not smooth over this point )
G00 Z0.08000 ( retract )

G00 X0.87858 Y-0.18939 ( rapid move to begin. )
G01 F180.00000
( Mill infeed pass 1/1 )
G01 Z-0.04000
G04 P0 ( dwell for no time -- G64 should not smooth over this point )
G01 F360.00000
G01 X0.87858 Y-0.18939
G01 X0.87858 Y-0.18659
G01 X0.87903 Y-0.18301
G01 X0.87985 Y-0.17991
G01 X0.88105 Y-0.17694
G01 X0.88283 Y-0.17381
G01 X0.88478 Y-0.17125
G01 X0.88732 Y-0.16870
G01 X0.88986 Y-0.16675
G01 X0.89263 Y-0.16513
G01 X0.89558 Y-0.16387
G01 X0.89866 Y-0.16299
G01 X0.90223 Y-0.16247
G01 X0.90544 Y-0.16243
G01 X0.90902 Y-0.16287
G01 X0.91212 Y-0.16368
G01 X0.91509 Y-0.16487
G01 X0.91824 Y-0.16664
G01 X0.92110 Y-0.16883
G01 X0.92362 Y-0.17141
G01 X0.92576 Y-0.17431
G01 X0.92747 Y-0.17749
G01 X0.92871 Y-0.18087
G01 X0.92947 Y-0.18440
G01 X0.92972 Y-0.18799
G01 X0.92949 Y-0.19143
G01 X1.01055 Y-0.27249
G01 X1.01954 Y-0.27249
G01 X1.02095 Y-0.26954
G01 X1.02257 Y-0.26678
G01 X1.02464 Y-0.26384
G01 X1.02671 Y-0.26140
G01 X1.02896 Y-0.25913
G01 X1.03171 Y-0.25680
G01 X1.03466 Y-0.25474
G01 X1.03743 Y-0.25314
G01 X1.04144 Y-0.25132
G01 X1.04601 Y-0.24986
G01 X1.05072 Y-0.24896
G01 X1.05551 Y-0.24864
G01 X1.06109 Y-0.24901
G01 X1.06424 Y-0.24958
G01 X1.06695 Y-0.25028
G01 X1.06998 Y-0.25132
G01 X1.07255 Y-0.25243
G01 X1.07742 Y-0.25518
G01 X1.08002 Y-0.25705
G01 X1.08216 Y-0.25886
G01 X1.08602 Y-0.26290
G01 X1.08928 Y-0.26746
G01 X1.09065 Y-0.26990
G01 X1.09188 Y-0.27249
G01 X1.39509 Y-0.27249
G01 X1.55164 Y-0.11594
G01 X1.55316 Y-0.11460
G01 X1.55485 Y-0.11348
G01 X1.55704 Y-0.11243
G01 X1.55898 Y-0.11183
G01 X1.56057 Y-0.11153
G01 X1.56260 Y-0.11140
G01 X2.05621 Y-0.11142
G01 X2.05901 Y-0.11183
G01 X2.06133 Y-0.11258
G01 X2.06384 Y-0.11390
G01 X2.06606 Y-0.11566
G01 X2.19152 Y-0.24110
G01 X2.19333 Y-0.24328
G01 X2.19472 Y-0.24576
G01 X2.19563 Y-0.24844
G01 X2.19604 Y-0.25125
G01 X2.19605 Y-0.32433
G01 X2.19587 Y-0.32634
G01 X2.19530 Y-0.32871
G01 X2.19455 Y-0.33059
G01 X2.19333 Y-0.33270
G01 X2.19152 Y-0.33488
G01 X2.00560 Y-0.52077
G01 X2.00367 Y-0.52225
G01 X2.00116 Y-0.52357
G01 X1.99884 Y-0.52432
G01 X1.99644 Y-0.52470
G01 X1.95015 Y-0.52475
G01 X1.94835 Y-0.52711
G01 X1.94635 Y-0.52923
G01 X1.94413 Y-0.53112
G01 X1.94173 Y-0.53277
G01 X1.93917 Y-0.53415
G01 X1.93648 Y-0.53526
G01 X1.93369 Y-0.53607
G01 X1.93082 Y-0.53659
G01 X1.92747 Y-0.53681
G01 X1.88271 Y-0.53678
G01 X1.87849 Y-0.53624
G01 X1.87462 Y-0.53514
G01 X1.87075 Y-0.53338
G01 X1.86737 Y-0.53119
G01 X1.86419 Y-0.52836
G01 X1.86149 Y-0.52508
G01 X1.85943 Y-0.52162
G01 X1.85782 Y-0.51768
G01 X1.85683 Y-0.51355
G01 X1.85650 Y-0.50931
G01 X1.85678 Y-0.50529
G01 X1.85772 Y-0.50114
G01 X1.85928 Y-0.49719
G01 X1.86143 Y-0.49352
G01 X1.86396 Y-0.49039
G01 X1.86710 Y-0.48752
G01 X1.87026 Y-0.48539
G01 X1.87388 Y-0.48364
G01 X1.87773 Y-0.48243
G01 X1.88148 Y-0.48181
G01 X1.88405 Y-0.48169
G01 X1.92871 Y-0.48173
G01 X1.93204 Y-0.48209
G01 X1.93510 Y-0.48280
G01 X1.93805 Y-0.48385
G01 X1.94087 Y-0.48523
G01 X1.94351 Y-0.48692
G01 X1.94594 Y-0.48889
G01 X1.94813 Y-0.49114
G01 X1.95015 Y-0.49375
G01 X1.98881 Y-0.49375
G01 X2.16506 Y-0.31750
G01 X2.16506 Y-0.25848
G01 X2.04897 Y-0.14240
G01 X1.56902 Y-0.14240
G01 X1.41247 Y-0.29895
G01 X1.41094 Y-0.30029
G01 X1.40961 Y-0.30121
G01 X1.40668 Y-0.30260
G01 X1.40393 Y-0.30330
G01 X1.40151 Y-0.30349
G01 X1.09188 Y-0.30349
G01 X1.08948 Y-0.30818
G01 X1.08628 Y-0.31277
G01 X1.08245 Y-0.31686
G01 X1.07809 Y-0.32036
G01 X1.07327 Y-0.32321
G01 X1.06810 Y-0.32534
G01 X1.06267 Y-0.32672
G01 X1.05711 Y-0.32732
G01 X1.05431 Y-0.32732
G01 X1.05112 Y-0.32707
G01 X1.04796 Y-0.32657
G01 X1.04523 Y-0.32592
G01 X1.04256 Y-0.32508
G01 X1.03959 Y-0.32389
G01 X1.03466 Y-0.32124
G01 X1.03203 Y-0.31942
G01 X1.02986 Y-0.31766
G01 X1.02781 Y-0.31575
G01 X1.02565 Y-0.31339
G01 X1.02392 Y-0.31119
G01 X1.02214 Y-0.30853
G01 X1.02077 Y-0.30609
G01 X1.01954 Y-0.30349
G01 X1.00413 Y-0.30349
G01 X1.00211 Y-0.30336
G01 X1.00012 Y-0.30296
G01 X0.99820 Y-0.30231
G01 X0.99638 Y-0.30142
G01 X0.99470 Y-0.30029
G01 X0.99317 Y-0.29895
G01 X0.90757 Y-0.21335
G01 X0.90463 Y-0.21358
G01 X0.90183 Y-0.21348
G01 X0.89866 Y-0.21299
G01 X0.89596 Y-0.21224
G01 X0.89335 Y-0.21120
G01 X0.89088 Y-0.20988
G01 X0.88825 Y-0.20805
G01 X0.88614 Y-0.20619
G01 X0.88452 Y-0.20442
G01 X0.88283 Y-0.20218
G01 X0.88141 Y-0.19976
G01 X0.88026 Y-0.19720
G01 X0.87950 Y-0.19492
G01 X0.87889 Y-0.19218
G01 X0.87858 Y-0.18939
G04 P0 ( dwell for no time -- G64 should not smooth over this point )
G00 Z0.08000 ( retract )

G00 X1.51831 Y-0.63779 ( rapid move to begin. )
G01 F180.00000
( Mill infeed pass 1/1 )
G01 Z-0.04000
G04 P0 ( dwell for no time -- G64 should not smooth over this point )
G01 F360.00000
G01 X1.51831 Y-0.63779
G01 X1.51854 Y-0.63380
G01 X1.51920 Y-0.62985
G01 X1.52016 Y-0.62638
G01 X1.52160 Y-0.62265
G01 X1.52323 Y-0.61944
G01 X1.52540 Y-0.61607
G01 X1.52765 Y-0.61326
G01 X1.53045 Y-0.61040
G01 X1.53355 Y-0.60786
G01 X1.53655 Y-0.60587
G01 X1.53973 Y-0.60418
G01 X1.54343 Y-0.60266
G01 X1.54688 Y-0.60165
G01 X1.55082 Y-0.60091
G01 X1.55441 Y-0.60061
G01 X1.55841 Y-0.60069
G01 X1.56277 Y-0.60126
G01 X1.56665 Y-0.60223
G01 X1.57078 Y-0.60376
G01 X1.57470 Y-0.60577
G01 X1.57835 Y-0.60822
G01 X1.58169 Y-0.61109
G01 X1.58467 Y-0.61433
G01 X1.58703 Y-0.61756
G01 X1.58922 Y-0.62138
G01 X1.59080 Y-0.62505
G01 X1.59208 Y-0.62927
G01 X1.59285 Y-0.63360
G01 X1.59311 Y-0.63799
G01 X1.59290 Y-0.64199
G01 X1.59226 Y-0.64594
G01 X1.59083 Y-0.65084
G01 X1.59097 Y-0.65098
G01 X1.86144 Y-0.65098
G01 X1.86321 Y-0.64870
G01 X1.86507 Y-0.64676
G01 X1.86710 Y-0.64500
G01 X1.86930 Y-0.64345
G01 X1.87164 Y-0.64213
G01 X1.87409 Y-0.64104
G01 X1.87664 Y-0.64019
G01 X1.87926 Y-0.63959
G01 X1.88394 Y-0.63917
G01 X1.92871 Y-0.63921
G01 X1.93138 Y-0.63947
G01 X1.93402 Y-0.63999
G01 X1.93659 Y-0.64076
G01 X1.93928 Y-0.64188
G01 X1.94164 Y-0.64316
G01 X1.94405 Y-0.64480
G01 X1.94610 Y-0.64653
G01 X1.94798 Y-0.64845
G01 X1.94966 Y-0.65054
G01 X1.95125 Y-0.65298
G01 X1.95247 Y-0.65538
G01 X1.95346 Y-0.65788
G01 X1.95420 Y-0.66046
G01 X1.95468 Y-0.66310
G01 X1.95490 Y-0.66578
G01 X1.95485 Y-0.66869
G01 X1.95457 Y-0.67114
G01 X1.95406 Y-0.67355
G01 X1.95335 Y-0.67591
G01 X1.95233 Y-0.67839
G01 X1.95119 Y-0.68058
G01 X1.94986 Y-0.68265
G01 X1.94820 Y-0.68476
G01 X1.94651 Y-0.68655
G01 X1.94466 Y-0.68818
G01 X1.94268 Y-0.68964
G01 X1.94057 Y-0.69092
G01 X1.93815 Y-0.69209
G01 X1.93585 Y-0.69295
G01 X1.93325 Y-0.69365
G01 X1.93082 Y-0.69407
G01 X1.92837 Y-0.69427
G01 X1.88383 Y-0.69429
G01 X1.87937 Y-0.69389
G01 X1.87653 Y-0.69325
G01 X1.87399 Y-0.69239
G01 X1.87154 Y-0.69128
G01 X1.86921 Y-0.68995
G01 X1.86702 Y-0.68839
G01 X1.86499 Y-0.68663
G01 X1.86314 Y-0.68468
G01 X1.86144 Y-0.68248
G01 X1.58325 Y-0.68244
G01 X1.58128 Y-0.68216
G01 X1.57935 Y-0.68164
G01 X1.57787 Y-0.68104
G01 X1.57612 Y-0.68010
G01 X1.57389 Y-0.67842
G01 X1.56856 Y-0.67312
G01 X1.56434 Y-0.67438
G01 X1.56000 Y-0.67515
G01 X1.55561 Y-0.67539
G01 X1.55122 Y-0.67512
G01 X1.54688 Y-0.67434
G01 X1.54268 Y-0.67305
G01 X1.53829 Y-0.67109
G01 X1.53452 Y-0.66882
G01 X1.53075 Y-0.66585
G01 X1.52765 Y-0.66272
G01 X1.52494 Y-0.65926
G01 X1.52247 Y-0.65514
G01 X1.52068 Y-0.65112
G01 X1.51939 Y-0.64691
G01 X1.51859 Y-0.64258
G01 X1.51831 Y-0.63779
G04 P0 ( dwell for no time -- G64 should not smooth over this point )
G00 Z0.08000 ( retract )

G00 X1.80550 Y-0.37930 ( rapid move to begin. )
G01 F180.00000
( Mill infeed pass 1/1 )
G01 Z-0.04000
G04 P0 ( dwell for no time -- G64 should not smooth over this point )
G01 F360.00000
G01 X1.80550 Y-0.37930
G01 X1.80552 Y-0.58430
G01 X1.80583 Y-0.58671
G01 X1.80652 Y-0.58904
G01 X1.80757 Y-0.59124
G01 X1.80895 Y-0.59324
G01 X1.81574 Y-0.60004
G01 X1.81774 Y-0.60141
G01 X1.82032 Y-0.60260
G01 X1.82267 Y-0.60323
G01 X1.82509 Y-0.60349
G01 X1.86127 Y-0.60349
G01 X1.86314 Y-0.60594
G01 X1.86515 Y-0.60804
G01 X1.86737 Y-0.60993
G01 X1.86978 Y-0.61156
G01 X1.87234 Y-0.61294
G01 X1.87504 Y-0.61403
G01 X1.87784 Y-0.61484
G01 X1.88070 Y-0.61535
G01 X1.88405 Y-0.61555
G01 X1.92837 Y-0.61553
G01 X1.93215 Y-0.61513
G01 X1.93606 Y-0.61414
G01 X1.93978 Y-0.61260
G01 X1.94323 Y-0.61052
G01 X1.94635 Y-0.60797
G01 X1.94892 Y-0.60516
G01 X1.95119 Y-0.60184
G01 X1.95295 Y-0.59821
G01 X1.95395 Y-0.59524
G01 X1.95457 Y-0.59240
G01 X1.95488 Y-0.58950
G01 X1.95489 Y-0.58659
G01 X1.95458 Y-0.58370
G01 X1.95392 Y-0.58063
G01 X1.95300 Y-0.57787
G01 X1.95179 Y-0.57523
G01 X1.95018 Y-0.57254
G01 X1.94842 Y-0.57022
G01 X1.94643 Y-0.56809
G01 X1.94405 Y-0.56606
G01 X1.94145 Y-0.56430
G01 X1.93887 Y-0.56295
G01 X1.93616 Y-0.56188
G01 X1.93336 Y-0.56109
G01 X1.93049 Y-0.56061
G01 X1.92759 Y-0.56043
G01 X1.88394 Y-0.56043
G01 X1.88081 Y-0.56062
G01 X1.87795 Y-0.56112
G01 X1.87515 Y-0.56191
G01 X1.87224 Y-0.56309
G01 X1.86968 Y-0.56448
G01 X1.86728 Y-0.56613
G01 X1.86507 Y-0.56802
G01 X1.86307 Y-0.57013
G01 X1.86127 Y-0.57249
G01 X1.83650 Y-0.57249
G01 X1.83650 Y-0.38572
G01 X1.96775 Y-0.25434
G01 X1.96913 Y-0.25233
G01 X1.97003 Y-0.25051
G01 X1.97078 Y-0.24820
G01 X1.97116 Y-0.24580
G01 X1.97121 Y-0.21358
G01 X1.98130 Y-0.21358
G01 X1.98130 Y-0.20349
G01 X1.99929 Y-0.20349
G01 X2.06917 Y-0.27338
G01 X2.06806 Y-0.27656
G01 X2.06717 Y-0.28005
G01 X2.06660 Y-0.28360
G01 X2.06638 Y-0.28679
G01 X2.06641 Y-0.28999
G01 X2.06676 Y-0.29357
G01 X2.06743 Y-0.29711
G01 X2.06842 Y-0.30057
G01 X2.06973 Y-0.30392
G01 X2.07114 Y-0.30679
G01 X2.07278 Y-0.30954
G01 X2.07489 Y-0.31246
G01 X2.07725 Y-0.31517
G01 X2.07986 Y-0.31766
G01 X2.08235 Y-0.31966
G01 X2.08534 Y-0.32166
G01 X2.08923 Y-0.32373
G01 X2.09332 Y-0.32534
G01 X2.09757 Y-0.32649
G01 X2.10191 Y-0.32716
G01 X2.10631 Y-0.32734
G01 X2.11070 Y-0.32702
G01 X2.11463 Y-0.32632
G01 X2.11885 Y-0.32508
G01 X2.12291 Y-0.32338
G01 X2.12675 Y-0.32124
G01 X2.13033 Y-0.31869
G01 X2.13360 Y-0.31575
G01 X2.13653 Y-0.31246
G01 X2.13885 Y-0.30920
G01 X2.14101 Y-0.30537
G01 X2.14273 Y-0.30133
G01 X2.14369 Y-0.29827
G01 X2.14433 Y-0.29555
G01 X2.14481 Y-0.29238
G01 X2.14503 Y-0.28959
G01 X2.14504 Y-0.28679
G01 X2.14481 Y-0.28360
G01 X2.14433 Y-0.28044
G01 X2.14369 Y-0.27771
G01 X2.14273 Y-0.27466
G01 X2.14169 Y-0.27206
G01 X2.14028 Y-0.26919
G01 X2.13726 Y-0.26448
G01 X2.13524 Y-0.26199
G01 X2.13126 Y-0.25806
G01 X2.12709 Y-0.25496
G01 X2.12255 Y-0.25243
G01 X2.11772 Y-0.25052
G01 X2.11228 Y-0.24919
G01 X2.10711 Y-0.24867
G01 X2.10152 Y-0.24887
G01 X2.09640 Y-0.24976
G01 X2.09109 Y-0.25146
G01 X2.01546 Y-0.17595
G01 X2.01346 Y-0.17457
G01 X2.01164 Y-0.17367
G01 X2.00933 Y-0.17292
G01 X2.00733 Y-0.17258
G01 X1.98130 Y-0.17249
G01 X1.98130 Y-0.16240
G01 X1.93012 Y-0.16240
G01 X1.93012 Y-0.21358
G01 X1.94021 Y-0.21358
G01 X1.94021 Y-0.23816
G01 X1.81003 Y-0.36833
G01 X1.80895 Y-0.36954
G01 X1.80778 Y-0.37120
G01 X1.80638 Y-0.37412
G01 X1.80575 Y-0.37647
G01 X1.80550 Y-0.37930
( Piece #2, position [1;0] )

G04 P0 ( dwell for no time -- G64 should not smooth over this point )
G00 Z0.08000 ( retract )

G00 X2.53237 Y-0.55561 ( rapid move to begin. )
G01 F180.00000
( Mill infeed pass 1/1 )
G01 Z-0.04000
G04 P0 ( dwell for no time -- G64 should not smooth over this point )
G01 F360.00000
G01 X2.53237 Y-0.55561
G01 X2.53251 Y-0.55764
G01 X2.53301 Y-0.56002
G01 X2.53355 Y-0.56155
G01 X2.53445 Y-0.56336
G01 X2.53558 Y-0.56505
G01 X2.53691 Y-0.56657
G01 X2.71809 Y-0.74775
G01 X2.71961 Y-0.74909
G01 X2.72165 Y-0.75041
G01 X2.72426 Y-0.75153
G01 X2.72663 Y-0.75210
G01 X2.72905 Y-0.75229
G01 X3.20291 Y-0.75221
G01 X3.20531 Y-0.75176
G01 X3.20760 Y-0.75095
G01 X3.20974 Y-0.74979
G01 X3.21167 Y-0.74831
G01 X3.24068 Y-0.71932
G01 X3.24272 Y-0.71680
G01 X3.24371 Y-0.71504
G01 X3.24447 Y-0.71315
G01 X3.24496 Y-0.71119
G01 X3.24520 Y-0.70917
G01 X3.24522 Y-0.67736
G01 X3.26713 Y-0.67736
G01 X3.26713 Y-0.65349
G01 X3.39232 Y-0.65349
G01 X3.39232 Y-0.67736
G01 X3.46713 Y-0.67736
G01 X3.46713 Y-0.59862
G01 X3.39232 Y-0.59862
G01 X3.39232 Y-0.62249
G01 X3.26713 Y-0.62249
G01 X3.26713 Y-0.59862
G01 X3.19232 Y-0.59862
G01 X3.19232 Y-0.67736
G01 X3.21422 Y-0.67736
G01 X3.21422 Y-0.70194
G01 X3.19487 Y-0.72129
G01 X2.73547 Y-0.72129
G01 X2.56337 Y-0.54919
G01 X2.56337 Y-0.15512
G01 X2.59686 Y-0.12164
G01 X2.95267 Y-0.12164
G01 X2.95470 Y-0.12151
G01 X2.95669 Y-0.12111
G01 X2.95861 Y-0.12046
G01 X2.96042 Y-0.11956
G01 X2.96211 Y-0.11844
G01 X2.96363 Y-0.11710
G01 X3.10124 Y0.02051
G01 X3.12582 Y0.02051
G01 X3.12582 Y-0.03289
G01 X3.26362 Y-0.03289
G01 X3.26362 Y0.08299
G01 X3.31082 Y0.13019
G01 X3.31082 Y0.08521
G01 X3.44862 Y0.08521
G01 X3.44862 Y0.22301
G01 X3.31082 Y0.22301
G01 X3.31082 Y0.16948
G01 X3.30842 Y0.16897
G01 X3.30615 Y0.16810
G01 X3.30404 Y0.16688
G01 X3.30215 Y0.16535
G01 X3.24170 Y0.10491
G01 X3.12582 Y0.10491
G01 X3.12582 Y0.05151
G01 X3.09361 Y0.05146
G01 X3.09121 Y0.05108
G01 X3.08889 Y0.05033
G01 X3.08673 Y0.04922
G01 X3.08507 Y0.04805
G01 X2.94625 Y-0.09064
G01 X2.59044 Y-0.09064
G01 X2.58841 Y-0.09077
G01 X2.58603 Y-0.09128
G01 X2.58413 Y-0.09198
G01 X2.58199 Y-0.09314
G01 X2.58006 Y-0.09462
G01 X2.53691 Y-0.13774
G01 X2.53558 Y-0.13927
G01 X2.53425 Y-0.14131
G01 X2.53313 Y-0.14391
G01 X2.53256 Y-0.14628
G01 X2.53237 Y-0.14870
G01 X2.53237 Y-0.55561
G04 P0 ( dwell for no time -- G64 should not smooth over this point )
G00 Z0.08000 ( retract )

G00 X2.73052 Y-0.66589 ( rapid move to begin. )
G01 F180.00000
( Mill infeed pass 1/1 )
G01 Z-0.04000
G04 P0 ( dwell for no time -- G64 should not smooth over this point )
G01 F360.00000
G01 X2.73052 Y-0.66589
G01 X2.73074 Y-0.66321
G01 X2.73121 Y-0.66057
G01 X2.73194 Y-0.65798
G01 X2.73291 Y-0.65548
G01 X2.73413 Y-0.65308
G01 X2.73557 Y-0.65082
G01 X2.73738 Y-0.64853
G01 X2.73925 Y-0.64660
G01 X2.74148 Y-0.64473
G01 X2.74370 Y-0.64322
G01 X2.74606 Y-0.64193
G01 X2.74874 Y-0.64080
G01 X2.75131 Y-0.64002
G01 X2.75394 Y-0.63948
G01 X2.75662 Y-0.63921
G01 X2.80160 Y-0.63917
G01 X2.80606 Y-0.63957
G01 X2.80868 Y-0.64016
G01 X2.81123 Y-0.64100
G01 X2.81389 Y-0.64218
G01 X2.81623 Y-0.64352
G01 X2.81842 Y-0.64507
G01 X2.82044 Y-0.64683
G01 X2.82229 Y-0.64879
G01 X2.82399 Y-0.65098
G01 X3.04820 Y-0.65098
G01 X3.09246 Y-0.63483
G01 X3.09290 Y-0.63142
G01 X3.09360 Y-0.62830
G01 X3.09456 Y-0.62524
G01 X3.09595 Y-0.62192
G01 X3.09745 Y-0.61909
G01 X3.09919 Y-0.61640
G01 X3.10114 Y-0.61387
G01 X3.10360 Y-0.61123
G01 X3.10629 Y-0.60884
G01 X3.10887 Y-0.60694
G01 X3.11160 Y-0.60527
G01 X3.11447 Y-0.60384
G01 X3.11745 Y-0.60266
G01 X3.12051 Y-0.60174
G01 X3.12365 Y-0.60109
G01 X3.12722 Y-0.60067
G01 X3.13122 Y-0.60062
G01 X3.13481 Y-0.60094
G01 X3.13835 Y-0.60160
G01 X3.14219 Y-0.60273
G01 X3.14589 Y-0.60426
G01 X3.14906 Y-0.60597
G01 X3.15237 Y-0.60822
G01 X3.15542 Y-0.61081
G01 X3.15817 Y-0.61371
G01 X3.16038 Y-0.61656
G01 X3.16230 Y-0.61961
G01 X3.16407 Y-0.62320
G01 X3.16534 Y-0.62657
G01 X3.16635 Y-0.63044
G01 X3.16695 Y-0.63439
G01 X3.16713 Y-0.63799
G01 X3.16702 Y-0.64079
G01 X3.16671 Y-0.64358
G01 X3.16618 Y-0.64633
G01 X3.16546 Y-0.64903
G01 X3.16453 Y-0.65168
G01 X3.16341 Y-0.65425
G01 X3.16210 Y-0.65672
G01 X3.16061 Y-0.65909
G01 X3.15894 Y-0.66135
G01 X3.15711 Y-0.66347
G01 X3.15513 Y-0.66544
G01 X3.15300 Y-0.66727
G01 X3.15074 Y-0.66893
G01 X3.14837 Y-0.67042
G01 X3.14589 Y-0.67172
G01 X3.14332 Y-0.67284
G01 X3.13835 Y-0.67438
G01 X3.13560 Y-0.67493
G01 X3.13282 Y-0.67526
G01 X3.13002 Y-0.67539
G01 X3.12722 Y-0.67531
G01 X3.12207 Y-0.67460
G01 X3.11707 Y-0.67319
G01 X3.11447 Y-0.67214
G01 X3.11196 Y-0.67090
G01 X3.10954 Y-0.66948
G01 X3.10724 Y-0.66788
G01 X3.10326 Y-0.66442
G01 X3.05638 Y-0.68153
G01 X3.05450 Y-0.68209
G01 X3.05216 Y-0.68244
G01 X2.82399 Y-0.68248
G01 X2.82222 Y-0.68476
G01 X2.82036 Y-0.68671
G01 X2.81833 Y-0.68846
G01 X2.81613 Y-0.69001
G01 X2.81379 Y-0.69134
G01 X2.81134 Y-0.69243
G01 X2.80879 Y-0.69328
G01 X2.80617 Y-0.69387
G01 X2.80149 Y-0.69429
G01 X2.75695 Y-0.69427
G01 X2.75450 Y-0.69406
G01 X2.75207 Y-0.69363
G01 X2.74969 Y-0.69299
G01 X2.74718 Y-0.69205
G01 X2.74496 Y-0.69097
G01 X2.74285 Y-0.68970
G01 X2.74086 Y-0.68825
G01 X2.73884 Y-0.68648
G01 X2.73701 Y-0.68451
G01 X2.73551 Y-0.68256
G01 X2.73418 Y-0.68048
G01 X2.73305 Y-0.67829
G01 X2.73212 Y-0.67601
G01 X2.73140 Y-0.67366
G01 X2.73085 Y-0.67103
G01 X2.73057 Y-0.66858
G01 X2.73052 Y-0.66589
G04 P0 ( dwell for no time -- G64 should not smooth over this point )
G00 Z0.08000 ( retract )

G00 X2.73054 Y-0.50796 ( rapid move to begin. )
G01 F180.00000
( Mill infeed pass 1/1 )
G01 Z-0.04000
G04 P0 ( dwell for no time -- G64 should not smooth over this point )
G01 F360.00000
G01 X2.73054 Y-0.50796
G01 X2.73087 Y-0.50485
G01 X2.73154 Y-0.50179
G01 X2.73256 Y-0.49882
G01 X2.73391 Y-0.49599
G01 X2.73557 Y-0.49334
G01 X2.73753 Y-0.49088
G01 X2.73974 Y-0.48867
G01 X2.74220 Y-0.48672
G01 X2.74486 Y-0.48507
G01 X2.74790 Y-0.48364
G01 X2.75087 Y-0.48265
G01 X2.75394 Y-0.48200
G01 X2.75706 Y-0.48171
G01 X2.80160 Y-0.48169
G01 X2.80606 Y-0.48209
G01 X2.80890 Y-0.48274
G01 X2.81144 Y-0.48360
G01 X2.81389 Y-0.48470
G01 X2.81623 Y-0.48603
G01 X2.81842 Y-0.48759
G01 X2.82044 Y-0.48935
G01 X2.82229 Y-0.49130
G01 X2.82399 Y-0.49350
G01 X3.41600 Y-0.49350
G01 X3.66397 Y-0.24553
G01 X3.66406 Y-0.18637
G01 X3.66440 Y-0.18437
G01 X3.66485 Y-0.18282
G01 X3.66622 Y-0.17988
G01 X3.66817 Y-0.17729
G01 X3.67060 Y-0.17516
G01 X3.67232 Y-0.17409
G01 X3.67455 Y-0.17312
G01 X3.67690 Y-0.17250
G01 X3.67932 Y-0.17225
G01 X3.81113 Y-0.17224
G01 X3.81303 Y-0.17007
G01 X3.81541 Y-0.16793
G01 X3.81804 Y-0.16610
G01 X3.82052 Y-0.16478
G01 X3.82351 Y-0.16362
G01 X3.82622 Y-0.16291
G01 X3.82940 Y-0.16247
G01 X3.83220 Y-0.16242
G01 X3.83618 Y-0.16287
G01 X3.84004 Y-0.16394
G01 X3.84369 Y-0.16560
G01 X3.84703 Y-0.16781
G01 X3.84999 Y-0.17051
G01 X3.85249 Y-0.17364
G01 X3.85447 Y-0.17712
G01 X3.85588 Y-0.18087
G01 X3.85651 Y-0.18360
G01 X3.85681 Y-0.18599
G01 X3.85688 Y-0.18879
G01 X3.85664 Y-0.19159
G01 X3.85609 Y-0.19434
G01 X3.85525 Y-0.19702
G01 X3.85411 Y-0.19958
G01 X3.85271 Y-0.20201
G01 X3.85104 Y-0.20427
G01 X3.84914 Y-0.20633
G01 X3.84734 Y-0.20793
G01 X3.84507 Y-0.20956
G01 X3.84262 Y-0.21094
G01 X3.84004 Y-0.21204
G01 X3.83736 Y-0.21286
G01 X3.83499 Y-0.21331
G01 X3.83180 Y-0.21358
G01 X3.82820 Y-0.21339
G01 X3.82505 Y-0.21281
G01 X3.82162 Y-0.21168
G01 X3.81874 Y-0.21029
G01 X3.81573 Y-0.20830
G01 X3.81331 Y-0.20619
G01 X3.81113 Y-0.20374
G01 X3.69547 Y-0.20374
G01 X3.69547 Y-0.25193
G01 X3.70009 Y-0.25432
G01 X3.70435 Y-0.25730
G01 X3.70818 Y-0.26081
G01 X3.71127 Y-0.26448
G01 X3.71410 Y-0.26884
G01 X3.71617 Y-0.27316
G01 X3.71771 Y-0.27771
G01 X3.71873 Y-0.28281
G01 X3.71906 Y-0.28679
G01 X3.71894 Y-0.29119
G01 X3.71842 Y-0.29515
G01 X3.71749 Y-0.29904
G01 X3.71617 Y-0.30282
G01 X3.71429 Y-0.30679
G01 X3.71220 Y-0.31021
G01 X3.70978 Y-0.31339
G01 X3.70647 Y-0.31686
G01 X3.70308 Y-0.31966
G01 X3.69905 Y-0.32227
G01 X3.69474 Y-0.32437
G01 X3.69058 Y-0.32581
G01 X3.68590 Y-0.32685
G01 X3.68112 Y-0.32732
G01 X3.67633 Y-0.32720
G01 X3.67197 Y-0.32657
G01 X3.66734 Y-0.32534
G01 X3.66288 Y-0.32356
G01 X3.65868 Y-0.32124
G01 X3.65510 Y-0.31869
G01 X3.65155 Y-0.31546
G01 X3.64841 Y-0.31183
G01 X3.64592 Y-0.30813
G01 X3.43366 Y-0.52039
G01 X3.43212 Y-0.52175
G01 X3.43076 Y-0.52268
G01 X3.42893 Y-0.52364
G01 X3.42700 Y-0.52435
G01 X3.42499 Y-0.52481
G01 X3.42253 Y-0.52500
G01 X2.82399 Y-0.52500
G01 X2.82222 Y-0.52728
G01 X2.82036 Y-0.52923
G01 X2.81833 Y-0.53098
G01 X2.81613 Y-0.53253
G01 X2.81379 Y-0.53386
G01 X2.81134 Y-0.53495
G01 X2.80879 Y-0.53580
G01 X2.80617 Y-0.53639
G01 X2.80171 Y-0.53681
G01 X2.75785 Y-0.53681
G01 X2.75361 Y-0.53645
G01 X2.74927 Y-0.53537
G01 X2.74535 Y-0.53370
G01 X2.74157 Y-0.53132
G01 X2.73837 Y-0.52852
G01 X2.73551 Y-0.52508
G01 X2.73334 Y-0.52142
G01 X2.73170 Y-0.51726
G01 X2.73096 Y-0.51421
G01 X2.73057 Y-0.51110
G01 X2.73054 Y-0.50796
G04 P0 ( dwell for no time -- G64 should not smooth over this point )
G00 Z0.08000 ( retract )

G00 X2.59038 Y-0.28839 ( rapid move to begin. )
G01 F180.00000
( Mill infeed pass 1/1 )
G01 Z-0.04000
G04 P0 ( dwell for no time -- G64 should not smooth over this point )
G01 F360.00000
G01 X2.59038 Y-0.28839
G01 X2.59062 Y-0.29238
G01 X2.59118 Y-0.29594
G01 X2.59219 Y-0.29981
G01 X2.59343 Y-0.30319
G01 X2.59516 Y-0.30679
G01 X2.59702 Y-0.30987
G01 X2.59941 Y-0.31308
G01 X2.60183 Y-0.31575
G01 X2.60448 Y-0.31818
G01 X2.60768 Y-0.32058
G01 X2.61075 Y-0.32246
G01 X2.61422 Y-0.32416
G01 X2.61431 Y-0.51982
G01 X2.61475 Y-0.52222
G01 X2.61556 Y-0.52451
G01 X2.61672 Y-0.52665
G01 X2.61848 Y-0.52887
G01 X2.68855 Y-0.59895
G01 X2.69040 Y-0.60053
G01 X2.69247 Y-0.60180
G01 X2.69550 Y-0.60296
G01 X2.69870 Y-0.60347
G01 X2.73528 Y-0.60349
G01 X2.73716 Y-0.60594
G01 X2.73917 Y-0.60804
G01 X2.74139 Y-0.60993
G01 X2.74379 Y-0.61156
G01 X2.74636 Y-0.61294
G01 X2.74906 Y-0.61403
G01 X2.75185 Y-0.61484
G01 X2.75472 Y-0.61535
G01 X2.75807 Y-0.61555
G01 X2.80149 Y-0.61555
G01 X2.80440 Y-0.61539
G01 X2.80857 Y-0.61460
G01 X2.81258 Y-0.61317
G01 X2.81613 Y-0.61127
G01 X2.81954 Y-0.60872
G01 X2.82251 Y-0.60568
G01 X2.82498 Y-0.60222
G01 X2.82689 Y-0.59842
G01 X2.82819 Y-0.59437
G01 X2.82885 Y-0.59017
G01 X2.82886 Y-0.58592
G01 X2.82821 Y-0.58172
G01 X2.82693 Y-0.57767
G01 X2.82504 Y-0.57386
G01 X2.82272 Y-0.57056
G01 X2.81979 Y-0.56748
G01 X2.81641 Y-0.56490
G01 X2.81349 Y-0.56324
G01 X2.81018 Y-0.56188
G01 X2.80694 Y-0.56100
G01 X2.80339 Y-0.56051
G01 X2.75617 Y-0.56050
G01 X2.75306 Y-0.56089
G01 X2.75001 Y-0.56164
G01 X2.74707 Y-0.56272
G01 X2.74427 Y-0.56413
G01 X2.74165 Y-0.56586
G01 X2.73925 Y-0.56786
G01 X2.73708 Y-0.57013
G01 X2.73528 Y-0.57249
G01 X2.70593 Y-0.57249
G01 X2.64522 Y-0.51178
G01 X2.64522 Y-0.32416
G01 X2.64870 Y-0.32246
G01 X2.65177 Y-0.32058
G01 X2.65497 Y-0.31818
G01 X2.65762 Y-0.31575
G01 X2.66004 Y-0.31308
G01 X2.66243 Y-0.30987
G01 X2.66429 Y-0.30679
G01 X2.66602 Y-0.30319
G01 X2.66726 Y-0.29981
G01 X2.66826 Y-0.29594
G01 X2.66883 Y-0.29238
G01 X2.66907 Y-0.28839
G01 X2.66894 Y-0.28479
G01 X2.66842 Y-0.28083
G01 X2.66749 Y-0.27694
G01 X2.66626 Y-0.27338
G01 X2.73614 Y-0.20349
G01 X2.75413 Y-0.20349
G01 X2.75413 Y-0.21358
G01 X2.80531 Y-0.21358
G01 X2.80531 Y-0.16240
G01 X2.75413 Y-0.16240
G01 X2.75413 Y-0.17249
G01 X2.72810 Y-0.17258
G01 X2.72611 Y-0.17292
G01 X2.72379 Y-0.17367
G01 X2.72197 Y-0.17457
G01 X2.71997 Y-0.17595
G01 X2.64434 Y-0.25146
G01 X2.64058 Y-0.25017
G01 X2.63669 Y-0.24926
G01 X2.63272 Y-0.24876
G01 X2.62912 Y-0.24865
G01 X2.62513 Y-0.24891
G01 X2.62119 Y-0.24958
G01 X2.61734 Y-0.25064
G01 X2.61398 Y-0.25193
G01 X2.61040 Y-0.25372
G01 X2.60702 Y-0.25585
G01 X2.60418 Y-0.25806
G01 X2.60127 Y-0.26081
G01 X2.59866 Y-0.26384
G01 X2.59658 Y-0.26678
G01 X2.59478 Y-0.26990
G01 X2.59313 Y-0.27354
G01 X2.59196 Y-0.27694
G01 X2.59103 Y-0.28083
G01 X2.59050 Y-0.28479
G01 X2.59038 Y-0.28839
G04 P0 ( dwell for no time -- G64 should not smooth over this point )
G00 Z0.08000 ( retract )

G00 X2.59037 Y0.11201 ( rapid move to begin. )
G01 F180.00000
( Mill infeed pass 1/1 )
G01 Z-0.04000
G04 P0 ( dwell for no time -- G64 should not smooth over this point )
G01 F360.00000
G01 X2.59037 Y0.11201
G01 X2.59054 Y0.10841
G01 X2.59103 Y0.10485
G01 X2.59185 Y0.10134
G01 X2.59298 Y0.09792
G01 X2.59442 Y0.09463
G01 X2.59637 Y0.09113
G01 X2.59841 Y0.08817
G01 X2.60072 Y0.08541
G01 X2.60328 Y0.08287
G01 X2.60605 Y0.08058
G01 X2.60902 Y0.07855
G01 X2.61252 Y0.07662
G01 X2.61583 Y0.07519
G01 X2.61925 Y0.07408
G01 X2.62276 Y0.07328
G01 X2.62633 Y0.07280
G01 X2.62952 Y0.07266
G01 X2.63272 Y0.07277
G01 X2.63590 Y0.07315
G01 X2.63865 Y0.07368
G01 X2.64173 Y0.07453
G01 X2.64437 Y0.07548
G01 X2.64693 Y0.07662
G01 X2.64974 Y0.07813
G01 X2.65243 Y0.07987
G01 X2.65497 Y0.08182
G01 X2.65734 Y0.08397
G01 X2.65926 Y0.08601
G01 X2.66127 Y0.08849
G01 X2.66287 Y0.09080
G01 X2.66448 Y0.09356
G01 X2.66578 Y0.09626
G01 X2.99366 Y0.09626
G01 X2.99497 Y0.09356
G01 X2.99658 Y0.09080
G01 X2.99841 Y0.08817
G01 X3.00045 Y0.08571
G01 X3.00269 Y0.08342
G01 X3.00510 Y0.08131
G01 X3.00768 Y0.07942
G01 X3.01040 Y0.07773
G01 X3.01325 Y0.07627
G01 X3.01620 Y0.07505
G01 X3.01925 Y0.07408
G01 X3.02237 Y0.07335
G01 X3.02553 Y0.07288
G01 X3.02872 Y0.07267
G01 X3.03192 Y0.07272
G01 X3.03511 Y0.07303
G01 X3.03942 Y0.07387
G01 X3.04399 Y0.07534
G01 X3.04800 Y0.07716
G01 X3.05177 Y0.07942
G01 X3.05527 Y0.08208
G01 X3.05845 Y0.08512
G01 X3.06127 Y0.08849
G01 X3.06370 Y0.09216
G01 X3.06570 Y0.09608
G01 X3.06726 Y0.10019
G01 X3.06834 Y0.10445
G01 X3.06897 Y0.10921
G01 X3.06904 Y0.11361
G01 X3.06862 Y0.11799
G01 X3.06771 Y0.12229
G01 X3.06626 Y0.12662
G01 X3.18264 Y0.24301
G01 X3.52680 Y0.24301
G01 X3.64319 Y0.12662
G01 X3.64185 Y0.12267
G01 X3.64089 Y0.11838
G01 X3.64042 Y0.11401
G01 X3.64043 Y0.10997
G01 X3.39411 Y-0.01319
G01 X3.31082 Y-0.01319
G01 X3.31082 Y-0.15099
G01 X3.44862 Y-0.15099
G01 X3.44862 Y-0.02115
G01 X3.65451 Y0.08179
G01 X3.65834 Y0.07897
G01 X3.66216 Y0.07679
G01 X3.66658 Y0.07492
G01 X3.67080 Y0.07368
G01 X3.67553 Y0.07288
G01 X3.67992 Y0.07266
G01 X3.68431 Y0.07293
G01 X3.68865 Y0.07368
G01 X3.69287 Y0.07492
G01 X3.69728 Y0.07679
G01 X3.70144 Y0.07919
G01 X3.70497 Y0.08182
G01 X3.70818 Y0.08483
G01 X3.71127 Y0.08849
G01 X3.71370 Y0.09216
G01 X3.71578 Y0.09626
G01 X4.04366 Y0.09626
G01 X4.04497 Y0.09356
G01 X4.04658 Y0.09080
G01 X4.04817 Y0.08849
G01 X4.05019 Y0.08601
G01 X4.05211 Y0.08397
G01 X4.05448 Y0.08182
G01 X4.05702 Y0.07987
G01 X4.05936 Y0.07834
G01 X4.06181 Y0.07697
G01 X4.06471 Y0.07563
G01 X4.06734 Y0.07466
G01 X4.07041 Y0.07378
G01 X4.07315 Y0.07321
G01 X4.07633 Y0.07280
G01 X4.07912 Y0.07266
G01 X4.08232 Y0.07274
G01 X4.08590 Y0.07315
G01 X4.08942 Y0.07387
G01 X4.09287 Y0.07492
G01 X4.09657 Y0.07644
G01 X4.09974 Y0.07813
G01 X4.10308 Y0.08034
G01 X4.10588 Y0.08261
G01 X4.10845 Y0.08512
G01 X4.11079 Y0.08786
G01 X4.11287 Y0.09080
G01 X4.11467 Y0.09391
G01 X4.11632 Y0.09755
G01 X4.11749 Y0.10096
G01 X4.11834 Y0.10445
G01 X4.11891 Y0.10841
G01 X4.11907 Y0.11201
G01 X4.11891 Y0.11560
G01 X4.11834 Y0.11956
G01 X4.11749 Y0.12306
G01 X4.11632 Y0.12646
G01 X4.11467 Y0.13010
G01 X4.11287 Y0.13322
G01 X4.11079 Y0.13616
G01 X4.10818 Y0.13919
G01 X4.10527 Y0.14194
G01 X4.10243 Y0.14415
G01 X4.09905 Y0.14628
G01 X4.09584 Y0.14791
G01 X4.09211 Y0.14936
G01 X4.08865 Y0.15033
G01 X4.08471 Y0.15104
G01 X4.08112 Y0.15133
G01 X4.07832 Y0.15133
G01 X4.07513 Y0.15109
G01 X4.07197 Y0.15059
G01 X4.06925 Y0.14994
G01 X4.06658 Y0.14910
G01 X4.06361 Y0.14791
G01 X4.05868 Y0.14526
G01 X4.05418 Y0.14194
G01 X4.05183 Y0.13976
G01 X4.04993 Y0.13771
G01 X4.04817 Y0.13552
G01 X4.04637 Y0.13288
G01 X4.04497 Y0.13046
G01 X4.04366 Y0.12776
G01 X3.71578 Y0.12776
G01 X3.71410 Y0.13116
G01 X3.71220 Y0.13422
G01 X3.70978 Y0.13740
G01 X3.70734 Y0.14004
G01 X3.70435 Y0.14270
G01 X3.70144 Y0.14482
G01 X3.69800 Y0.14686
G01 X3.69474 Y0.14838
G01 X3.69097 Y0.14972
G01 X3.68747 Y0.15059
G01 X3.68352 Y0.15117
G01 X3.67992 Y0.15136
G01 X3.67633 Y0.15121
G01 X3.67237 Y0.15066
G01 X3.66886 Y0.14983
G01 X3.66511 Y0.14854
G01 X3.54389 Y0.26975
G01 X3.54200 Y0.27128
G01 X3.53990 Y0.27250
G01 X3.53763 Y0.27337
G01 X3.53565 Y0.27382
G01 X3.53322 Y0.27401
G01 X3.17622 Y0.27401
G01 X3.17340 Y0.27375
G01 X3.17029 Y0.27283
G01 X3.16778 Y0.27151
G01 X3.16555 Y0.26975
G01 X3.04434 Y0.14854
G01 X3.04058 Y0.14983
G01 X3.03708 Y0.15066
G01 X3.03312 Y0.15121
G01 X3.02952 Y0.15136
G01 X3.02593 Y0.15117
G01 X3.02197 Y0.15059
G01 X3.01848 Y0.14972
G01 X3.01471 Y0.14838
G01 X3.01145 Y0.14686
G01 X3.00801 Y0.14482
G01 X3.00510 Y0.14270
G01 X3.00211 Y0.14004
G01 X2.99967 Y0.13740
G01 X2.99724 Y0.13422
G01 X2.99535 Y0.13116
G01 X2.99366 Y0.12776
G01 X2.66578 Y0.12776
G01 X2.66448 Y0.13046
G01 X2.66308 Y0.13288
G01 X2.66127 Y0.13552
G01 X2.65952 Y0.13771
G01 X2.65762 Y0.13976
G01 X2.65527 Y0.14194
G01 X2.65077 Y0.14526
G01 X2.64584 Y0.14791
G01 X2.64287 Y0.14910
G01 X2.64020 Y0.14994
G01 X2.63747 Y0.15059
G01 X2.63431 Y0.15109
G01 X2.63112 Y0.15133
G01 X2.62832 Y0.15133
G01 X2.62474 Y0.15104
G01 X2.62080 Y0.15033
G01 X2.61734 Y0.14936
G01 X2.61361 Y0.14791
G01 X2.61040 Y0.14628
G01 X2.60702 Y0.14415
G01 X2.60418 Y0.14194
G01 X2.60127 Y0.13919
G01 X2.59866 Y0.13616
G01 X2.59658 Y0.13322
G01 X2.59478 Y0.13010
G01 X2.59313 Y0.12646
G01 X2.59196 Y0.12306
G01 X2.59111 Y0.11956
G01 X2.59054 Y0.11560
G01 X2.59037 Y0.11201
G04 P0 ( dwell for no time -- G64 should not smooth over this point )
G00 Z0.08000 ( retract )

G00 X2.85260 Y-0.18939 ( rapid move to begin. )
G01 F180.00000
( Mill infeed pass 1/1 )
G01 Z-0.04000
G04 P0 ( dwell for no time -- G64 should not smooth over this point )
G01 F360.00000
G01 X2.85260 Y-0.18939
G01 X2.85260 Y-0.18659
G01 X2.85305 Y-0.18301
G01 X2.85387 Y-0.17991
G01 X2.85507 Y-0.17694
G01 X2.85685 Y-0.17381
G01 X2.85879 Y-0.17125
G01 X2.86134 Y-0.16870
G01 X2.86388 Y-0.16675
G01 X2.86665 Y-0.16513
G01 X2.86960 Y-0.16387
G01 X2.87268 Y-0.16299
G01 X2.87625 Y-0.16247
G01 X2.87945 Y-0.16243
G01 X2.88303 Y-0.16287
G01 X2.88613 Y-0.16368
G01 X2.88911 Y-0.16487
G01 X2.89225 Y-0.16664
G01 X2.89511 Y-0.16883
G01 X2.89764 Y-0.17141
G01 X2.89978 Y-0.17431
G01 X2.90148 Y-0.17749
G01 X2.90273 Y-0.18087
G01 X2.90349 Y-0.18440
G01 X2.90374 Y-0.18799
G01 X2.90351 Y-0.19143
G01 X2.98457 Y-0.27249
G01 X2.99356 Y-0.27249
G01 X2.99497 Y-0.26954
G01 X2.99658 Y-0.26678
G01 X2.99866 Y-0.26384
G01 X3.00072 Y-0.26140
G01 X3.00298 Y-0.25913
G01 X3.00573 Y-0.25680
G01 X3.00868 Y-0.25474
G01 X3.01145 Y-0.25314
G01 X3.01545 Y-0.25132
G01 X3.02002 Y-0.24986
G01 X3.02474 Y-0.24896
G01 X3.02952 Y-0.24864
G01 X3.03511 Y-0.24901
G01 X3.03826 Y-0.24958
G01 X3.04097 Y-0.25028
G01 X3.04399 Y-0.25132
G01 X3.04657 Y-0.25243
G01 X3.05144 Y-0.25518
G01 X3.05403 Y-0.25705
G01 X3.05617 Y-0.25886
G01 X3.06004 Y-0.26290
G01 X3.06329 Y-0.26746
G01 X3.06467 Y-0.26990
G01 X3.06589 Y-0.27249
G01 X3.36910 Y-0.27249
G01 X3.52565 Y-0.11594
G01 X3.52718 Y-0.11460
G01 X3.52886 Y-0.11348
G01 X3.53106 Y-0.11243
G01 X3.53299 Y-0.11183
G01 X3.53459 Y-0.11153
G01 X3.53661 Y-0.11140
G01 X4.03022 Y-0.11142
G01 X4.03303 Y-0.11183
G01 X4.03534 Y-0.11258
G01 X4.03785 Y-0.11390
G01 X4.04008 Y-0.11566
G01 X4.16553 Y-0.24110
G01 X4.16735 Y-0.24328
G01 X4.16873 Y-0.24576
G01 X4.16965 Y-0.24844
G01 X4.17005 Y-0.25125
G01 X4.17007 Y-0.32433
G01 X4.16988 Y-0.32634
G01 X4.16932 Y-0.32871
G01 X4.16856 Y-0.33059
G01 X4.16735 Y-0.33270
G01 X4.16553 Y-0.33488
G01 X3.97961 Y-0.52077
G01 X3.97768 Y-0.52225
G01 X3.97517 Y-0.52357
G01 X3.97286 Y-0.52432
G01 X3.97046 Y-0.52470
G01 X3.92416 Y-0.52475
G01 X3.92236 Y-0.52711
G01 X3.92036 Y-0.52923
G01 X3.91815 Y-0.53112
G01 X3.91575 Y-0.53277
G01 X3.91319 Y-0.53415
G01 X3.91050 Y-0.53526
G01 X3.90770 Y-0.53607
G01 X3.90484 Y-0.53659
G01 X3.90149 Y-0.53681
G01 X3.85673 Y-0.53678
G01 X3.85251 Y-0.53624
G01 X3.84863 Y-0.53514
G01 X3.84476 Y-0.53338
G01 X3.84139 Y-0.53119
G01 X3.83821 Y-0.52836
G01 X3.83551 Y-0.52508
G01 X3.83344 Y-0.52162
G01 X3.83183 Y-0.51768
G01 X3.83085 Y-0.51355
G01 X3.83051 Y-0.50931
G01 X3.83080 Y-0.50529
G01 X3.83173 Y-0.50114
G01 X3.83329 Y-0.49719
G01 X3.83544 Y-0.49352
G01 X3.83798 Y-0.49039
G01 X3.84112 Y-0.48752
G01 X3.84427 Y-0.48539
G01 X3.84790 Y-0.48364
G01 X3.85174 Y-0.48243
G01 X3.85550 Y-0.48181
G01 X3.85807 Y-0.48169
G01 X3.90272 Y-0.48173
G01 X3.90606 Y-0.48209
G01 X3.90911 Y-0.48280
G01 X3.91207 Y-0.48385
G01 X3.91488 Y-0.48523
G01 X3.91752 Y-0.48692
G01 X3.91995 Y-0.48889
G01 X3.92215 Y-0.49114
G01 X3.92416 Y-0.49375
G01 X3.96282 Y-0.49375
G01 X4.13907 Y-0.31750
G01 X4.13907 Y-0.25848
G01 X4.02299 Y-0.14240
G01 X3.54303 Y-0.14240
G01 X3.38648 Y-0.29895
G01 X3.38496 Y-0.30029
G01 X3.38362 Y-0.30121
G01 X3.38070 Y-0.30260
G01 X3.37795 Y-0.30330
G01 X3.37552 Y-0.30349
G01 X3.06589 Y-0.30349
G01 X3.06350 Y-0.30818
G01 X3.06029 Y-0.31277
G01 X3.05647 Y-0.31686
G01 X3.05210 Y-0.32036
G01 X3.04728 Y-0.32321
G01 X3.04211 Y-0.32534
G01 X3.03669 Y-0.32672
G01 X3.03112 Y-0.32732
G01 X3.02832 Y-0.32732
G01 X3.02513 Y-0.32707
G01 X3.02197 Y-0.32657
G01 X3.01925 Y-0.32592
G01 X3.01658 Y-0.32508
G01 X3.01361 Y-0.32389
G01 X3.00868 Y-0.32124
G01 X3.00605 Y-0.31942
G01 X3.00387 Y-0.31766
G01 X3.00183 Y-0.31575
G01 X2.99967 Y-0.31339
G01 X2.99794 Y-0.31119
G01 X2.99616 Y-0.30853
G01 X2.99478 Y-0.30609
G01 X2.99356 Y-0.30349
G01 X2.97815 Y-0.30349
G01 X2.97613 Y-0.30336
G01 X2.97414 Y-0.30296
G01 X2.97222 Y-0.30231
G01 X2.97040 Y-0.30142
G01 X2.96871 Y-0.30029
G01 X2.96719 Y-0.29895
G01 X2.88159 Y-0.21335
G01 X2.87865 Y-0.21358
G01 X2.87585 Y-0.21348
G01 X2.87268 Y-0.21299
G01 X2.86997 Y-0.21224
G01 X2.86737 Y-0.21120
G01 X2.86489 Y-0.20988
G01 X2.86226 Y-0.20805
G01 X2.86016 Y-0.20619
G01 X2.85853 Y-0.20442
G01 X2.85685 Y-0.20218
G01 X2.85543 Y-0.19976
G01 X2.85427 Y-0.19720
G01 X2.85351 Y-0.19492
G01 X2.85290 Y-0.19218
G01 X2.85260 Y-0.18939
G04 P0 ( dwell for no time -- G64 should not smooth over this point )
G00 Z0.08000 ( retract )

G00 X3.49232 Y-0.63779 ( rapid move to begin. )
G01 F180.00000
( Mill infeed pass 1/1 )
G01 Z-0.04000
G04 P0 ( dwell for no time -- G64 should not smooth over this point )
G01 F360.00000
G01 X3.49232 Y-0.63779
G01 X3.49256 Y-0.63380
G01 X3.49322 Y-0.62985
G01 X3.49417 Y-0.62638
G01 X3.49562 Y-0.62265
G01 X3.49725 Y-0.61944
G01 X3.49942 Y-0.61607
G01 X3.50167 Y-0.61326
G01 X3.50447 Y-0.61040
G01 X3.50756 Y-0.60786
G01 X3.51056 Y-0.60587
G01 X3.51374 Y-0.60418
G01 X3.51745 Y-0.60266
G01 X3.52090 Y-0.60165
G01 X3.52483 Y-0.60091
G01 X3.52842 Y-0.60061
G01 X3.53242 Y-0.60069
G01 X3.53679 Y-0.60126
G01 X3.54067 Y-0.60223
G01 X3.54480 Y-0.60376
G01 X3.54871 Y-0.60577
G01 X3.55237 Y-0.60822
G01 X3.55571 Y-0.61109
G01 X3.55869 Y-0.61433
G01 X3.56105 Y-0.61756
G01 X3.56323 Y-0.62138
G01 X3.56482 Y-0.62505
G01 X3.56609 Y-0.62927
G01 X3.56687 Y-0.63360
G01 X3.56713 Y-0.63799
G01 X3.56691 Y-0.64199
G01 X3.56627 Y-0.64594
G01 X3.56485 Y-0.65084
G01 X3.56499 Y-0.65098
G01 X3.83546 Y-0.65098
G01 X3.83723 Y-0.64870
G01 X3.83908 Y-0.64676
G01 X3.84112 Y-0.64500
G01 X3.84332 Y-0.64345
G01 X3.84565 Y-0.64213
G01 X3.84811 Y-0.64104
G01 X3.85066 Y-0.64019
G01 X3.85328 Y-0.63959
G01 X3.85796 Y-0.63917
G01 X3.90272 Y-0.63921
G01 X3.90540 Y-0.63947
G01 X3.90803 Y-0.63999
G01 X3.91060 Y-0.64076
G01 X3.91329 Y-0.64188
G01 X3.91566 Y-0.64316
G01 X3.91806 Y-0.64480
G01 X3.92012 Y-0.64653
G01 X3.92200 Y-0.64845
G01 X3.92368 Y-0.65054
G01 X3.92526 Y-0.65298
G01 X3.92649 Y-0.65538
G01 X3.92747 Y-0.65788
G01 X3.92821 Y-0.66046
G01 X3.92870 Y-0.66310
G01 X3.92892 Y-0.66578
G01 X3.92887 Y-0.66869
G01 X3.92858 Y-0.67114
G01 X3.92808 Y-0.67355
G01 X3.92736 Y-0.67591
G01 X3.92635 Y-0.67839
G01 X3.92521 Y-0.68058
G01 X3.92388 Y-0.68265
G01 X3.92222 Y-0.68476
G01 X3.92053 Y-0.68655
G01 X3.91868 Y-0.68818
G01 X3.91669 Y-0.68964
G01 X3.91459 Y-0.69092
G01 X3.91217 Y-0.69209
G01 X3.90986 Y-0.69295
G01 X3.90727 Y-0.69365
G01 X3.90484 Y-0.69407
G01 X3.90239 Y-0.69427
G01 X3.85785 Y-0.69429
G01 X3.85339 Y-0.69389
G01 X3.85055 Y-0.69325
G01 X3.84800 Y-0.69239
G01 X3.84555 Y-0.69128
G01 X3.84322 Y-0.68995
G01 X3.84103 Y-0.68839
G01 X3.83900 Y-0.68663
G01 X3.83716 Y-0.68468
G01 X3.83546 Y-0.68248
G01 X3.55727 Y-0.68244
G01 X3.55529 Y-0.68216
G01 X3.55337 Y-0.68164
G01 X3.55189 Y-0.68104
G01 X3.55013 Y-0.68010
G01 X3.54790 Y-0.67842
G01 X3.54257 Y-0.67312
G01 X3.53835 Y-0.67438
G01 X3.53402 Y-0.67515
G01 X3.52962 Y-0.67539
G01 X3.52523 Y-0.67512
G01 X3.52090 Y-0.67434
G01 X3.51669 Y-0.67305
G01 X3.51231 Y-0.67109
G01 X3.50854 Y-0.66882
G01 X3.50477 Y-0.66585
G01 X3.50167 Y-0.66272
G01 X3.49896 Y-0.65926
G01 X3.49649 Y-0.65514
G01 X3.49470 Y-0.65112
G01 X3.49340 Y-0.64691
G01 X3.49261 Y-0.64258
G01 X3.49232 Y-0.63779
G04 P0 ( dwell for no time -- G64 should not smooth over this point )
G00 Z0.08000 ( retract )

G00 X3.77951 Y-0.37930 ( rapid move to begin. )
G01 F180.00000
( Mill infeed pass 1/1 )
G01 Z-0.04000
G04 P0 ( dwell for no time -- G64 should not smooth over this point )
G01 F360.00000
G01 X3.77951 Y-0.37930
G01 X3.77953 Y-0.58430
G01 X3.77985 Y-0.58671
G01 X3.78054 Y-0.58904
G01 X3.78159 Y-0.59124
G01 X3.78296 Y-0.59324
G01 X3.78976 Y-0.60004
G01 X3.79176 Y-0.60141
G01 X3.79434 Y-0.60260
G01 X3.79669 Y-0.60323
G01 X3.79911 Y-0.60349
G01 X3.83528 Y-0.60349
G01 X3.83716 Y-0.60594
G01 X3.83917 Y-0.60804
G01 X3.84139 Y-0.60993
G01 X3.84379 Y-0.61156
G01 X3.84636 Y-0.61294
G01 X3.84906 Y-0.61403
G01 X3.85185 Y-0.61484
G01 X3.85472 Y-0.61535
G01 X3.85807 Y-0.61555
G01 X3.90239 Y-0.61553
G01 X3.90617 Y-0.61513
G01 X3.91007 Y-0.61414
G01 X3.91379 Y-0.61260
G01 X3.91725 Y-0.61052
G01 X3.92036 Y-0.60797
G01 X3.92293 Y-0.60516
G01 X3.92521 Y-0.60184
G01 X3.92697 Y-0.59821
G01 X3.92797 Y-0.59524
G01 X3.92858 Y-0.59240
G01 X3.92890 Y-0.58950
G01 X3.92890 Y-0.58659
G01 X3.92860 Y-0.58370
G01 X3.92794 Y-0.58063
G01 X3.92701 Y-0.57787
G01 X3.92580 Y-0.57523
G01 X3.92419 Y-0.57254
G01 X3.92244 Y-0.57022
G01 X3.92044 Y-0.56809
G01 X3.91806 Y-0.56606
G01 X3.91546 Y-0.56430
G01 X3.91289 Y-0.56295
G01 X3.91018 Y-0.56188
G01 X3.90738 Y-0.56109
G01 X3.90451 Y-0.56061
G01 X3.90160 Y-0.56043
G01 X3.85796 Y-0.56043
G01 X3.85483 Y-0.56062
G01 X3.85196 Y-0.56112
G01 X3.84916 Y-0.56191
G01 X3.84626 Y-0.56309
G01 X3.84370 Y-0.56448
G01 X3.84130 Y-0.56613
G01 X3.83908 Y-0.56802
G01 X3.83708 Y-0.57013
G01 X3.83528 Y-0.57249
G01 X3.81051 Y-0.57249
G01 X3.81051 Y-0.38572
G01 X3.94177 Y-0.25434
G01 X3.94315 Y-0.25233
G01 X3.94404 Y-0.25051
G01 X3.94480 Y-0.24820
G01 X3.94518 Y-0.24580
G01 X3.94522 Y-0.21358
G01 X3.95531 Y-0.21358
G01 X3.95531 Y-0.20349
G01 X3.97330 Y-0.20349
G01 X4.04319 Y-0.27338
G01 X4.04207 Y-0.27656
G01 X4.04118 Y-0.28005
G01 X4.04062 Y-0.28360
G01 X4.04039 Y-0.28679
G01 X4.04042 Y-0.28999
G01 X4.04077 Y-0.29357
G01 X4.04144 Y-0.29711
G01 X4.04244 Y-0.30057
G01 X4.04374 Y-0.30392
G01 X4.04516 Y-0.30679
G01 X4.04680 Y-0.30954
G01 X4.04891 Y-0.31246
G01 X4.05127 Y-0.31517
G01 X4.05387 Y-0.31766
G01 X4.05637 Y-0.31966
G01 X4.05936 Y-0.32166
G01 X4.06325 Y-0.32373
G01 X4.06734 Y-0.32534
G01 X4.07158 Y-0.32649
G01 X4.07593 Y-0.32716
G01 X4.08032 Y-0.32734
G01 X4.08471 Y-0.32702
G01 X4.08865 Y-0.32632
G01 X4.09287 Y-0.32508
G01 X4.09693 Y-0.32338
G01 X4.10077 Y-0.32124
G01 X4.10435 Y-0.31869
G01 X4.10762 Y-0.31575
G01 X4.11054 Y-0.31246
G01 X4.11287 Y-0.30920
G01 X4.11503 Y-0.30537
G01 X4.11675 Y-0.30133
G01 X4.11771 Y-0.29827
G01 X4.11834 Y-0.29555
G01 X4.11883 Y-0.29238
G01 X4.11904 Y-0.28959
G01 X4.11906 Y-0.28679
G01 X4.11883 Y-0.28360
G01 X4.11834 Y-0.28044
G01 X4.11771 Y-0.27771
G01 X4.11675 Y-0.27466
G01 X4.11570 Y-0.27206
G01 X4.11429 Y-0.26919
G01 X4.11127 Y-0.26448
G01 X4.10926 Y-0.26199
G01 X4.10527 Y-0.25806
G01 X4.10111 Y-0.25496
G01 X4.09657 Y-0.25243
G01 X4.09173 Y-0.25052
G01 X4.08629 Y-0.24919
G01 X4.08112 Y-0.24867
G01 X4.07553 Y-0.24887
G01 X4.07041 Y-0.24976
G01 X4.06511 Y-0.25146
G01 X3.98948 Y-0.17595
G01 X3.98747 Y-0.17457
G01 X3.98566 Y-0.17367
G01 X3.98334 Y-0.17292
G01 X3.98134 Y-0.17258
G01 X3.95531 Y-0.17249
G01 X3.95531 Y-0.16240
G01 X3.90413 Y-0.16240
G01 X3.90413 Y-0.21358
G01 X3.91422 Y-0.21358
G01 X3.91422 Y-0.23816
G01 X3.78405 Y-0.36833
G01 X3.78297 Y-0.36954
G01 X3.78180 Y-0.37120
G01 X3.78040 Y-0.37412
G01 X3.77977 Y-0.37647
G01 X3.77951 Y-0.37930
( Piece #3, position [0;1] )

G04 P0 ( dwell for no time -- G64 should not smooth over this point )
G00 Z0.08000 ( retract )

G00 X2.53237 Y0.81840 ( rapid move to begin. )
G01 F180.00000
( Mill infeed pass 1/1 )
G01 Z-0.04000
G04 P0 ( dwell for no time -- G64 should not smooth over this point )
G01 F360.00000
G01 X2.53237 Y0.81840
G01 X2.53251 Y0.81638
G01 X2.53301 Y0.81400
G01 X2.53355 Y0.81247
G01 X2.53445 Y0.81065
G01 X2.53558 Y0.80897
G01 X2.53691 Y0.80744
G01 X2.71809 Y0.62626
G01 X2.71961 Y0.62493
G01 X2.72165 Y0.62360
G01 X2.72426 Y0.62248
G01 X2.72663 Y0.62192
G01 X2.72905 Y0.62172
G01 X3.20291 Y0.62181
G01 X3.20531 Y0.62225
G01 X3.20760 Y0.62306
G01 X3.20974 Y0.62423
G01 X3.21167 Y0.62571
G01 X3.24068 Y0.65469
G01 X3.24272 Y0.65721
G01 X3.24371 Y0.65898
G01 X3.24447 Y0.66086
G01 X3.24496 Y0.66283
G01 X3.24520 Y0.66484
G01 X3.24522 Y0.69665
G01 X3.26713 Y0.69665
G01 X3.26713 Y0.72052
G01 X3.39232 Y0.72052
G01 X3.39232 Y0.69665
G01 X3.46713 Y0.69665
G01 X3.46713 Y0.77539
G01 X3.39232 Y0.77539
G01 X3.39232 Y0.75152
G01 X3.26713 Y0.75152
G01 X3.26713 Y0.77539
G01 X3.19232 Y0.77539
G01 X3.19232 Y0.69665
G01 X3.21422 Y0.69665
G01 X3.21422 Y0.67207
G01 X3.19487 Y0.65272
G01 X2.73547 Y0.65272
G01 X2.56337 Y0.82482
G01 X2.56337 Y1.21889
G01 X2.59686 Y1.25237
G01 X2.95267 Y1.25237
G01 X2.95470 Y1.25251
G01 X2.95669 Y1.25290
G01 X2.95861 Y1.25355
G01 X2.96042 Y1.25445
G01 X2.96211 Y1.25558
G01 X2.96363 Y1.25691
G01 X3.10124 Y1.39452
G01 X3.12582 Y1.39452
G01 X3.12582 Y1.34112
G01 X3.26362 Y1.34112
G01 X3.26362 Y1.45700
G01 X3.31082 Y1.50420
G01 X3.31082 Y1.45922
G01 X3.44862 Y1.45922
G01 X3.44862 Y1.59702
G01 X3.31082 Y1.59702
G01 X3.31082 Y1.54349
G01 X3.30842 Y1.54299
G01 X3.30615 Y1.54211
G01 X3.30404 Y1.54090
G01 X3.30215 Y1.53937
G01 X3.24170 Y1.47892
G01 X3.12582 Y1.47892
G01 X3.12582 Y1.42552
G01 X3.09361 Y1.42548
G01 X3.09121 Y1.42510
G01 X3.08889 Y1.42434
G01 X3.08673 Y1.42324
G01 X3.08507 Y1.42207
G01 X2.94625 Y1.28337
G01 X2.59044 Y1.28337
G01 X2.58841 Y1.28324
G01 X2.58603 Y1.28274
G01 X2.58413 Y1.28203
G01 X2.58199 Y1.28087
G01 X2.58006 Y1.27939
G01 X2.53691 Y1.23627
G01 X2.53558 Y1.23475
G01 X2.53425 Y1.23271
G01 X2.53313 Y1.23010
G01 X2.53256 Y1.22774
G01 X2.53237 Y1.22531
G01 X2.53237 Y0.81840
G04 P0 ( dwell for no time -- G64 should not smooth over this point )
G00 Z0.08000 ( retract )

G00 X2.73052 Y0.70812 ( rapid move to begin. )
G01 F180.00000
( Mill infeed pass 1/1 )
G01 Z-0.04000
G04 P0 ( dwell for no time -- G64 should not smooth over this point )
G01 F360.00000
G01 X2.73052 Y0.70812
G01 X2.73074 Y0.71080
G01 X2.73121 Y0.71345
G01 X2.73194 Y0.71603
G01 X2.73291 Y0.71854
G01 X2.73413 Y0.72093
G01 X2.73557 Y0.72320
G01 X2.73738 Y0.72548
G01 X2.73925 Y0.72741
G01 X2.74148 Y0.72929
G01 X2.74370 Y0.73080
G01 X2.74606 Y0.73209
G01 X2.74874 Y0.73321
G01 X2.75131 Y0.73400
G01 X2.75394 Y0.73453
G01 X2.75662 Y0.73480
G01 X2.80160 Y0.73484
G01 X2.80606 Y0.73444
G01 X2.80868 Y0.73386
G01 X2.81123 Y0.73302
G01 X2.81389 Y0.73184
G01 X2.81623 Y0.73050
G01 X2.81842 Y0.72894
G01 X2.82044 Y0.72718
G01 X2.82229 Y0.72523
G01 X2.82399 Y0.72303
G01 X3.04820 Y0.72303
G01 X3.09246 Y0.73919
G01 X3.09290 Y0.74260
G01 X3.09360 Y0.74572
G01 X3.09456 Y0.74877
G01 X3.09595 Y0.75210
G01 X3.09745 Y0.75493
G01 X3.09919 Y0.75762
G01 X3.10114 Y0.76015
G01 X3.10360 Y0.76279
G01 X3.10629 Y0.76518
G01 X3.10887 Y0.76707
G01 X3.11160 Y0.76874
G01 X3.11447 Y0.77017
G01 X3.11745 Y0.77135
G01 X3.12051 Y0.77227
G01 X3.12365 Y0.77293
G01 X3.12722 Y0.77334
G01 X3.13122 Y0.77340
G01 X3.13481 Y0.77308
G01 X3.13835 Y0.77242
G01 X3.14219 Y0.77129
G01 X3.14589 Y0.76975
G01 X3.14906 Y0.76804
G01 X3.15237 Y0.76579
G01 X3.15542 Y0.76320
G01 X3.15817 Y0.76030
G01 X3.16038 Y0.75745
G01 X3.16230 Y0.75441
G01 X3.16407 Y0.75082
G01 X3.16534 Y0.74745
G01 X3.16635 Y0.74358
G01 X3.16695 Y0.73962
G01 X3.16713 Y0.73602
G01 X3.16702 Y0.73322
G01 X3.16671 Y0.73044
G01 X3.16618 Y0.72769
G01 X3.16546 Y0.72498
G01 X3.16453 Y0.72234
G01 X3.16341 Y0.71977
G01 X3.16210 Y0.71729
G01 X3.16061 Y0.71492
G01 X3.15894 Y0.71267
G01 X3.15711 Y0.71055
G01 X3.15513 Y0.70857
G01 X3.15300 Y0.70675
G01 X3.15074 Y0.70509
G01 X3.14837 Y0.70360
G01 X3.14589 Y0.70230
G01 X3.14332 Y0.70118
G01 X3.13835 Y0.69963
G01 X3.13560 Y0.69909
G01 X3.13282 Y0.69875
G01 X3.13002 Y0.69862
G01 X3.12722 Y0.69871
G01 X3.12207 Y0.69941
G01 X3.11707 Y0.70083
G01 X3.11447 Y0.70187
G01 X3.11196 Y0.70311
G01 X3.10954 Y0.70454
G01 X3.10724 Y0.70613
G01 X3.10326 Y0.70960
G01 X3.05638 Y0.69249
G01 X3.05450 Y0.69193
G01 X3.05216 Y0.69158
G01 X2.82399 Y0.69153
G01 X2.82222 Y0.68925
G01 X2.82036 Y0.68731
G01 X2.81833 Y0.68555
G01 X2.81613 Y0.68401
G01 X2.81379 Y0.68268
G01 X2.81134 Y0.68159
G01 X2.80879 Y0.68074
G01 X2.80617 Y0.68014
G01 X2.80149 Y0.67973
G01 X2.75695 Y0.67975
G01 X2.75450 Y0.67996
G01 X2.75207 Y0.68039
G01 X2.74969 Y0.68103
G01 X2.74718 Y0.68197
G01 X2.74496 Y0.68304
G01 X2.74285 Y0.68431
G01 X2.74086 Y0.68576
G01 X2.73884 Y0.68754
G01 X2.73701 Y0.68951
G01 X2.73551 Y0.69146
G01 X2.73418 Y0.69354
G01 X2.73305 Y0.69572
G01 X2.73212 Y0.69800
G01 X2.73140 Y0.70036
G01 X2.73085 Y0.70299
G01 X2.73057 Y0.70544
G01 X2.73052 Y0.70812
G04 P0 ( dwell for no time -- G64 should not smooth over this point )
G00 Z0.08000 ( retract )

G00 X2.73054 Y0.86605 ( rapid move to begin. )
G01 F180.00000
( Mill infeed pass 1/1 )
G01 Z-0.04000
G04 P0 ( dwell for no time -- G64 should not smooth over this point )
G01 F360.00000
G01 X2.73054 Y0.86605
G01 X2.73087 Y0.86917
G01 X2.73154 Y0.87223
G01 X2.73256 Y0.87519
G01 X2.73391 Y0.87802
G01 X2.73557 Y0.88068
G01 X2.73753 Y0.88313
G01 X2.73974 Y0.88535
G01 X2.74220 Y0.88729
G01 X2.74486 Y0.88895
G01 X2.74790 Y0.89038
G01 X2.75087 Y0.89137
G01 X2.75394 Y0.89201
G01 X2.75706 Y0.89230
G01 X2.80160 Y0.89232
G01 X2.80606 Y0.89192
G01 X2.80890 Y0.89128
G01 X2.81144 Y0.89042
G01 X2.81389 Y0.88932
G01 X2.81623 Y0.88798
G01 X2.81842 Y0.88642
G01 X2.82044 Y0.88466
G01 X2.82229 Y0.88271
G01 X2.82399 Y0.88051
G01 X3.41600 Y0.88051
G01 X3.66397 Y1.12848
G01 X3.66406 Y1.18764
G01 X3.66440 Y1.18964
G01 X3.66485 Y1.19120
G01 X3.66622 Y1.19413
G01 X3.66817 Y1.19672
G01 X3.67060 Y1.19886
G01 X3.67232 Y1.19993
G01 X3.67455 Y1.20090
G01 X3.67690 Y1.20152
G01 X3.67932 Y1.20177
G01 X3.81113 Y1.20177
G01 X3.81303 Y1.20394
G01 X3.81541 Y1.20608
G01 X3.81804 Y1.20791
G01 X3.82052 Y1.20923
G01 X3.82351 Y1.21040
G01 X3.82622 Y1.21111
G01 X3.82940 Y1.21154
G01 X3.83220 Y1.21160
G01 X3.83618 Y1.21114
G01 X3.84004 Y1.21008
G01 X3.84369 Y1.20842
G01 X3.84703 Y1.20621
G01 X3.84999 Y1.20351
G01 X3.85249 Y1.20038
G01 X3.85447 Y1.19689
G01 X3.85588 Y1.19315
G01 X3.85651 Y1.19041
G01 X3.85681 Y1.18803
G01 X3.85688 Y1.18522
G01 X3.85664 Y1.18243
G01 X3.85609 Y1.17968
G01 X3.85525 Y1.17700
G01 X3.85411 Y1.17443
G01 X3.85271 Y1.17201
G01 X3.85104 Y1.16975
G01 X3.84914 Y1.16768
G01 X3.84734 Y1.16609
G01 X3.84507 Y1.16445
G01 X3.84262 Y1.16307
G01 X3.84004 Y1.16197
G01 X3.83736 Y1.16116
G01 X3.83499 Y1.16070
G01 X3.83180 Y1.16044
G01 X3.82820 Y1.16062
G01 X3.82505 Y1.16121
G01 X3.82162 Y1.16233
G01 X3.81874 Y1.16373
G01 X3.81573 Y1.16572
G01 X3.81331 Y1.16782
G01 X3.81113 Y1.17027
G01 X3.69547 Y1.17027
G01 X3.69547 Y1.12208
G01 X3.70009 Y1.11970
G01 X3.70435 Y1.11672
G01 X3.70818 Y1.11320
G01 X3.71127 Y1.10954
G01 X3.71410 Y1.10518
G01 X3.71617 Y1.10085
G01 X3.71771 Y1.09631
G01 X3.71873 Y1.09121
G01 X3.71906 Y1.08722
G01 X3.71894 Y1.08283
G01 X3.71842 Y1.07886
G01 X3.71749 Y1.07497
G01 X3.71617 Y1.07120
G01 X3.71429 Y1.06722
G01 X3.71220 Y1.06381
G01 X3.70978 Y1.06063
G01 X3.70647 Y1.05716
G01 X3.70308 Y1.05435
G01 X3.69905 Y1.05175
G01 X3.69474 Y1.04965
G01 X3.69058 Y1.04820
G01 X3.68590 Y1.04716
G01 X3.68112 Y1.04670
G01 X3.67633 Y1.04682
G01 X3.67197 Y1.04744
G01 X3.66734 Y1.04867
G01 X3.66288 Y1.05046
G01 X3.65868 Y1.05277
G01 X3.65510 Y1.05533
G01 X3.65155 Y1.05856
G01 X3.64841 Y1.06219
G01 X3.64592 Y1.06588
G01 X3.43366 Y0.85363
G01 X3.43212 Y0.85227
G01 X3.43076 Y0.85134
G01 X3.42893 Y0.85038
G01 X3.42700 Y0.84966
G01 X3.42499 Y0.84921
G01 X3.42253 Y0.84901
G01 X2.82399 Y0.84901
G01 X2.82222 Y0.84673
G01 X2.82036 Y0.84479
G01 X2.81833 Y0.84303
G01 X2.81613 Y0.84149
G01 X2.81379 Y0.84016
G01 X2.81134 Y0.83907
G01 X2.80879 Y0.83822
G01 X2.80617 Y0.83762
G01 X2.80171 Y0.83721
G01 X2.75785 Y0.83721
G01 X2.75361 Y0.83757
G01 X2.74927 Y0.83865
G01 X2.74535 Y0.84031
G01 X2.74157 Y0.84269
G01 X2.73837 Y0.84550
G01 X2.73551 Y0.84894
G01 X2.73334 Y0.85260
G01 X2.73170 Y0.85676
G01 X2.73096 Y0.85981
G01 X2.73057 Y0.86292
G01 X2.73054 Y0.86605
G04 P0 ( dwell for no time -- G64 should not smooth over this point )
G00 Z0.08000 ( retract )

G00 X2.59038 Y1.08562 ( rapid move to begin. )
G01 F180.00000
( Mill infeed pass 1/1 )
G01 Z-0.04000
G04 P0 ( dwell for no time -- G64 should not smooth over this point )
G01 F360.00000
G01 X2.59038 Y1.08562
G01 X2.59062 Y1.08163
G01 X2.59118 Y1.07808
G01 X2.59219 Y1.07421
G01 X2.59343 Y1.07083
G01 X2.59516 Y1.06722
G01 X2.59702 Y1.06414
G01 X2.59941 Y1.06094
G01 X2.60183 Y1.05827
G01 X2.60448 Y1.05584
G01 X2.60768 Y1.05343
G01 X2.61075 Y1.05155
G01 X2.61422 Y1.04986
G01 X2.61431 Y0.85419
G01 X2.61475 Y0.85180
G01 X2.61556 Y0.84951
G01 X2.61672 Y0.84737
G01 X2.61848 Y0.84514
G01 X2.68855 Y0.77506
G01 X2.69040 Y0.77348
G01 X2.69247 Y0.77221
G01 X2.69550 Y0.77105
G01 X2.69870 Y0.77055
G01 X2.73528 Y0.77052
G01 X2.73716 Y0.76808
G01 X2.73917 Y0.76597
G01 X2.74139 Y0.76409
G01 X2.74379 Y0.76245
G01 X2.74636 Y0.76108
G01 X2.74906 Y0.75998
G01 X2.75185 Y0.75918
G01 X2.75472 Y0.75867
G01 X2.75807 Y0.75846
G01 X2.80149 Y0.75847
G01 X2.80440 Y0.75863
G01 X2.80857 Y0.75942
G01 X2.81258 Y0.76084
G01 X2.81613 Y0.76275
G01 X2.81954 Y0.76529
G01 X2.82251 Y0.76833
G01 X2.82498 Y0.77179
G01 X2.82689 Y0.77559
G01 X2.82819 Y0.77964
G01 X2.82885 Y0.78384
G01 X2.82886 Y0.78809
G01 X2.82821 Y0.79230
G01 X2.82693 Y0.79635
G01 X2.82504 Y0.80016
G01 X2.82272 Y0.80346
G01 X2.81979 Y0.80653
G01 X2.81641 Y0.80912
G01 X2.81349 Y0.81078
G01 X2.81018 Y0.81214
G01 X2.80694 Y0.81302
G01 X2.80339 Y0.81351
G01 X2.75617 Y0.81352
G01 X2.75306 Y0.81312
G01 X2.75001 Y0.81238
G01 X2.74707 Y0.81129
G01 X2.74427 Y0.80988
G01 X2.74165 Y0.80816
G01 X2.73925 Y0.80615
G01 X2.73708 Y0.80389
G01 X2.73528 Y0.80152
G01 X2.70593 Y0.80152
G01 X2.64522 Y0.86223
G01 X2.64522 Y1.04986
G01 X2.64870 Y1.05155
G01 X2.65177 Y1.05343
G01 X2.65497 Y1.05584
G01 X2.65762 Y1.05827
G01 X2.66004 Y1.06094
G01 X2.66243 Y1.06414
G01 X2.66429 Y1.06722
G01 X2.66602 Y1.07083
G01 X2.66726 Y1.07421
G01 X2.66826 Y1.07808
G01 X2.66883 Y1.08163
G01 X2.66907 Y1.08562
G01 X2.66894 Y1.08922
G01 X2.66842 Y1.09319
G01 X2.66749 Y1.09708
G01 X2.66626 Y1.10064
G01 X2.73614 Y1.17052
G01 X2.75413 Y1.17052
G01 X2.75413 Y1.16043
G01 X2.80531 Y1.16043
G01 X2.80531 Y1.21161
G01 X2.75413 Y1.21161
G01 X2.75413 Y1.20152
G01 X2.72810 Y1.20144
G01 X2.72611 Y1.20110
G01 X2.72379 Y1.20034
G01 X2.72197 Y1.19945
G01 X2.71997 Y1.19807
G01 X2.64434 Y1.12256
G01 X2.64058 Y1.12385
G01 X2.63669 Y1.12475
G01 X2.63272 Y1.12526
G01 X2.62912 Y1.12537
G01 X2.62513 Y1.12511
G01 X2.62119 Y1.12444
G01 X2.61734 Y1.12337
G01 X2.61398 Y1.12209
G01 X2.61040 Y1.12030
G01 X2.60702 Y1.11816
G01 X2.60418 Y1.11595
G01 X2.60127 Y1.11320
G01 X2.59866 Y1.11018
G01 X2.59658 Y1.10724
G01 X2.59478 Y1.10412
G01 X2.59313 Y1.10048
G01 X2.59196 Y1.09708
G01 X2.59103 Y1.09319
G01 X2.59050 Y1.08922
G01 X2.59038 Y1.08562
G04 P0 ( dwell for no time -- G64 should not smooth over this point )
G00 Z0.08000 ( retract )

G00 X2.59037 Y1.48602 ( rapid move to begin. )
G01 F180.00000
( Mill infeed pass 1/1 )
G01 Z-0.04000
G04 P0 ( dwell for no time -- G64 should not smooth over this point )
G01 F360.00000
G01 X2.59037 Y1.48602
G01 X2.59054 Y1.48243
G01 X2.59103 Y1.47886
G01 X2.59185 Y1.47536
G01 X2.59298 Y1.47194
G01 X2.59442 Y1.46864
G01 X2.59637 Y1.46515
G01 X2.59841 Y1.46219
G01 X2.60072 Y1.45943
G01 X2.60328 Y1.45689
G01 X2.60605 Y1.45459
G01 X2.60902 Y1.45256
G01 X2.61252 Y1.45063
G01 X2.61583 Y1.44921
G01 X2.61925 Y1.44809
G01 X2.62276 Y1.44730
G01 X2.62633 Y1.44682
G01 X2.62952 Y1.44667
G01 X2.63272 Y1.44679
G01 X2.63590 Y1.44716
G01 X2.63865 Y1.44770
G01 X2.64173 Y1.44855
G01 X2.64437 Y1.44950
G01 X2.64693 Y1.45063
G01 X2.64974 Y1.45215
G01 X2.65243 Y1.45389
G01 X2.65497 Y1.45584
G01 X2.65734 Y1.45799
G01 X2.65926 Y1.46002
G01 X2.66127 Y1.46251
G01 X2.66287 Y1.46481
G01 X2.66448 Y1.46757
G01 X2.66578 Y1.47027
G01 X2.99366 Y1.47027
G01 X2.99497 Y1.46757
G01 X2.99658 Y1.46481
G01 X2.99841 Y1.46219
G01 X3.00045 Y1.45972
G01 X3.00269 Y1.45743
G01 X3.00510 Y1.45533
G01 X3.00768 Y1.45343
G01 X3.01040 Y1.45175
G01 X3.01325 Y1.45029
G01 X3.01620 Y1.44907
G01 X3.01925 Y1.44809
G01 X3.02237 Y1.44737
G01 X3.02553 Y1.44690
G01 X3.02872 Y1.44669
G01 X3.03192 Y1.44674
G01 X3.03511 Y1.44704
G01 X3.03942 Y1.44789
G01 X3.04399 Y1.44935
G01 X3.04800 Y1.45117
G01 X3.05177 Y1.45343
G01 X3.05527 Y1.45610
G01 X3.05845 Y1.45913
G01 X3.06127 Y1.46251
G01 X3.06370 Y1.46618
G01 X3.06570 Y1.47009
G01 X3.06726 Y1.47421
G01 X3.06834 Y1.47847
G01 X3.06897 Y1.48323
G01 X3.06904 Y1.48762
G01 X3.06862 Y1.49200
G01 X3.06771 Y1.49631
G01 X3.06626 Y1.50064
G01 X3.18264 Y1.61702
G01 X3.52680 Y1.61702
G01 X3.64319 Y1.50064
G01 X3.64185 Y1.49669
G01 X3.64089 Y1.49240
G01 X3.64042 Y1.48802
G01 X3.64043 Y1.48398
G01 X3.39411 Y1.36082
G01 X3.31082 Y1.36082
G01 X3.31082 Y1.22302
G01 X3.44862 Y1.22302
G01 X3.44862 Y1.35286
G01 X3.65451 Y1.45581
G01 X3.65834 Y1.45299
G01 X3.66216 Y1.45081
G01 X3.66658 Y1.44893
G01 X3.67080 Y1.44770
G01 X3.67553 Y1.44690
G01 X3.67992 Y1.44667
G01 X3.68431 Y1.44694
G01 X3.68865 Y1.44770
G01 X3.69287 Y1.44893
G01 X3.69728 Y1.45081
G01 X3.70144 Y1.45321
G01 X3.70497 Y1.45584
G01 X3.70818 Y1.45884
G01 X3.71127 Y1.46251
G01 X3.71370 Y1.46618
G01 X3.71578 Y1.47027
G01 X4.04366 Y1.47027
G01 X4.04497 Y1.46757
G01 X4.04658 Y1.46481
G01 X4.04817 Y1.46251
G01 X4.05019 Y1.46002
G01 X4.05211 Y1.45799
G01 X4.05448 Y1.45584
G01 X4.05702 Y1.45389
G01 X4.05936 Y1.45235
G01 X4.06181 Y1.45099
G01 X4.06471 Y1.44965
G01 X4.06734 Y1.44867
G01 X4.07041 Y1.44779
G01 X4.07315 Y1.44723
G01 X4.07633 Y1.44682
G01 X4.07912 Y1.44668
G01 X4.08232 Y1.44676
G01 X4.08590 Y1.44716
G01 X4.08942 Y1.44789
G01 X4.09287 Y1.44893
G01 X4.09657 Y1.45046
G01 X4.09974 Y1.45215
G01 X4.10308 Y1.45435
G01 X4.10588 Y1.45662
G01 X4.10845 Y1.45913
G01 X4.11079 Y1.46187
G01 X4.11287 Y1.46481
G01 X4.11467 Y1.46793
G01 X4.11632 Y1.47157
G01 X4.11749 Y1.47497
G01 X4.11834 Y1.47847
G01 X4.11891 Y1.48243
G01 X4.11907 Y1.48602
G01 X4.11891 Y1.48962
G01 X4.11834 Y1.49358
G01 X4.11749 Y1.49708
G01 X4.11632 Y1.50048
G01 X4.11467 Y1.50412
G01 X4.11287 Y1.50724
G01 X4.11079 Y1.51018
G01 X4.10818 Y1.51320
G01 X4.10527 Y1.51595
G01 X4.10243 Y1.51816
G01 X4.09905 Y1.52030
G01 X4.09584 Y1.52192
G01 X4.09211 Y1.52337
G01 X4.08865 Y1.52435
G01 X4.08471 Y1.52506
G01 X4.08112 Y1.52535
G01 X4.07832 Y1.52535
G01 X4.07513 Y1.52511
G01 X4.07197 Y1.52460
G01 X4.06925 Y1.52395
G01 X4.06658 Y1.52311
G01 X4.06361 Y1.52192
G01 X4.05868 Y1.51927
G01 X4.05418 Y1.51595
G01 X4.05183 Y1.51378
G01 X4.04993 Y1.51172
G01 X4.04817 Y1.50954
G01 X4.04637 Y1.50690
G01 X4.04497 Y1.50447
G01 X4.04366 Y1.50177
G01 X3.71578 Y1.50177
G01 X3.71410 Y1.50518
G01 X3.71220 Y1.50824
G01 X3.70978 Y1.51142
G01 X3.70734 Y1.51406
G01 X3.70435 Y1.51672
G01 X3.70144 Y1.51884
G01 X3.69800 Y1.52087
G01 X3.69474 Y1.52240
G01 X3.69097 Y1.52373
G01 X3.68747 Y1.52460
G01 X3.68352 Y1.52519
G01 X3.67992 Y1.52537
G01 X3.67633 Y1.52523
G01 X3.67237 Y1.52468
G01 X3.66886 Y1.52385
G01 X3.66511 Y1.52256
G01 X3.54389 Y1.64377
G01 X3.54200 Y1.64530
G01 X3.53990 Y1.64652
G01 X3.53763 Y1.64739
G01 X3.53565 Y1.64783
G01 X3.53322 Y1.64802
G01 X3.17622 Y1.64802
G01 X3.17340 Y1.64777
G01 X3.17029 Y1.64685
G01 X3.16778 Y1.64552
G01 X3.16555 Y1.64377
G01 X3.04434 Y1.52256
G01 X3.04058 Y1.52385
G01 X3.03708 Y1.52468
G01 X3.03312 Y1.52523
G01 X3.02952 Y1.52537
G01 X3.02593 Y1.52519
G01 X3.02197 Y1.52460
G01 X3.01848 Y1.52373
G01 X3.01471 Y1.52240
G01 X3.01145 Y1.52087
G01 X3.00801 Y1.51884
G01 X3.00510 Y1.51672
G01 X3.00211 Y1.51406
G01 X2.99967 Y1.51142
G01 X2.99724 Y1.50824
G01 X2.99535 Y1.50518
G01 X2.99366 Y1.50177
G01 X2.66578 Y1.50177
G01 X2.66448 Y1.50447
G01 X2.66308 Y1.50690
G01 X2.66127 Y1.50954
G01 X2.65952 Y1.51172
G01 X2.65762 Y1.51378
G01 X2.65527 Y1.51595
G01 X2.65077 Y1.51927
G01 X2.64584 Y1.52192
G01 X2.64287 Y1.52311
G01 X2.64020 Y1.52395
G01 X2.63747 Y1.52460
G01 X2.63431 Y1.52511
G01 X2.63112 Y1.52535
G01 X2.62832 Y1.52535
G01 X2.62474 Y1.52506
G01 X2.62080 Y1.52435
G01 X2.61734 Y1.52337
G01 X2.61361 Y1.52192
G01 X2.61040 Y1.52030
G01 X2.60702 Y1.51816
G01 X2.60418 Y1.51595
G01 X2.60127 Y1.51320
G01 X2.59866 Y1.51018
G01 X2.59658 Y1.50724
G01 X2.59478 Y1.50412
G01 X2.59313 Y1.50048
G01 X2.59196 Y1.49708
G01 X2.59111 Y1.49358
G01 X2.59054 Y1.48962
G01 X2.59037 Y1.48602
G04 P0 ( dwell for no time -- G64 should not smooth over this point )
G00 Z0.08000 ( retract )

G00 X2.85260 Y1.18462 ( rapid move to begin. )
G01 F180.00000
( Mill infeed pass 1/1 )
G01 Z-0.04000
G04 P0 ( dwell for no time -- G64 should not smooth over this point )
G01 F360.00000
G01 X2.85260 Y1.18462
G01 X2.85260 Y1.18743
G01 X2.85305 Y1.19100
G01 X2.85387 Y1.19410
G01 X2.85507 Y1.19708
G01 X2.85685 Y1.20021
G01 X2.85879 Y1.20276
G01 X2.86134 Y1.20532
G01 X2.86388 Y1.20727
G01 X2.86665 Y1.20888
G01 X2.86960 Y1.21014
G01 X2.87268 Y1.21102
G01 X2.87625 Y1.21154
G01 X2.87945 Y1.21158
G01 X2.88303 Y1.21114
G01 X2.88613 Y1.21034
G01 X2.88911 Y1.20915
G01 X2.89225 Y1.20738
G01 X2.89511 Y1.20518
G01 X2.89764 Y1.20261
G01 X2.89978 Y1.19971
G01 X2.90148 Y1.19653
G01 X2.90273 Y1.19315
G01 X2.90349 Y1.18962
G01 X2.90374 Y1.18602
G01 X2.90351 Y1.18259
G01 X2.98457 Y1.10152
G01 X2.99356 Y1.10152
G01 X2.99497 Y1.10447
G01 X2.99658 Y1.10724
G01 X2.99866 Y1.11018
G01 X3.00072 Y1.11262
G01 X3.00298 Y1.11489
G01 X3.00573 Y1.11721
G01 X3.00868 Y1.11927
G01 X3.01145 Y1.12087
G01 X3.01545 Y1.12270
G01 X3.02002 Y1.12416
G01 X3.02474 Y1.12506
G01 X3.02952 Y1.12537
G01 X3.03511 Y1.12500
G01 X3.03826 Y1.12444
G01 X3.04097 Y1.12373
G01 X3.04399 Y1.12270
G01 X3.04657 Y1.12159
G01 X3.05144 Y1.11884
G01 X3.05403 Y1.11697
G01 X3.05617 Y1.11516
G01 X3.06004 Y1.11111
G01 X3.06329 Y1.10656
G01 X3.06467 Y1.10412
G01 X3.06589 Y1.10152
G01 X3.36910 Y1.10152
G01 X3.52565 Y1.25808
G01 X3.52718 Y1.25941
G01 X3.52886 Y1.26054
G01 X3.53106 Y1.26159
G01 X3.53299 Y1.26219
G01 X3.53459 Y1.26248
G01 X3.53661 Y1.26261
G01 X4.03022 Y1.26259
G01 X4.03303 Y1.26219
G01 X4.03534 Y1.26144
G01 X4.03785 Y1.26011
G01 X4.04008 Y1.25836
G01 X4.16553 Y1.13291
G01 X4.16735 Y1.13073
G01 X4.16873 Y1.12826
G01 X4.16965 Y1.12557
G01 X4.17005 Y1.12276
G01 X4.17007 Y1.04969
G01 X4.16988 Y1.04767
G01 X4.16932 Y1.04531
G01 X4.16856 Y1.04342
G01 X4.16735 Y1.04132
G01 X4.16553 Y1.03914
G01 X3.97961 Y0.85325
G01 X3.97768 Y0.85177
G01 X3.97517 Y0.85044
G01 X3.97286 Y0.84969
G01 X3.97046 Y0.84931
G01 X3.92416 Y0.84926
G01 X3.92236 Y0.84690
G01 X3.92036 Y0.84479
G01 X3.91815 Y0.84290
G01 X3.91575 Y0.84125
G01 X3.91319 Y0.83987
G01 X3.91050 Y0.83876
G01 X3.90770 Y0.83794
G01 X3.90484 Y0.83742
G01 X3.90149 Y0.83721
G01 X3.85673 Y0.83724
G01 X3.85251 Y0.83777
G01 X3.84863 Y0.83887
G01 X3.84476 Y0.84063
G01 X3.84139 Y0.84283
G01 X3.83821 Y0.84566
G01 X3.83551 Y0.84894
G01 X3.83344 Y0.85240
G01 X3.83183 Y0.85633
G01 X3.83085 Y0.86047
G01 X3.83051 Y0.86471
G01 X3.83080 Y0.86873
G01 X3.83173 Y0.87287
G01 X3.83329 Y0.87683
G01 X3.83544 Y0.88050
G01 X3.83798 Y0.88363
G01 X3.84112 Y0.88649
G01 X3.84427 Y0.88862
G01 X3.84790 Y0.89038
G01 X3.85174 Y0.89159
G01 X3.85550 Y0.89220
G01 X3.85807 Y0.89232
G01 X3.90272 Y0.89229
G01 X3.90606 Y0.89192
G01 X3.90911 Y0.89122
G01 X3.91207 Y0.89017
G01 X3.91488 Y0.88879
G01 X3.91752 Y0.88710
G01 X3.91995 Y0.88512
G01 X3.92215 Y0.88288
G01 X3.92416 Y0.88026
G01 X3.96282 Y0.88026
G01 X4.13907 Y1.05652
G01 X4.13907 Y1.11553
G01 X4.02299 Y1.23161
G01 X3.54303 Y1.23161
G01 X3.38648 Y1.07506
G01 X3.38496 Y1.07373
G01 X3.38362 Y1.07281
G01 X3.38070 Y1.07141
G01 X3.37795 Y1.07071
G01 X3.37552 Y1.07052
G01 X3.06589 Y1.07052
G01 X3.06350 Y1.06583
G01 X3.06029 Y1.06124
G01 X3.05647 Y1.05716
G01 X3.05210 Y1.05366
G01 X3.04728 Y1.05081
G01 X3.04211 Y1.04867
G01 X3.03669 Y1.04730
G01 X3.03112 Y1.04670
G01 X3.02832 Y1.04670
G01 X3.02513 Y1.04694
G01 X3.02197 Y1.04744
G01 X3.01925 Y1.04809
G01 X3.01658 Y1.04893
G01 X3.01361 Y1.05012
G01 X3.00868 Y1.05277
G01 X3.00605 Y1.05459
G01 X3.00387 Y1.05636
G01 X3.00183 Y1.05827
G01 X2.99967 Y1.06063
G01 X2.99794 Y1.06283
G01 X2.99616 Y1.06549
G01 X2.99478 Y1.06793
G01 X2.99356 Y1.07052
G01 X2.97815 Y1.07052
G01 X2.97613 Y1.07066
G01 X2.97414 Y1.07105
G01 X2.97222 Y1.07170
G01 X2.97040 Y1.07260
G01 X2.96871 Y1.07373
G01 X2.96719 Y1.07506
G01 X2.88159 Y1.16067
G01 X2.87865 Y1.16044
G01 X2.87585 Y1.16054
G01 X2.87268 Y1.16103
G01 X2.86997 Y1.16177
G01 X2.86737 Y1.16281
G01 X2.86489 Y1.16413
G01 X2.86226 Y1.16596
G01 X2.86016 Y1.16782
G01 X2.85853 Y1.16959
G01 X2.85685 Y1.17184
G01 X2.85543 Y1.17425
G01 X2.85427 Y1.17681
G01 X2.85351 Y1.17909
G01 X2.85290 Y1.18183
G01 X2.85260 Y1.18462
G04 P0 ( dwell for no time -- G64 should not smooth over this point )
G00 Z0.08000 ( retract )

G00 X3.49232 Y0.73622 ( rapid move to begin. )
G01 F180.00000
( Mill infeed pass 1/1 )
G01 Z-0.04000
G04 P0 ( dwell for no time -- G64 should not smooth over this point )
G01 F360.00000
G01 X3.49232 Y0.73622
G01 X3.49256 Y0.74022
G01 X3.49322 Y0.74417
G01 X3.49417 Y0.74764
G01 X3.49562 Y0.75137
G01 X3.49725 Y0.75458
G01 X3.49942 Y0.75794
G01 X3.50167 Y0.76076
G01 X3.50447 Y0.76361
G01 X3.50756 Y0.76615
G01 X3.51056 Y0.76814
G01 X3.51374 Y0.76984
G01 X3.51745 Y0.77135
G01 X3.52090 Y0.77237
G01 X3.52483 Y0.77310
G01 X3.52842 Y0.77340
G01 X3.53242 Y0.77333
G01 X3.53679 Y0.77275
G01 X3.54067 Y0.77179
G01 X3.54480 Y0.77025
G01 X3.54871 Y0.76825
G01 X3.55237 Y0.76579
G01 X3.55571 Y0.76293
G01 X3.55869 Y0.75969
G01 X3.56105 Y0.75646
G01 X3.56323 Y0.75264
G01 X3.56482 Y0.74896
G01 X3.56609 Y0.74475
G01 X3.56687 Y0.74042
G01 X3.56713 Y0.73602
G01 X3.56691 Y0.73203
G01 X3.56627 Y0.72808
G01 X3.56485 Y0.72317
G01 X3.56499 Y0.72303
G01 X3.83546 Y0.72303
G01 X3.83723 Y0.72532
G01 X3.83908 Y0.72726
G01 X3.84112 Y0.72901
G01 X3.84332 Y0.73056
G01 X3.84565 Y0.73189
G01 X3.84811 Y0.73298
G01 X3.85066 Y0.73383
G01 X3.85328 Y0.73442
G01 X3.85796 Y0.73484
G01 X3.90272 Y0.73481
G01 X3.90540 Y0.73455
G01 X3.90803 Y0.73403
G01 X3.91060 Y0.73325
G01 X3.91329 Y0.73213
G01 X3.91566 Y0.73086
G01 X3.91806 Y0.72922
G01 X3.92012 Y0.72749
G01 X3.92200 Y0.72557
G01 X3.92368 Y0.72347
G01 X3.92526 Y0.72103
G01 X3.92649 Y0.71864
G01 X3.92747 Y0.71614
G01 X3.92821 Y0.71356
G01 X3.92870 Y0.71091
G01 X3.92892 Y0.70824
G01 X3.92887 Y0.70533
G01 X3.92858 Y0.70288
G01 X3.92808 Y0.70047
G01 X3.92736 Y0.69811
G01 X3.92635 Y0.69562
G01 X3.92521 Y0.69344
G01 X3.92388 Y0.69137
G01 X3.92222 Y0.68925
G01 X3.92053 Y0.68746
G01 X3.91868 Y0.68583
G01 X3.91669 Y0.68437
G01 X3.91459 Y0.68310
G01 X3.91217 Y0.68193
G01 X3.90986 Y0.68106
G01 X3.90727 Y0.68036
G01 X3.90484 Y0.67994
G01 X3.90239 Y0.67974
G01 X3.85785 Y0.67973
G01 X3.85339 Y0.68013
G01 X3.85055 Y0.68077
G01 X3.84800 Y0.68163
G01 X3.84555 Y0.68273
G01 X3.84322 Y0.68407
G01 X3.84103 Y0.68562
G01 X3.83900 Y0.68739
G01 X3.83716 Y0.68934
G01 X3.83546 Y0.69153
G01 X3.55727 Y0.69158
G01 X3.55529 Y0.69186
G01 X3.55337 Y0.69238
G01 X3.55189 Y0.69297
G01 X3.55013 Y0.69392
G01 X3.54790 Y0.69560
G01 X3.54257 Y0.70090
G01 X3.53835 Y0.69963
G01 X3.53402 Y0.69887
G01 X3.52962 Y0.69862
G01 X3.52523 Y0.69889
G01 X3.52090 Y0.69968
G01 X3.51669 Y0.70097
G01 X3.51231 Y0.70292
G01 X3.50854 Y0.70520
G01 X3.50477 Y0.70817
G01 X3.50167 Y0.71129
G01 X3.49896 Y0.71476
G01 X3.49649 Y0.71887
G01 X3.49470 Y0.72290
G01 X3.49340 Y0.72710
G01 X3.49261 Y0.73143
G01 X3.49232 Y0.73622
G04 P0 ( dwell for no time -- G64 should not smooth over this point )
G00 Z0.08000 ( retract )

G00 X3.77951 Y0.99472 ( rapid move to begin. )
G01 F180.00000
( Mill infeed pass 1/1 )
G01 Z-0.04000
G04 P0 ( dwell for no time -- G64 should not smooth over this point )
G01 F360.00000
G01 X3.77951 Y0.99472
G01 X3.77953 Y0.78971
G01 X3.77985 Y0.78730
G01 X3.78054 Y0.78497
G01 X3.78159 Y0.78278
G01 X3.78296 Y0.78077
G01 X3.78976 Y0.77398
G01 X3.79176 Y0.77260
G01 X3.79434 Y0.77141
G01 X3.79669 Y0.77078
G01 X3.79911 Y0.77053
G01 X3.83528 Y0.77052
G01 X3.83716 Y0.76808
G01 X3.83917 Y0.76597
G01 X3.84139 Y0.76409
G01 X3.84379 Y0.76245
G01 X3.84636 Y0.76108
G01 X3.84906 Y0.75998
G01 X3.85185 Y0.75918
G01 X3.85472 Y0.75867
G01 X3.85807 Y0.75846
G01 X3.90239 Y0.75848
G01 X3.90617 Y0.75888
G01 X3.91007 Y0.75987
G01 X3.91379 Y0.76142
G01 X3.91725 Y0.76349
G01 X3.92036 Y0.76605
G01 X3.92293 Y0.76885
G01 X3.92521 Y0.77218
G01 X3.92697 Y0.77580
G01 X3.92797 Y0.77877
G01 X3.92858 Y0.78162
G01 X3.92890 Y0.78451
G01 X3.92890 Y0.78742
G01 X3.92860 Y0.79032
G01 X3.92794 Y0.79338
G01 X3.92701 Y0.79614
G01 X3.92580 Y0.79879
G01 X3.92419 Y0.80148
G01 X3.92244 Y0.80380
G01 X3.92044 Y0.80592
G01 X3.91806 Y0.80796
G01 X3.91546 Y0.80971
G01 X3.91289 Y0.81107
G01 X3.91018 Y0.81214
G01 X3.90738 Y0.81292
G01 X3.90451 Y0.81340
G01 X3.90160 Y0.81358
G01 X3.85796 Y0.81358
G01 X3.85483 Y0.81339
G01 X3.85196 Y0.81290
G01 X3.84916 Y0.81210
G01 X3.84626 Y0.81092
G01 X3.84370 Y0.80954
G01 X3.84130 Y0.80789
G01 X3.83908 Y0.80600
G01 X3.83708 Y0.80389
G01 X3.83528 Y0.80152
G01 X3.81051 Y0.80152
G01 X3.81051 Y0.98830
G01 X3.94177 Y1.11968
G01 X3.94315 Y1.12168
G01 X3.94404 Y1.12350
G01 X3.94480 Y1.12582
G01 X3.94518 Y1.12822
G01 X3.94522 Y1.16043
G01 X3.95531 Y1.16043
G01 X3.95531 Y1.17052
G01 X3.97330 Y1.17052
G01 X4.04319 Y1.10064
G01 X4.04207 Y1.09746
G01 X4.04118 Y1.09397
G01 X4.04062 Y1.09042
G01 X4.04039 Y1.08722
G01 X4.04042 Y1.08402
G01 X4.04077 Y1.08044
G01 X4.04144 Y1.07691
G01 X4.04244 Y1.07345
G01 X4.04374 Y1.07009
G01 X4.04516 Y1.06722
G01 X4.04680 Y1.06448
G01 X4.04891 Y1.06156
G01 X4.05127 Y1.05884
G01 X4.05387 Y1.05636
G01 X4.05637 Y1.05435
G01 X4.05936 Y1.05235
G01 X4.06325 Y1.05029
G01 X4.06734 Y1.04867
G01 X4.07158 Y1.04753
G01 X4.07593 Y1.04686
G01 X4.08032 Y1.04668
G01 X4.08471 Y1.04699
G01 X4.08865 Y1.04770
G01 X4.09287 Y1.04893
G01 X4.09693 Y1.05063
G01 X4.10077 Y1.05277
G01 X4.10435 Y1.05533
G01 X4.10762 Y1.05827
G01 X4.11054 Y1.06156
G01 X4.11287 Y1.06481
G01 X4.11503 Y1.06864
G01 X4.11675 Y1.07269
G01 X4.11771 Y1.07574
G01 X4.11834 Y1.07847
G01 X4.11883 Y1.08163
G01 X4.11904 Y1.08442
G01 X4.11906 Y1.08722
G01 X4.11883 Y1.09042
G01 X4.11834 Y1.09358
G01 X4.11771 Y1.09631
G01 X4.11675 Y1.09936
G01 X4.11570 Y1.10196
G01 X4.11429 Y1.10483
G01 X4.11127 Y1.10954
G01 X4.10926 Y1.11203
G01 X4.10527 Y1.11595
G01 X4.10111 Y1.11906
G01 X4.09657 Y1.12159
G01 X4.09173 Y1.12350
G01 X4.08629 Y1.12482
G01 X4.08112 Y1.12535
G01 X4.07553 Y1.12515
G01 X4.07041 Y1.12426
G01 X4.06511 Y1.12256
G01 X3.98948 Y1.19807
G01 X3.98747 Y1.19945
G01 X3.98566 Y1.20034
G01 X3.98334 Y1.20110
G01 X3.98134 Y1.20144
G01 X3.95531 Y1.20152
G01 X3.95531 Y1.21161
G01 X3.90413 Y1.21161
G01 X3.90413 Y1.16043
G01 X3.91422 Y1.16043
G01 X3.91422 Y1.13585
G01 X3.78405 Y1.00568
G01 X3.78297 Y1.00448
G01 X3.78180 Y1.00282
G01 X3.78040 Y0.99990
G01 X3.77977 Y0.99755
G01 X3.77951 Y0.99472
( Piece #4, position [1;1] )

G04 P0 ( dwell for no time -- G64 should not smooth over this point )
G00 Z0.08000 ( retract )

G00 X0.55836 Y0.81840 ( rapid move to begin. )
G01 F180.00000
( Mill infeed pass 1/1 )
G01 Z-0.04000
G04 P0 ( dwell for no time -- G64 should not smooth over this point )
G01 F360.00000
G01 X0.55836 Y0.81840
G01 X0.55849 Y0.81638
G01 X0.55900 Y0.81400
G01 X0.55954 Y0.81247
G01 X0.56043 Y0.81065
G01 X0.56156 Y0.80897
G01 X0.56290 Y0.80744
G01 X0.74407 Y0.62626
G01 X0.74560 Y0.62493
G01 X0.74764 Y0.62360
G01 X0.75024 Y0.62248
G01 X0.75261 Y0.62192
G01 X0.75503 Y0.62172
G01 X1.22890 Y0.62181
G01 X1.23129 Y0.62225
G01 X1.23358 Y0.62306
G01 X1.23572 Y0.62423
G01 X1.23765 Y0.62571
G01 X1.26667 Y0.65469
G01 X1.26871 Y0.65721
G01 X1.26970 Y0.65898
G01 X1.27045 Y0.66086
G01 X1.27095 Y0.66283
G01 X1.27119 Y0.66484
G01 X1.27121 Y0.69665
G01 X1.29311 Y0.69665
G01 X1.29311 Y0.72052
G01 X1.41831 Y0.72052
G01 X1.41831 Y0.69665
G01 X1.49311 Y0.69665
G01 X1.49311 Y0.77539
G01 X1.41831 Y0.77539
G01 X1.41831 Y0.75152
G01 X1.29311 Y0.75152
G01 X1.29311 Y0.77539
G01 X1.21831 Y0.77539
G01 X1.21831 Y0.69665
G01 X1.24021 Y0.69665
G01 X1.24021 Y0.67207
G01 X1.22086 Y0.65272
G01 X0.76145 Y0.65272
G01 X0.58936 Y0.82482
G01 X0.58936 Y1.21889
G01 X0.62284 Y1.25237
G01 X0.97866 Y1.25237
G01 X0.98068 Y1.25251
G01 X0.98267 Y1.25290
G01 X0.98459 Y1.25355
G01 X0.98641 Y1.25445
G01 X0.98809 Y1.25558
G01 X0.98962 Y1.25691
G01 X1.12723 Y1.39452
G01 X1.15181 Y1.39452
G01 X1.15181 Y1.34112
G01 X1.28961 Y1.34112
G01 X1.28961 Y1.45700
G01 X1.33681 Y1.50420
G01 X1.33681 Y1.45922
G01 X1.47461 Y1.45922
G01 X1.47461 Y1.59702
G01 X1.33681 Y1.59702
G01 X1.33681 Y1.54349
G01 X1.33441 Y1.54299
G01 X1.33214 Y1.54211
G01 X1.33003 Y1.54090
G01 X1.32814 Y1.53937
G01 X1.26769 Y1.47892
G01 X1.15181 Y1.47892
G01 X1.15181 Y1.42552
G01 X1.11959 Y1.42548
G01 X1.11719 Y1.42510
G01 X1.11488 Y1.42434
G01 X1.11271 Y1.42324
G01 X1.11105 Y1.42207
G01 X0.97224 Y1.28337
G01 X0.61642 Y1.28337
G01 X0.61440 Y1.28324
G01 X0.61202 Y1.28274
G01 X0.61011 Y1.28203
G01 X0.60798 Y1.28087
G01 X0.60605 Y1.27939
G01 X0.56290 Y1.23627
G01 X0.56156 Y1.23475
G01 X0.56024 Y1.23271
G01 X0.55912 Y1.23010
G01 X0.55855 Y1.22774
G01 X0.55836 Y1.22531
G01 X0.55836 Y0.81840
G04 P0 ( dwell for no time -- G64 should not smooth over this point )
G00 Z0.08000 ( retract )

G00 X0.75651 Y0.70812 ( rapid move to begin. )
G01 F180.00000
( Mill infeed pass 1/1 )
G01 Z-0.04000
G04 P0 ( dwell for no time -- G64 should not smooth over this point )
G01 F360.00000
G01 X0.75651 Y0.70812
G01 X0.75672 Y0.71080
G01 X0.75719 Y0.71345
G01 X0.75792 Y0.71603
G01 X0.75890 Y0.71854
G01 X0.76011 Y0.72093
G01 X0.76156 Y0.72320
G01 X0.76336 Y0.72548
G01 X0.76523 Y0.72741
G01 X0.76746 Y0.72929
G01 X0.76968 Y0.73080
G01 X0.77204 Y0.73209
G01 X0.77472 Y0.73321
G01 X0.77729 Y0.73400
G01 X0.77993 Y0.73453
G01 X0.78260 Y0.73480
G01 X0.82759 Y0.73484
G01 X0.83204 Y0.73444
G01 X0.83467 Y0.73386
G01 X0.83722 Y0.73302
G01 X0.83988 Y0.73184
G01 X0.84221 Y0.73050
G01 X0.84440 Y0.72894
G01 X0.84643 Y0.72718
G01 X0.84828 Y0.72523
G01 X0.84998 Y0.72303
G01 X1.07418 Y0.72303
G01 X1.11844 Y0.73919
G01 X1.11889 Y0.74260
G01 X1.11959 Y0.74572
G01 X1.12055 Y0.74877
G01 X1.12194 Y0.75210
G01 X1.12343 Y0.75493
G01 X1.12517 Y0.75762
G01 X1.12713 Y0.76015
G01 X1.12958 Y0.76279
G01 X1.13228 Y0.76518
G01 X1.13486 Y0.76707
G01 X1.13759 Y0.76874
G01 X1.14045 Y0.77017
G01 X1.14343 Y0.77135
G01 X1.14650 Y0.77227
G01 X1.14963 Y0.77293
G01 X1.15321 Y0.77334
G01 X1.15721 Y0.77340
G01 X1.16080 Y0.77308
G01 X1.16434 Y0.77242
G01 X1.16818 Y0.77129
G01 X1.17187 Y0.76975
G01 X1.17504 Y0.76804
G01 X1.17835 Y0.76579
G01 X1.18140 Y0.76320
G01 X1.18416 Y0.76030
G01 X1.18636 Y0.75745
G01 X1.18828 Y0.75441
G01 X1.19006 Y0.75082
G01 X1.19132 Y0.74745
G01 X1.19234 Y0.74358
G01 X1.19294 Y0.73962
G01 X1.19311 Y0.73602
G01 X1.19300 Y0.73322
G01 X1.19269 Y0.73044
G01 X1.19217 Y0.72769
G01 X1.19144 Y0.72498
G01 X1.19052 Y0.72234
G01 X1.18939 Y0.71977
G01 X1.18808 Y0.71729
G01 X1.18659 Y0.71492
G01 X1.18492 Y0.71267
G01 X1.18309 Y0.71055
G01 X1.18111 Y0.70857
G01 X1.17898 Y0.70675
G01 X1.17673 Y0.70509
G01 X1.17435 Y0.70360
G01 X1.17187 Y0.70230
G01 X1.16930 Y0.70118
G01 X1.16434 Y0.69963
G01 X1.16159 Y0.69909
G01 X1.15881 Y0.69875
G01 X1.15601 Y0.69862
G01 X1.15321 Y0.69871
G01 X1.14806 Y0.69941
G01 X1.14305 Y0.70083
G01 X1.14045 Y0.70187
G01 X1.13794 Y0.70311
G01 X1.13553 Y0.70454
G01 X1.13322 Y0.70613
G01 X1.12924 Y0.70960
G01 X1.08237 Y0.69249
G01 X1.08048 Y0.69193
G01 X1.07815 Y0.69158
G01 X0.84998 Y0.69153
G01 X0.84820 Y0.68925
G01 X0.84635 Y0.68731
G01 X0.84431 Y0.68555
G01 X0.84212 Y0.68401
G01 X0.83978 Y0.68268
G01 X0.83732 Y0.68159
G01 X0.83477 Y0.68074
G01 X0.83215 Y0.68014
G01 X0.82747 Y0.67973
G01 X0.78293 Y0.67975
G01 X0.78048 Y0.67996
G01 X0.77805 Y0.68039
G01 X0.77568 Y0.68103
G01 X0.77316 Y0.68197
G01 X0.77094 Y0.68304
G01 X0.76883 Y0.68431
G01 X0.76684 Y0.68576
G01 X0.76483 Y0.68754
G01 X0.76300 Y0.68951
G01 X0.76149 Y0.69146
G01 X0.76017 Y0.69354
G01 X0.75904 Y0.69572
G01 X0.75810 Y0.69800
G01 X0.75738 Y0.70036
G01 X0.75683 Y0.70299
G01 X0.75656 Y0.70544
G01 X0.75651 Y0.70812
G04 P0 ( dwell for no time -- G64 should not smooth over this point )
G00 Z0.08000 ( retract )

G00 X0.75653 Y0.86605 ( rapid move to begin. )
G01 F180.00000
( Mill infeed pass 1/1 )
G01 Z-0.04000
G04 P0 ( dwell for no time -- G64 should not smooth over this point )
G01 F360.00000
G01 X0.75653 Y0.86605
G01 X0.75685 Y0.86917
G01 X0.75753 Y0.87223
G01 X0.75855 Y0.87519
G01 X0.75989 Y0.87802
G01 X0.76156 Y0.88068
G01 X0.76351 Y0.88313
G01 X0.76573 Y0.88535
G01 X0.76818 Y0.88729
G01 X0.77084 Y0.88895
G01 X0.77388 Y0.89038
G01 X0.77686 Y0.89137
G01 X0.77993 Y0.89201
G01 X0.78305 Y0.89230
G01 X0.82759 Y0.89232
G01 X0.83204 Y0.89192
G01 X0.83488 Y0.89128
G01 X0.83743 Y0.89042
G01 X0.83988 Y0.88932
G01 X0.84221 Y0.88798
G01 X0.84440 Y0.88642
G01 X0.84643 Y0.88466
G01 X0.84828 Y0.88271
G01 X0.84998 Y0.88051
G01 X1.44199 Y0.88051
G01 X1.68996 Y1.12848
G01 X1.69004 Y1.18764
G01 X1.69038 Y1.18964
G01 X1.69083 Y1.19120
G01 X1.69221 Y1.19413
G01 X1.69415 Y1.19672
G01 X1.69658 Y1.19886
G01 X1.69831 Y1.19993
G01 X1.70053 Y1.20090
G01 X1.70288 Y1.20152
G01 X1.70530 Y1.20177
G01 X1.83711 Y1.20177
G01 X1.83901 Y1.20394
G01 X1.84139 Y1.20608
G01 X1.84403 Y1.20791
G01 X1.84650 Y1.20923
G01 X1.84949 Y1.21040
G01 X1.85220 Y1.21111
G01 X1.85538 Y1.21154
G01 X1.85818 Y1.21160
G01 X1.86216 Y1.21114
G01 X1.86602 Y1.21008
G01 X1.86967 Y1.20842
G01 X1.87301 Y1.20621
G01 X1.87597 Y1.20351
G01 X1.87847 Y1.20038
G01 X1.88045 Y1.19689
G01 X1.88186 Y1.19315
G01 X1.88249 Y1.19041
G01 X1.88279 Y1.18803
G01 X1.88286 Y1.18522
G01 X1.88262 Y1.18243
G01 X1.88207 Y1.17968
G01 X1.88123 Y1.17700
G01 X1.88010 Y1.17443
G01 X1.87869 Y1.17201
G01 X1.87703 Y1.16975
G01 X1.87513 Y1.16768
G01 X1.87333 Y1.16609
G01 X1.87105 Y1.16445
G01 X1.86860 Y1.16307
G01 X1.86602 Y1.16197
G01 X1.86334 Y1.16116
G01 X1.86098 Y1.16070
G01 X1.85778 Y1.16044
G01 X1.85418 Y1.16062
G01 X1.85103 Y1.16121
G01 X1.84761 Y1.16233
G01 X1.84472 Y1.16373
G01 X1.84171 Y1.16572
G01 X1.83929 Y1.16782
G01 X1.83711 Y1.17027
G01 X1.72146 Y1.17027
G01 X1.72146 Y1.12208
G01 X1.72607 Y1.11970
G01 X1.73033 Y1.11672
G01 X1.73416 Y1.11320
G01 X1.73726 Y1.10954
G01 X1.74008 Y1.10518
G01 X1.74216 Y1.10085
G01 X1.74369 Y1.09631
G01 X1.74471 Y1.09121
G01 X1.74504 Y1.08722
G01 X1.74493 Y1.08283
G01 X1.74440 Y1.07886
G01 X1.74347 Y1.07497
G01 X1.74216 Y1.07120
G01 X1.74028 Y1.06722
G01 X1.73819 Y1.06381
G01 X1.73577 Y1.06063
G01 X1.73245 Y1.05716
G01 X1.72906 Y1.05435
G01 X1.72504 Y1.05175
G01 X1.72072 Y1.04965
G01 X1.71657 Y1.04820
G01 X1.71188 Y1.04716
G01 X1.70711 Y1.04670
G01 X1.70231 Y1.04682
G01 X1.69796 Y1.04744
G01 X1.69332 Y1.04867
G01 X1.68887 Y1.05046
G01 X1.68466 Y1.05277
G01 X1.68108 Y1.05533
G01 X1.67753 Y1.05856
G01 X1.67440 Y1.06219
G01 X1.67190 Y1.06588
G01 X1.45965 Y0.85363
G01 X1.45810 Y0.85227
G01 X1.45674 Y0.85134
G01 X1.45492 Y0.85038
G01 X1.45299 Y0.84966
G01 X1.45098 Y0.84921
G01 X1.44851 Y0.84901
G01 X0.84998 Y0.84901
G01 X0.84820 Y0.84673
G01 X0.84635 Y0.84479
G01 X0.84431 Y0.84303
G01 X0.84212 Y0.84149
G01 X0.83978 Y0.84016
G01 X0.83732 Y0.83907
G01 X0.83477 Y0.83822
G01 X0.83215 Y0.83762
G01 X0.82770 Y0.83721
G01 X0.78383 Y0.83721
G01 X0.77959 Y0.83757
G01 X0.77525 Y0.83865
G01 X0.77134 Y0.84031
G01 X0.76755 Y0.84269
G01 X0.76435 Y0.84550
G01 X0.76149 Y0.84894
G01 X0.75933 Y0.85260
G01 X0.75768 Y0.85676
G01 X0.75694 Y0.85981
G01 X0.75656 Y0.86292
G01 X0.75653 Y0.86605
G04 P0 ( dwell for no time -- G64 should not smooth over this point )
G00 Z0.08000 ( retract )

G00 X0.61636 Y1.08562 ( rapid move to begin. )
G01 F180.00000
( Mill infeed pass 1/1 )
G01 Z-0.04000
G04 P0 ( dwell for no time -- G64 should not smooth over this point )
G01 F360.00000
G01 X0.61636 Y1.08562
G01 X0.61660 Y1.08163
G01 X0.61717 Y1.07808
G01 X0.61817 Y1.07421
G01 X0.61941 Y1.07083
G01 X0.62114 Y1.06722
G01 X0.62300 Y1.06414
G01 X0.62539 Y1.06094
G01 X0.62781 Y1.05827
G01 X0.63047 Y1.05584
G01 X0.63366 Y1.05343
G01 X0.63673 Y1.05155
G01 X0.64021 Y1.04986
G01 X0.64029 Y0.85419
G01 X0.64074 Y0.85180
G01 X0.64155 Y0.84951
G01 X0.64271 Y0.84737
G01 X0.64446 Y0.84514
G01 X0.71453 Y0.77506
G01 X0.71638 Y0.77348
G01 X0.71846 Y0.77221
G01 X0.72148 Y0.77105
G01 X0.72468 Y0.77055
G01 X0.76127 Y0.77052
G01 X0.76314 Y0.76808
G01 X0.76515 Y0.76597
G01 X0.76737 Y0.76409
G01 X0.76978 Y0.76245
G01 X0.77234 Y0.76108
G01 X0.77504 Y0.75998
G01 X0.77784 Y0.75918
G01 X0.78070 Y0.75867
G01 X0.78405 Y0.75846
G01 X0.82747 Y0.75847
G01 X0.83038 Y0.75863
G01 X0.83456 Y0.75942
G01 X0.83856 Y0.76084
G01 X0.84212 Y0.76275
G01 X0.84552 Y0.76529
G01 X0.84849 Y0.76833
G01 X0.85096 Y0.77179
G01 X0.85287 Y0.77559
G01 X0.85417 Y0.77964
G01 X0.85483 Y0.78384
G01 X0.85484 Y0.78809
G01 X0.85420 Y0.79230
G01 X0.85291 Y0.79635
G01 X0.85102 Y0.80016
G01 X0.84871 Y0.80346
G01 X0.84577 Y0.80653
G01 X0.84240 Y0.80912
G01 X0.83948 Y0.81078
G01 X0.83616 Y0.81214
G01 X0.83292 Y0.81302
G01 X0.82938 Y0.81351
G01 X0.78215 Y0.81352
G01 X0.77904 Y0.81312
G01 X0.77600 Y0.81238
G01 X0.77306 Y0.81129
G01 X0.77026 Y0.80988
G01 X0.76764 Y0.80816
G01 X0.76523 Y0.80615
G01 X0.76307 Y0.80389
G01 X0.76127 Y0.80152
G01 X0.73192 Y0.80152
G01 X0.67121 Y0.86223
G01 X0.67121 Y1.04986
G01 X0.67469 Y1.05155
G01 X0.67776 Y1.05343
G01 X0.68095 Y1.05584
G01 X0.68360 Y1.05827
G01 X0.68602 Y1.06094
G01 X0.68841 Y1.06414
G01 X0.69028 Y1.06722
G01 X0.69200 Y1.07083
G01 X0.69324 Y1.07421
G01 X0.69425 Y1.07808
G01 X0.69481 Y1.08163
G01 X0.69506 Y1.08562
G01 X0.69493 Y1.08922
G01 X0.69440 Y1.09319
G01 X0.69347 Y1.09708
G01 X0.69224 Y1.10064
G01 X0.76213 Y1.17052
G01 X0.78012 Y1.17052
G01 X0.78012 Y1.16043
G01 X0.83130 Y1.16043
G01 X0.83130 Y1.21161
G01 X0.78012 Y1.21161
G01 X0.78012 Y1.20152
G01 X0.75409 Y1.20144
G01 X0.75209 Y1.20110
G01 X0.74978 Y1.20034
G01 X0.74796 Y1.19945
G01 X0.74595 Y1.19807
G01 X0.67032 Y1.12256
G01 X0.66657 Y1.12385
G01 X0.66267 Y1.12475
G01 X0.65871 Y1.12526
G01 X0.65511 Y1.12537
G01 X0.65112 Y1.12511
G01 X0.64717 Y1.12444
G01 X0.64332 Y1.12337
G01 X0.63996 Y1.12209
G01 X0.63638 Y1.12030
G01 X0.63300 Y1.11816
G01 X0.63016 Y1.11595
G01 X0.62725 Y1.11320
G01 X0.62464 Y1.11018
G01 X0.62257 Y1.10724
G01 X0.62077 Y1.10412
G01 X0.61911 Y1.10048
G01 X0.61794 Y1.09708
G01 X0.61702 Y1.09319
G01 X0.61649 Y1.08922
G01 X0.61636 Y1.08562
G04 P0 ( dwell for no time -- G64 should not smooth over this point )
G00 Z0.08000 ( retract )

G00 X0.61636 Y1.48602 ( rapid move to begin. )
G01 F180.00000
( Mill infeed pass 1/1 )
G01 Z-0.04000
G04 P0 ( dwell for no time -- G64 should not smooth over this point )
G01 F360.00000
G01 X0.61636 Y1.48602
G01 X0.61652 Y1.48243
G01 X0.61702 Y1.47886
G01 X0.61783 Y1.47536
G01 X0.61896 Y1.47194
G01 X0.62041 Y1.46864
G01 X0.62235 Y1.46515
G01 X0.62440 Y1.46219
G01 X0.62671 Y1.45943
G01 X0.62926 Y1.45689
G01 X0.63203 Y1.45459
G01 X0.63500 Y1.45256
G01 X0.63851 Y1.45063
G01 X0.64181 Y1.44921
G01 X0.64523 Y1.44809
G01 X0.64874 Y1.44730
G01 X0.65231 Y1.44682
G01 X0.65551 Y1.44667
G01 X0.65871 Y1.44679
G01 X0.66188 Y1.44716
G01 X0.66463 Y1.44770
G01 X0.66772 Y1.44855
G01 X0.67035 Y1.44950
G01 X0.67291 Y1.45063
G01 X0.67573 Y1.45215
G01 X0.67841 Y1.45389
G01 X0.68095 Y1.45584
G01 X0.68332 Y1.45799
G01 X0.68524 Y1.46002
G01 X0.68726 Y1.46251
G01 X0.68885 Y1.46481
G01 X0.69046 Y1.46757
G01 X0.69177 Y1.47027
G01 X1.01965 Y1.47027
G01 X1.02095 Y1.46757
G01 X1.02257 Y1.46481
G01 X1.02440 Y1.46219
G01 X1.02644 Y1.45972
G01 X1.02867 Y1.45743
G01 X1.03108 Y1.45533
G01 X1.03366 Y1.45343
G01 X1.03638 Y1.45175
G01 X1.03923 Y1.45029
G01 X1.04219 Y1.44907
G01 X1.04523 Y1.44809
G01 X1.04835 Y1.44737
G01 X1.05152 Y1.44690
G01 X1.05471 Y1.44669
G01 X1.05791 Y1.44674
G01 X1.06109 Y1.44704
G01 X1.06541 Y1.44789
G01 X1.06998 Y1.44935
G01 X1.07398 Y1.45117
G01 X1.07776 Y1.45343
G01 X1.08126 Y1.45610
G01 X1.08444 Y1.45913
G01 X1.08726 Y1.46251
G01 X1.08969 Y1.46618
G01 X1.09169 Y1.47009
G01 X1.09324 Y1.47421
G01 X1.09433 Y1.47847
G01 X1.09496 Y1.48323
G01 X1.09503 Y1.48762
G01 X1.09460 Y1.49200
G01 X1.09369 Y1.49631
G01 X1.09224 Y1.50064
G01 X1.20863 Y1.61702
G01 X1.55279 Y1.61702
G01 X1.66917 Y1.50064
G01 X1.66783 Y1.49669
G01 X1.66688 Y1.49240
G01 X1.66641 Y1.48802
G01 X1.66641 Y1.48398
G01 X1.42009 Y1.36082
G01 X1.33681 Y1.36082
G01 X1.33681 Y1.22302
G01 X1.47461 Y1.22302
G01 X1.47461 Y1.35286
G01 X1.68050 Y1.45581
G01 X1.68433 Y1.45299
G01 X1.68815 Y1.45081
G01 X1.69256 Y1.44893
G01 X1.69678 Y1.44770
G01 X1.70152 Y1.44690
G01 X1.70591 Y1.44667
G01 X1.71030 Y1.44694
G01 X1.71463 Y1.44770
G01 X1.71885 Y1.44893
G01 X1.72327 Y1.45081
G01 X1.72742 Y1.45321
G01 X1.73095 Y1.45584
G01 X1.73416 Y1.45884
G01 X1.73726 Y1.46251
G01 X1.73969 Y1.46618
G01 X1.74177 Y1.47027
G01 X2.06965 Y1.47027
G01 X2.07095 Y1.46757
G01 X2.07257 Y1.46481
G01 X2.07416 Y1.46251
G01 X2.07617 Y1.46002
G01 X2.07810 Y1.45799
G01 X2.08047 Y1.45584
G01 X2.08300 Y1.45389
G01 X2.08534 Y1.45235
G01 X2.08779 Y1.45099
G01 X2.09070 Y1.44965
G01 X2.09332 Y1.44867
G01 X2.09640 Y1.44779
G01 X2.09914 Y1.44723
G01 X2.10231 Y1.44682
G01 X2.10511 Y1.44668
G01 X2.10831 Y1.44676
G01 X2.11188 Y1.44716
G01 X2.11541 Y1.44789
G01 X2.11885 Y1.44893
G01 X2.12255 Y1.45046
G01 X2.12573 Y1.45215
G01 X2.12906 Y1.45435
G01 X2.13186 Y1.45662
G01 X2.13444 Y1.45913
G01 X2.13677 Y1.46187
G01 X2.13885 Y1.46481
G01 X2.14065 Y1.46793
G01 X2.14231 Y1.47157
G01 X2.14347 Y1.47497
G01 X2.14433 Y1.47847
G01 X2.14489 Y1.48243
G01 X2.14506 Y1.48602
G01 X2.14489 Y1.48962
G01 X2.14433 Y1.49358
G01 X2.14347 Y1.49708
G01 X2.14231 Y1.50048
G01 X2.14065 Y1.50412
G01 X2.13885 Y1.50724
G01 X2.13677 Y1.51018
G01 X2.13416 Y1.51320
G01 X2.13126 Y1.51595
G01 X2.12841 Y1.51816
G01 X2.12504 Y1.52030
G01 X2.12182 Y1.52192
G01 X2.11810 Y1.52337
G01 X2.11463 Y1.52435
G01 X2.11070 Y1.52506
G01 X2.10711 Y1.52535
G01 X2.10431 Y1.52535
G01 X2.10112 Y1.52511
G01 X2.09796 Y1.52460
G01 X2.09523 Y1.52395
G01 X2.09256 Y1.52311
G01 X2.08959 Y1.52192
G01 X2.08466 Y1.51927
G01 X2.08016 Y1.51595
G01 X2.07781 Y1.51378
G01 X2.07591 Y1.51172
G01 X2.07416 Y1.50954
G01 X2.07235 Y1.50690
G01 X2.07095 Y1.50447
G01 X2.06965 Y1.50177
G01 X1.74177 Y1.50177
G01 X1.74008 Y1.50518
G01 X1.73819 Y1.50824
G01 X1.73577 Y1.51142
G01 X1.73332 Y1.51406
G01 X1.73033 Y1.51672
G01 X1.72742 Y1.51884
G01 X1.72398 Y1.52087
G01 X1.72072 Y1.52240
G01 X1.71695 Y1.52373
G01 X1.71346 Y1.52460
G01 X1.70950 Y1.52519
G01 X1.70591 Y1.52537
G01 X1.70231 Y1.52523
G01 X1.69835 Y1.52468
G01 X1.69485 Y1.52385
G01 X1.69109 Y1.52256
G01 X1.56988 Y1.64377
G01 X1.56799 Y1.64530
G01 X1.56588 Y1.64652
G01 X1.56361 Y1.64739
G01 X1.56163 Y1.64783
G01 X1.55921 Y1.64802
G01 X1.20221 Y1.64802
G01 X1.19938 Y1.64777
G01 X1.19628 Y1.64685
G01 X1.19377 Y1.64552
G01 X1.19154 Y1.64377
G01 X1.07032 Y1.52256
G01 X1.06657 Y1.52385
G01 X1.06307 Y1.52468
G01 X1.05910 Y1.52523
G01 X1.05551 Y1.52537
G01 X1.05191 Y1.52519
G01 X1.04796 Y1.52460
G01 X1.04446 Y1.52373
G01 X1.04070 Y1.52240
G01 X1.03743 Y1.52087
G01 X1.03399 Y1.51884
G01 X1.03108 Y1.51672
G01 X1.02810 Y1.51406
G01 X1.02565 Y1.51142
G01 X1.02323 Y1.50824
G01 X1.02133 Y1.50518
G01 X1.01965 Y1.50177
G01 X0.69177 Y1.50177
G01 X0.69046 Y1.50447
G01 X0.68906 Y1.50690
G01 X0.68726 Y1.50954
G01 X0.68551 Y1.51172
G01 X0.68360 Y1.51378
G01 X0.68126 Y1.51595
G01 X0.67675 Y1.51927
G01 X0.67182 Y1.52192
G01 X0.66885 Y1.52311
G01 X0.66618 Y1.52395
