( pcb2gcode 3.0.3 )
( Software-independent Gcode )

G94 ( Inches per minute feed rate. )
G20 ( Units == INCHES. )

G90 ( Absolute coordinates. )
G00 S12000 ( RPM spindle speed. )
G64 P0.00040 ( set maximum deviation from commanded toolpath )
G01 F360.00000 ( Feedrate. )


G00 Z1.00000 (Retract to tool change height)
T1
M5      (Spindle stop.)
G04 P1.00000 (Wait for spindle to stop)
(MSG, Change tool bit to mill diameter 0.03937in)
M6      (Tool change.)
M0      (Temporary machine stop.)
M3 ( Spindle on clockwise. )
G04 P1.00000 (Wait for spindle to get up to speed)
G04 P0 ( dwell for no time -- G64 should not smooth over this point )
G00 Z0.08000 ( retract )

G00 X-5.20887 Y-4.20053 ( rapid move to begin. )
G01 F180.00000
( Mill infeed pass 1/1 )
G01 Z-0.04000
G04 P0 ( dwell for no time -- G64 should not smooth over this point )
G01 F360.00000
G01 X-5.20887 Y-4.20053
G01 X-5.20915 Y-4.18854
G01 X-5.21004 Y-4.17658
G01 X-5.21148 Y-4.16508
G01 X-5.21368 Y-4.15249
G01 X-5.21620 Y-4.14117
G01 X-5.21939 Y-4.12961
G01 X-5.22302 Y-4.11860
G01 X-5.22704 Y-4.10815
G01 X-5.23207 Y-4.09682
G01 X-5.23749 Y-4.08612
G01 X-5.24365 Y-4.07537
G01 X-5.25012 Y-4.06529
G01 X-5.25655 Y-4.05613
G01 X-5.26367 Y-4.04698
G01 X-5.27123 Y-4.03819
G01 X-5.27949 Y-4.02949
G01 X-5.77949 Y-3.52949
G01 X-5.78639 Y-3.52287
G01 X-5.79355 Y-3.51653
G01 X-5.80222 Y-3.50950
G01 X-5.81091 Y-3.50310
G01 X-5.81920 Y-3.49746
G01 X-5.82842 Y-3.49177
G01 X-5.83754 Y-3.48670
G01 X-5.84687 Y-3.48203
G01 X-5.85639 Y-3.47778
G01 X-5.86647 Y-3.47381
G01 X-5.87630 Y-3.47040
G01 X-5.88666 Y-3.46733
G01 X-5.89676 Y-3.46483
G01 X-5.90696 Y-3.46277
G01 X-5.91724 Y-3.46112
G01 X-5.92836 Y-3.45985
G01 X-5.93912 Y-3.45911
G01 X-5.94951 Y-3.45887
G01 X-5.96030 Y-3.45910
G01 X-5.97107 Y-3.45983
G01 X-5.98300 Y-3.46119
G01 X-5.99405 Y-3.46295
G01 X-6.00462 Y-3.46514
G01 X-6.01546 Y-3.46792
G01 X-6.02540 Y-3.47096
G01 X-6.03594 Y-3.47471
G01 X-6.04592 Y-3.47880
G01 X-6.05683 Y-3.48384
G01 X-6.06640 Y-3.48882
G01 X-6.07607 Y-3.49445
G01 X-6.08514 Y-3.50030
G01 X-6.09425 Y-3.50680
G01 X-6.10273 Y-3.51347
G01 X-6.11185 Y-3.52131
G01 X-6.12000 Y-3.52901
G01 X-6.12724 Y-3.53651
G01 X-6.13465 Y-3.54492
G01 X-6.14166 Y-3.55368
G01 X-6.14801 Y-3.56243
G01 X-6.15375 Y-3.57112
G01 X-6.15992 Y-3.58145
G01 X-6.16523 Y-3.59133
G01 X-6.16990 Y-3.60108
G01 X-6.17427 Y-3.61141
G01 X-6.17788 Y-3.62118
G01 X-6.18129 Y-3.63187
G01 X-6.18409 Y-3.64231
G01 X-6.18666 Y-3.65406
G01 X-6.18851 Y-3.66470
G01 X-6.18987 Y-3.67540
G01 X-6.19069 Y-3.68536
G01 X-6.19109 Y-3.69534
G01 X-6.19106 Y-3.70573
G01 X-6.19064 Y-3.71492
G01 X-6.18974 Y-3.72569
G01 X-6.18848 Y-3.73560
G01 X-6.18681 Y-3.74545
G01 X-6.18472 Y-3.75522
G01 X-6.18212 Y-3.76528
G01 X-6.17932 Y-3.77446
G01 X-6.17601 Y-3.78389
G01 X-6.17203 Y-3.79394
G01 X-6.16780 Y-3.80343
G01 X-6.16353 Y-3.81202
G01 X-6.15871 Y-3.82077
G01 X-6.15374 Y-3.82898
G01 X-6.14775 Y-3.83796
G01 X-6.14112 Y-3.84697
G01 X-6.13382 Y-3.85604
G01 X-6.12581 Y-3.86503
G01 X-6.12051 Y-3.87051
G01 X-6.03215 Y-3.95887
G01 X-6.00300 Y-3.97099
G01 X-6.03215 Y-3.95887
G01 X-6.41785 Y-3.95887
G01 X-6.44718 Y-3.97101
G01 X-6.41785 Y-3.95887
G01 X-6.32949 Y-3.87051
G01 X-6.32255 Y-3.86327
G01 X-6.31438 Y-3.85389
G01 X-6.30598 Y-3.84315
G01 X-6.29887 Y-3.83300
G01 X-6.29189 Y-3.82181
G01 X-6.28647 Y-3.81202
G01 X-6.28186 Y-3.80271
G01 X-6.27766 Y-3.79320
G01 X-6.27343 Y-3.78239
G01 X-6.26995 Y-3.77218
G01 X-6.26703 Y-3.76220
G01 X-6.26456 Y-3.75211
G01 X-6.26254 Y-3.74192
G01 X-6.26096 Y-3.73164
G01 X-6.25978 Y-3.72052
G01 X-6.25906 Y-3.70933
G01 X-6.25887 Y-3.69894
G01 X-6.25916 Y-3.68815
G01 X-6.25990 Y-3.67779
G01 X-6.26115 Y-3.66707
G01 X-6.26289 Y-3.65642
G01 X-6.26535 Y-3.64465
G01 X-6.26827 Y-3.63341
G01 X-6.27173 Y-3.62232
G01 X-6.27573 Y-3.61141
G01 X-6.28026 Y-3.60072
G01 X-6.28550 Y-3.58990
G01 X-6.29107 Y-3.57971
G01 X-6.29753 Y-3.56911
G01 X-6.30404 Y-3.55952
G01 X-6.31125 Y-3.54994
G01 X-6.31868 Y-3.54104
G01 X-6.32653 Y-3.53252
G01 X-6.33480 Y-3.52439
G01 X-6.34434 Y-3.51586
G01 X-6.35305 Y-3.50882
G01 X-6.36273 Y-3.50175
G01 X-6.37276 Y-3.49518
G01 X-6.38311 Y-3.48913
G01 X-6.39304 Y-3.48396
G01 X-6.40467 Y-3.47854
G01 X-6.41544 Y-3.47419
G01 X-6.42603 Y-3.47049
G01 X-6.43756 Y-3.46709
G01 X-6.44885 Y-3.46437
G01 X-6.46105 Y-3.46207
G01 X-6.47377 Y-3.46035
G01 X-6.48494 Y-3.45936
G01 X-6.49655 Y-3.45890
G01 X-6.50816 Y-3.45900
G01 X-6.52016 Y-3.45971
G01 X-6.53170 Y-3.46098
G01 X-6.54278 Y-3.46274
G01 X-6.55183 Y-3.46456
G01 X-6.55965 Y-3.46640
G01 X-6.56739 Y-3.46849
G01 X-6.57544 Y-3.47098
G01 X-6.58378 Y-3.47389
G01 X-6.59163 Y-3.47695
G01 X-6.59900 Y-3.48013
G01 X-6.60698 Y-3.48391
G01 X-6.61445 Y-3.48776
G01 X-6.62143 Y-3.49167
G01 X-6.62862 Y-3.49603
G01 X-6.63531 Y-3.50042
G01 X-6.64250 Y-3.50550
G01 X-6.64920 Y-3.51061
G01 X-6.65573 Y-3.51592
G01 X-6.66178 Y-3.52120
G01 X-6.67051 Y-3.52949
G01 X-7.17497 Y-4.03408
G01 X-7.18299 Y-4.04299
G01 X-7.18982 Y-4.05135
G01 X-7.19649 Y-4.06034
G01 X-7.20360 Y-4.07096
G01 X-7.20920 Y-4.08019
G01 X-7.21475 Y-4.09037
G01 X-7.21929 Y-4.09972
G01 X-7.22386 Y-4.11038
G01 X-7.22777 Y-4.12086
G01 X-7.23118 Y-4.13152
G01 X-7.23409 Y-4.14234
G01 X-7.23655 Y-4.15367
G01 X-7.23857 Y-4.16547
G01 X-7.23996 Y-4.17658
G01 X-7.24085 Y-4.18854
G01 X-7.24113 Y-4.20013
G01 X-7.24088 Y-4.21092
G01 X-7.24011 Y-4.22209
G01 X-7.23886 Y-4.23281
G01 X-7.23712 Y-4.24347
G01 X-7.23436 Y-4.25635
G01 X-7.23175 Y-4.26641
G01 X-7.22857 Y-4.27673
G01 X-7.22478 Y-4.28726
G01 X-7.22049 Y-4.29761
G01 X-7.21573 Y-4.30773
G01 X-7.21068 Y-4.31728
G01 X-7.20520 Y-4.32658
G01 X-7.19885 Y-4.33627
G01 X-7.19206 Y-4.34566
G01 X-7.18537 Y-4.35413
G01 X-7.17831 Y-4.36229
G01 X-7.17088 Y-4.37012
G01 X-7.16310 Y-4.37761
G01 X-7.15468 Y-4.38498
G01 X-7.14592 Y-4.39195
G01 X-7.13684 Y-4.39850
G01 X-7.12780 Y-4.40440
G01 X-7.11713 Y-4.41068
G01 X-7.10760 Y-4.41574
G01 X-7.09748 Y-4.42053
G01 X-7.08789 Y-4.42454
G01 X-7.07737 Y-4.42838
G01 X-7.06707 Y-4.43161
G01 X-7.05664 Y-4.43437
G01 X-7.04608 Y-4.43664
G01 X-7.03466 Y-4.43858
G01 X-7.02395 Y-4.43992
G01 X-7.01199 Y-4.44083
G01 X-7.00040 Y-4.44113
G01 X-5.44440 Y-4.44107
G01 X-5.43562 Y-4.44069
G01 X-5.42685 Y-4.44000
G01 X-5.41772 Y-4.43892
G01 X-5.40864 Y-4.43750
G01 X-5.40039 Y-4.43594
G01 X-5.39142 Y-4.43389
G01 X-5.38331 Y-4.43172
G01 X-5.37490 Y-4.42914
G01 X-5.36660 Y-4.42625
G01 X-5.35877 Y-4.42320
G01 X-5.35070 Y-4.41971
G01 X-5.34312 Y-4.41610
G01 X-5.33497 Y-4.41184
G01 X-5.32665 Y-4.40709
G01 X-5.31916 Y-4.40248
G01 X-5.31217 Y-4.39782
G01 X-5.30664 Y-4.39387
G01 X-5.30091 Y-4.38951
G01 X-5.29532 Y-4.38498
G01 X-5.28987 Y-4.38029
G01 X-5.28456 Y-4.37543
G01 X-5.27940 Y-4.37041
G01 X-5.27440 Y-4.36523
G01 X-5.26956 Y-4.35991
G01 X-5.26463 Y-4.35413
G01 X-5.26013 Y-4.34851
G01 X-5.25115 Y-4.33627
G01 X-5.24737 Y-4.33063
G01 X-5.24334 Y-4.32419
G01 X-5.23991 Y-4.31832
G01 X-5.23628 Y-4.31165
G01 X-5.23304 Y-4.30522
G01 X-5.22999 Y-4.29870
G01 X-5.22715 Y-4.29209
G01 X-5.22451 Y-4.28540
G01 X-5.22207 Y-4.27862
G01 X-5.21996 Y-4.27216
G01 X-5.21793 Y-4.26526
G01 X-5.21621 Y-4.25868
G01 X-5.21302 Y-4.24425
G01 X-5.21179 Y-4.23716
G01 X-5.21077 Y-4.23004
G01 X-5.20997 Y-4.22289
G01 X-5.20936 Y-4.21532
G01 X-5.20900 Y-4.20813
G01 X-5.20887 Y-4.20053
G01 X-5.22855 Y-4.20040
G01 X-5.22883 Y-4.21119
G01 X-5.22965 Y-4.22195
G01 X-5.23100 Y-4.23266
G01 X-5.23297 Y-4.24368
G01 X-5.23556 Y-4.25497
G01 X-5.23846 Y-4.26537
G01 X-5.24201 Y-4.27599
G01 X-5.24610 Y-4.28641
G01 X-5.25038 Y-4.29588
G01 X-5.25548 Y-4.30584
G01 X-5.26089 Y-4.31518
G01 X-5.26676 Y-4.32424
G01 X-5.27353 Y-4.33364
G01 X-5.28048 Y-4.34242
G01 X-5.28787 Y-4.35082
G01 X-5.29569 Y-4.35884
G01 X-5.30241 Y-4.36511
G01 X-5.31001 Y-4.37160
G01 X-5.31759 Y-4.37749
G01 X-5.32575 Y-4.38326
G01 X-5.33416 Y-4.38865
G01 X-5.34384 Y-4.39426
G01 X-5.35198 Y-4.39853
G01 X-5.36103 Y-4.40278
G01 X-5.36989 Y-4.40645
G01 X-5.37891 Y-4.40974
G01 X-5.38806 Y-4.41261
G01 X-5.39695 Y-4.41499
G01 X-5.40710 Y-4.41722
G01 X-5.41734 Y-4.41898
G01 X-5.42685 Y-4.42022
G01 X-5.43641 Y-4.42103
G01 X-5.44320 Y-4.42135
G01 X-5.44960 Y-4.42146
G01 X-7.00040 Y-4.42146
G01 X-7.01239 Y-4.42110
G01 X-7.02513 Y-4.41999
G01 X-7.03779 Y-4.41815
G01 X-7.04994 Y-4.41573
G01 X-7.06194 Y-4.41261
G01 X-7.07374 Y-4.40882
G01 X-7.08530 Y-4.40436
G01 X-7.09658 Y-4.39924
G01 X-7.10791 Y-4.39329
G01 X-7.11957 Y-4.38633
G01 X-7.12983 Y-4.37937
G01 X-7.13998 Y-4.37160
G01 X-7.14937 Y-4.36350
G01 X-7.15855 Y-4.35459
G01 X-7.16719 Y-4.34516
G01 X-7.17502 Y-4.33555
G01 X-7.18301 Y-4.32457
G01 X-7.18763 Y-4.31756
G01 X-7.19217 Y-4.31003
G01 X-7.19603 Y-4.30302
G01 X-7.19980 Y-4.29552
G01 X-7.20327 Y-4.28788
G01 X-7.20645 Y-4.28010
G01 X-7.20919 Y-4.27259
G01 X-7.21189 Y-4.26422
G01 X-7.21414 Y-4.25613
G01 X-7.21645 Y-4.24642
G01 X-7.21809 Y-4.23819
G01 X-7.21940 Y-4.22989
G01 X-7.22039 Y-4.22156
G01 X-7.22106 Y-4.21319
G01 X-7.22142 Y-4.20400
G01 X-7.22141 Y-4.19560
G01 X-7.22107 Y-4.18721
G01 X-7.22044 Y-4.17924
G01 X-7.21947 Y-4.17090
G01 X-7.21818 Y-4.16261
G01 X-7.21647 Y-4.15358
G01 X-7.21448 Y-4.14501
G01 X-7.21215 Y-4.13653
G01 X-7.20947 Y-4.12815
G01 X-7.20660 Y-4.12026
G01 X-7.20343 Y-4.11249
G01 X-7.19979 Y-4.10448
G01 X-7.19601 Y-4.09699
G01 X-7.19214 Y-4.08999
G01 X-7.18781 Y-4.08280
G01 X-7.18255 Y-4.07478
G01 X-7.17770 Y-4.06793
G01 X-7.17283 Y-4.06159
G01 X-7.16774 Y-4.05542
G01 X-7.16241 Y-4.04946
G01 X-7.15688 Y-4.04369
G01 X-6.65199 Y-3.53894
G01 X-6.64240 Y-3.53043
G01 X-6.63170 Y-3.52199
G01 X-6.62122 Y-3.51467
G01 X-6.61582 Y-3.51125
G01 X-6.60998 Y-3.50778
G01 X-6.59870 Y-3.50177
G01 X-6.59255 Y-3.49882
G01 X-6.58632 Y-3.49606
G01 X-6.58000 Y-3.49350
G01 X-6.57399 Y-3.49127
G01 X-6.56178 Y-3.48735
G01 X-6.55092 Y-3.48453
G01 X-6.53836 Y-3.48194
G01 X-6.52728 Y-3.48025
G01 X-6.51574 Y-3.47911
G01 X-6.50415 Y-3.47858
G01 X-6.49295 Y-3.47867
G01 X-6.48137 Y-3.47937
G01 X-6.46943 Y-3.48072
G01 X-6.45838 Y-3.48251
G01 X-6.44704 Y-3.48497
G01 X-6.43623 Y-3.48792
G01 X-6.42522 Y-3.49156
G01 X-6.41515 Y-3.49547
G01 X-6.40457 Y-3.50022
G01 X-6.39353 Y-3.50586
G01 X-6.38386 Y-3.51145
G01 X-6.37383 Y-3.51800
G01 X-6.36450 Y-3.52484
G01 X-6.35585 Y-3.53191
G01 X-6.34697 Y-3.53996
G01 X-6.33907 Y-3.54787
G01 X-6.33160 Y-3.55618
G01 X-6.32456 Y-3.56486
G01 X-6.31776 Y-3.57422
G01 X-6.31167 Y-3.58359
G01 X-6.30562 Y-3.59397
G01 X-6.30049 Y-3.60392
G01 X-6.29572 Y-3.61449
G01 X-6.29152 Y-3.62531
G01 X-6.28791 Y-3.63633
G01 X-6.28499 Y-3.64714
G01 X-6.28252 Y-3.65849
G01 X-6.28085 Y-3.66832
G01 X-6.27966 Y-3.67783
G01 X-6.27888 Y-3.68777
G01 X-6.27856 Y-3.69734
G01 X-6.27866 Y-3.70692
G01 X-6.27919 Y-3.71648
G01 X-6.28015 Y-3.72643
G01 X-6.28161 Y-3.73671
G01 X-6.28348 Y-3.74650
G01 X-6.28560 Y-3.75544
G01 X-6.28821 Y-3.76465
G01 X-6.29123 Y-3.77374
G01 X-6.29493 Y-3.78346
G01 X-6.29887 Y-3.79262
G01 X-6.30323 Y-3.80159
G01 X-6.30780 Y-3.81001
G01 X-6.31446 Y-3.82091
G01 X-6.32152 Y-3.83107
G01 X-6.32966 Y-3.84148
G01 X-6.33812 Y-3.85112
G01 X-6.34341 Y-3.85659
G01 X-6.46536 Y-3.97854
G01 X-5.98464 Y-3.97854
G01 X-6.11023 Y-3.85286
G01 X-6.11750 Y-3.84485
G01 X-6.12411 Y-3.83679
G01 X-6.13105 Y-3.82751
G01 X-6.13705 Y-3.81856
G01 X-6.14140 Y-3.81140
G01 X-6.14566 Y-3.80372
G01 X-6.14943 Y-3.79623
G01 X-6.15323 Y-3.78788
G01 X-6.15697 Y-3.77861
G01 X-6.15969 Y-3.77110
G01 X-6.16237 Y-3.76274
G01 X-6.16470 Y-3.75428
G01 X-6.16668 Y-3.74573
G01 X-6.16832 Y-3.73710
G01 X-6.16961 Y-3.72842
G01 X-6.17051 Y-3.72008
G01 X-6.17117 Y-3.71091
G01 X-6.17143 Y-3.70253
G01 X-6.17137 Y-3.69375
G01 X-6.17092 Y-3.68459
G01 X-6.16994 Y-3.67426
G01 X-6.16847 Y-3.66399
G01 X-6.16643 Y-3.65338
G01 X-6.16403 Y-3.64326
G01 X-6.16115 Y-3.63327
G01 X-6.15793 Y-3.62380
G01 X-6.15428 Y-3.61449
G01 X-6.15020 Y-3.60536
G01 X-6.14552 Y-3.59608
G01 X-6.14060 Y-3.58737
G01 X-6.13489 Y-3.57818
G01 X-6.12899 Y-3.56962
G01 X-6.12268 Y-3.56135
G01 X-6.11624 Y-3.55369
G01 X-6.10891 Y-3.54577
G01 X-6.10147 Y-3.53849
G01 X-6.09401 Y-3.53184
G01 X-6.08502 Y-3.52451
G01 X-6.07667 Y-3.51836
G01 X-6.06803 Y-3.51262
G01 X-6.05912 Y-3.50729
G01 X-6.05033 Y-3.50258
G01 X-6.04132 Y-3.49828
G01 X-6.03065 Y-3.49377
G01 X-6.02128 Y-3.49033
G01 X-6.01138 Y-3.48722
G01 X-6.00174 Y-3.48468
G01 X-5.99159 Y-3.48251
G01 X-5.98175 Y-3.48088
G01 X-5.96984 Y-3.47948
G01 X-5.95988 Y-3.47878
G01 X-5.94951 Y-3.47855
G01 X-5.93954 Y-3.47879
G01 X-5.92959 Y-3.47949
G01 X-5.91968 Y-3.48065
G01 X-5.90981 Y-3.48225
G01 X-5.90041 Y-3.48418
G01 X-5.89073 Y-3.48662
G01 X-5.88155 Y-3.48939
G01 X-5.87287 Y-3.49242
G01 X-5.86356 Y-3.49612
G01 X-5.85478 Y-3.50006
G01 X-5.84619 Y-3.50438
G01 X-5.83746 Y-3.50929
G01 X-5.82862 Y-3.51482
G01 X-5.82004 Y-3.52076
G01 X-5.81233 Y-3.52657
G01 X-5.80520 Y-3.53246
G01 X-5.79950 Y-3.53755
G01 X-5.79341 Y-3.54341
G01 X-5.29312 Y-4.04369
G01 X-5.28570 Y-4.05152
G01 X-5.27892 Y-4.05941
G01 X-5.27230 Y-4.06793
G01 X-5.26655 Y-4.07611
G01 X-5.26030 Y-4.08586
G01 X-5.25474 Y-4.09558
G01 X-5.24970 Y-4.10557
G01 X-5.24532 Y-4.11544
G01 X-5.24145 Y-4.12551
G01 X-5.23808 Y-4.13577
G01 X-5.23532 Y-4.14579
G01 X-5.23297 Y-4.15633
G01 X-5.23098 Y-4.16773
G01 X-5.22963 Y-4.17844
G01 X-5.22882 Y-4.18921
G01 X-5.22855 Y-4.20040

G00 Z1.00000 (Retract to tool change height)
T2
M5      (Spindle stop.)
G04 P1.00000 (Wait for spindle to stop)
(MSG, Change tool bit to mill diameter 0.00394in)
M6      (Tool change.)
M0      (Temporary machine stop.)
M3 ( Spindle on clockwise. )
G04 P1.00000 (Wait for spindle to get up to speed)
G04 P0 ( dwell for no time -- G64 should not smooth over this point )
G00 Z0.08000 ( retract )

G00 X-6.48209 Y-3.98548 ( rapid move to begin. )
G01 F180.00000
( Mill infeed pass 1/1 )
G01 Z-0.04000
G04 P0 ( dwell for no time -- G64 should not smooth over this point )
G01 F360.00000
G01 X-6.48209 Y-3.98548
G01 X-6.48255 Y-3.98566
G01 X-6.48209 Y-3.98548
G01 X-6.48167 Y-3.98642
G01 X-6.48437 Y-3.98642
G01 X-6.48730 Y-3.98763
G01 X-6.48437 Y-3.98642
G01 X-6.48246 Y-3.98451
G01 X-6.48307 Y-3.98234
G01 X-6.48912 Y-3.98839
G01 X-6.49205 Y-3.98960
G01 X-6.48912 Y-3.98839
G01 X-6.48057 Y-3.98839
G01 X-6.47909 Y-3.99035
G01 X-6.49387 Y-3.99035
G01 X-6.49680 Y-3.99157
G01 X-6.49387 Y-3.99035
G01 X-6.48342 Y-3.97990
G01 X-6.48341 Y-3.97711
G01 X-6.49862 Y-3.99232
G01 X-6.50156 Y-3.99354
G01 X-6.49862 Y-3.99232
G01 X-6.47712 Y-3.99232
G01 X-6.47431 Y-3.99429
G01 X-6.50338 Y-3.99429
G01 X-6.50631 Y-3.99551
G01 X-6.50338 Y-3.99429
G01 X-6.48282 Y-3.97374
G01 X-6.48056 Y-3.96869
G01 X-6.50813 Y-3.99626
G01 X-5.94187 Y-3.99626
G01 X-5.96944 Y-3.96869
G01 X-5.96718 Y-3.97374
G01 X-5.94662 Y-3.99429
G01 X-5.94369 Y-3.99551
G01 X-5.94662 Y-3.99429
G01 X-5.97569 Y-3.99429
G01 X-5.97288 Y-3.99232
G01 X-5.95138 Y-3.99232
G01 X-5.94844 Y-3.99354
G01 X-5.95138 Y-3.99232
G01 X-5.96658 Y-3.97712
G01 X-5.96658 Y-3.97990
G01 X-5.95613 Y-3.99035
G01 X-5.95320 Y-3.99157
G01 X-5.95613 Y-3.99035
G01 X-5.97091 Y-3.99035
G01 X-5.96943 Y-3.98839
G01 X-5.96088 Y-3.98839
G01 X-5.95795 Y-3.98960
G01 X-5.96088 Y-3.98839
G01 X-5.96693 Y-3.98234
G01 X-5.96754 Y-3.98451
G01 X-5.96563 Y-3.98642
G01 X-5.96270 Y-3.98763
G01 X-5.96563 Y-3.98642
G01 X-5.96833 Y-3.98642
G01 X-5.96791 Y-3.98548
G01 X-5.96745 Y-3.98566
G01 X-5.96791 Y-3.98548

G04 P0 ( dwell for no time -- G64 should not smooth over this point )
G00 Z1.000000 ( retract )

M5 ( Spindle off. )
G04 P1.000000
M9 ( Coolant off. )
M2 ( Program end. )

