( pcb2gcode 2.5.0 )
( Software-independent Gcode )

G94 ( Millimeters per minute feed rate. )
G21 ( Units == Millimeters. )

G90 ( Absolute coordinates. )
G00 S10000 ( RPM spindle speed. )
G01 F360.00000 ( Feedrate. )


G00 Z50.00000 (Retract to tool change height)
T1
M5      (Spindle stop.)
G04 P1.00000 (Wait for spindle to stop)
(MSG, Change tool bit to mill diameter 0.50800mm)
M6      (Tool change.)
M0      (Temporary machine stop.)
M3 ( Spindle on clockwise. )
G04 P1.00000 (Wait for spindle to get up to speed)
G04 P0 ( dwell for no time -- G64 should not smooth over this point )
G00 Z10.00000 ( retract )

G00 X-18.58957 Y-0.25400 ( rapid move to begin. )
G01 F30.00000
( Mill infeed pass 1/1 )
G01 Z-0.10000
G04 P0 ( dwell for no time -- G64 should not smooth over this point )
G01 F360.00000
G01 X-18.58957 Y-0.25400
G01 X0.25400 Y-0.25400
G01 X0.25400 Y50.00993
G01 X-72.38997 Y50.00993
G01 X-72.38997 Y-0.25400
G01 X-53.87495 Y-0.25400
G01 X-53.24549 Y0.42842
G01 X-52.17206 Y0.78621
G01 X-51.52324 Y1.00790
G01 X-51.30897 Y1.08649
G01 X-46.40120 Y2.65387
G01 X-46.18142 Y2.72938
G01 X-45.84497 Y2.85575
G01 X-45.77177 Y2.87338
G01 X-45.63872 Y3.26951
G01 X-45.48269 Y3.69743
G01 X-45.37199 Y3.96464
G01 X-45.26641 Y4.25463
G01 X-45.19308 Y4.47459
G01 X-45.12503 Y4.64015
G01 X-45.11098 Y4.68937
G01 X-45.10598 Y4.73380
G01 X-45.10555 Y5.00774
G01 X-45.10862 Y5.04683
G01 X-45.16082 Y5.21965
G01 X-45.17123 Y5.31802
G01 X-45.17380 Y6.91881
G01 X-45.37202 Y6.92450
G01 X-45.63872 Y6.92450
G01 X-45.84510 Y6.91817
G01 X-45.83758 Y6.21492
G01 X-45.83709 Y5.41503
G01 X-45.84642 Y5.23809
G01 X-45.85800 Y5.18549
G01 X-45.89513 Y5.08076
G01 X-45.90435 Y5.02752
G01 X-45.90514 Y4.86420
G01 X-45.89841 Y4.81378
G01 X-45.88739 Y4.77764
G01 X-45.85584 Y4.71218
G01 X-45.83252 Y4.67733
G01 X-45.83859 Y4.61843
G01 X-45.83938 Y4.53796
G01 X-45.83859 Y3.44884
G01 X-45.84497 Y2.85575
G01 X-45.77177 Y2.87338
G01 X-44.70578 Y2.87439
G01 X-44.24060 Y2.89248
G01 X-43.81965 Y3.00667
G01 X-43.63616 Y2.99964
G01 X-43.57154 Y3.00777
G01 X-43.10609 Y3.00789
G01 X-42.83949 Y2.99618
G01 X-42.57858 Y3.01849
G01 X-42.44360 Y3.19217
G01 X-42.30586 Y3.38209
G01 X-41.63997 Y3.78076
G01 X-41.52633 Y3.82732
G01 X-41.37434 Y3.89692
G01 X-41.04015 Y4.00741
G01 X-41.03865 Y4.33385
G01 X-41.04251 Y4.46105
G01 X-41.05572 Y4.54751
G01 X-41.10266 Y4.69572
G01 X-41.10685 Y4.74129
G01 X-41.10685 Y5.00774
G01 X-41.09938 Y5.07050
G01 X-41.05572 Y5.20154
G01 X-41.04597 Y5.25645
G01 X-41.04028 Y5.34126
G01 X-41.03611 Y6.10100
G01 X-41.03723 Y6.91873
G01 X-40.84015 Y6.92450
G01 X-40.58308 Y6.92450
G01 X-40.30901 Y5.54231
G01 X-40.30596 Y5.40482
G01 X-40.29720 Y5.27822
G01 X-40.28803 Y5.22864
G01 X-40.21818 Y5.00774
G01 X-40.17378 Y4.91023
G01 X-40.17378 Y4.85140
G01 X-40.21044 Y4.76245
G01 X-40.26741 Y4.59483
G01 X-40.28354 Y4.54033
G01 X-40.30162 Y4.43926
G01 X-40.30797 Y4.26253
G01 X-40.30637 Y3.29194
G01 X-40.31313 Y3.21889
G01 X-40.33248 Y3.15793
G01 X-40.35621 Y3.11323
G01 X-40.38473 Y3.07155
G01 X-40.44739 Y3.00126
G01 X-40.33149 Y2.72161
G01 X-40.27919 Y2.61777
G01 X-40.26284 Y2.57399
G01 X-40.25171 Y2.52915
G01 X-40.24414 Y2.47660
G01 X-40.24084 Y2.39166
G01 X-40.24137 Y2.02232
G01 X-40.44089 Y1.97800
G01 X-40.43916 Y1.35306
G01 X-40.44094 Y1.26055
G01 X-40.44630 Y1.21895
G01 X-40.46507 Y1.15999
G01 X-40.49385 Y1.10531
G01 X-40.52667 Y1.05921
G01 X-40.58036 Y1.00109
G01 X-40.46322 Y0.71885
G01 X-40.41267 Y0.61778
G01 X-40.39613 Y0.57399
G01 X-40.38478 Y0.52901
G01 X-40.37698 Y0.47633
G01 X-40.37404 Y0.37793
G01 X-40.37272 Y0.15387
G01 X-40.37772 Y-0.25400
G01 X-39.43975 Y-0.25400
G01 X-39.44043 Y0.40792
G01 X-39.45225 Y0.56551
G01 X-39.47467 Y0.67363
G01 X-39.48613 Y0.70952
G01 X-39.62225 Y1.04176
G01 X-39.63769 Y1.09944
G01 X-39.64089 Y1.15349
G01 X-39.63479 Y1.19911
G01 X-39.61249 Y1.26482
G01 X-39.49446 Y1.50045
G01 X-39.29456 Y1.87142
G01 X-39.44130 Y1.96360
G01 X-39.44059 Y2.27538
G01 X-39.43353 Y2.39700
G01 X-39.41354 Y2.51457
G01 X-39.37803 Y2.67980
G01 X-39.36705 Y2.82710
G01 X-39.34597 Y2.91465
G01 X-39.31511 Y2.99176
G01 X-39.29400 Y3.03342
G01 X-39.21613 Y3.15201
G01 X-39.10599 Y3.27848
G01 X-39.04229 Y3.34427
G01 X-39.09814 Y3.86001
G01 X-39.04229 Y3.34427
G01 X-38.96223 Y3.26365
G01 X-38.87650 Y3.16611
G01 X-38.79489 Y3.04648
G01 X-38.74318 Y2.93477
G01 X-38.71730 Y2.84340
G01 X-38.75893 Y2.71645
G01 X-38.77239 Y2.64493
G01 X-38.77513 Y2.00777
G01 X-38.97645 Y1.93975
G01 X-39.21460 Y1.84925
G01 X-39.29456 Y1.87142
G01 X-39.21460 Y1.84925
G01 X-39.15682 Y1.50355
G01 X-39.12552 Y1.36441
G01 X-39.09703 Y1.28171
G01 X-39.02898 Y1.11963
G01 X-38.99484 Y1.05390
G01 X-38.96434 Y1.00731
G01 X-38.94991 Y0.93815
G01 X-38.93594 Y0.89522
G01 X-38.86845 Y0.73063
G01 X-38.80990 Y0.61298
G01 X-38.78633 Y0.53614
G01 X-38.77747 Y0.47539
G01 X-38.77427 Y0.39654
G01 X-38.77315 Y-0.25400
G01 X-39.43975 Y-0.25400
G01 X-38.04199 Y-0.25400
G01 X-38.04257 Y0.17592
G01 X-38.04006 Y0.34493
G01 X-38.03409 Y0.45822
G01 X-38.01234 Y0.56210
G01 X-37.97440 Y0.67775
G01 X-37.94608 Y0.75816
G01 X-37.90836 Y0.83861
G01 X-37.91214 Y0.94419
G01 X-37.92469 Y1.00912
G01 X-37.90810 Y1.11648
G01 X-37.90787 Y1.29609
G01 X-37.91440 Y1.36380
G01 X-37.96269 Y1.57775
G01 X-37.97529 Y1.73048
G01 X-37.97424 Y1.96360
G01 X-38.10851 Y2.00815
G01 X-38.10762 Y2.39499
G01 X-38.11041 Y2.46840
G01 X-38.11664 Y2.51778
G01 X-38.12433 Y2.55425
G01 X-38.14503 Y2.61513
G01 X-38.21372 Y2.75527
G01 X-38.24000 Y2.79608
G01 X-38.24067 Y3.08610
G01 X-38.21717 Y3.12323
G01 X-38.19390 Y3.17241
G01 X-38.18105 Y3.21467
G01 X-38.17465 Y3.26398
G01 X-38.17440 Y4.87411
G01 X-38.17003 Y4.92150
G01 X-38.16025 Y4.96052
G01 X-38.14188 Y5.00794
G01 X-38.19291 Y5.11117
G01 X-38.26119 Y5.27251
G01 X-38.34003 Y5.50680
G01 X-38.44110 Y5.78467
G01 X-38.55095 Y6.04939
G01 X-38.68069 Y6.39757
G01 X-38.73622 Y6.95396
G01 X-38.68069 Y6.39757
G01 X-38.82956 Y5.77642
G01 X-38.90747 Y5.47256
G01 X-38.91107 Y5.27853
G01 X-38.92542 Y5.19052
G01 X-38.95568 Y5.11114
G01 X-39.01082 Y5.00258
G01 X-39.04082 Y4.95394
G01 X-39.04122 Y3.90456
G01 X-39.09814 Y3.86001
G01 X-39.27267 Y3.90802
G01 X-39.70749 Y4.05206
G01 X-39.70685 Y4.27911
G01 X-39.69563 Y4.44043
G01 X-39.67790 Y4.52740
G01 X-39.61674 Y4.76608
G01 X-39.57444 Y4.87683
G01 X-39.57287 Y6.97489
G01 X-39.83355 Y6.98980
G01 X-40.25776 Y6.97304
G01 X-40.58308 Y6.92450
G01 X-40.84015 Y6.92450
G01 X-41.03723 Y6.91873
G01 X-41.24386 Y6.92419
G01 X-41.65562 Y6.92389
G01 X-41.87485 Y6.91675
G01 X-42.15676 Y5.65175
G01 X-42.21505 Y5.45153
G01 X-42.25290 Y5.34507
G01 X-42.29108 Y5.18531
G01 X-42.29687 Y5.14629
G01 X-42.30637 Y5.01807
G01 X-42.30586 Y3.38209
G01 X-41.63997 Y3.78076
G01 X-41.52633 Y3.82732
G01 X-41.37434 Y3.89692
G01 X-41.04015 Y4.00741
G01 X-39.99870 Y4.00886
G01 X-39.86647 Y4.02102
G01 X-39.70749 Y4.05206
G01 X-39.27267 Y3.90802
G01 X-39.09814 Y3.86001
G01 X-39.04122 Y3.90456
G01 X-38.83637 Y3.95036
G01 X-38.65801 Y3.98729
G01 X-38.44087 Y4.00693
G01 X-37.64125 Y4.00807
G01 X-37.49675 Y3.99918
G01 X-37.09436 Y3.95470
G01 X-36.86414 Y3.94208
G01 X-36.57199 Y3.94045
G01 X-36.57308 Y4.75501
G01 X-36.56835 Y4.87794
G01 X-35.43752 Y4.87454
G01 X-35.40608 Y4.87533
G01 X-35.39675 Y4.89359
G01 X-35.37687 Y4.95714
G01 X-35.37138 Y5.02757
G01 X-35.36208 Y5.08081
G01 X-35.32101 Y5.20151
G01 X-35.31128 Y5.25638
G01 X-35.30699 Y5.31084
G01 X-35.30255 Y6.91873
G01 X-35.10559 Y6.92450
G01 X-34.83889 Y6.92450
G01 X-34.57618 Y6.91424
G01 X-34.57179 Y6.09374
G01 X-34.57222 Y4.74129
G01 X-34.58243 Y4.66832
G01 X-34.62343 Y4.54749
G01 X-34.63315 Y4.49270
G01 X-34.63745 Y4.43824
G01 X-34.63775 Y3.63284
G01 X-34.30572 Y3.78313
G01 X-34.03981 Y3.85623
G01 X-33.77258 Y3.88076
G01 X-33.44136 Y3.86133
G01 X-33.03971 Y3.88760
G01 X-32.87771 Y3.87589
G01 X-32.66275 Y3.87388
G01 X-32.63844 Y3.87441
G01 X-32.57596 Y3.89209
G01 X-32.43961 Y3.88074
G01 X-32.29605 Y3.87482
G01 X-32.17314 Y3.88076
G01 X-31.84025 Y3.91076
G01 X-31.84169 Y3.62674
G01 X-31.83715 Y3.41079
G01 X-31.82554 Y3.29461
G01 X-31.77924 Y3.08541
G01 X-31.77362 Y3.02400
G01 X-31.77324 Y2.83782
G01 X-31.80880 Y2.76466
G01 X-31.82363 Y2.72410
G01 X-31.87304 Y2.57457
G01 X-31.89666 Y2.47086
G01 X-31.90570 Y2.36441
G01 X-31.90657 Y2.02964
G01 X-31.90570 Y2.36441
G01 X-31.89666 Y2.47086
G01 X-31.87304 Y2.57457
G01 X-31.82363 Y2.72410
G01 X-31.80880 Y2.76466
G01 X-31.77324 Y2.83782
G01 X-31.77362 Y3.02400
G01 X-31.77924 Y3.08541
G01 X-31.82554 Y3.29461
G01 X-31.83715 Y3.41079
G01 X-31.84169 Y3.62674
G01 X-31.84025 Y3.91076
G01 X-31.50677 Y4.09230
G01 X-31.50677 Y4.42529
G01 X-31.58780 Y4.60797
G01 X-31.62531 Y4.70220
G01 X-31.68724 Y4.93055
G01 X-31.69384 Y4.97210
G01 X-31.70502 Y5.18307
G01 X-31.70286 Y5.22463
G01 X-31.67654 Y5.40791
G01 X-31.65792 Y5.49590
G01 X-31.34035 Y6.91639
G01 X-31.67654 Y5.40791
G01 X-31.70286 Y5.22463
G01 X-31.70502 Y5.18307
G01 X-31.69384 Y4.97210
G01 X-31.68724 Y4.93055
G01 X-31.62531 Y4.70220
G01 X-31.58780 Y4.60797
G01 X-31.50677 Y4.42529
G01 X-31.50677 Y4.09230
G01 X-31.23682 Y3.96387
G01 X-31.24314 Y3.60863
G01 X-31.23872 Y2.94477
G01 X-31.26402 Y2.92478
G01 X-31.29247 Y2.84757
G01 X-31.30222 Y2.79946
G01 X-31.21104 Y2.61516
G01 X-31.19034 Y2.55443
G01 X-31.18261 Y2.51793
G01 X-31.17596 Y2.45824
G01 X-31.17273 Y2.35615
G01 X-31.17319 Y1.87528
G01 X-31.32767 Y1.79748
G01 X-31.33192 Y1.75778
G01 X-31.41619 Y1.37513
G01 X-31.43936 Y1.15667
G01 X-31.43418 Y1.02547
G01 X-31.41010 Y0.87551
G01 X-31.42686 Y0.78174
G01 X-31.43905 Y0.64910
G01 X-31.44007 Y-0.25400
G01 X-29.57302 Y-0.25400
G01 X-29.57363 Y0.61321
G01 X-29.56458 Y0.69177
G01 X-29.55392 Y0.73343
G01 X-29.54287 Y0.76467
G01 X-29.50731 Y0.83782
G01 X-29.50728 Y1.85649
G01 X-29.64028 Y1.89194
G01 X-29.64045 Y2.46273
G01 X-29.64261 Y2.52301
G01 X-29.64965 Y2.57886
G01 X-29.66941 Y2.65554
G01 X-29.69570 Y2.71800
G01 X-29.72526 Y2.76779
G01 X-29.77934 Y2.83461
G01 X-29.80116 Y2.92687
G01 X-29.77754 Y3.02819
G01 X-29.77317 Y3.10416
G01 X-29.77500 Y3.76339
G01 X-29.90649 Y3.80789
G01 X-30.07822 Y3.87401
G01 X-29.97728 Y4.13568
G01 X-29.86161 Y4.47459
G01 X-29.79384 Y4.63901
G01 X-29.78107 Y4.68061
G01 X-29.77502 Y4.71848
G01 X-29.77634 Y5.04200
G01 X-29.78417 Y5.08074
G01 X-29.81043 Y5.15216
G01 X-29.82933 Y5.21962
G01 X-29.83979 Y5.31800
G01 X-29.84472 Y6.10100
G01 X-29.84358 Y6.91873
G01 X-30.04055 Y6.92450
G01 X-30.30703 Y6.92450
G01 X-30.51353 Y6.91817
G01 X-30.50601 Y6.21568
G01 X-30.50553 Y5.41523
G01 X-30.51487 Y5.23814
G01 X-30.52646 Y5.18549
G01 X-30.56354 Y5.08084
G01 X-30.57279 Y5.02755
G01 X-30.57357 Y4.86420
G01 X-30.56682 Y4.81371
G01 X-30.55579 Y4.77754
G01 X-30.52422 Y4.71200
G01 X-30.50032 Y4.67639
G01 X-30.50703 Y4.61843
G01 X-30.50781 Y4.53794
G01 X-30.50492 Y3.87391
G01 X-30.37375 Y3.83819
G01 X-30.37472 Y3.58043
G01 X-30.37106 Y3.41079
G01 X-30.35945 Y3.29461
G01 X-30.31688 Y3.10756
G01 X-30.30731 Y3.01122
G01 X-30.31236 Y2.93604
G01 X-30.33034 Y2.85044
G01 X-30.37454 Y2.80838
G01 X-30.37380 Y1.91447
G01 X-30.27345 Y1.87447
G01 X-30.37322 Y1.47356
G01 X-30.37703 Y1.27861
G01 X-30.39148 Y1.19052
G01 X-30.42232 Y1.10995
G01 X-30.47667 Y1.00231
G01 X-30.50685 Y0.95347
G01 X-30.50725 Y0.72995
G01 X-30.51109 Y0.68514
G01 X-30.52526 Y0.62189
G01 X-30.55148 Y0.53467
G01 X-30.56727 Y0.44468
G01 X-30.57144 Y0.39030
G01 X-30.57370 Y-0.25400
G01 X-32.70728 Y-0.25400
G01 X-32.70771 Y0.76774
G01 X-32.72584 Y0.84333
G01 X-32.79488 Y1.00912
G01 X-32.77951 Y1.06639
G01 X-32.77293 Y1.12530
G01 X-32.77527 Y1.18821
G01 X-32.78368 Y1.23688
G01 X-32.91243 Y1.62469
G01 X-33.01220 Y1.88453
G01 X-32.63961 Y2.00777
G01 X-32.63811 Y2.33385
G01 X-32.64197 Y2.46106
G01 X-32.65518 Y2.54752
G01 X-32.70212 Y2.69573
G01 X-32.70631 Y2.74132
G01 X-32.70631 Y3.00777
G01 X-32.69884 Y3.07050
G01 X-32.65518 Y3.20154
G01 X-32.64543 Y3.25646
G01 X-32.64113 Y3.31094
G01 X-32.63844 Y3.87441
G01 X-32.87771 Y3.87589
G01 X-33.03971 Y3.88760
G01 X-33.03763 Y4.45409
G01 X-33.02775 Y4.53441
G01 X-33.00974 Y4.59664
G01 X-32.98718 Y4.65463
G01 X-32.97659 Y4.69781
G01 X-32.97296 Y4.73784
G01 X-32.97928 Y4.79895
G01 X-32.99257 Y4.84315
G01 X-33.06196 Y5.00926
G01 X-33.04662 Y5.06669
G01 X-33.04017 Y5.12542
G01 X-33.04261 Y5.18805
G01 X-33.05106 Y5.23644
G01 X-33.07791 Y5.31452
G01 X-33.10542 Y5.36974
G01 X-33.28858 Y5.65417
G01 X-33.46503 Y6.01114
G01 X-33.70265 Y6.59282
G01 X-33.78469 Y6.92241
G01 X-33.70265 Y6.59282
G01 X-33.70801 Y5.93923
G01 X-33.70618 Y5.33994
G01 X-33.71167 Y5.25650
G01 X-33.72129 Y5.20159
G01 X-33.75876 Y5.09283
G01 X-33.76953 Y5.04685
G01 X-33.77258 Y5.00774
G01 X-33.77331 Y4.38214
G01 X-33.76950 Y4.14007
G01 X-33.77258 Y3.88076
G01 X-33.44136 Y3.86133
G01 X-33.43681 Y3.60223
G01 X-33.43905 Y3.35742
G01 X-33.44487 Y3.25658
G01 X-33.45472 Y3.20157
G01 X-33.49937 Y3.06654
G01 X-33.51345 Y2.94475
G01 X-33.52272 Y2.91348
G01 X-33.54009 Y2.87533
G01 X-33.51418 Y2.80645
G01 X-33.50593 Y2.74119
G01 X-33.50453 Y2.33804
G01 X-33.50992 Y1.92174
G01 X-33.33928 Y1.87190
G01 X-33.43864 Y1.47366
G01 X-33.44243 Y1.27869
G01 X-33.45683 Y1.19057
G01 X-33.48833 Y1.10952
G01 X-33.54255 Y1.00269
G01 X-33.57278 Y0.95372
G01 X-33.57301 Y0.72995
G01 X-33.57679 Y0.68517
G01 X-33.59097 Y0.62179
G01 X-33.61718 Y0.53470
G01 X-33.63590 Y0.41862
G01 X-33.63991 Y0.21537
G01 X-33.63780 Y-0.25400
G01 X-34.17207 Y-0.25400
G01 X-34.17316 Y0.27396
G01 X-34.16760 Y0.43894
G01 X-34.15010 Y0.54011
G01 X-34.14022 Y0.57419
G01 X-34.07583 Y0.76246
G01 X-34.03918 Y0.85141
G01 X-34.03918 Y0.91023
G01 X-34.08357 Y1.00775
G01 X-34.15381 Y1.22883
G01 X-34.16333 Y1.27856
G01 X-34.17293 Y1.40658
G01 X-34.17230 Y1.54028
G01 X-34.25253 Y1.94122
G01 X-34.54004 Y2.07655
G01 X-34.70554 Y2.17124
G01 X-34.90217 Y2.29616
G01 X-34.90684 Y1.94229
G01 X-34.90417 Y1.48026
G01 X-34.90707 Y1.31094
G01 X-34.91136 Y1.25646
G01 X-34.92111 Y1.20155
G01 X-34.96213 Y1.08092
G01 X-34.97146 Y1.02761
G01 X-34.97694 Y0.95710
G01 X-34.98886 Y0.91336
G01 X-35.00610 Y0.87533
G01 X-34.93567 Y0.73612
G01 X-34.89937 Y0.67732
G01 X-34.90371 Y0.64493
G01 X-34.90587 Y0.53825
G01 X-34.90326 Y0.06701
G01 X-34.90783 Y-0.25400
G01 X-34.90326 Y0.06701
G01 X-34.90587 Y0.53825
G01 X-34.90371 Y0.64493
G01 X-34.89937 Y0.67732
G01 X-34.93567 Y0.73612
G01 X-35.00610 Y0.87533
G01 X-35.67527 Y0.87455
G01 X-35.94565 Y0.87843
G01 X-36.38550 Y0.87749
G01 X-36.37369 Y0.61199
G01 X-36.37277 Y-0.25400
G01 X-36.37369 Y0.61199
G01 X-36.38550 Y0.87749
G01 X-36.39685 Y0.94127
G01 X-36.37633 Y1.15560
G01 X-36.32678 Y2.00843
G01 X-35.73714 Y2.83972
G01 X-35.51321 Y2.86304
G01 X-35.30867 Y3.08513
G01 X-35.10791 Y3.26725
G01 X-34.91390 Y3.43111
G01 X-34.63775 Y3.63284
G01 X-34.30572 Y3.78313
G01 X-34.03981 Y3.85623
G01 X-33.77258 Y3.88076
G01 X-33.44136 Y3.86133
G01 X-33.43681 Y3.60223
G01 X-33.44047 Y3.31112
G01 X-33.44487 Y3.25658
G01 X-33.45472 Y3.20157
G01 X-33.49595 Y3.08082
G01 X-33.50524 Y3.02758
G01 X-33.51078 Y2.95714
G01 X-33.52272 Y2.91348
G01 X-33.54009 Y2.87533
G01 X-34.20892 Y2.87454
G01 X-34.47931 Y2.87843
G01 X-35.49904 Y2.87622
G01 X-35.51321 Y2.86304
G01 X-35.30867 Y3.08513
G01 X-35.30938 Y3.58778
G01 X-35.30318 Y4.06740
G01 X-35.30580 Y4.53827
G01 X-35.30364 Y4.64490
G01 X-35.29929 Y4.67738
G01 X-35.33562 Y4.73624
G01 X-35.40608 Y4.87533
G01 X-35.38878 Y4.91343
G01 X-35.37687 Y4.95714
G01 X-35.37138 Y5.02757
G01 X-35.36208 Y5.08081
G01 X-35.32101 Y5.20151
G01 X-35.31128 Y5.25638
G01 X-35.30699 Y5.31084
G01 X-35.30255 Y6.91873
G01 X-35.63249 Y6.92450
G01 X-36.03407 Y6.90154
G01 X-36.34798 Y6.85396
G01 X-36.55878 Y5.37174
G01 X-36.57321 Y5.15480
G01 X-36.57346 Y5.01099
G01 X-36.56835 Y4.87794
G01 X-36.57308 Y4.75501
G01 X-36.57199 Y3.94045
G01 X-36.03544 Y3.18953
G01 X-35.73714 Y2.83972
G01 X-35.51321 Y2.86304
G01 X-35.30867 Y3.08513
G01 X-35.10791 Y3.26725
G01 X-34.91390 Y3.43111
G01 X-34.63775 Y3.63284
G01 X-34.30572 Y3.78313
G01 X-34.03981 Y3.85623
G01 X-33.77258 Y3.88076
G01 X-33.44136 Y3.86133
G01 X-33.03971 Y3.88760
G01 X-32.87771 Y3.87589
G01 X-32.66275 Y3.87388
G01 X-32.63844 Y3.87441
G01 X-32.57596 Y3.89209
G01 X-32.43961 Y3.88074
G01 X-32.29605 Y3.87482
G01 X-32.02884 Y3.89316
G01 X-31.84025 Y3.91076
G01 X-31.50677 Y4.09230
G01 X-31.23682 Y3.96387
G01 X-31.08945 Y3.92463
G01 X-30.91589 Y3.88981
G01 X-30.69491 Y3.87469
G01 X-30.50492 Y3.87391
G01 X-30.37375 Y3.83819
G01 X-30.21813 Y3.86342
G01 X-30.07822 Y3.87401
G01 X-29.90649 Y3.80789
G01 X-29.77500 Y3.76339
G01 X-29.50743 Y3.73367
G01 X-29.37406 Y3.71150
G01 X-28.90779 Y3.81541
G01 X-28.90606 Y3.41516
G01 X-28.91122 Y3.27546
G01 X-28.92019 Y3.21432
G01 X-28.93245 Y3.16784
G01 X-28.99565 Y3.01752
G01 X-29.03182 Y2.86418
G01 X-29.03946 Y2.80525
G01 X-29.03987 Y2.74775
G01 X-29.03357 Y2.69179
G01 X-29.01932 Y2.61899
G01 X-29.03456 Y2.53644
G01 X-29.04073 Y2.44122
G01 X-29.04114 Y1.91099
G01 X-28.90995 Y1.87510
G01 X-28.90644 Y1.36459
G01 X-28.90830 Y0.87620
G01 X-28.73929 Y0.74859
G01 X-28.71422 Y0.70627
G01 X-28.70708 Y0.52878
G01 X-28.70756 Y-0.25400
G01 X-27.90876 Y-0.25400
G01 X-27.90817 Y0.44026
G01 X-28.01198 Y0.59733
G01 X-28.05811 Y0.67671
G01 X-28.15158 Y0.89703
G01 X-28.17033 Y0.96210
G01 X-28.17449 Y1.00775
G01 X-28.17465 Y1.14635
G01 X-28.17848 Y1.18725
G01 X-28.18704 Y1.22187
G01 X-28.20777 Y1.27445
G01 X-28.24838 Y1.35641
G01 X-28.37543 Y1.60950
G01 X-28.43982 Y1.72923
G01 X-28.48559 Y1.87147
G01 X-28.24096 Y1.97805
G01 X-28.24241 Y2.33355
G01 X-28.23395 Y2.50487
G01 X-28.21879 Y2.57350
G01 X-28.20721 Y2.60617
G01 X-28.14480 Y2.73515
G01 X-28.11442 Y2.80812
G01 X-28.16022 Y2.92181
G01 X-28.17208 Y2.97345
G01 X-28.17797 Y3.05092
G01 X-28.19430 Y3.11018
G01 X-28.26908 Y3.29349
G01 X-28.36459 Y3.57716
G01 X-28.44114 Y3.78831
G01 X-28.47779 Y3.87566
G01 X-28.24173 Y3.97797
G01 X-28.24076 Y4.42628
G01 X-28.23855 Y4.46827
G01 X-28.22451 Y4.55422
G01 X-28.20375 Y4.61513
G01 X-28.07551 Y4.86989
G01 X-27.97713 Y5.07743
G01 X-27.97660 Y5.19867
G01 X-27.99344 Y5.32907
G01 X-28.01559 Y5.41863
G01 X-28.44437 Y6.92450
G01 X-28.90441 Y6.91873
G01 X-28.90962 Y5.93855
G01 X-28.90495 Y5.60222
G01 X-28.90792 Y5.31843
G01 X-28.91114 Y5.26644
G01 X-28.92268 Y5.20159
G01 X-28.95938 Y5.09588
G01 X-28.96997 Y5.05333
G01 X-28.97416 Y5.00774
G01 X-28.97416 Y4.74129
G01 X-28.97830 Y4.69577
G01 X-28.98892 Y4.65320
G01 X-29.02544 Y4.54744
G01 X-29.03433 Y4.50108
G01 X-29.04112 Y4.34233
G01 X-28.80584 Y3.87111
G01 X-28.90779 Y3.81541
G01 X-28.80584 Y3.87111
G01 X-28.70756 Y3.87513
G01 X-28.47779 Y3.87566
G01 X-28.24173 Y3.97797
G01 X-28.04056 Y4.00053
G01 X-27.93291 Y4.00670
G01 X-22.84722 Y4.00787
G01 X-22.20785 Y3.40779
G01 X-21.40801 Y2.60795
G01 X-20.83514 Y2.00777
G01 X-23.60983 Y2.00777
G01 X-24.79977 Y2.00398
G01 X-26.29789 Y2.00894
G01 X-27.49682 Y2.00777
G01 X-27.59151 Y2.01138
G01 X-27.77475 Y2.03782
G01 X-27.90708 Y2.01531
G01 X-28.24096 Y1.97805
G01 X-28.48559 Y1.87147
G01 X-28.90995 Y1.87510
G01 X-29.04114 Y1.91099
G01 X-29.20337 Y1.88476
G01 X-29.50728 Y1.85649
G01 X-29.64028 Y1.89194
G01 X-29.89677 Y1.87455
G01 X-30.27345 Y1.87447
G01 X-30.37380 Y1.91447
G01 X-30.57459 Y1.93464
G01 X-30.68800 Y1.94064
G01 X-30.85770 Y1.93269
G01 X-30.98561 Y1.91216
G01 X-31.17319 Y1.87528
G01 X-31.32767 Y1.79748
G01 X-31.52689 Y1.89741
G01 X-31.65046 Y1.94493
G01 X-31.90657 Y2.02964
G01 X-32.06031 Y2.01389
G01 X-32.17314 Y2.00762
G01 X-32.63961 Y2.00777
G01 X-33.01220 Y1.88453
G01 X-33.10631 Y1.89883
G01 X-33.26717 Y1.87719
G01 X-33.33928 Y1.87190
G01 X-33.50992 Y1.92174
G01 X-33.64146 Y1.93477
G01 X-33.78523 Y1.94122
G01 X-34.25253 Y1.94122
G01 X-34.28428 Y1.95506
G01 X-34.54004 Y2.07655
G01 X-34.70554 Y2.17124
G01 X-34.90217 Y2.29616
G01 X-35.09056 Y2.46670
G01 X-35.39681 Y2.75770
G01 X-35.51321 Y2.86304
G01 X-35.58225 Y2.85664
G01 X-35.73714 Y2.83972
G01 X-36.32678 Y2.00843
G01 X-37.64128 Y2.00683
G01 X-37.85867 Y1.98712
G01 X-37.97424 Y1.96360
G01 X-38.10851 Y2.00815
G01 X-38.77513 Y2.00777
G01 X-38.97645 Y1.93975
G01 X-39.21460 Y1.84925
G01 X-39.29456 Y1.87142
G01 X-39.44130 Y1.96360
G01 X-39.82309 Y2.00421
G01 X-40.12504 Y2.01132
G01 X-40.24137 Y2.02232
G01 X-40.44089 Y1.97800
G01 X-40.58945 Y2.00147
G01 X-40.70703 Y2.00790
G01 X-41.63997 Y2.00914
G01 X-41.63997 Y1.96190
G01 X-41.60075 Y1.76936
G01 X-41.54551 Y1.44719
G01 X-41.50497 Y1.30393
G01 X-41.42613 Y1.11529
G01 X-41.39357 Y1.05268
G01 X-41.32773 Y0.96383
G01 X-41.22781 Y0.86215
G01 X-41.24000 Y0.74160
G01 X-41.23901 Y0.17554
G01 X-41.24587 Y-0.25400
G01 X-44.30664 Y-0.25400
G01 X-44.30723 Y0.17592
G01 X-44.30471 Y0.34493
G01 X-44.29874 Y0.45822
G01 X-44.27700 Y0.56210
G01 X-44.23905 Y0.67775
G01 X-44.21073 Y0.75816
G01 X-44.17301 Y0.83861
G01 X-44.17680 Y0.94419
G01 X-44.18935 Y1.00912
G01 X-44.17276 Y1.11648
G01 X-44.17253 Y1.29609
G01 X-44.17906 Y1.36380
G01 X-44.22734 Y1.57775
G01 X-44.23994 Y1.73048
G01 X-44.23649 Y2.25984
G01 X-44.24060 Y2.89248
G01 X-43.81965 Y3.00667
G01 X-43.90634 Y3.27533
G01 X-44.04350 Y3.65562
G01 X-44.18030 Y3.95691
G01 X-44.37268 Y4.34226
G01 X-44.36590 Y4.50098
G01 X-44.35701 Y4.54741
G01 X-44.32049 Y4.65315
G01 X-44.30987 Y4.69575
G01 X-44.30570 Y4.74129
G01 X-44.30570 Y5.00774
G01 X-44.30265 Y5.04685
G01 X-44.29189 Y5.09283
G01 X-44.25442 Y5.20159
G01 X-44.24307 Y5.26631
G01 X-44.23999 Y5.31805
G01 X-44.24114 Y5.93923
G01 X-44.23623 Y6.91873
G01 X-44.03928 Y6.92450
G01 X-43.77776 Y6.92450
G01 X-43.34716 Y5.41863
G01 X-43.32498 Y5.32902
G01 X-43.30817 Y5.19864
G01 X-43.30870 Y5.07731
G01 X-43.40713 Y4.86959
G01 X-43.53535 Y4.61513
G01 X-43.54764 Y4.58318
G01 X-43.56384 Y4.51777
G01 X-43.57233 Y4.42638
G01 X-43.57502 Y4.17957
G01 X-43.56979 Y3.46695
G01 X-43.57154 Y3.00777
G01 X-43.63616 Y2.99964
G01 X-43.63959 Y1.26411
G01 X-43.64596 Y1.21483
G01 X-43.65876 Y1.17267
G01 X-43.68201 Y1.12352
G01 X-43.70560 Y1.08618
G01 X-43.70494 Y0.79599
G01 X-43.67860 Y0.75514
G01 X-43.60995 Y0.61514
G01 X-43.58922 Y0.55428
G01 X-43.57525 Y0.46843
G01 X-43.57068 Y-0.25400
G01 X-42.90484 Y-0.25400
G01 X-42.90637 Y0.34968
G01 X-42.90530 Y0.43106
G01 X-42.89869 Y0.50894
G01 X-42.87731 Y0.59281
G01 X-42.84820 Y0.65941
G01 X-42.78246 Y0.78163
G01 X-42.73804 Y0.84000
G01 X-42.82034 Y1.03828
G01 X-42.83288 Y1.07808
G01 X-42.84033 Y1.13604
G01 X-42.83718 Y2.46852
G01 X-42.83949 Y2.99618
G01 X-42.57858 Y3.01849
G01 X-42.41051 Y2.87000
G01 X-42.12981 Y2.55059
G01 X-41.63997 Y2.00914
G01 X-41.63997 Y1.96190
G01 X-41.80081 Y1.67660
G01 X-41.89672 Y1.49502
G01 X-42.14795 Y0.98809
G01 X-42.10700 Y0.94061
G01 X-41.95917 Y0.79245
G01 X-41.91104 Y0.73312
G01 X-41.88826 Y0.69837
G01 X-41.84653 Y0.61725
G01 X-41.83024 Y0.57602
G01 X-41.79598 Y0.45108
G01 X-41.78750 Y0.40201
G01 X-41.77381 Y0.24912
G01 X-41.77307 Y-0.25400
G01 X-18.58957 Y-0.25400
G01 X-18.63969 Y-0.19680
G01 X-19.39282 Y0.59225
G01 X-20.20286 Y1.40282
G01 X-20.83514 Y2.00777
G01 X-21.40801 Y2.60795
G01 X-22.20785 Y3.40779
G01 X-22.84722 Y4.00787
G01 X-23.41062 Y4.61058
G01 X-24.22098 Y5.42041
G01 X-24.65636 Y5.82577
G01 X-25.13327 Y6.20192
G01 X-25.57612 Y6.49244
G01 X-26.01892 Y6.72071
G01 X-26.38036 Y6.86521
G01 X-26.70025 Y6.95843
G01 X-27.02293 Y7.02224
G01 X-27.35588 Y7.05335
G01 X-27.64147 Y7.05515
G01 X-27.92710 Y7.03067
G01 X-28.44437 Y6.92450
G01 X-28.90441 Y6.91873
G01 X-29.18445 Y6.92310
G01 X-29.37380 Y6.91446
G01 X-29.63032 Y6.92422
G01 X-29.84358 Y6.91873
G01 X-30.04055 Y6.92450
G01 X-30.30703 Y6.92450
G01 X-30.51353 Y6.91817
G01 X-31.10687 Y6.92450
G01 X-31.34035 Y6.91639
G01 X-31.56105 Y6.97306
G01 X-31.85663 Y7.02721
G01 X-32.19442 Y7.05493
G01 X-32.57339 Y7.04705
G01 X-32.85007 Y7.05762
G01 X-33.29008 Y7.02655
G01 X-33.71317 Y6.94200
G01 X-33.78469 Y6.92241
G01 X-34.32137 Y6.92389
G01 X-34.57618 Y6.91424
G01 X-34.83889 Y6.92450
G01 X-35.10559 Y6.92450
G01 X-35.30255 Y6.91873
G01 X-35.63249 Y6.92450
G01 X-35.99251 Y6.90590
G01 X-36.34798 Y6.85396
G01 X-36.63437 Y6.94200
G01 X-37.14079 Y7.03641
G01 X-37.50793 Y7.05787
G01 X-37.90798 Y7.05787
G01 X-38.16525 Y7.04733
G01 X-38.55499 Y6.99422
G01 X-38.73622 Y6.95396
G01 X-39.13579 Y6.98899
G01 X-39.57287 Y6.97489
G01 X-39.83355 Y6.98980
G01 X-40.25776 Y6.97304
G01 X-40.58308 Y6.92450
G01 X-40.84015 Y6.92450
G01 X-41.03723 Y6.91873
G01 X-41.24386 Y6.92419
G01 X-41.65562 Y6.92389
G01 X-41.87485 Y6.91675
G01 X-42.06324 Y6.96595
G01 X-42.35463 Y7.02224
G01 X-42.68757 Y7.05335
G01 X-43.01457 Y7.05325
G01 X-43.38312 Y7.01210
G01 X-43.77776 Y6.92450
G01 X-44.03928 Y6.92450
G01 X-44.23623 Y6.91873
G01 X-44.51614 Y6.92310
G01 X-44.70537 Y6.91446
G01 X-44.96173 Y6.92422
G01 X-45.17380 Y6.91881
G01 X-45.37202 Y6.92450
G01 X-45.63872 Y6.92450
G01 X-45.84510 Y6.91817
G01 X-46.43857 Y6.92450
G01 X-46.70293 Y6.91411
G01 X-47.18647 Y6.84581
G01 X-47.49678 Y6.76742
G01 X-47.82774 Y6.65277
G01 X-48.21776 Y6.48071
G01 X-48.63907 Y6.24487
G01 X-49.13323 Y5.90654
G01 X-49.66891 Y5.45973
G01 X-50.08301 Y5.06222
G01 X-50.49708 Y4.61541
G01 X-50.91118 Y4.11930
G01 X-51.32527 Y3.57386
G01 X-51.83650 Y2.83868
G01 X-52.30614 Y2.09799
G01 X-52.77582 Y1.29456
G01 X-53.24549 Y0.42842
G01 X-53.87495 Y-0.25400
G01 X-44.30664 Y-0.25400
G04 P0 ( dwell for no time -- G64 should not smooth over this point )
G00 Z10.00000 ( retract )

G00 X-55.50723 Y39.08793 ( rapid move to begin. )
G01 F30.00000
( Mill infeed pass 1/1 )
G01 Z-0.10000
G04 P0 ( dwell for no time -- G64 should not smooth over this point )
G01 F360.00000
G01 X-55.50723 Y39.08793
G01 X-55.51620 Y38.99192
G01 X-55.53761 Y38.86004
G01 X-55.57802 Y38.75169
G01 X-55.62542 Y38.64780
G01 X-55.70515 Y38.53746
G01 X-55.76519 Y38.46513
G01 X-55.83055 Y38.41059
G01 X-55.94782 Y38.32525
G01 X-56.04353 Y38.28138
G01 X-56.16011 Y38.23754
G01 X-56.27218 Y38.21862
G01 X-56.36605 Y38.20876
G01 X-56.38800 Y38.20731
G01 X-56.46240 Y38.21361
G01 X-56.61597 Y38.23719
G01 X-56.71609 Y38.27460
G01 X-56.82806 Y38.32543
G01 X-56.92196 Y38.39225
G01 X-56.99948 Y38.45552
G01 X-57.07898 Y38.54811
G01 X-57.15048 Y38.64785
G01 X-57.21170 Y38.78623
G01 X-57.23776 Y38.86020
G01 X-57.25145 Y38.93241
G01 X-57.26826 Y39.08793
G01 X-57.25701 Y39.20500
G01 X-57.23009 Y39.37587
G01 X-57.27416 Y39.43391
G01 X-63.63736 Y45.79711
G01 X-63.66741 Y45.82300
G01 X-63.73063 Y45.83085
G01 X-64.75806 Y45.83085
G01 X-64.86327 Y45.85264
G01 X-64.88504 Y45.95787
G01 X-64.88504 Y47.45797
G01 X-64.86327 Y47.56320
G01 X-64.75806 Y47.58499
G01 X-63.25791 Y47.58499
G01 X-63.15271 Y47.56320
G01 X-63.13094 Y47.45797
G01 X-63.13094 Y46.43056
G01 X-63.12306 Y46.36734
G01 X-63.09718 Y46.33730
G01 X-56.73397 Y39.97409
G01 X-56.67634 Y39.93025
G01 X-56.49341 Y39.95844
G01 X-56.38800 Y39.96804
G01 X-56.24043 Y39.95263
G01 X-56.16031 Y39.93749
G01 X-56.08429 Y39.91089
G01 X-55.94802 Y39.85024
G01 X-55.85524 Y39.78435
G01 X-55.76545 Y39.71046
G01 X-55.69778 Y39.62895
G01 X-55.62549 Y39.52799
G01 X-55.57807 Y39.42428
G01 X-55.53761 Y39.31580
G01 X-55.51467 Y39.17124
G01 X-55.50723 Y39.08793
G04 P0 ( dwell for no time -- G64 should not smooth over this point )
G00 Z10.00000 ( retract )

G00 X-27.56743 Y41.62793 ( rapid move to begin. )
G01 F30.00000
( Mill infeed pass 1/1 )
G01 Z-0.10000
G04 P0 ( dwell for no time -- G64 should not smooth over this point )
G01 F360.00000
G01 X-27.56743 Y41.62793
G01 X-27.57907 Y41.74663
G01 X-27.59768 Y41.85580
G01 X-27.64729 Y41.98605
G01 X-27.68511 Y42.06822
G01 X-27.73680 Y42.14132
G01 X-27.82547 Y42.25044
G01 X-27.90914 Y42.31980
G01 X-28.00784 Y42.39054
G01 X-28.13639 Y42.44790
G01 X-28.21998 Y42.47871
G01 X-28.30876 Y42.49395
G01 X-28.44797 Y42.50825
G01 X-28.55770 Y42.49801
G01 X-28.67589 Y42.47833
G01 X-28.79794 Y42.43212
G01 X-28.88826 Y42.39077
G01 X-28.96314 Y42.33781
G01 X-29.07043 Y42.25036
G01 X-29.14170 Y42.16438
G01 X-29.21051 Y42.06801
G01 X-29.26464 Y41.94774
G01 X-29.29875 Y41.85590
G01 X-29.31455 Y41.76329
G01 X-29.32839 Y41.62793
G01 X-29.31770 Y41.51523
G01 X-29.29854 Y41.39999
G01 X-29.24635 Y41.26433
G01 X-29.20446 Y41.17825
G01 X-29.15610 Y41.11038
G01 X-29.07055 Y41.00535
G01 X-28.98196 Y40.93225
G01 X-28.88800 Y40.86550
G01 X-28.76504 Y40.81013
G01 X-28.67597 Y40.77719
G01 X-28.59214 Y40.76263
G01 X-28.44797 Y40.74747
G01 X-28.33218 Y40.75862
G01 X-28.22014 Y40.77764
G01 X-28.09258 Y40.82603
G01 X-28.00772 Y40.86507
G01 X-27.93693 Y40.91501
G01 X-27.82545 Y41.00538
G01 X-27.75054 Y41.09629
G01 X-27.68554 Y41.18788
G01 X-27.62910 Y41.31358
G01 X-27.59720 Y41.39992
G01 X-27.58237 Y41.48579
G01 X-27.56743 Y41.62793
G04 P0 ( dwell for no time -- G64 should not smooth over this point )
G00 Z10.00000 ( retract )

G00 X-7.25091 Y43.41785 ( rapid move to begin. )
G01 F30.00000
( Mill infeed pass 1/1 )
G01 Z-0.10000
G04 P0 ( dwell for no time -- G64 should not smooth over this point )
G01 F360.00000
G01 X-7.25091 Y43.41785
G01 X-7.25091 Y44.91799
G01 X-7.27271 Y45.02318
G01 X-7.37794 Y45.04497
G01 X-8.87806 Y45.04497
G01 X-8.98327 Y45.02320
G01 X-9.00506 Y44.91799
G01 X-9.00506 Y43.41785
G01 X-8.98327 Y43.31264
G01 X-8.87806 Y43.29087
G01 X-7.37794 Y43.29087
G01 X-7.27271 Y43.31266
G01 X-7.25091 Y43.41785
G04 P0 ( dwell for no time -- G64 should not smooth over this point )
G00 Z10.00000 ( retract )

G00 X-7.24743 Y41.62793 ( rapid move to begin. )
G01 F30.00000
( Mill infeed pass 1/1 )
G01 Z-0.10000
G04 P0 ( dwell for no time -- G64 should not smooth over this point )
G01 F360.00000
G01 X-7.24743 Y41.62793
G01 X-7.25907 Y41.74663
G01 X-7.27768 Y41.85577
G01 X-7.32729 Y41.98605
G01 X-7.36511 Y42.06822
G01 X-7.41680 Y42.14132
G01 X-7.50547 Y42.25044
G01 X-7.58914 Y42.31980
G01 X-7.68784 Y42.39054
G01 X-7.81639 Y42.44790
G01 X-7.89998 Y42.47871
G01 X-7.98876 Y42.49395
G01 X-8.12800 Y42.50825
G01 X-8.23770 Y42.49801
G01 X-8.35589 Y42.47833
G01 X-8.47794 Y42.43212
G01 X-8.56826 Y42.39077
G01 X-8.64314 Y42.33781
G01 X-8.75043 Y42.25036
G01 X-8.82170 Y42.16438
G01 X-8.89051 Y42.06801
G01 X-8.94464 Y41.94774
G01 X-8.97875 Y41.85590
G01 X-8.99455 Y41.76329
G01 X-9.00839 Y41.62793
G01 X-8.99770 Y41.51523
G01 X-8.97854 Y41.39999
G01 X-8.92635 Y41.26433
G01 X-8.88446 Y41.17825
G01 X-8.83610 Y41.11038
G01 X-8.75055 Y41.00535
G01 X-8.66196 Y40.93225
G01 X-8.56800 Y40.86550
G01 X-8.44504 Y40.81013
G01 X-8.35596 Y40.77719
G01 X-8.27215 Y40.76263
G01 X-8.12800 Y40.74747
G01 X-8.01218 Y40.75862
G01 X-7.90014 Y40.77764
G01 X-7.77258 Y40.82603
G01 X-7.68772 Y40.86507
G01 X-7.61693 Y40.91501
G01 X-7.50545 Y41.00538
G01 X-7.43054 Y41.09629
G01 X-7.36554 Y41.18788
G01 X-7.30910 Y41.31358
G01 X-7.27720 Y41.39994
G01 X-7.26237 Y41.48579
G01 X-7.24743 Y41.62793

G04 P0 ( dwell for no time -- G64 should not smooth over this point )
G00 Z50.000000 ( retract )

M5 ( Spindle off. )
G04 P1.000000
M9 ( Coolant off. )
M2 ( Program end. )

