( pcb2gcode 3.0.1 )
( Software-independent Gcode )

G94 ( Inches per minute feed rate. )
G20 ( Units == INCHES. )

G90 ( Absolute coordinates. )
G00 S10000 ( RPM spindle speed. )
G64 P0.00040 ( set maximum deviation from commanded toolpath )
G01 F100.00000 ( Feedrate. )


G00 Z1.00000 (Retract to tool change height)
T1
M5      (Spindle stop.)
G04 P1.00000 (Wait for spindle to stop)
(MSG, Change tool bit to cutter diameter 0.05906in)
M6      (Tool change.)
M0      (Temporary machine stop.)
M3 ( Spindle on clockwise. )
G04 P1.00000 (Wait for spindle to get up to speed)
G04 P0 ( dwell for no time -- G64 should not smooth over this point )
G00 Z0.08000 ( retract )

G00 X4.28305 Y-5.00077 ( rapid move to begin. )
G01 Z-0.00731 F50.00000 ( plunge. )
G04 P0 ( dwell for no time -- G64 should not smooth over this point )
G01 F100.00000
G01 X4.28337 Y-4.97351
G01 X4.28437 Y-4.94586
G01 X4.28604 Y-4.91863
G01 X4.28829 Y-4.89224
G01 X4.29122 Y-4.86552
G01 X4.29497 Y-4.83771
G01 X4.29929 Y-4.81078
G01 X4.30411 Y-4.78474
G01 X4.30981 Y-4.75766
G01 X4.31619 Y-4.73074
G01 X4.32312 Y-4.70436
G01 X4.33048 Y-4.67892
G01 X4.33868 Y-4.65291
G01 X4.34779 Y-4.62637
G01 X4.35756 Y-4.60006
G01 X4.36739 Y-4.57546
G01 X4.37765 Y-4.55148
G01 X4.38948 Y-4.52558
G01 X4.40125 Y-4.50143
G01 X4.41379 Y-4.47720
G01 X4.42673 Y-4.45365
G01 X4.44104 Y-4.42905
G01 X4.44587 Y-4.42121
G00 Z0.08000
G01 X4.45535 Y-4.40584
G01 X4.47000 Y-4.38331
G01 X4.48021 Y-4.36842
G01 Z-0.00731 F50.00000
G01 F100.00000
G01 X4.48588 Y-4.36016
G01 X4.50116 Y-4.33901
G01 X4.51717 Y-4.31792
G01 X4.53469 Y-4.29599
G01 X4.55275 Y-4.27451
G01 X4.57028 Y-4.25467
G01 X4.58884 Y-4.23467
G01 X4.60759 Y-4.21541
G01 X4.62710 Y-4.19635
G01 X4.64736 Y-4.17750
G01 X4.66718 Y-4.15993
G01 X4.68773 Y-4.14260
G01 X4.70899 Y-4.12552
G01 X4.73099 Y-4.10874
G01 X4.75339 Y-4.09251
G01 X4.77587 Y-4.07706
G01 X4.79839 Y-4.06237
G01 X4.82092 Y-4.04844
G01 X4.84446 Y-4.03467
G01 X4.86902 Y-4.02110
G01 X4.89286 Y-4.00869
G01 X4.91807 Y-3.99635
G01 X4.94285 Y-3.98498
G01 X4.96791 Y-3.97421
G01 X4.99359 Y-3.96393
G01 X5.01878 Y-3.95455
G01 X5.04494 Y-3.94553
G01 X5.07056 Y-3.93740
G01 X5.09675 Y-3.92979
G01 X5.12274 Y-3.92291
G01 X5.14966 Y-3.91650
G01 X5.17595 Y-3.91091
G01 X5.20275 Y-3.90589
G01 X5.23046 Y-3.90142
G01 X5.25670 Y-3.89784
G01 X5.28420 Y-3.89476
G01 X5.31136 Y-3.89241
G01 X5.33937 Y-3.89068
G01 X5.36702 Y-3.88967
G01 X5.39311 Y-3.88935
G01 X5.42039 Y-3.88967
G01 X5.44726 Y-3.89065
G01 X5.47291 Y-3.89218
G01 X5.50088 Y-3.89454
G01 X5.52877 Y-3.89760
G01 X5.55579 Y-3.90124
G01 X5.58311 Y-3.90562
G01 X5.60915 Y-3.91045
G01 X5.63662 Y-3.91624
G01 X5.66200 Y-3.92225
G01 X5.68915 Y-3.92937
G01 X5.71496 Y-3.93683
G01 X5.74173 Y-3.94529
G01 X5.76640 Y-3.95376
G01 X5.79236 Y-3.96337
G01 X5.81806 Y-3.97362
G01 X5.84241 Y-3.98403
G01 X5.86758 Y-3.99552
G01 X5.89245 Y-4.00764
G01 X5.91632 Y-4.02000
G01 X5.93988 Y-4.03293
G01 X5.96415 Y-4.04704
G01 X5.98670 Y-4.06091
G01 X6.00991 Y-4.07598
G01 X6.03274 Y-4.09161
G01 X6.05453 Y-4.10734
G01 X6.07594 Y-4.12359
G01 X6.09817 Y-4.14136
G01 X6.11963 Y-4.15943
G01 X6.14005 Y-4.17750
G01 X6.15974 Y-4.19581
G01 X6.17869 Y-4.21430
G01 X6.19802 Y-4.23410
G01 X6.21712 Y-4.25467
G01 X6.23465 Y-4.27451
G01 X6.25271 Y-4.29599
G01 X6.27022 Y-4.31792
G01 X6.28624 Y-4.33901
G01 X6.30152 Y-4.36016
G01 X6.31740 Y-4.38331
G01 X6.33205 Y-4.40584
G01 X6.34636 Y-4.42905
G01 X6.36067 Y-4.45365
G01 X6.36492 Y-4.46138
G00 Z0.08000
G01 X6.37361 Y-4.47721
G01 X6.38598 Y-4.50108
G01 X6.39389 Y-4.51730
G01 Z-0.00731 F50.00000
G01 F100.00000
G01 X6.39759 Y-4.52489
G01 X6.40864 Y-4.54896
G01 X6.41971 Y-4.57475
G01 X6.42984 Y-4.60006
G01 X6.43961 Y-4.62637
G01 X6.44835 Y-4.65179
G01 X6.45635 Y-4.67704
G01 X6.46397 Y-4.70324
G01 X6.47083 Y-4.72923
G01 X6.47725 Y-4.75615
G01 X6.48275 Y-4.78205
G01 X6.48791 Y-4.80964
G01 X6.49214 Y-4.83578
G01 X6.49579 Y-4.86242
G01 X6.49884 Y-4.88953
G01 X6.50113 Y-4.91552
G01 X6.50289 Y-4.94313
G01 X6.50397 Y-4.97117
G01 X6.50435 Y-4.99923
G01 X6.50403 Y-5.02649
G01 X6.50303 Y-5.05414
G01 X6.50136 Y-5.08136
G01 X6.49911 Y-5.10776
G01 X6.49617 Y-5.13448
G01 X6.49242 Y-5.16229
G01 X6.48811 Y-5.18922
G01 X6.48329 Y-5.21526
G01 X6.47758 Y-5.24234
G01 X6.47121 Y-5.26926
G01 X6.46428 Y-5.29564
G01 X6.45692 Y-5.32108
G01 X6.44872 Y-5.34709
G01 X6.43961 Y-5.37363
G01 X6.42984 Y-5.39994
G01 X6.42001 Y-5.42453
G01 X6.40975 Y-5.44852
G01 X6.39792 Y-5.47441
G01 X6.38615 Y-5.49857
G01 X6.37361 Y-5.52279
G01 X6.36067 Y-5.54635
G01 X6.34636 Y-5.57095
G01 X6.33205 Y-5.59416
G01 X6.31740 Y-5.61669
G01 X6.30152 Y-5.63984
G01 X6.28624 Y-5.66099
G01 X6.27022 Y-5.68208
G01 X6.25271 Y-5.70401
G01 X6.23465 Y-5.72549
G01 X6.21712 Y-5.74533
G01 X6.19856 Y-5.76533
G01 X6.17980 Y-5.78458
G01 X6.16030 Y-5.80365
G01 X6.14004 Y-5.82250
G01 X6.12022 Y-5.84006
G01 X6.09967 Y-5.85740
G01 X6.07840 Y-5.87448
G01 X6.05641 Y-5.89126
G01 X6.03401 Y-5.90749
G01 X6.01153 Y-5.92294
G01 X5.98901 Y-5.93762
G01 X5.96648 Y-5.95155
G01 X5.94294 Y-5.96533
G01 X5.91838 Y-5.97890
G01 X5.89454 Y-5.99131
G01 X5.86933 Y-6.00365
G01 X5.84455 Y-6.01502
G01 X5.81949 Y-6.02578
G01 X5.79381 Y-6.03607
G01 X5.76862 Y-6.04545
G01 X5.74246 Y-6.05447
G01 X5.71684 Y-6.06260
G01 X5.69065 Y-6.07021
G01 X5.66466 Y-6.07709
G01 X5.63774 Y-6.08350
G01 X5.61145 Y-6.08909
G01 X5.58465 Y-6.09411
G01 X5.55694 Y-6.09858
G01 X5.53070 Y-6.10216
G01 X5.50320 Y-6.10523
G01 X5.47604 Y-6.10759
G01 X5.44803 Y-6.10931
G01 X5.42038 Y-6.11032
G01 X5.39429 Y-6.11064
G01 X5.36701 Y-6.11032
G01 X5.35878 Y-6.11003
G00 Z0.08000
G01 X5.34014 Y-6.10935
G01 X5.31449 Y-6.10782
G01 X5.29591 Y-6.10625
G01 Z-0.00731 F50.00000
G01 F100.00000
G01 X5.28652 Y-6.10546
G01 X5.25863 Y-6.10240
G01 X5.23161 Y-6.09875
G01 X5.20428 Y-6.09437
G01 X5.17825 Y-6.08955
G01 X5.15078 Y-6.08375
G01 X5.12540 Y-6.07775
G01 X5.09825 Y-6.07063
G01 X5.07243 Y-6.06316
G01 X5.04566 Y-6.05471
G01 X5.02099 Y-6.04624
G01 X4.99504 Y-6.03663
G01 X4.96934 Y-6.02638
G01 X4.94499 Y-6.01597
G01 X4.91982 Y-6.00448
G01 X4.89495 Y-5.99236
G01 X4.87108 Y-5.98000
G01 X4.84752 Y-5.96707
G01 X4.82325 Y-5.95296
G01 X4.80070 Y-5.93909
G01 X4.77749 Y-5.92402
G01 X4.75466 Y-5.90838
G01 X4.73287 Y-5.89266
G01 X4.71146 Y-5.87640
G01 X4.68923 Y-5.85864
G01 X4.66777 Y-5.84057
G01 X4.64735 Y-5.82249
G01 X4.62766 Y-5.80419
G01 X4.60870 Y-5.78569
G01 X4.58938 Y-5.76590
G01 X4.57028 Y-5.74533
G01 X4.55275 Y-5.72549
G01 X4.53469 Y-5.70401
G01 X4.51717 Y-5.68208
G01 X4.50116 Y-5.66099
G01 X4.48588 Y-5.63984
G01 X4.47000 Y-5.61669
G01 X4.45535 Y-5.59416
G01 X4.44104 Y-5.57095
G01 X4.42673 Y-5.54635
G01 X4.41379 Y-5.52279
G01 X4.40142 Y-5.49892
G01 X4.38980 Y-5.47511
G01 X4.37876 Y-5.45104
G01 X4.36769 Y-5.42525
G01 X4.35756 Y-5.39993
G01 X4.34778 Y-5.37362
G01 X4.33905 Y-5.34820
G01 X4.33105 Y-5.32296
G01 X4.32343 Y-5.29676
G01 X4.31657 Y-5.27077
G01 X4.31015 Y-5.24385
G01 X4.30465 Y-5.21795
G01 X4.29949 Y-5.19036
G01 X4.29526 Y-5.16421
G01 X4.29161 Y-5.13758
G01 X4.28856 Y-5.11046
G01 X4.28627 Y-5.08448
G01 X4.28451 Y-5.05686
G01 X4.28343 Y-5.02883
G01 X4.28305 Y-5.00077
G01 Z-0.01462 F50.00000 ( plunge. )
G04 P0 ( dwell for no time -- G64 should not smooth over this point )
G01 F100.00000
G01 X4.28337 Y-4.97351
G01 X4.28437 Y-4.94586
G01 X4.28604 Y-4.91863
G01 X4.28829 Y-4.89224
G01 X4.29122 Y-4.86552
G01 X4.29497 Y-4.83771
G01 X4.29929 Y-4.81078
G01 X4.30411 Y-4.78474
G01 X4.30981 Y-4.75766
G01 X4.31619 Y-4.73074
G01 X4.32312 Y-4.70436
G01 X4.33048 Y-4.67892
G01 X4.33868 Y-4.65291
G01 X4.34779 Y-4.62637
G01 X4.35756 Y-4.60006
G01 X4.36739 Y-4.57546
G01 X4.37765 Y-4.55148
G01 X4.38948 Y-4.52558
G01 X4.40125 Y-4.50143
G01 X4.41379 Y-4.47720
G01 X4.42673 Y-4.45365
G01 X4.44104 Y-4.42905
G01 X4.44587 Y-4.42121
G00 Z0.08000
G01 X4.45535 Y-4.40584
G01 X4.47000 Y-4.38331
G01 X4.48021 Y-4.36842
G01 Z-0.01462 F50.00000
G01 F100.00000
G01 X4.48588 Y-4.36016
G01 X4.50116 Y-4.33901
G01 X4.51717 Y-4.31792
G01 X4.53469 Y-4.29599
G01 X4.55275 Y-4.27451
G01 X4.57028 Y-4.25467
G01 X4.58884 Y-4.23467
G01 X4.60759 Y-4.21541
G01 X4.62710 Y-4.19635
G01 X4.64736 Y-4.17750
G01 X4.66718 Y-4.15993
G01 X4.68773 Y-4.14260
G01 X4.70899 Y-4.12552
G01 X4.73099 Y-4.10874
G01 X4.75339 Y-4.09251
G01 X4.77587 Y-4.07706
G01 X4.79839 Y-4.06237
G01 X4.82092 Y-4.04844
G01 X4.84446 Y-4.03467
G01 X4.86902 Y-4.02110
G01 X4.89286 Y-4.00869
G01 X4.91807 Y-3.99635
G01 X4.94285 Y-3.98498
G01 X4.96791 Y-3.97421
G01 X4.99359 Y-3.96393
G01 X5.01878 Y-3.95455
G01 X5.04494 Y-3.94553
G01 X5.07056 Y-3.93740
G01 X5.09675 Y-3.92979
G01 X5.12274 Y-3.92291
G01 X5.14966 Y-3.91650
G01 X5.17595 Y-3.91091
G01 X5.20275 Y-3.90589
G01 X5.23046 Y-3.90142
G01 X5.25670 Y-3.89784
G01 X5.28420 Y-3.89476
G01 X5.31136 Y-3.89241
G01 X5.33937 Y-3.89068
G01 X5.36702 Y-3.88967
G01 X5.39311 Y-3.88935
G01 X5.42039 Y-3.88967
G01 X5.44726 Y-3.89065
G01 X5.47291 Y-3.89218
G01 X5.50088 Y-3.89454
G01 X5.52877 Y-3.89760
G01 X5.55579 Y-3.90124
G01 X5.58311 Y-3.90562
G01 X5.60915 Y-3.91045
G01 X5.63662 Y-3.91624
G01 X5.66200 Y-3.92225
G01 X5.68915 Y-3.92937
G01 X5.71496 Y-3.93683
G01 X5.74173 Y-3.94529
G01 X5.76640 Y-3.95376
G01 X5.79236 Y-3.96337
G01 X5.81806 Y-3.97362
G01 X5.84241 Y-3.98403
G01 X5.86758 Y-3.99552
G01 X5.89245 Y-4.00764
G01 X5.91632 Y-4.02000
G01 X5.93988 Y-4.03293
G01 X5.96415 Y-4.04704
G01 X5.98670 Y-4.06091
G01 X6.00991 Y-4.07598
G01 X6.03274 Y-4.09161
G01 X6.05453 Y-4.10734
G01 X6.07594 Y-4.12359
G01 X6.09817 Y-4.14136
G01 X6.11963 Y-4.15943
G01 X6.14005 Y-4.17750
G01 X6.15974 Y-4.19581
G01 X6.17869 Y-4.21430
G01 X6.19802 Y-4.23410
G01 X6.21712 Y-4.25467
G01 X6.23465 Y-4.27451
G01 X6.25271 Y-4.29599
G01 X6.27022 Y-4.31792
G01 X6.28624 Y-4.33901
G01 X6.30152 Y-4.36016
G01 X6.31740 Y-4.38331
G01 X6.33205 Y-4.40584
G01 X6.34636 Y-4.42905
G01 X6.36067 Y-4.45365
G01 X6.36492 Y-4.46138
G00 Z0.08000
G01 X6.37361 Y-4.47721
G01 X6.38598 Y-4.50108
G01 X6.39389 Y-4.51730
G01 Z-0.01462 F50.00000
G01 F100.00000
G01 X6.39759 Y-4.52489
G01 X6.40864 Y-4.54896
G01 X6.41971 Y-4.57475
G01 X6.42984 Y-4.60006
G01 X6.43961 Y-4.62637
G01 X6.44835 Y-4.65179
G01 X6.45635 Y-4.67704
G01 X6.46397 Y-4.70324
G01 X6.47083 Y-4.72923
G01 X6.47725 Y-4.75615
G01 X6.48275 Y-4.78205
G01 X6.48791 Y-4.80964
G01 X6.49214 Y-4.83578
G01 X6.49579 Y-4.86242
G01 X6.49884 Y-4.88953
G01 X6.50113 Y-4.91552
G01 X6.50289 Y-4.94313
G01 X6.50397 Y-4.97117
G01 X6.50435 Y-4.99923
G01 X6.50403 Y-5.02649
G01 X6.50303 Y-5.05414
G01 X6.50136 Y-5.08136
G01 X6.49911 Y-5.10776
G01 X6.49617 Y-5.13448
G01 X6.49242 Y-5.16229
G01 X6.48811 Y-5.18922
G01 X6.48329 Y-5.21526
G01 X6.47758 Y-5.24234
G01 X6.47121 Y-5.26926
G01 X6.46428 Y-5.29564
G01 X6.45692 Y-5.32108
G01 X6.44872 Y-5.34709
G01 X6.43961 Y-5.37363
G01 X6.42984 Y-5.39994
G01 X6.42001 Y-5.42453
G01 X6.40975 Y-5.44852
G01 X6.39792 Y-5.47441
G01 X6.38615 Y-5.49857
G01 X6.37361 Y-5.52279
G01 X6.36067 Y-5.54635
G01 X6.34636 Y-5.57095
G01 X6.33205 Y-5.59416
G01 X6.31740 Y-5.61669
G01 X6.30152 Y-5.63984
G01 X6.28624 Y-5.66099
G01 X6.27022 Y-5.68208
G01 X6.25271 Y-5.70401
G01 X6.23465 Y-5.72549
G01 X6.21712 Y-5.74533
G01 X6.19856 Y-5.76533
G01 X6.17980 Y-5.78458
G01 X6.16030 Y-5.80365
G01 X6.14004 Y-5.82250
G01 X6.12022 Y-5.84006
G01 X6.09967 Y-5.85740
G01 X6.07840 Y-5.87448
G01 X6.05641 Y-5.89126
G01 X6.03401 Y-5.90749
G01 X6.01153 Y-5.92294
G01 X5.98901 Y-5.93762
G01 X5.96648 Y-5.95155
G01 X5.94294 Y-5.96533
G01 X5.91838 Y-5.97890
G01 X5.89454 Y-5.99131
G01 X5.86933 Y-6.00365
G01 X5.84455 Y-6.01502
G01 X5.81949 Y-6.02578
G01 X5.79381 Y-6.03607
G01 X5.76862 Y-6.04545
G01 X5.74246 Y-6.05447
G01 X5.71684 Y-6.06260
G01 X5.69065 Y-6.07021
G01 X5.66466 Y-6.07709
G01 X5.63774 Y-6.08350
G01 X5.61145 Y-6.08909
G01 X5.58465 Y-6.09411
G01 X5.55694 Y-6.09858
G01 X5.53070 Y-6.10216
G01 X5.50320 Y-6.10523
G01 X5.47604 Y-6.10759
G01 X5.44803 Y-6.10931
G01 X5.42038 Y-6.11032
G01 X5.39429 Y-6.11064
G01 X5.36701 Y-6.11032
G01 X5.35878 Y-6.11003
G00 Z0.08000
G01 X5.34014 Y-6.10935
G01 X5.31449 Y-6.10782
G01 X5.29591 Y-6.10625
G01 Z-0.01462 F50.00000
G01 F100.00000
G01 X5.28652 Y-6.10546
G01 X5.25863 Y-6.10240
G01 X5.23161 Y-6.09875
G01 X5.20428 Y-6.09437
G01 X5.17825 Y-6.08955
G01 X5.15078 Y-6.08375
G01 X5.12540 Y-6.07775
G01 X5.09825 Y-6.07063
G01 X5.07243 Y-6.06316
G01 X5.04566 Y-6.05471
G01 X5.02099 Y-6.04624
G01 X4.99504 Y-6.03663
G01 X4.96934 Y-6.02638
G01 X4.94499 Y-6.01597
G01 X4.91982 Y-6.00448
G01 X4.89495 Y-5.99236
G01 X4.87108 Y-5.98000
G01 X4.84752 Y-5.96707
G01 X4.82325 Y-5.95296
G01 X4.80070 Y-5.93909
G01 X4.77749 Y-5.92402
G01 X4.75466 Y-5.90838
G01 X4.73287 Y-5.89266
G01 X4.71146 Y-5.87640
G01 X4.68923 Y-5.85864
G01 X4.66777 Y-5.84057
G01 X4.64735 Y-5.82249
G01 X4.62766 Y-5.80419
G01 X4.60870 Y-5.78569
G01 X4.58938 Y-5.76590
G01 X4.57028 Y-5.74533
G01 X4.55275 Y-5.72549
G01 X4.53469 Y-5.70401
G01 X4.51717 Y-5.68208
G01 X4.50116 Y-5.66099
G01 X4.48588 Y-5.63984
G01 X4.47000 Y-5.61669
G01 X4.45535 Y-5.59416
G01 X4.44104 Y-5.57095
G01 X4.42673 Y-5.54635
G01 X4.41379 Y-5.52279
G01 X4.40142 Y-5.49892
G01 X4.38980 Y-5.47511
G01 X4.37876 Y-5.45104
G01 X4.36769 Y-5.42525
G01 X4.35756 Y-5.39993
G01 X4.34778 Y-5.37362
G01 X4.33905 Y-5.34820
G01 X4.33105 Y-5.32296
G01 X4.32343 Y-5.29676
G01 X4.31657 Y-5.27077
G01 X4.31015 Y-5.24385
G01 X4.30465 Y-5.21795
G01 X4.29949 Y-5.19036
G01 X4.29526 Y-5.16421
G01 X4.29161 Y-5.13758
G01 X4.28856 Y-5.11046
G01 X4.28627 Y-5.08448
G01 X4.28451 Y-5.05686
G01 X4.28343 Y-5.02883
G01 X4.28305 Y-5.00077
G01 Z-0.02193 F50.00000 ( plunge. )
G04 P0 ( dwell for no time -- G64 should not smooth over this point )
G01 F100.00000
G01 X4.28337 Y-4.97351
G01 X4.28437 Y-4.94586
G01 X4.28604 Y-4.91863
G01 X4.28829 Y-4.89224
G01 X4.29122 Y-4.86552
G01 X4.29497 Y-4.83771
G01 X4.29929 Y-4.81078
G01 X4.30411 Y-4.78474
G01 X4.30981 Y-4.75766
G01 X4.31619 Y-4.73074
G01 X4.32312 Y-4.70436
G01 X4.33048 Y-4.67892
G01 X4.33868 Y-4.65291
G01 X4.34779 Y-4.62637
G01 X4.35756 Y-4.60006
G01 X4.36739 Y-4.57546
G01 X4.37765 Y-4.55148
G01 X4.38948 Y-4.52558
G01 X4.40125 Y-4.50143
G01 X4.41379 Y-4.47720
G01 X4.42673 Y-4.45365
G01 X4.44104 Y-4.42905
G01 X4.44587 Y-4.42121
G00 Z0.08000
G01 X4.45535 Y-4.40584
G01 X4.47000 Y-4.38331
G01 X4.48021 Y-4.36842
G01 Z-0.02193 F50.00000
G01 F100.00000
G01 X4.48588 Y-4.36016
G01 X4.50116 Y-4.33901
G01 X4.51717 Y-4.31792
G01 X4.53469 Y-4.29599
G01 X4.55275 Y-4.27451
G01 X4.57028 Y-4.25467
G01 X4.58884 Y-4.23467
G01 X4.60759 Y-4.21541
G01 X4.62710 Y-4.19635
G01 X4.64736 Y-4.17750
G01 X4.66718 Y-4.15993
G01 X4.68773 Y-4.14260
G01 X4.70899 Y-4.12552
G01 X4.73099 Y-4.10874
G01 X4.75339 Y-4.09251
G01 X4.77587 Y-4.07706
G01 X4.79839 Y-4.06237
G01 X4.82092 Y-4.04844
G01 X4.84446 Y-4.03467
G01 X4.86902 Y-4.02110
G01 X4.89286 Y-4.00869
G01 X4.91807 Y-3.99635
G01 X4.94285 Y-3.98498
G01 X4.96791 Y-3.97421
G01 X4.99359 Y-3.96393
G01 X5.01878 Y-3.95455
G01 X5.04494 Y-3.94553
G01 X5.07056 Y-3.93740
G01 X5.09675 Y-3.92979
G01 X5.12274 Y-3.92291
G01 X5.14966 Y-3.91650
G01 X5.17595 Y-3.91091
G01 X5.20275 Y-3.90589
G01 X5.23046 Y-3.90142
G01 X5.25670 Y-3.89784
G01 X5.28420 Y-3.89476
G01 X5.31136 Y-3.89241
G01 X5.33937 Y-3.89068
G01 X5.36702 Y-3.88967
G01 X5.39311 Y-3.88935
G01 X5.42039 Y-3.88967
G01 X5.44726 Y-3.89065
G01 X5.47291 Y-3.89218
G01 X5.50088 Y-3.89454
G01 X5.52877 Y-3.89760
G01 X5.55579 Y-3.90124
G01 X5.58311 Y-3.90562
G01 X5.60915 Y-3.91045
G01 X5.63662 Y-3.91624
G01 X5.66200 Y-3.92225
G01 X5.68915 Y-3.92937
G01 X5.71496 Y-3.93683
G01 X5.74173 Y-3.94529
G01 X5.76640 Y-3.95376
G01 X5.79236 Y-3.96337
G01 X5.81806 Y-3.97362
G01 X5.84241 Y-3.98403
G01 X5.86758 Y-3.99552
G01 X5.89245 Y-4.00764
G01 X5.91632 Y-4.02000
G01 X5.93988 Y-4.03293
G01 X5.96415 Y-4.04704
G01 X5.98670 Y-4.06091
G01 X6.00991 Y-4.07598
G01 X6.03274 Y-4.09161
G01 X6.05453 Y-4.10734
G01 X6.07594 Y-4.12359
G01 X6.09817 Y-4.14136
G01 X6.11963 Y-4.15943
G01 X6.14005 Y-4.17750
G01 X6.15974 Y-4.19581
G01 X6.17869 Y-4.21430
G01 X6.19802 Y-4.23410
G01 X6.21712 Y-4.25467
G01 X6.23465 Y-4.27451
G01 X6.25271 Y-4.29599
G01 X6.27022 Y-4.31792
G01 X6.28624 Y-4.33901
G01 X6.30152 Y-4.36016
G01 X6.31740 Y-4.38331
G01 X6.33205 Y-4.40584
G01 X6.34636 Y-4.42905
G01 X6.36067 Y-4.45365
G01 X6.36492 Y-4.46138
G00 Z0.08000
G01 X6.37361 Y-4.47721
G01 X6.38598 Y-4.50108
G01 X6.39389 Y-4.51730
G01 Z-0.02193 F50.00000
G01 F100.00000
G01 X6.39759 Y-4.52489
G01 X6.40864 Y-4.54896
G01 X6.41971 Y-4.57475
G01 X6.42984 Y-4.60006
G01 X6.43961 Y-4.62637
G01 X6.44835 Y-4.65179
G01 X6.45635 Y-4.67704
G01 X6.46397 Y-4.70324
G01 X6.47083 Y-4.72923
G01 X6.47725 Y-4.75615
G01 X6.48275 Y-4.78205
G01 X6.48791 Y-4.80964
G01 X6.49214 Y-4.83578
G01 X6.49579 Y-4.86242
G01 X6.49884 Y-4.88953
G01 X6.50113 Y-4.91552
G01 X6.50289 Y-4.94313
G01 X6.50397 Y-4.97117
G01 X6.50435 Y-4.99923
G01 X6.50403 Y-5.02649
G01 X6.50303 Y-5.05414
G01 X6.50136 Y-5.08136
G01 X6.49911 Y-5.10776
G01 X6.49617 Y-5.13448
G01 X6.49242 Y-5.16229
G01 X6.48811 Y-5.18922
G01 X6.48329 Y-5.21526
G01 X6.47758 Y-5.24234
G01 X6.47121 Y-5.26926
G01 X6.46428 Y-5.29564
G01 X6.45692 Y-5.32108
G01 X6.44872 Y-5.34709
G01 X6.43961 Y-5.37363
G01 X6.42984 Y-5.39994
G01 X6.42001 Y-5.42453
G01 X6.40975 Y-5.44852
G01 X6.39792 Y-5.47441
G01 X6.38615 Y-5.49857
G01 X6.37361 Y-5.52279
G01 X6.36067 Y-5.54635
G01 X6.34636 Y-5.57095
G01 X6.33205 Y-5.59416
G01 X6.31740 Y-5.61669
G01 X6.30152 Y-5.63984
G01 X6.28624 Y-5.66099
G01 X6.27022 Y-5.68208
G01 X6.25271 Y-5.70401
G01 X6.23465 Y-5.72549
G01 X6.21712 Y-5.74533
G01 X6.19856 Y-5.76533
G01 X6.17980 Y-5.78458
G01 X6.16030 Y-5.80365
G01 X6.14004 Y-5.82250
G01 X6.12022 Y-5.84006
G01 X6.09967 Y-5.85740
G01 X6.07840 Y-5.87448
G01 X6.05641 Y-5.89126
G01 X6.03401 Y-5.90749
G01 X6.01153 Y-5.92294
G01 X5.98901 Y-5.93762
G01 X5.96648 Y-5.95155
G01 X5.94294 Y-5.96533
G01 X5.91838 Y-5.97890
G01 X5.89454 Y-5.99131
G01 X5.86933 Y-6.00365
G01 X5.84455 Y-6.01502
G01 X5.81949 Y-6.02578
G01 X5.79381 Y-6.03607
G01 X5.76862 Y-6.04545
G01 X5.74246 Y-6.05447
G01 X5.71684 Y-6.06260
G01 X5.69065 Y-6.07021
G01 X5.66466 Y-6.07709
G01 X5.63774 Y-6.08350
G01 X5.61145 Y-6.08909
G01 X5.58465 Y-6.09411
G01 X5.55694 Y-6.09858
G01 X5.53070 Y-6.10216
G01 X5.50320 Y-6.10523
G01 X5.47604 Y-6.10759
G01 X5.44803 Y-6.10931
G01 X5.42038 Y-6.11032
G01 X5.39429 Y-6.11064
G01 X5.36701 Y-6.11032
G01 X5.35878 Y-6.11003
G00 Z0.08000
G01 X5.34014 Y-6.10935
G01 X5.31449 Y-6.10782
G01 X5.29591 Y-6.10625
G01 Z-0.02193 F50.00000
G01 F100.00000
G01 X5.28652 Y-6.10546
G01 X5.25863 Y-6.10240
G01 X5.23161 Y-6.09875
G01 X5.20428 Y-6.09437
G01 X5.17825 Y-6.08955
G01 X5.15078 Y-6.08375
G01 X5.12540 Y-6.07775
G01 X5.09825 Y-6.07063
G01 X5.07243 Y-6.06316
G01 X5.04566 Y-6.05471
G01 X5.02099 Y-6.04624
G01 X4.99504 Y-6.03663
G01 X4.96934 Y-6.02638
G01 X4.94499 Y-6.01597
G01 X4.91982 Y-6.00448
G01 X4.89495 Y-5.99236
G01 X4.87108 Y-5.98000
G01 X4.84752 Y-5.96707
G01 X4.82325 Y-5.95296
G01 X4.80070 Y-5.93909
G01 X4.77749 Y-5.92402
G01 X4.75466 Y-5.90838
G01 X4.73287 Y-5.89266
G01 X4.71146 Y-5.87640
G01 X4.68923 Y-5.85864
G01 X4.66777 Y-5.84057
G01 X4.64735 Y-5.82249
G01 X4.62766 Y-5.80419
G01 X4.60870 Y-5.78569
G01 X4.58938 Y-5.76590
G01 X4.57028 Y-5.74533
G01 X4.55275 Y-5.72549
G01 X4.53469 Y-5.70401
G01 X4.51717 Y-5.68208
G01 X4.50116 Y-5.66099
G01 X4.48588 Y-5.63984
G01 X4.47000 Y-5.61669
G01 X4.45535 Y-5.59416
G01 X4.44104 Y-5.57095
G01 X4.42673 Y-5.54635
G01 X4.41379 Y-5.52279
G01 X4.40142 Y-5.49892
G01 X4.38980 Y-5.47511
G01 X4.37876 Y-5.45104
G01 X4.36769 Y-5.42525
G01 X4.35756 Y-5.39993
G01 X4.34778 Y-5.37362
G01 X4.33905 Y-5.34820
G01 X4.33105 Y-5.32296
G01 X4.32343 Y-5.29676
G01 X4.31657 Y-5.27077
G01 X4.31015 Y-5.24385
G01 X4.30465 Y-5.21795
G01 X4.29949 Y-5.19036
G01 X4.29526 Y-5.16421
G01 X4.29161 Y-5.13758
G01 X4.28856 Y-5.11046
G01 X4.28627 Y-5.08448
G01 X4.28451 Y-5.05686
G01 X4.28343 Y-5.02883
G01 X4.28305 Y-5.00077
G01 Z-0.02925 F50.00000 ( plunge. )
G04 P0 ( dwell for no time -- G64 should not smooth over this point )
G01 F100.00000
G01 X4.28337 Y-4.97351
G01 X4.28437 Y-4.94586
G01 X4.28604 Y-4.91863
G01 X4.28829 Y-4.89224
G01 X4.29122 Y-4.86552
G01 X4.29497 Y-4.83771
G01 X4.29929 Y-4.81078
G01 X4.30411 Y-4.78474
G01 X4.30981 Y-4.75766
G01 X4.31619 Y-4.73074
G01 X4.32312 Y-4.70436
G01 X4.33048 Y-4.67892
G01 X4.33868 Y-4.65291
G01 X4.34779 Y-4.62637
G01 X4.35756 Y-4.60006
G01 X4.36739 Y-4.57546
G01 X4.37765 Y-4.55148
G01 X4.38948 Y-4.52558
G01 X4.40125 Y-4.50143
G01 X4.41379 Y-4.47720
G01 X4.42673 Y-4.45365
G01 X4.44104 Y-4.42905
G01 X4.44587 Y-4.42121
G00 Z0.08000
G01 X4.45535 Y-4.40584
G01 X4.47000 Y-4.38331
G01 X4.48021 Y-4.36842
G01 Z-0.02925 F50.00000
G01 F100.00000
G01 X4.48588 Y-4.36016
G01 X4.50116 Y-4.33901
G01 X4.51717 Y-4.31792
G01 X4.53469 Y-4.29599
G01 X4.55275 Y-4.27451
G01 X4.57028 Y-4.25467
G01 X4.58884 Y-4.23467
G01 X4.60759 Y-4.21541
G01 X4.62710 Y-4.19635
G01 X4.64736 Y-4.17750
G01 X4.66718 Y-4.15993
G01 X4.68773 Y-4.14260
G01 X4.70899 Y-4.12552
G01 X4.73099 Y-4.10874
G01 X4.75339 Y-4.09251
G01 X4.77587 Y-4.07706
G01 X4.79839 Y-4.06237
G01 X4.82092 Y-4.04844
G01 X4.84446 Y-4.03467
G01 X4.86902 Y-4.02110
G01 X4.89286 Y-4.00869
G01 X4.91807 Y-3.99635
G01 X4.94285 Y-3.98498
G01 X4.96791 Y-3.97421
G01 X4.99359 Y-3.96393
G01 X5.01878 Y-3.95455
G01 X5.04494 Y-3.94553
G01 X5.07056 Y-3.93740
G01 X5.09675 Y-3.92979
G01 X5.12274 Y-3.92291
G01 X5.14966 Y-3.91650
G01 X5.17595 Y-3.91091
G01 X5.20275 Y-3.90589
G01 X5.23046 Y-3.90142
G01 X5.25670 Y-3.89784
G01 X5.28420 Y-3.89476
G01 X5.31136 Y-3.89241
G01 X5.33937 Y-3.89068
G01 X5.36702 Y-3.88967
G01 X5.39311 Y-3.88935
G01 X5.42039 Y-3.88967
G01 X5.44726 Y-3.89065
G01 X5.47291 Y-3.89218
G01 X5.50088 Y-3.89454
G01 X5.52877 Y-3.89760
G01 X5.55579 Y-3.90124
G01 X5.58311 Y-3.90562
G01 X5.60915 Y-3.91045
G01 X5.63662 Y-3.91624
G01 X5.66200 Y-3.92225
G01 X5.68915 Y-3.92937
G01 X5.71496 Y-3.93683
G01 X5.74173 Y-3.94529
G01 X5.76640 Y-3.95376
G01 X5.79236 Y-3.96337
G01 X5.81806 Y-3.97362
G01 X5.84241 Y-3.98403
G01 X5.86758 Y-3.99552
G01 X5.89245 Y-4.00764
G01 X5.91632 Y-4.02000
G01 X5.93988 Y-4.03293
G01 X5.96415 Y-4.04704
G01 X5.98670 Y-4.06091
G01 X6.00991 Y-4.07598
G01 X6.03274 Y-4.09161
G01 X6.05453 Y-4.10734
G01 X6.07594 Y-4.12359
G01 X6.09817 Y-4.14136
G01 X6.11963 Y-4.15943
G01 X6.14005 Y-4.17750
G01 X6.15974 Y-4.19581
G01 X6.17869 Y-4.21430
G01 X6.19802 Y-4.23410
G01 X6.21712 Y-4.25467
G01 X6.23465 Y-4.27451
G01 X6.25271 Y-4.29599
G01 X6.27022 Y-4.31792
G01 X6.28624 Y-4.33901
G01 X6.30152 Y-4.36016
G01 X6.31740 Y-4.38331
G01 X6.33205 Y-4.40584
G01 X6.34636 Y-4.42905
G01 X6.36067 Y-4.45365
G01 X6.36492 Y-4.46138
G00 Z0.08000
G01 X6.37361 Y-4.47721
G01 X6.38598 Y-4.50108
G01 X6.39389 Y-4.51730
G01 Z-0.02925 F50.00000
G01 F100.00000
G01 X6.39759 Y-4.52489
G01 X6.40864 Y-4.54896
G01 X6.41971 Y-4.57475
G01 X6.42984 Y-4.60006
G01 X6.43961 Y-4.62637
G01 X6.44835 Y-4.65179
G01 X6.45635 Y-4.67704
G01 X6.46397 Y-4.70324
G01 X6.47083 Y-4.72923
G01 X6.47725 Y-4.75615
G01 X6.48275 Y-4.78205
G01 X6.48791 Y-4.80964
G01 X6.49214 Y-4.83578
G01 X6.49579 Y-4.86242
G01 X6.49884 Y-4.88953
G01 X6.50113 Y-4.91552
G01 X6.50289 Y-4.94313
G01 X6.50397 Y-4.97117
G01 X6.50435 Y-4.99923
G01 X6.50403 Y-5.02649
G01 X6.50303 Y-5.05414
G01 X6.50136 Y-5.08136
G01 X6.49911 Y-5.10776
G01 X6.49617 Y-5.13448
G01 X6.49242 Y-5.16229
G01 X6.48811 Y-5.18922
G01 X6.48329 Y-5.21526
G01 X6.47758 Y-5.24234
G01 X6.47121 Y-5.26926
G01 X6.46428 Y-5.29564
G01 X6.45692 Y-5.32108
G01 X6.44872 Y-5.34709
G01 X6.43961 Y-5.37363
G01 X6.42984 Y-5.39994
G01 X6.42001 Y-5.42453
G01 X6.40975 Y-5.44852
G01 X6.39792 Y-5.47441
G01 X6.38615 Y-5.49857
G01 X6.37361 Y-5.52279
G01 X6.36067 Y-5.54635
G01 X6.34636 Y-5.57095
G01 X6.33205 Y-5.59416
G01 X6.31740 Y-5.61669
G01 X6.30152 Y-5.63984
G01 X6.28624 Y-5.66099
G01 X6.27022 Y-5.68208
G01 X6.25271 Y-5.70401
G01 X6.23465 Y-5.72549
G01 X6.21712 Y-5.74533
G01 X6.19856 Y-5.76533
G01 X6.17980 Y-5.78458
G01 X6.16030 Y-5.80365
G01 X6.14004 Y-5.82250
G01 X6.12022 Y-5.84006
G01 X6.09967 Y-5.85740
G01 X6.07840 Y-5.87448
G01 X6.05641 Y-5.89126
G01 X6.03401 Y-5.90749
G01 X6.01153 Y-5.92294
G01 X5.98901 Y-5.93762
G01 X5.96648 Y-5.95155
G01 X5.94294 Y-5.96533
G01 X5.91838 Y-5.97890
G01 X5.89454 Y-5.99131
G01 X5.86933 Y-6.00365
G01 X5.84455 Y-6.01502
G01 X5.81949 Y-6.02578
G01 X5.79381 Y-6.03607
G01 X5.76862 Y-6.04545
G01 X5.74246 Y-6.05447
G01 X5.71684 Y-6.06260
G01 X5.69065 Y-6.07021
G01 X5.66466 Y-6.07709
G01 X5.63774 Y-6.08350
G01 X5.61145 Y-6.08909
G01 X5.58465 Y-6.09411
G01 X5.55694 Y-6.09858
G01 X5.53070 Y-6.10216
G01 X5.50320 Y-6.10523
G01 X5.47604 Y-6.10759
G01 X5.44803 Y-6.10931
G01 X5.42038 Y-6.11032
G01 X5.39429 Y-6.11064
G01 X5.36701 Y-6.11032
G01 X5.35878 Y-6.11003
G00 Z0.08000
G01 X5.34014 Y-6.10935
G01 X5.31449 Y-6.10782
G01 X5.29591 Y-6.10625
G01 Z-0.02925 F50.00000
G01 F100.00000
G01 X5.28652 Y-6.10546
G01 X5.25863 Y-6.10240
G01 X5.23161 Y-6.09875
G01 X5.20428 Y-6.09437
G01 X5.17825 Y-6.08955
G01 X5.15078 Y-6.08375
G01 X5.12540 Y-6.07775
G01 X5.09825 Y-6.07063
G01 X5.07243 Y-6.06316
G01 X5.04566 Y-6.05471
G01 X5.02099 Y-6.04624
G01 X4.99504 Y-6.03663
G01 X4.96934 Y-6.02638
G01 X4.94499 Y-6.01597
G01 X4.91982 Y-6.00448
G01 X4.89495 Y-5.99236
G01 X4.87108 Y-5.98000
G01 X4.84752 Y-5.96707
G01 X4.82325 Y-5.95296
G01 X4.80070 Y-5.93909
G01 X4.77749 Y-5.92402
G01 X4.75466 Y-5.90838
G01 X4.73287 Y-5.89266
G01 X4.71146 Y-5.87640
G01 X4.68923 Y-5.85864
G01 X4.66777 Y-5.84057
G01 X4.64735 Y-5.82249
G01 X4.62766 Y-5.80419
G01 X4.60870 Y-5.78569
G01 X4.58938 Y-5.76590
G01 X4.57028 Y-5.74533
G01 X4.55275 Y-5.72549
G01 X4.53469 Y-5.70401
G01 X4.51717 Y-5.68208
G01 X4.50116 Y-5.66099
G01 X4.48588 Y-5.63984
G01 X4.47000 Y-5.61669
G01 X4.45535 Y-5.59416
G01 X4.44104 Y-5.57095
G01 X4.42673 Y-5.54635
G01 X4.41379 Y-5.52279
G01 X4.40142 Y-5.49892
G01 X4.38980 Y-5.47511
G01 X4.37876 Y-5.45104
G01 X4.36769 Y-5.42525
G01 X4.35756 Y-5.39993
G01 X4.34778 Y-5.37362
G01 X4.33905 Y-5.34820
G01 X4.33105 Y-5.32296
G01 X4.32343 Y-5.29676
G01 X4.31657 Y-5.27077
G01 X4.31015 Y-5.24385
G01 X4.30465 Y-5.21795
G01 X4.29949 Y-5.19036
G01 X4.29526 Y-5.16421
G01 X4.29161 Y-5.13758
G01 X4.28856 Y-5.11046
G01 X4.28627 Y-5.08448
G01 X4.28451 Y-5.05686
G01 X4.28343 Y-5.02883
G01 X4.28305 Y-5.00077
G01 Z-0.03656 F50.00000 ( plunge. )
G04 P0 ( dwell for no time -- G64 should not smooth over this point )
G01 F100.00000
G01 X4.28337 Y-4.97351
G01 X4.28437 Y-4.94586
G01 X4.28604 Y-4.91863
G01 X4.28829 Y-4.89224
G01 X4.29122 Y-4.86552
G01 X4.29497 Y-4.83771
G01 X4.29929 Y-4.81078
G01 X4.30411 Y-4.78474
G01 X4.30981 Y-4.75766
G01 X4.31619 Y-4.73074
G01 X4.32312 Y-4.70436
G01 X4.33048 Y-4.67892
G01 X4.33868 Y-4.65291
G01 X4.34779 Y-4.62637
G01 X4.35756 Y-4.60006
G01 X4.36739 Y-4.57546
G01 X4.37765 Y-4.55148
G01 X4.38948 Y-4.52558
G01 X4.40125 Y-4.50143
G01 X4.41379 Y-4.47720
G01 X4.42673 Y-4.45365
G01 X4.44104 Y-4.42905
G01 X4.44587 Y-4.42121
G00 Z0.08000
G01 X4.45535 Y-4.40584
G01 X4.47000 Y-4.38331
G01 X4.48021 Y-4.36842
G01 Z-0.03656 F50.00000
G01 F100.00000
G01 X4.48588 Y-4.36016
G01 X4.50116 Y-4.33901
G01 X4.51717 Y-4.31792
G01 X4.53469 Y-4.29599
G01 X4.55275 Y-4.27451
G01 X4.57028 Y-4.25467
G01 X4.58884 Y-4.23467
G01 X4.60759 Y-4.21541
G01 X4.62710 Y-4.19635
G01 X4.64736 Y-4.17750
G01 X4.66718 Y-4.15993
G01 X4.68773 Y-4.14260
G01 X4.70899 Y-4.12552
G01 X4.73099 Y-4.10874
G01 X4.75339 Y-4.09251
G01 X4.77587 Y-4.07706
G01 X4.79839 Y-4.06237
G01 X4.82092 Y-4.04844
G01 X4.84446 Y-4.03467
G01 X4.86902 Y-4.02110
G01 X4.89286 Y-4.00869
G01 X4.91807 Y-3.99635
G01 X4.94285 Y-3.98498
G01 X4.96791 Y-3.97421
G01 X4.99359 Y-3.96393
G01 X5.01878 Y-3.95455
G01 X5.04494 Y-3.94553
G01 X5.07056 Y-3.93740
G01 X5.09675 Y-3.92979
G01 X5.12274 Y-3.92291
G01 X5.14966 Y-3.91650
G01 X5.17595 Y-3.91091
G01 X5.20275 Y-3.90589
G01 X5.23046 Y-3.90142
G01 X5.25670 Y-3.89784
G01 X5.28420 Y-3.89476
G01 X5.31136 Y-3.89241
G01 X5.33937 Y-3.89068
G01 X5.36702 Y-3.88967
G01 X5.39311 Y-3.88935
G01 X5.42039 Y-3.88967
G01 X5.44726 Y-3.89065
G01 X5.47291 Y-3.89218
G01 X5.50088 Y-3.89454
G01 X5.52877 Y-3.89760
G01 X5.55579 Y-3.90124
G01 X5.58311 Y-3.90562
G01 X5.60915 Y-3.91045
G01 X5.63662 Y-3.91624
G01 X5.66200 Y-3.92225
G01 X5.68915 Y-3.92937
G01 X5.71496 Y-3.93683
G01 X5.74173 Y-3.94529
G01 X5.76640 Y-3.95376
G01 X5.79236 Y-3.96337
G01 X5.81806 Y-3.97362
G01 X5.84241 Y-3.98403
G01 X5.86758 Y-3.99552
G01 X5.89245 Y-4.00764
G01 X5.91632 Y-4.02000
G01 X5.93988 Y-4.03293
G01 X5.96415 Y-4.04704
G01 X5.98670 Y-4.06091
G01 X6.00991 Y-4.07598
G01 X6.03274 Y-4.09161
G01 X6.05453 Y-4.10734
G01 X6.07594 Y-4.12359
G01 X6.09817 Y-4.14136
G01 X6.11963 Y-4.15943
G01 X6.14005 Y-4.17750
G01 X6.15974 Y-4.19581
G01 X6.17869 Y-4.21430
G01 X6.19802 Y-4.23410
G01 X6.21712 Y-4.25467
G01 X6.23465 Y-4.27451
G01 X6.25271 Y-4.29599
G01 X6.27022 Y-4.31792
G01 X6.28624 Y-4.33901
G01 X6.30152 Y-4.36016
G01 X6.31740 Y-4.38331
G01 X6.33205 Y-4.40584
G01 X6.34636 Y-4.42905
G01 X6.36067 Y-4.45365
G01 X6.36492 Y-4.46138
G00 Z0.08000
G01 X6.37361 Y-4.47721
G01 X6.38598 Y-4.50108
G01 X6.39389 Y-4.51730
G01 Z-0.03656 F50.00000
G01 F100.00000
G01 X6.39759 Y-4.52489
G01 X6.40864 Y-4.54896
G01 X6.41971 Y-4.57475
G01 X6.42984 Y-4.60006
G01 X6.43961 Y-4.62637
G01 X6.44835 Y-4.65179
G01 X6.45635 Y-4.67704
G01 X6.46397 Y-4.70324
G01 X6.47083 Y-4.72923
G01 X6.47725 Y-4.75615
G01 X6.48275 Y-4.78205
G01 X6.48791 Y-4.80964
G01 X6.49214 Y-4.83578
G01 X6.49579 Y-4.86242
G01 X6.49884 Y-4.88953
G01 X6.50113 Y-4.91552
G01 X6.50289 Y-4.94313
G01 X6.50397 Y-4.97117
G01 X6.50435 Y-4.99923
G01 X6.50403 Y-5.02649
G01 X6.50303 Y-5.05414
G01 X6.50136 Y-5.08136
G01 X6.49911 Y-5.10776
G01 X6.49617 Y-5.13448
G01 X6.49242 Y-5.16229
G01 X6.48811 Y-5.18922
G01 X6.48329 Y-5.21526
G01 X6.47758 Y-5.24234
G01 X6.47121 Y-5.26926
G01 X6.46428 Y-5.29564
G01 X6.45692 Y-5.32108
G01 X6.44872 Y-5.34709
G01 X6.43961 Y-5.37363
G01 X6.42984 Y-5.39994
G01 X6.42001 Y-5.42453
G01 X6.40975 Y-5.44852
G01 X6.39792 Y-5.47441
G01 X6.38615 Y-5.49857
G01 X6.37361 Y-5.52279
G01 X6.36067 Y-5.54635
G01 X6.34636 Y-5.57095
G01 X6.33205 Y-5.59416
G01 X6.31740 Y-5.61669
G01 X6.30152 Y-5.63984
G01 X6.28624 Y-5.66099
G01 X6.27022 Y-5.68208
G01 X6.25271 Y-5.70401
G01 X6.23465 Y-5.72549
G01 X6.21712 Y-5.74533
G01 X6.19856 Y-5.76533
G01 X6.17980 Y-5.78458
G01 X6.16030 Y-5.80365
G01 X6.14004 Y-5.82250
G01 X6.12022 Y-5.84006
G01 X6.09967 Y-5.85740
G01 X6.07840 Y-5.87448
G01 X6.05641 Y-5.89126
G01 X6.03401 Y-5.90749
G01 X6.01153 Y-5.92294
G01 X5.98901 Y-5.93762
G01 X5.96648 Y-5.95155
G01 X5.94294 Y-5.96533
G01 X5.91838 Y-5.97890
G01 X5.89454 Y-5.99131
G01 X5.86933 Y-6.00365
G01 X5.84455 Y-6.01502
G01 X5.81949 Y-6.02578
G01 X5.79381 Y-6.03607
G01 X5.76862 Y-6.04545
G01 X5.74246 Y-6.05447
G01 X5.71684 Y-6.06260
G01 X5.69065 Y-6.07021
G01 X5.66466 Y-6.07709
G01 X5.63774 Y-6.08350
G01 X5.61145 Y-6.08909
G01 X5.58465 Y-6.09411
G01 X5.55694 Y-6.09858
G01 X5.53070 Y-6.10216
G01 X5.50320 Y-6.10523
G01 X5.47604 Y-6.10759
G01 X5.44803 Y-6.10931
G01 X5.42038 Y-6.11032
G01 X5.39429 Y-6.11064
G01 X5.36701 Y-6.11032
G01 X5.35878 Y-6.11003
G00 Z0.08000
G01 X5.34014 Y-6.10935
G01 X5.31449 Y-6.10782
G01 X5.29591 Y-6.10625
G01 Z-0.03656 F50.00000
G01 F100.00000
G01 X5.28652 Y-6.10546
G01 X5.25863 Y-6.10240
G01 X5.23161 Y-6.09875
G01 X5.20428 Y-6.09437
G01 X5.17825 Y-6.08955
G01 X5.15078 Y-6.08375
G01 X5.12540 Y-6.07775
G01 X5.09825 Y-6.07063
G01 X5.07243 Y-6.06316
G01 X5.04566 Y-6.05471
G01 X5.02099 Y-6.04624
G01 X4.99504 Y-6.03663
G01 X4.96934 Y-6.02638
G01 X4.94499 Y-6.01597
G01 X4.91982 Y-6.00448
G01 X4.89495 Y-5.99236
G01 X4.87108 Y-5.98000
G01 X4.84752 Y-5.96707
G01 X4.82325 Y-5.95296
G01 X4.80070 Y-5.93909
G01 X4.77749 Y-5.92402
G01 X4.75466 Y-5.90838
G01 X4.73287 Y-5.89266
G01 X4.71146 Y-5.87640
G01 X4.68923 Y-5.85864
G01 X4.66777 Y-5.84057
G01 X4.64735 Y-5.82249
G01 X4.62766 Y-5.80419
G01 X4.60870 Y-5.78569
G01 X4.58938 Y-5.76590
G01 X4.57028 Y-5.74533
G01 X4.55275 Y-5.72549
G01 X4.53469 Y-5.70401
G01 X4.51717 Y-5.68208
G01 X4.50116 Y-5.66099
G01 X4.48588 Y-5.63984
G01 X4.47000 Y-5.61669
G01 X4.45535 Y-5.59416
G01 X4.44104 Y-5.57095
G01 X4.42673 Y-5.54635
G01 X4.41379 Y-5.52279
G01 X4.40142 Y-5.49892
G01 X4.38980 Y-5.47511
G01 X4.37876 Y-5.45104
G01 X4.36769 Y-5.42525
G01 X4.35756 Y-5.39993
G01 X4.34778 Y-5.37362
G01 X4.33905 Y-5.34820
G01 X4.33105 Y-5.32296
G01 X4.32343 Y-5.29676
G01 X4.31657 Y-5.27077
G01 X4.31015 Y-5.24385
G01 X4.30465 Y-5.21795
G01 X4.29949 Y-5.19036
G01 X4.29526 Y-5.16421
G01 X4.29161 Y-5.13758
G01 X4.28856 Y-5.11046
G01 X4.28627 Y-5.08448
G01 X4.28451 Y-5.05686
G01 X4.28343 Y-5.02883
G01 X4.28305 Y-5.00077
G01 Z-0.04387 F50.00000 ( plunge. )
G04 P0 ( dwell for no time -- G64 should not smooth over this point )
G01 F100.00000
G01 X4.28337 Y-4.97351
G01 X4.28437 Y-4.94586
G01 X4.28604 Y-4.91863
G01 X4.28829 Y-4.89224
G01 X4.29122 Y-4.86552
G01 X4.29497 Y-4.83771
G01 X4.29929 Y-4.81078
G01 X4.30411 Y-4.78474
G01 X4.30981 Y-4.75766
G01 X4.31619 Y-4.73074
G01 X4.32312 Y-4.70436
G01 X4.33048 Y-4.67892
G01 X4.33868 Y-4.65291
G01 X4.34779 Y-4.62637
G01 X4.35756 Y-4.60006
G01 X4.36739 Y-4.57546
G01 X4.37765 Y-4.55148
G01 X4.38948 Y-4.52558
G01 X4.40125 Y-4.50143
G01 X4.41379 Y-4.47720
G01 X4.42673 Y-4.45365
G01 X4.44104 Y-4.42905
G01 X4.44587 Y-4.42121
G00 Z0.08000
G01 X4.45535 Y-4.40584
G01 X4.47000 Y-4.38331
G01 X4.48021 Y-4.36842
G01 Z-0.04387 F50.00000
G01 F100.00000
G01 X4.48588 Y-4.36016
G01 X4.50116 Y-4.33901
G01 X4.51717 Y-4.31792
G01 X4.53469 Y-4.29599
G01 X4.55275 Y-4.27451
G01 X4.57028 Y-4.25467
G01 X4.58884 Y-4.23467
G01 X4.60759 Y-4.21541
G01 X4.62710 Y-4.19635
G01 X4.64736 Y-4.17750
G01 X4.66718 Y-4.15993
G01 X4.68773 Y-4.14260
G01 X4.70899 Y-4.12552
G01 X4.73099 Y-4.10874
G01 X4.75339 Y-4.09251
G01 X4.77587 Y-4.07706
G01 X4.79839 Y-4.06237
G01 X4.82092 Y-4.04844
G01 X4.84446 Y-4.03467
G01 X4.86902 Y-4.02110
G01 X4.89286 Y-4.00869
G01 X4.91807 Y-3.99635
G01 X4.94285 Y-3.98498
G01 X4.96791 Y-3.97421
G01 X4.99359 Y-3.96393
G01 X5.01878 Y-3.95455
G01 X5.04494 Y-3.94553
G01 X5.07056 Y-3.93740
G01 X5.09675 Y-3.92979
G01 X5.12274 Y-3.92291
G01 X5.14966 Y-3.91650
G01 X5.17595 Y-3.91091
G01 X5.20275 Y-3.90589
G01 X5.23046 Y-3.90142
G01 X5.25670 Y-3.89784
G01 X5.28420 Y-3.89476
G01 X5.31136 Y-3.89241
G01 X5.33937 Y-3.89068
G01 X5.36702 Y-3.88967
G01 X5.39311 Y-3.88935
G01 X5.42039 Y-3.88967
G01 X5.44726 Y-3.89065
G01 X5.47291 Y-3.89218
G01 X5.50088 Y-3.89454
G01 X5.52877 Y-3.89760
G01 X5.55579 Y-3.90124
G01 X5.58311 Y-3.90562
G01 X5.60915 Y-3.91045
G01 X5.63662 Y-3.91624
G01 X5.66200 Y-3.92225
G01 X5.68915 Y-3.92937
G01 X5.71496 Y-3.93683
G01 X5.74173 Y-3.94529
G01 X5.76640 Y-3.95376
G01 X5.79236 Y-3.96337
G01 X5.81806 Y-3.97362
G01 X5.84241 Y-3.98403
G01 X5.86758 Y-3.99552
G01 X5.89245 Y-4.00764
G01 X5.91632 Y-4.02000
G01 X5.93988 Y-4.03293
G01 X5.96415 Y-4.04704
G01 X5.98670 Y-4.06091
G01 X6.00991 Y-4.07598
G01 X6.03274 Y-4.09161
G01 X6.05453 Y-4.10734
G01 X6.07594 Y-4.12359
G01 X6.09817 Y-4.14136
G01 X6.11963 Y-4.15943
G01 X6.14005 Y-4.17750
G01 X6.15974 Y-4.19581
G01 X6.17869 Y-4.21430
G01 X6.19802 Y-4.23410
G01 X6.21712 Y-4.25467
G01 X6.23465 Y-4.27451
G01 X6.25271 Y-4.29599
G01 X6.27022 Y-4.31792
G01 X6.28624 Y-4.33901
G01 X6.30152 Y-4.36016
G01 X6.31740 Y-4.38331
G01 X6.33205 Y-4.40584
G01 X6.34636 Y-4.42905
G01 X6.36067 Y-4.45365
G01 X6.36492 Y-4.46138
G00 Z0.08000
G01 X6.37361 Y-4.47721
G01 X6.38598 Y-4.50108
G01 X6.39389 Y-4.51730
G01 Z-0.04387 F50.00000
G01 F100.00000
G01 X6.39759 Y-4.52489
G01 X6.40864 Y-4.54896
G01 X6.41971 Y-4.57475
G01 X6.42984 Y-4.60006
G01 X6.43961 Y-4.62637
G01 X6.44835 Y-4.65179
G01 X6.45635 Y-4.67704
G01 X6.46397 Y-4.70324
G01 X6.47083 Y-4.72923
G01 X6.47725 Y-4.75615
G01 X6.48275 Y-4.78205
G01 X6.48791 Y-4.80964
G01 X6.49214 Y-4.83578
G01 X6.49579 Y-4.86242
G01 X6.49884 Y-4.88953
G01 X6.50113 Y-4.91552
G01 X6.50289 Y-4.94313
G01 X6.50397 Y-4.97117
G01 X6.50435 Y-4.99923
G01 X6.50403 Y-5.02649
G01 X6.50303 Y-5.05414
G01 X6.50136 Y-5.08136
G01 X6.49911 Y-5.10776
G01 X6.49617 Y-5.13448
G01 X6.49242 Y-5.16229
G01 X6.48811 Y-5.18922
G01 X6.48329 Y-5.21526
G01 X6.47758 Y-5.24234
G01 X6.47121 Y-5.26926
G01 X6.46428 Y-5.29564
G01 X6.45692 Y-5.32108
G01 X6.44872 Y-5.34709
G01 X6.43961 Y-5.37363
G01 X6.42984 Y-5.39994
G01 X6.42001 Y-5.42453
G01 X6.40975 Y-5.44852
G01 X6.39792 Y-5.47441
G01 X6.38615 Y-5.49857
G01 X6.37361 Y-5.52279
G01 X6.36067 Y-5.54635
G01 X6.34636 Y-5.57095
G01 X6.33205 Y-5.59416
G01 X6.31740 Y-5.61669
G01 X6.30152 Y-5.63984
G01 X6.28624 Y-5.66099
G01 X6.27022 Y-5.68208
G01 X6.25271 Y-5.70401
G01 X6.23465 Y-5.72549
G01 X6.21712 Y-5.74533
G01 X6.19856 Y-5.76533
G01 X6.17980 Y-5.78458
G01 X6.16030 Y-5.80365
G01 X6.14004 Y-5.82250
G01 X6.12022 Y-5.84006
G01 X6.09967 Y-5.85740
G01 X6.07840 Y-5.87448
G01 X6.05641 Y-5.89126
G01 X6.03401 Y-5.90749
G01 X6.01153 Y-5.92294
G01 X5.98901 Y-5.93762
G01 X5.96648 Y-5.95155
G01 X5.94294 Y-5.96533
G01 X5.91838 Y-5.97890
G01 X5.89454 Y-5.99131
G01 X5.86933 Y-6.00365
G01 X5.84455 Y-6.01502
G01 X5.81949 Y-6.02578
G01 X5.79381 Y-6.03607
G01 X5.76862 Y-6.04545
G01 X5.74246 Y-6.05447
G01 X5.71684 Y-6.06260
G01 X5.69065 Y-6.07021
G01 X5.66466 Y-6.07709
G01 X5.63774 Y-6.08350
G01 X5.61145 Y-6.08909
G01 X5.58465 Y-6.09411
G01 X5.55694 Y-6.09858
G01 X5.53070 Y-6.10216
G01 X5.50320 Y-6.10523
G01 X5.47604 Y-6.10759
G01 X5.44803 Y-6.10931
G01 X5.42038 Y-6.11032
G01 X5.39429 Y-6.11064
G01 X5.36701 Y-6.11032
G01 X5.35878 Y-6.11003
G00 Z0.08000
G01 X5.34014 Y-6.10935
G01 X5.31449 Y-6.10782
G01 X5.29591 Y-6.10625
G01 Z-0.04387 F50.00000
G01 F100.00000
G01 X5.28652 Y-6.10546
G01 X5.25863 Y-6.10240
G01 X5.23161 Y-6.09875
G01 X5.20428 Y-6.09437
G01 X5.17825 Y-6.08955
G01 X5.15078 Y-6.08375
G01 X5.12540 Y-6.07775
G01 X5.09825 Y-6.07063
G01 X5.07243 Y-6.06316
G01 X5.04566 Y-6.05471
G01 X5.02099 Y-6.04624
G01 X4.99504 Y-6.03663
G01 X4.96934 Y-6.02638
G01 X4.94499 Y-6.01597
G01 X4.91982 Y-6.00448
G01 X4.89495 Y-5.99236
G01 X4.87108 Y-5.98000
G01 X4.84752 Y-5.96707
G01 X4.82325 Y-5.95296
G01 X4.80070 Y-5.93909
G01 X4.77749 Y-5.92402
G01 X4.75466 Y-5.90838
G01 X4.73287 Y-5.89266
G01 X4.71146 Y-5.87640
G01 X4.68923 Y-5.85864
G01 X4.66777 Y-5.84057
G01 X4.64735 Y-5.82249
G01 X4.62766 Y-5.80419
G01 X4.60870 Y-5.78569
G01 X4.58938 Y-5.76590
G01 X4.57028 Y-5.74533
G01 X4.55275 Y-5.72549
G01 X4.53469 Y-5.70401
G01 X4.51717 Y-5.68208
G01 X4.50116 Y-5.66099
G01 X4.48588 Y-5.63984
G01 X4.47000 Y-5.61669
G01 X4.45535 Y-5.59416
G01 X4.44104 Y-5.57095
G01 X4.42673 Y-5.54635
G01 X4.41379 Y-5.52279
G01 X4.40142 Y-5.49892
G01 X4.38980 Y-5.47511
G01 X4.37876 Y-5.45104
G01 X4.36769 Y-5.42525
G01 X4.35756 Y-5.39993
G01 X4.34778 Y-5.37362
G01 X4.33905 Y-5.34820
G01 X4.33105 Y-5.32296
G01 X4.32343 Y-5.29676
G01 X4.31657 Y-5.27077
G01 X4.31015 Y-5.24385
G01 X4.30465 Y-5.21795
G01 X4.29949 Y-5.19036
G01 X4.29526 Y-5.16421
G01 X4.29161 Y-5.13758
G01 X4.28856 Y-5.11046
G01 X4.28627 Y-5.08448
G01 X4.28451 Y-5.05686
G01 X4.28343 Y-5.02883
G01 X4.28305 Y-5.00077
G01 Z-0.05118 F50.00000 ( plunge. )
G04 P0 ( dwell for no time -- G64 should not smooth over this point )
G01 F100.00000
G01 X4.28337 Y-4.97351
G01 X4.28437 Y-4.94586
G01 X4.28604 Y-4.91863
G01 X4.28829 Y-4.89224
G01 X4.29122 Y-4.86552
G01 X4.29497 Y-4.83771
G01 X4.29929 Y-4.81078
G01 X4.30411 Y-4.78474
G01 X4.30981 Y-4.75766
G01 X4.31619 Y-4.73074
G01 X4.32312 Y-4.70436
G01 X4.33048 Y-4.67892
G01 X4.33868 Y-4.65291
G01 X4.34779 Y-4.62637
G01 X4.35756 Y-4.60006
G01 X4.36739 Y-4.57546
G01 X4.37765 Y-4.55148
G01 X4.38948 Y-4.52558
G01 X4.40125 Y-4.50143
G01 X4.41379 Y-4.47720
G01 X4.42673 Y-4.45365
G01 X4.44104 Y-4.42905
G01 X4.44587 Y-4.42121
G00 Z0.08000
G01 X4.45535 Y-4.40584
G01 X4.47000 Y-4.38331
G01 X4.48021 Y-4.36842
G01 Z-0.05118 F50.00000
G01 F100.00000
G01 X4.48588 Y-4.36016
G01 X4.50116 Y-4.33901
G01 X4.51717 Y-4.31792
G01 X4.53469 Y-4.29599
G01 X4.55275 Y-4.27451
G01 X4.57028 Y-4.25467
G01 X4.58884 Y-4.23467
G01 X4.60759 Y-4.21541
G01 X4.62710 Y-4.19635
G01 X4.64736 Y-4.17750
G01 X4.66718 Y-4.15993
G01 X4.68773 Y-4.14260
G01 X4.70899 Y-4.12552
G01 X4.73099 Y-4.10874
G01 X4.75339 Y-4.09251
G01 X4.77587 Y-4.07706
G01 X4.79839 Y-4.06237
G01 X4.82092 Y-4.04844
G01 X4.84446 Y-4.03467
G01 X4.86902 Y-4.02110
G01 X4.89286 Y-4.00869
G01 X4.91807 Y-3.99635
G01 X4.94285 Y-3.98498
G01 X4.96791 Y-3.97421
G01 X4.99359 Y-3.96393
G01 X5.01878 Y-3.95455
G01 X5.04494 Y-3.94553
G01 X5.07056 Y-3.93740
G01 X5.09675 Y-3.92979
G01 X5.12274 Y-3.92291
G01 X5.14966 Y-3.91650
G01 X5.17595 Y-3.91091
G01 X5.20275 Y-3.90589
G01 X5.23046 Y-3.90142
G01 X5.25670 Y-3.89784
G01 X5.28420 Y-3.89476
G01 X5.31136 Y-3.89241
G01 X5.33937 Y-3.89068
G01 X5.36702 Y-3.88967
G01 X5.39311 Y-3.88935
G01 X5.42039 Y-3.88967
G01 X5.44726 Y-3.89065
G01 X5.47291 Y-3.89218
G01 X5.50088 Y-3.89454
G01 X5.52877 Y-3.89760
G01 X5.55579 Y-3.90124
G01 X5.58311 Y-3.90562
G01 X5.60915 Y-3.91045
G01 X5.63662 Y-3.91624
G01 X5.66200 Y-3.92225
G01 X5.68915 Y-3.92937
G01 X5.71496 Y-3.93683
G01 X5.74173 Y-3.94529
G01 X5.76640 Y-3.95376
G01 X5.79236 Y-3.96337
G01 X5.81806 Y-3.97362
G01 X5.84241 Y-3.98403
G01 X5.86758 Y-3.99552
G01 X5.89245 Y-4.00764
G01 X5.91632 Y-4.02000
G01 X5.93988 Y-4.03293
G01 X5.96415 Y-4.04704
G01 X5.98670 Y-4.06091
G01 X6.00991 Y-4.07598
G01 X6.03274 Y-4.09161
G01 X6.05453 Y-4.10734
G01 X6.07594 Y-4.12359
G01 X6.09817 Y-4.14136
G01 X6.11963 Y-4.15943
G01 X6.14005 Y-4.17750
G01 X6.15974 Y-4.19581
G01 X6.17869 Y-4.21430
G01 X6.19802 Y-4.23410
G01 X6.21712 Y-4.25467
G01 X6.23465 Y-4.27451
G01 X6.25271 Y-4.29599
G01 X6.27022 Y-4.31792
G01 X6.28624 Y-4.33901
G01 X6.30152 Y-4.36016
G01 X6.31740 Y-4.38331
G01 X6.33205 Y-4.40584
G01 X6.34636 Y-4.42905
G01 X6.36067 Y-4.45365
G01 X6.36492 Y-4.46138
G00 Z0.08000
G01 X6.37361 Y-4.47721
G01 X6.38598 Y-4.50108
G01 X6.39389 Y-4.51730
G01 Z-0.05118 F50.00000
G01 F100.00000
G01 X6.39759 Y-4.52489
G01 X6.40864 Y-4.54896
G01 X6.41971 Y-4.57475
G01 X6.42984 Y-4.60006
G01 X6.43961 Y-4.62637
G01 X6.44835 Y-4.65179
G01 X6.45635 Y-4.67704
G01 X6.46397 Y-4.70324
G01 X6.47083 Y-4.72923
G01 X6.47725 Y-4.75615
G01 X6.48275 Y-4.78205
G01 X6.48791 Y-4.80964
G01 X6.49214 Y-4.83578
G01 X6.49579 Y-4.86242
G01 X6.49884 Y-4.88953
G01 X6.50113 Y-4.91552
G01 X6.50289 Y-4.94313
G01 X6.50397 Y-4.97117
G01 X6.50435 Y-4.99923
G01 X6.50403 Y-5.02649
G01 X6.50303 Y-5.05414
G01 X6.50136 Y-5.08136
G01 X6.49911 Y-5.10776
G01 X6.49617 Y-5.13448
G01 X6.49242 Y-5.16229
G01 X6.48811 Y-5.18922
G01 X6.48329 Y-5.21526
G01 X6.47758 Y-5.24234
G01 X6.47121 Y-5.26926
G01 X6.46428 Y-5.29564
G01 X6.45692 Y-5.32108
G01 X6.44872 Y-5.34709
G01 X6.43961 Y-5.37363
G01 X6.42984 Y-5.39994
G01 X6.42001 Y-5.42453
G01 X6.40975 Y-5.44852
G01 X6.39792 Y-5.47441
G01 X6.38615 Y-5.49857
G01 X6.37361 Y-5.52279
G01 X6.36067 Y-5.54635
G01 X6.34636 Y-5.57095
G01 X6.33205 Y-5.59416
G01 X6.31740 Y-5.61669
G01 X6.30152 Y-5.63984
G01 X6.28624 Y-5.66099
G01 X6.27022 Y-5.68208
G01 X6.25271 Y-5.70401
G01 X6.23465 Y-5.72549
G01 X6.21712 Y-5.74533
G01 X6.19856 Y-5.76533
G01 X6.17980 Y-5.78458
G01 X6.16030 Y-5.80365
G01 X6.14004 Y-5.82250
G01 X6.12022 Y-5.84006
G01 X6.09967 Y-5.85740
G01 X6.07840 Y-5.87448
G01 X6.05641 Y-5.89126
G01 X6.03401 Y-5.90749
G01 X6.01153 Y-5.92294
G01 X5.98901 Y-5.93762
G01 X5.96648 Y-5.95155
G01 X5.94294 Y-5.96533
G01 X5.91838 Y-5.97890
G01 X5.89454 Y-5.99131
G01 X5.86933 Y-6.00365
G01 X5.84455 Y-6.01502
G01 X5.81949 Y-6.02578
G01 X5.79381 Y-6.03607
G01 X5.76862 Y-6.04545
G01 X5.74246 Y-6.05447
G01 X5.71684 Y-6.06260
G01 X5.69065 Y-6.07021
G01 X5.66466 Y-6.07709
G01 X5.63774 Y-6.08350
G01 X5.61145 Y-6.08909
G01 X5.58465 Y-6.09411
G01 X5.55694 Y-6.09858
G01 X5.53070 Y-6.10216
G01 X5.50320 Y-6.10523
G01 X5.47604 Y-6.10759
G01 X5.44803 Y-6.10931
G01 X5.42038 Y-6.11032
G01 X5.39429 Y-6.11064
G01 X5.36701 Y-6.11032
G01 X5.35878 Y-6.11003
G00 Z0.08000
G01 X5.34014 Y-6.10935
G01 X5.31449 Y-6.10782
G01 X5.29591 Y-6.10625
G01 Z-0.05118 F50.00000
G01 F100.00000
G01 X5.28652 Y-6.10546
G01 X5.25863 Y-6.10240
G01 X5.23161 Y-6.09875
G01 X5.20428 Y-6.09437
G01 X5.17825 Y-6.08955
G01 X5.15078 Y-6.08375
G01 X5.12540 Y-6.07775
G01 X5.09825 Y-6.07063
G01 X5.07243 Y-6.06316
G01 X5.04566 Y-6.05471
G01 X5.02099 Y-6.04624
G01 X4.99504 Y-6.03663
G01 X4.96934 Y-6.02638
G01 X4.94499 Y-6.01597
G01 X4.91982 Y-6.00448
G01 X4.89495 Y-5.99236
G01 X4.87108 Y-5.98000
G01 X4.84752 Y-5.96707
G01 X4.82325 Y-5.95296
G01 X4.80070 Y-5.93909
G01 X4.77749 Y-5.92402
G01 X4.75466 Y-5.90838
G01 X4.73287 Y-5.89266
G01 X4.71146 Y-5.87640
G01 X4.68923 Y-5.85864
G01 X4.66777 Y-5.84057
G01 X4.64735 Y-5.82249
G01 X4.62766 Y-5.80419
G01 X4.60870 Y-5.78569
G01 X4.58938 Y-5.76590
G01 X4.57028 Y-5.74533
G01 X4.55275 Y-5.72549
G01 X4.53469 Y-5.70401
G01 X4.51717 Y-5.68208
G01 X4.50116 Y-5.66099
G01 X4.48588 Y-5.63984
G01 X4.47000 Y-5.61669
G01 X4.45535 Y-5.59416
G01 X4.44104 Y-5.57095
G01 X4.42673 Y-5.54635
G01 X4.41379 Y-5.52279
G01 X4.40142 Y-5.49892
G01 X4.38980 Y-5.47511
G01 X4.37876 Y-5.45104
G01 X4.36769 Y-5.42525
G01 X4.35756 Y-5.39993
G01 X4.34778 Y-5.37362
G01 X4.33905 Y-5.34820
G01 X4.33105 Y-5.32296
G01 X4.32343 Y-5.29676
G01 X4.31657 Y-5.27077
G01 X4.31015 Y-5.24385
G01 X4.30465 Y-5.21795
G01 X4.29949 Y-5.19036
G01 X4.29526 Y-5.16421
G01 X4.29161 Y-5.13758
G01 X4.28856 Y-5.11046
G01 X4.28627 Y-5.08448
G01 X4.28451 Y-5.05686
G01 X4.28343 Y-5.02883
G01 X4.28305 Y-5.00077
G04 P0 ( dwell for no time -- G64 should not smooth over this point )
G00 Z0.08000 ( retract )

G00 X2.98879 Y-5.05144 ( rapid move to begin. )
G01 Z-0.00731 F50.00000 ( plunge. )
G04 P0 ( dwell for no time -- G64 should not smooth over this point )
G01 F100.00000
G01 X2.98899 Y-5.08136
G01 X2.98958 Y-5.11256
G01 X2.99054 Y-5.14288
G01 X2.99194 Y-5.17442
G01 X2.99362 Y-5.20397
G01 X2.99562 Y-5.23306
G01 X2.99814 Y-5.26408
G01 X3.00090 Y-5.29355
G01 X3.00414 Y-5.32411
G01 X3.00761 Y-5.35346
G01 X3.01150 Y-5.38321
G01 X3.01587 Y-5.41363
G01 X3.02049 Y-5.44327
G01 X3.02546 Y-5.47276
G01 X3.03059 Y-5.50110
G01 X3.03635 Y-5.53091
G01 X3.04257 Y-5.56104
G01 X3.04862 Y-5.58869
G01 X3.05538 Y-5.61792
G01 X3.06258 Y-5.64738
G01 X3.06995 Y-5.67604
G01 X3.07777 Y-5.70496
G01 X3.08627 Y-5.73492
G01 X3.09504 Y-5.76441
G01 X3.10418 Y-5.79382
G01 X3.11319 Y-5.82156
G01 X3.12316 Y-5.85105
G01 X3.13310 Y-5.87930
G01 X3.14311 Y-5.90668
G01 X3.15347 Y-5.93398
G01 X3.16501 Y-5.96333
G01 X3.17648 Y-5.99144
G01 X3.18814 Y-6.01905
G01 X3.20048 Y-6.04727
G01 X3.21230 Y-6.07344
G01 X3.22548 Y-6.10172
G01 X3.23865 Y-6.12905
G01 X3.25218 Y-6.15627
G01 X3.26638 Y-6.18397
G01 X3.27965 Y-6.20908
G01 X3.29412 Y-6.23572
G01 X3.30877 Y-6.26190
G01 X3.32372 Y-6.28786
G01 X3.33982 Y-6.31502
G01 X3.35584 Y-6.34130
G01 X3.37133 Y-6.36601
G01 X3.38795 Y-6.39183
G01 X3.40384 Y-6.41585
G01 X3.42020 Y-6.43998
G01 X3.43775 Y-6.46520
G01 X3.45567 Y-6.49025
G01 X3.47385 Y-6.51502
G01 X3.49139 Y-6.53832
G01 X3.51022 Y-6.56270
G01 X3.52958 Y-6.58713
G01 X3.54795 Y-6.60972
G01 X3.56686 Y-6.63243
G01 X3.58608 Y-6.65494
G01 X3.60658 Y-6.67837
G01 X3.62607 Y-6.70010
G01 X3.64714 Y-6.72302
G01 X3.66717 Y-6.74427
G01 X3.68851 Y-6.76636
G01 X3.70905 Y-6.78712
G01 X3.73121 Y-6.80897
G01 X3.75252 Y-6.82947
G01 X3.76294 Y-6.83925
G00 Z0.08000
G01 X3.77527 Y-6.85082
G01 X3.79678 Y-6.87051
G01 X3.80939 Y-6.88178
G01 Z-0.00731 F50.00000
G01 F100.00000
G01 X3.81879 Y-6.89018
G01 X3.84170 Y-6.91016
G01 X3.86360 Y-6.92880
G01 X3.88754 Y-6.94867
G01 X3.90992 Y-6.96680
G01 X3.93406 Y-6.98587
G01 X3.95776 Y-7.00412
G01 X3.98172 Y-7.02211
G01 X4.00495 Y-7.03912
G01 X4.02999 Y-7.05699
G01 X4.05524 Y-7.07454
G01 X4.08174 Y-7.09247
G01 X4.10709 Y-7.10914
G01 X4.13303 Y-7.12575
G01 X4.15915 Y-7.14202
G01 X4.18371 Y-7.15690
G01 X4.21021 Y-7.17252
G01 X4.23554 Y-7.18704
G01 X4.26202 Y-7.20180
G01 X4.28770 Y-7.21570
G01 X4.31597 Y-7.23055
G01 X4.34194 Y-7.24379
G01 X4.36844 Y-7.25690
G01 X4.39585 Y-7.27005
G01 X4.42229 Y-7.28234
G01 X4.45034 Y-7.29496
G01 X4.47852 Y-7.30722
G01 X4.50618 Y-7.31884
G01 X4.53465 Y-7.33040
G01 X4.56184 Y-7.34105
G01 X4.59058 Y-7.35191
G01 X4.61915 Y-7.36230
G01 X4.64630 Y-7.37180
G01 X4.67579 Y-7.38172
G01 X4.70431 Y-7.39092
G01 X4.73259 Y-7.39966
G01 X4.76166 Y-7.40827
G01 X4.79014 Y-7.41632
G01 X4.81868 Y-7.42402
G01 X4.84961 Y-7.43194
G01 X4.87756 Y-7.43874
G01 X4.90793 Y-7.44573
G01 X4.93681 Y-7.45201
G01 X4.96581 Y-7.45795
G01 X4.99400 Y-7.46337
G01 X5.02469 Y-7.46889
G01 X5.05586 Y-7.47408
G01 X5.08508 Y-7.47858
G01 X5.11511 Y-7.48282
G01 X5.14521 Y-7.48670
G01 X5.17382 Y-7.49003
G01 X5.20482 Y-7.49326
G01 X5.23542 Y-7.49606
G01 X5.26493 Y-7.49840
G01 X5.29518 Y-7.50042
G01 X5.32550 Y-7.50207
G01 X5.35543 Y-7.50333
G01 X5.38462 Y-7.50420
G01 X5.41453 Y-7.50474
G01 X5.44493 Y-7.50491
G01 X5.47605 Y-7.50470
G01 X5.50365 Y-7.50418
G01 X5.53435 Y-7.50324
G01 X5.56468 Y-7.50193
G01 X5.59424 Y-7.50029
G01 X5.62533 Y-7.49818
G01 X5.65677 Y-7.49565
G01 X5.68579 Y-7.49295
G01 X5.71404 Y-7.48998
G01 X5.74494 Y-7.48636
G01 X5.77387 Y-7.48261
G01 X5.80515 Y-7.47816
G01 X5.83553 Y-7.47344
G01 X5.86546 Y-7.46841
G01 X5.89376 Y-7.46331
G01 X5.92358 Y-7.45755
G01 X5.95296 Y-7.45151
G01 X5.98259 Y-7.44504
G01 X6.01182 Y-7.43827
G01 X6.04167 Y-7.43097
G01 X6.07033 Y-7.42359
G01 X6.09960 Y-7.41567
G01 X6.12923 Y-7.40725
G01 X6.15641 Y-7.39918
G01 X6.18575 Y-7.39008
G01 X6.21387 Y-7.38097
G01 X6.24226 Y-7.37140
G01 X6.27091 Y-7.36135
G01 X6.29910 Y-7.35106
G01 X6.32787 Y-7.34016
G01 X6.35647 Y-7.32892
G01 X6.38459 Y-7.31745
G01 X6.41222 Y-7.30578
G01 X6.44005 Y-7.29363
G01 X6.46806 Y-7.28099
G01 X6.49488 Y-7.26847
G01 X6.52224 Y-7.25530
G01 X6.55015 Y-7.24143
G01 X6.57610 Y-7.22813
G01 X6.60256 Y-7.21417
G01 X6.62962 Y-7.19946
G01 X6.65609 Y-7.18464
G01 X6.68240 Y-7.16948
G01 X6.70821 Y-7.15419
G01 X6.73380 Y-7.13860
G01 X6.76017 Y-7.12207
G01 X6.78473 Y-7.10627
G01 X6.80972 Y-7.08975
G01 X6.83415 Y-7.07318
G01 X6.86041 Y-7.05488
G01 X6.88474 Y-7.03746
G01 X6.90892 Y-7.01970
G01 X6.93314 Y-7.00145
G01 X6.95717 Y-6.98287
G01 X6.98130 Y-6.96373
G01 X7.00393 Y-6.94533
G01 X7.02629 Y-6.92670
G01 X7.04941 Y-6.90696
G01 X7.07135 Y-6.88776
G01 X7.09392 Y-6.86752
G01 X7.11568 Y-6.84752
G01 X7.13752 Y-6.82695
G01 X7.15992 Y-6.80533
G01 X7.18150 Y-6.78397
G01 X7.20144 Y-6.76375
G01 X7.22305 Y-6.74130
G01 X7.24353 Y-6.71949
G01 X7.26353 Y-6.69767
G01 X7.28404 Y-6.67473
G01 X7.30476 Y-6.65096
G01 X7.32367 Y-6.62871
G01 X7.34254 Y-6.60596
G01 X7.36186 Y-6.58208
G01 X7.38041 Y-6.55856
G01 X7.39822 Y-6.53541
G01 X7.41617 Y-6.51149
G01 X7.43342 Y-6.48792
G01 X7.45102 Y-6.46324
G01 X7.46835 Y-6.43830
G01 X7.48583 Y-6.41246
G01 X7.50275 Y-6.38675
G01 X7.51892 Y-6.36152
G01 X7.53517 Y-6.33545
G01 X7.55010 Y-6.31082
G01 X7.56551 Y-6.28471
G01 X7.58062 Y-6.25838
G01 X7.59521 Y-6.23221
G01 X7.60893 Y-6.20689
G01 X7.62268 Y-6.18077
G01 X7.63687 Y-6.15299
G01 X7.65016 Y-6.12617
G01 X7.66331 Y-6.09877
G01 X7.67576 Y-6.07200
G01 X7.68824 Y-6.04431
G01 X7.70053 Y-6.01607
G01 X7.71230 Y-5.98812
G01 X7.72344 Y-5.96070
G01 X7.73481 Y-5.93172
G01 X7.74485 Y-5.90516
G01 X7.75578 Y-5.87516
G01 X7.76543 Y-5.84760
G01 X7.77512 Y-5.81883
G01 X7.78408 Y-5.79108
G01 X7.79341 Y-5.76096
G01 X7.80180 Y-5.73262
G01 X7.81017 Y-5.70300
G01 X7.81828 Y-5.67288
G01 X7.82571 Y-5.64384
G01 X7.83314 Y-5.61320
G01 X7.83574 Y-5.60187
G00 Z0.08000
G01 X7.83965 Y-5.58479
G01 X7.84559 Y-5.55748
G01 X7.84910 Y-5.54031
G01 Z-0.00731 F50.00000
G01 F100.00000
G01 X7.85169 Y-5.52769
G01 X7.85727 Y-5.49866
G01 X7.86262 Y-5.46882
G01 X7.86769 Y-5.43844
G01 X7.87248 Y-5.40726
G01 X7.87666 Y-5.37759
G01 X7.88057 Y-5.34707
G01 X7.88393 Y-5.31807
G01 X7.88714 Y-5.28710
G01 X7.88985 Y-5.25723
G01 X7.89226 Y-5.22655
G01 X7.89430 Y-5.19550
G01 X7.89580 Y-5.16754
G01 X7.89708 Y-5.13685
G01 X7.89794 Y-5.10771
G01 X7.89846 Y-5.07771
G01 X7.89861 Y-5.04856
G01 X7.89841 Y-5.01863
G01 X7.89782 Y-4.98744
G01 X7.89686 Y-4.95712
G01 X7.89546 Y-4.92558
G01 X7.89378 Y-4.89603
G01 X7.89178 Y-4.86694
G01 X7.88926 Y-4.83591
G01 X7.88650 Y-4.80645
G01 X7.88326 Y-4.77589
G01 X7.87979 Y-4.74654
G01 X7.87590 Y-4.71679
G01 X7.87153 Y-4.68637
G01 X7.86691 Y-4.65673
G01 X7.86194 Y-4.62724
G01 X7.85681 Y-4.59890
G01 X7.85105 Y-4.56909
G01 X7.84483 Y-4.53896
G01 X7.83878 Y-4.51131
G01 X7.83202 Y-4.48208
G01 X7.82482 Y-4.45262
G01 X7.81745 Y-4.42396
G01 X7.80963 Y-4.39503
G01 X7.80113 Y-4.36508
G01 X7.79236 Y-4.33559
G01 X7.78321 Y-4.30617
G01 X7.77421 Y-4.27844
G01 X7.76424 Y-4.24895
G01 X7.75430 Y-4.22070
G01 X7.74429 Y-4.19332
G01 X7.73393 Y-4.16601
G01 X7.72239 Y-4.13667
G01 X7.71092 Y-4.10855
G01 X7.69926 Y-4.08095
G01 X7.68692 Y-4.05273
G01 X7.67510 Y-4.02655
G01 X7.66192 Y-3.99828
G01 X7.64875 Y-3.97095
G01 X7.63522 Y-3.94373
G01 X7.62102 Y-3.91603
G01 X7.60775 Y-3.89092
G01 X7.59328 Y-3.86428
G01 X7.57863 Y-3.83810
G01 X7.56368 Y-3.81214
G01 X7.54758 Y-3.78498
G01 X7.53156 Y-3.75870
G01 X7.51607 Y-3.73399
G01 X7.49945 Y-3.70817
G01 X7.48356 Y-3.68414
G01 X7.46720 Y-3.66002
G01 X7.44964 Y-3.63480
G01 X7.43173 Y-3.60974
G01 X7.41355 Y-3.58498
G01 X7.39601 Y-3.56168
G01 X7.37718 Y-3.53730
G01 X7.35782 Y-3.51287
G01 X7.33945 Y-3.49028
G01 X7.32054 Y-3.46757
G01 X7.30132 Y-3.44505
G01 X7.28082 Y-3.42163
G01 X7.26132 Y-3.39989
G01 X7.24026 Y-3.37698
G01 X7.22023 Y-3.35573
G01 X7.19889 Y-3.33363
G01 X7.17835 Y-3.31288
G01 X7.15619 Y-3.29102
G01 X7.13488 Y-3.27053
G01 X7.11213 Y-3.24918
G01 X7.09062 Y-3.22948
G01 X7.06861 Y-3.20982
G01 X7.04570 Y-3.18984
G01 X7.02380 Y-3.17120
G01 X6.99986 Y-3.15132
G01 X6.97748 Y-3.13320
G01 X6.95334 Y-3.11413
G01 X6.92963 Y-3.09587
G01 X6.90568 Y-3.07789
G01 X6.88244 Y-3.06087
G01 X6.85711 Y-3.04279
G01 X6.83247 Y-3.02567
G01 X6.80534 Y-3.00732
G01 X6.78031 Y-2.99085
G01 X6.75437 Y-2.97425
G01 X6.72825 Y-2.95798
G01 X6.70369 Y-2.94310
G01 X6.67719 Y-2.92748
G01 X6.65186 Y-2.91296
G01 X6.62538 Y-2.89820
G01 X6.59970 Y-2.88430
G01 X6.57143 Y-2.86944
G01 X6.54546 Y-2.85621
G01 X6.51896 Y-2.84310
G01 X6.49155 Y-2.82995
G01 X6.46478 Y-2.81751
G01 X6.43706 Y-2.80504
G01 X6.40887 Y-2.79278
G01 X6.38122 Y-2.78115
G01 X6.35275 Y-2.76960
G01 X6.32556 Y-2.75895
G01 X6.29682 Y-2.74809
G01 X6.26825 Y-2.73770
G01 X6.24110 Y-2.72820
G01 X6.21160 Y-2.71828
G01 X6.18309 Y-2.70908
G01 X6.15481 Y-2.70033
G01 X6.12574 Y-2.69173
G01 X6.09726 Y-2.68368
G01 X6.06872 Y-2.67598
G01 X6.03779 Y-2.66805
G01 X6.00984 Y-2.66126
G01 X5.97947 Y-2.65426
G01 X5.95059 Y-2.64799
G01 X5.92159 Y-2.64205
G01 X5.89340 Y-2.63662
G01 X5.86271 Y-2.63111
G01 X5.83154 Y-2.62591
G01 X5.80231 Y-2.62142
G01 X5.77229 Y-2.61718
G01 X5.74218 Y-2.61330
G01 X5.71358 Y-2.60996
G01 X5.68258 Y-2.60674
G01 X5.65198 Y-2.60394
G01 X5.62247 Y-2.60160
G01 X5.59222 Y-2.59958
G01 X5.56190 Y-2.59793
G01 X5.53197 Y-2.59667
G01 X5.50278 Y-2.59580
G01 X5.47287 Y-2.59526
G01 X5.44247 Y-2.59509
G01 X5.41135 Y-2.59530
G01 X5.38375 Y-2.59582
G01 X5.35305 Y-2.59676
G01 X5.32271 Y-2.59807
G01 X5.29316 Y-2.59971
G01 X5.26207 Y-2.60181
G01 X5.23063 Y-2.60435
G01 X5.20161 Y-2.60705
G01 X5.17336 Y-2.61001
G01 X5.14246 Y-2.61364
G01 X5.11353 Y-2.61739
G01 X5.08225 Y-2.62184
G01 X5.05187 Y-2.62656
G01 X5.02193 Y-2.63159
G01 X4.99364 Y-2.63669
G01 X4.96382 Y-2.64244
G01 X4.93444 Y-2.64849
G01 X4.90481 Y-2.65496
G01 X4.87558 Y-2.66173
G01 X4.84573 Y-2.66902
G01 X4.81707 Y-2.67641
G01 X4.78780 Y-2.68433
G01 X4.75817 Y-2.69274
G01 X4.73098 Y-2.70082
G01 X4.71762 Y-2.70497
G00 Z0.08000
G01 X4.70165 Y-2.70992
G01 X4.67353 Y-2.71903
G01 X4.65769 Y-2.72437
G01 Z-0.00731 F50.00000
G01 F100.00000
G01 X4.64514 Y-2.72860
G01 X4.61649 Y-2.73865
G01 X4.58796 Y-2.74906
G01 X4.55953 Y-2.75983
G01 X4.53093 Y-2.77108
G01 X4.50281 Y-2.78255
G01 X4.47518 Y-2.79421
G01 X4.44735 Y-2.80637
G01 X4.41934 Y-2.81901
G01 X4.39252 Y-2.83153
G01 X4.36516 Y-2.84470
G01 X4.33725 Y-2.85857
G01 X4.31129 Y-2.87187
G01 X4.28483 Y-2.88583
G01 X4.25777 Y-2.90054
G01 X4.23131 Y-2.91535
G01 X4.20500 Y-2.93051
G01 X4.17919 Y-2.94581
G01 X4.15360 Y-2.96140
G01 X4.12722 Y-2.97792
G01 X4.10267 Y-2.99373
G01 X4.07768 Y-3.01025
G01 X4.05325 Y-3.02682
G01 X4.02699 Y-3.04512
G01 X4.00265 Y-3.06254
G01 X3.97818 Y-3.08052
G01 X3.95426 Y-3.09855
G01 X3.93023 Y-3.11712
G01 X3.90610 Y-3.13626
G01 X3.88347 Y-3.15466
G01 X3.86111 Y-3.17329
G01 X3.83799 Y-3.19304
G01 X3.81605 Y-3.21224
G01 X3.79348 Y-3.23248
G01 X3.77172 Y-3.25248
G01 X3.74988 Y-3.27305
G01 X3.72748 Y-3.29467
G01 X3.70590 Y-3.31602
G01 X3.68596 Y-3.33624
G01 X3.66435 Y-3.35869
G01 X3.64387 Y-3.38051
G01 X3.62387 Y-3.40233
G01 X3.60336 Y-3.42527
G01 X3.58264 Y-3.44904
G01 X3.56373 Y-3.47129
G01 X3.54486 Y-3.49404
G01 X3.52554 Y-3.51792
G01 X3.50699 Y-3.54144
G01 X3.48918 Y-3.56458
G01 X3.47123 Y-3.58851
G01 X3.45398 Y-3.61207
G01 X3.43638 Y-3.63676
G01 X3.41904 Y-3.66170
G01 X3.40156 Y-3.68754
G01 X3.38465 Y-3.71325
G01 X3.36848 Y-3.73848
G01 X3.35223 Y-3.76455
G01 X3.33730 Y-3.78918
G01 X3.32189 Y-3.81529
G01 X3.30678 Y-3.84162
G01 X3.29219 Y-3.86779
G01 X3.27847 Y-3.89311
G01 X3.26472 Y-3.91922
G01 X3.25053 Y-3.94701
G01 X3.23724 Y-3.97383
G01 X3.22408 Y-4.00123
G01 X3.21163 Y-4.02800
G01 X3.19916 Y-4.05569
G01 X3.18686 Y-4.08392
G01 X3.17510 Y-4.11188
G01 X3.16396 Y-4.13930
G01 X3.15259 Y-4.16827
G01 X3.14255 Y-4.19484
G01 X3.13162 Y-4.22484
G01 X3.12197 Y-4.25240
G01 X3.11228 Y-4.28117
G01 X3.10331 Y-4.30892
G01 X3.09399 Y-4.33903
G01 X3.08560 Y-4.36738
G01 X3.07723 Y-4.39700
G01 X3.06912 Y-4.42712
G01 X3.06169 Y-4.45616
G01 X3.05426 Y-4.48680
G01 X3.04774 Y-4.51520
G01 X3.04181 Y-4.54252
G01 X3.03571 Y-4.57230
G01 X3.03013 Y-4.60133
G01 X3.02478 Y-4.63118
G01 X3.01971 Y-4.66156
G01 X3.01492 Y-4.69274
G01 X3.01074 Y-4.72241
G01 X3.00683 Y-4.75292
G01 X3.00347 Y-4.78193
G01 X3.00026 Y-4.81289
G01 X2.99755 Y-4.84277
G01 X2.99514 Y-4.87344
G01 X2.99310 Y-4.90450
G01 X2.99160 Y-4.93246
G01 X2.99032 Y-4.96315
G01 X2.98946 Y-4.99229
G01 X2.98894 Y-5.02229
G01 X2.98879 Y-5.05144
G01 Z-0.01462 F50.00000 ( plunge. )
G04 P0 ( dwell for no time -- G64 should not smooth over this point )
G01 F100.00000
G01 X2.98899 Y-5.08136
G01 X2.98958 Y-5.11256
G01 X2.99054 Y-5.14288
G01 X2.99194 Y-5.17442
G01 X2.99362 Y-5.20397
G01 X2.99562 Y-5.23306
G01 X2.99814 Y-5.26408
G01 X3.00090 Y-5.29355
G01 X3.00414 Y-5.32411
G01 X3.00761 Y-5.35346
G01 X3.01150 Y-5.38321
G01 X3.01587 Y-5.41363
G01 X3.02049 Y-5.44327
G01 X3.02546 Y-5.47276
G01 X3.03059 Y-5.50110
G01 X3.03635 Y-5.53091
G01 X3.04257 Y-5.56104
G01 X3.04862 Y-5.58869
G01 X3.05538 Y-5.61792
G01 X3.06258 Y-5.64738
G01 X3.06995 Y-5.67604
G01 X3.07777 Y-5.70496
G01 X3.08627 Y-5.73492
G01 X3.09504 Y-5.76441
G01 X3.10418 Y-5.79382
G01 X3.11319 Y-5.82156
G01 X3.12316 Y-5.85105
G01 X3.13310 Y-5.87930
G01 X3.14311 Y-5.90668
G01 X3.15347 Y-5.93398
G01 X3.16501 Y-5.96333
G01 X3.17648 Y-5.99144
G01 X3.18814 Y-6.01905
G01 X3.20048 Y-6.04727
G01 X3.21230 Y-6.07344
G01 X3.22548 Y-6.10172
G01 X3.23865 Y-6.12905
G01 X3.25218 Y-6.15627
G01 X3.26638 Y-6.18397
G01 X3.27965 Y-6.20908
G01 X3.29412 Y-6.23572
G01 X3.30877 Y-6.26190
G01 X3.32372 Y-6.28786
G01 X3.33982 Y-6.31502
G01 X3.35584 Y-6.34130
G01 X3.37133 Y-6.36601
G01 X3.38795 Y-6.39183
G01 X3.40384 Y-6.41585
G01 X3.42020 Y-6.43998
G01 X3.43775 Y-6.46520
G01 X3.45567 Y-6.49025
G01 X3.47385 Y-6.51502
G01 X3.49139 Y-6.53832
G01 X3.51022 Y-6.56270
G01 X3.52958 Y-6.58713
G01 X3.54795 Y-6.60972
G01 X3.56686 Y-6.63243
G01 X3.58608 Y-6.65494
G01 X3.60658 Y-6.67837
G01 X3.62607 Y-6.70010
G01 X3.64714 Y-6.72302
G01 X3.66717 Y-6.74427
G01 X3.68851 Y-6.76636
G01 X3.70905 Y-6.78712
G01 X3.73121 Y-6.80897
G01 X3.75252 Y-6.82947
G01 X3.76294 Y-6.83925
G00 Z0.08000
G01 X3.77527 Y-6.85082
G01 X3.79678 Y-6.87051
G01 X3.80939 Y-6.88178
G01 Z-0.01462 F50.00000
G01 F100.00000
G01 X3.81879 Y-6.89018
G01 X3.84170 Y-6.91016
G01 X3.86360 Y-6.92880
G01 X3.88754 Y-6.94867
G01 X3.90992 Y-6.96680
G01 X3.93406 Y-6.98587
G01 X3.95776 Y-7.00412
G01 X3.98172 Y-7.02211
G01 X4.00495 Y-7.03912
G01 X4.02999 Y-7.05699
G01 X4.05524 Y-7.07454
G01 X4.08174 Y-7.09247
G01 X4.10709 Y-7.10914
G01 X4.13303 Y-7.12575
G01 X4.15915 Y-7.14202
G01 X4.18371 Y-7.15690
G01 X4.21021 Y-7.17252
G01 X4.23554 Y-7.18704
G01 X4.26202 Y-7.20180
G01 X4.28770 Y-7.21570
G01 X4.31597 Y-7.23055
G01 X4.34194 Y-7.24379
G01 X4.36844 Y-7.25690
G01 X4.39585 Y-7.27005
G01 X4.42229 Y-7.28234
G01 X4.45034 Y-7.29496
G01 X4.47852 Y-7.30722
G01 X4.50618 Y-7.31884
G01 X4.53465 Y-7.33040
G01 X4.56184 Y-7.34105
G01 X4.59058 Y-7.35191
G01 X4.61915 Y-7.36230
G01 X4.64630 Y-7.37180
G01 X4.67579 Y-7.38172
G01 X4.70431 Y-7.39092
G01 X4.73259 Y-7.39966
G01 X4.76166 Y-7.40827
G01 X4.79014 Y-7.41632
G01 X4.81868 Y-7.42402
G01 X4.84961 Y-7.43194
G01 X4.87756 Y-7.43874
G01 X4.90793 Y-7.44573
G01 X4.93681 Y-7.45201
G01 X4.96581 Y-7.45795
G01 X4.99400 Y-7.46337
G01 X5.02469 Y-7.46889
G01 X5.05586 Y-7.47408
G01 X5.08508 Y-7.47858
G01 X5.11511 Y-7.48282
G01 X5.14521 Y-7.48670
G01 X5.17382 Y-7.49003
G01 X5.20482 Y-7.49326
G01 X5.23542 Y-7.49606
G01 X5.26493 Y-7.49840
G01 X5.29518 Y-7.50042
G01 X5.32550 Y-7.50207
G01 X5.35543 Y-7.50333
G01 X5.38462 Y-7.50420
G01 X5.41453 Y-7.50474
G01 X5.44493 Y-7.50491
G01 X5.47605 Y-7.50470
G01 X5.50365 Y-7.50418
G01 X5.53435 Y-7.50324
G01 X5.56468 Y-7.50193
G01 X5.59424 Y-7.50029
G01 X5.62533 Y-7.49818
G01 X5.65677 Y-7.49565
G01 X5.68579 Y-7.49295
G01 X5.71404 Y-7.48998
G01 X5.74494 Y-7.48636
G01 X5.77387 Y-7.48261
G01 X5.80515 Y-7.47816
G01 X5.83553 Y-7.47344
G01 X5.86546 Y-7.46841
G01 X5.89376 Y-7.46331
G01 X5.92358 Y-7.45755
G01 X5.95296 Y-7.45151
G01 X5.98259 Y-7.44504
G01 X6.01182 Y-7.43827
G01 X6.04167 Y-7.43097
G01 X6.07033 Y-7.42359
G01 X6.09960 Y-7.41567
G01 X6.12923 Y-7.40725
G01 X6.15641 Y-7.39918
G01 X6.18575 Y-7.39008
G01 X6.21387 Y-7.38097
G01 X6.24226 Y-7.37140
G01 X6.27091 Y-7.36135
G01 X6.29910 Y-7.35106
G01 X6.32787 Y-7.34016
G01 X6.35647 Y-7.32892
G01 X6.38459 Y-7.31745
G01 X6.41222 Y-7.30578
G01 X6.44005 Y-7.29363
G01 X6.46806 Y-7.28099
G01 X6.49488 Y-7.26847
G01 X6.52224 Y-7.25530
G01 X6.55015 Y-7.24143
G01 X6.57610 Y-7.22813
G01 X6.60256 Y-7.21417
G01 X6.62962 Y-7.19946
G01 X6.65609 Y-7.18464
G01 X6.68240 Y-7.16948
G01 X6.70821 Y-7.15419
G01 X6.73380 Y-7.13860
G01 X6.76017 Y-7.12207
G01 X6.78473 Y-7.10627
G01 X6.80972 Y-7.08975
G01 X6.83415 Y-7.07318
G01 X6.86041 Y-7.05488
G01 X6.88474 Y-7.03746
G01 X6.90892 Y-7.01970
G01 X6.93314 Y-7.00145
G01 X6.95717 Y-6.98287
G01 X6.98130 Y-6.96373
G01 X7.00393 Y-6.94533
G01 X7.02629 Y-6.92670
G01 X7.04941 Y-6.90696
G01 X7.07135 Y-6.88776
G01 X7.09392 Y-6.86752
G01 X7.11568 Y-6.84752
G01 X7.13752 Y-6.82695
G01 X7.15992 Y-6.80533
G01 X7.18150 Y-6.78397
G01 X7.20144 Y-6.76375
G01 X7.22305 Y-6.74130
G01 X7.24353 Y-6.71949
G01 X7.26353 Y-6.69767
G01 X7.28404 Y-6.67473
G01 X7.30476 Y-6.65096
G01 X7.32367 Y-6.62871
G01 X7.34254 Y-6.60596
G01 X7.36186 Y-6.58208
G01 X7.38041 Y-6.55856
G01 X7.39822 Y-6.53541
G01 X7.41617 Y-6.51149
G01 X7.43342 Y-6.48792
G01 X7.45102 Y-6.46324
G01 X7.46835 Y-6.43830
G01 X7.48583 Y-6.41246
G01 X7.50275 Y-6.38675
G01 X7.51892 Y-6.36152
G01 X7.53517 Y-6.33545
G01 X7.55010 Y-6.31082
G01 X7.56551 Y-6.28471
G01 X7.58062 Y-6.25838
G01 X7.59521 Y-6.23221
G01 X7.60893 Y-6.20689
G01 X7.62268 Y-6.18077
G01 X7.63687 Y-6.15299
G01 X7.65016 Y-6.12617
G01 X7.66331 Y-6.09877
G01 X7.67576 Y-6.07200
G01 X7.68824 Y-6.04431
G01 X7.70053 Y-6.01607
G01 X7.71230 Y-5.98812
G01 X7.72344 Y-5.96070
G01 X7.73481 Y-5.93172
G01 X7.74485 Y-5.90516
G01 X7.75578 Y-5.87516
G01 X7.76543 Y-5.84760
G01 X7.77512 Y-5.81883
G01 X7.78408 Y-5.79108
G01 X7.79341 Y-5.76096
G01 X7.80180 Y-5.73262
G01 X7.81017 Y-5.70300
G01 X7.81828 Y-5.67288
G01 X7.82571 Y-5.64384
G01 X7.83314 Y-5.61320
G01 X7.83574 Y-5.60187
G00 Z0.08000
G01 X7.83965 Y-5.58479
G01 X7.84559 Y-5.55748
G01 X7.84910 Y-5.54031
G01 Z-0.01462 F50.00000
G01 F100.00000
G01 X7.85169 Y-5.52769
G01 X7.85727 Y-5.49866
G01 X7.86262 Y-5.46882
G01 X7.86769 Y-5.43844
G01 X7.87248 Y-5.40726
G01 X7.87666 Y-5.37759
G01 X7.88057 Y-5.34707
G01 X7.88393 Y-5.31807
G01 X7.88714 Y-5.28710
G01 X7.88985 Y-5.25723
G01 X7.89226 Y-5.22655
G01 X7.89430 Y-5.19550
G01 X7.89580 Y-5.16754
G01 X7.89708 Y-5.13685
G01 X7.89794 Y-5.10771
G01 X7.89846 Y-5.07771
G01 X7.89861 Y-5.04856
G01 X7.89841 Y-5.01863
G01 X7.89782 Y-4.98744
G01 X7.89686 Y-4.95712
G01 X7.89546 Y-4.92558
G01 X7.89378 Y-4.89603
G01 X7.89178 Y-4.86694
G01 X7.88926 Y-4.83591
G01 X7.88650 Y-4.80645
G01 X7.88326 Y-4.77589
G01 X7.87979 Y-4.74654
G01 X7.87590 Y-4.71679
G01 X7.87153 Y-4.68637
G01 X7.86691 Y-4.65673
G01 X7.86194 Y-4.62724
G01 X7.85681 Y-4.59890
G01 X7.85105 Y-4.56909
G01 X7.84483 Y-4.53896
G01 X7.83878 Y-4.51131
G01 X7.83202 Y-4.48208
G01 X7.82482 Y-4.45262
G01 X7.81745 Y-4.42396
G01 X7.80963 Y-4.39503
G01 X7.80113 Y-4.36508
G01 X7.79236 Y-4.33559
G01 X7.78321 Y-4.30617
G01 X7.77421 Y-4.27844
G01 X7.76424 Y-4.24895
G01 X7.75430 Y-4.22070
G01 X7.74429 Y-4.19332
G01 X7.73393 Y-4.16601
G01 X7.72239 Y-4.13667
G01 X7.71092 Y-4.10855
G01 X7.69926 Y-4.08095
G01 X7.68692 Y-4.05273
G01 X7.67510 Y-4.02655
G01 X7.66192 Y-3.99828
G01 X7.64875 Y-3.97095
G01 X7.63522 Y-3.94373
G01 X7.62102 Y-3.91603
G01 X7.60775 Y-3.89092
G01 X7.59328 Y-3.86428
G01 X7.57863 Y-3.83810
G01 X7.56368 Y-3.81214
G01 X7.54758 Y-3.78498
G01 X7.53156 Y-3.75870
G01 X7.51607 Y-3.73399
G01 X7.49945 Y-3.70817
G01 X7.48356 Y-3.68414
G01 X7.46720 Y-3.66002
G01 X7.44964 Y-3.63480
G01 X7.43173 Y-3.60974
G01 X7.41355 Y-3.58498
G01 X7.39601 Y-3.56168
G01 X7.37718 Y-3.53730
G01 X7.35782 Y-3.51287
G01 X7.33945 Y-3.49028
G01 X7.32054 Y-3.46757
G01 X7.30132 Y-3.44505
G01 X7.28082 Y-3.42163
G01 X7.26132 Y-3.39989
G01 X7.24026 Y-3.37698
G01 X7.22023 Y-3.35573
G01 X7.19889 Y-3.33363
G01 X7.17835 Y-3.31288
G01 X7.15619 Y-3.29102
G01 X7.13488 Y-3.27053
G01 X7.11213 Y-3.24918
G01 X7.09062 Y-3.22948
G01 X7.06861 Y-3.20982
G01 X7.04570 Y-3.18984
G01 X7.02380 Y-3.17120
G01 X6.99986 Y-3.15132
G01 X6.97748 Y-3.13320
G01 X6.95334 Y-3.11413
G01 X6.92963 Y-3.09587
G01 X6.90568 Y-3.07789
G01 X6.88244 Y-3.06087
G01 X6.85711 Y-3.04279
G01 X6.83247 Y-3.02567
G01 X6.80534 Y-3.00732
G01 X6.78031 Y-2.99085
G01 X6.75437 Y-2.97425
G01 X6.72825 Y-2.95798
G01 X6.70369 Y-2.94310
G01 X6.67719 Y-2.92748
G01 X6.65186 Y-2.91296
G01 X6.62538 Y-2.89820
G01 X6.59970 Y-2.88430
G01 X6.57143 Y-2.86944
G01 X6.54546 Y-2.85621
G01 X6.51896 Y-2.84310
G01 X6.49155 Y-2.82995
G01 X6.46478 Y-2.81751
G01 X6.43706 Y-2.80504
G01 X6.40887 Y-2.79278
G01 X6.38122 Y-2.78115
G01 X6.35275 Y-2.76960
G01 X6.32556 Y-2.75895
G01 X6.29682 Y-2.74809
G01 X6.26825 Y-2.73770
G01 X6.24110 Y-2.72820
G01 X6.21160 Y-2.71828
G01 X6.18309 Y-2.70908
G01 X6.15481 Y-2.70033
G01 X6.12574 Y-2.69173
G01 X6.09726 Y-2.68368
G01 X6.06872 Y-2.67598
G01 X6.03779 Y-2.66805
G01 X6.00984 Y-2.66126
G01 X5.97947 Y-2.65426
G01 X5.95059 Y-2.64799
G01 X5.92159 Y-2.64205
G01 X5.89340 Y-2.63662
G01 X5.86271 Y-2.63111
G01 X5.83154 Y-2.62591
G01 X5.80231 Y-2.62142
G01 X5.77229 Y-2.61718
G01 X5.74218 Y-2.61330
G01 X5.71358 Y-2.60996
G01 X5.68258 Y-2.60674
G01 X5.65198 Y-2.60394
G01 X5.62247 Y-2.60160
G01 X5.59222 Y-2.59958
G01 X5.56190 Y-2.59793
G01 X5.53197 Y-2.59667
G01 X5.50278 Y-2.59580
G01 X5.47287 Y-2.59526
G01 X5.44247 Y-2.59509
G01 X5.41135 Y-2.59530
G01 X5.38375 Y-2.59582
G01 X5.35305 Y-2.59676
G01 X5.32271 Y-2.59807
G01 X5.29316 Y-2.59971
G01 X5.26207 Y-2.60181
G01 X5.23063 Y-2.60435
G01 X5.20161 Y-2.60705
G01 X5.17336 Y-2.61001
G01 X5.14246 Y-2.61364
G01 X5.11353 Y-2.61739
G01 X5.08225 Y-2.62184
G01 X5.05187 Y-2.62656
G01 X5.02193 Y-2.63159
G01 X4.99364 Y-2.63669
G01 X4.96382 Y-2.64244
G01 X4.93444 Y-2.64849
G01 X4.90481 Y-2.65496
G01 X4.87558 Y-2.66173
G01 X4.84573 Y-2.66902
G01 X4.81707 Y-2.67641
G01 X4.78780 Y-2.68433
G01 X4.75817 Y-2.69274
G01 X4.73098 Y-2.70082
G01 X4.71762 Y-2.70497
G00 Z0.08000
G01 X4.70165 Y-2.70992
G01 X4.67353 Y-2.71903
G01 X4.65769 Y-2.72437
G01 Z-0.01462 F50.00000
G01 F100.00000
G01 X4.64514 Y-2.72860
G01 X4.61649 Y-2.73865
G01 X4.58796 Y-2.74906
G01 X4.55953 Y-2.75983
G01 X4.53093 Y-2.77108
G01 X4.50281 Y-2.78255
G01 X4.47518 Y-2.79421
G01 X4.44735 Y-2.80637
G01 X4.41934 Y-2.81901
G01 X4.39252 Y-2.83153
G01 X4.36516 Y-2.84470
G01 X4.33725 Y-2.85857
G01 X4.31129 Y-2.87187
G01 X4.28483 Y-2.88583
G01 X4.25777 Y-2.90054
G01 X4.23131 Y-2.91535
G01 X4.20500 Y-2.93051
G01 X4.17919 Y-2.94581
G01 X4.15360 Y-2.96140
G01 X4.12722 Y-2.97792
G01 X4.10267 Y-2.99373
G01 X4.07768 Y-3.01025
G01 X4.05325 Y-3.02682
G01 X4.02699 Y-3.04512
G01 X4.00265 Y-3.06254
G01 X3.97818 Y-3.08052
G01 X3.95426 Y-3.09855
G01 X3.93023 Y-3.11712
G01 X3.90610 Y-3.13626
G01 X3.88347 Y-3.15466
G01 X3.86111 Y-3.17329
G01 X3.83799 Y-3.19304
G01 X3.81605 Y-3.21224
G01 X3.79348 Y-3.23248
G01 X3.77172 Y-3.25248
G01 X3.74988 Y-3.27305
G01 X3.72748 Y-3.29467
G01 X3.70590 Y-3.31602
G01 X3.68596 Y-3.33624
G01 X3.66435 Y-3.35869
G01 X3.64387 Y-3.38051
G01 X3.62387 Y-3.40233
G01 X3.60336 Y-3.42527
G01 X3.58264 Y-3.44904
G01 X3.56373 Y-3.47129
G01 X3.54486 Y-3.49404
G01 X3.52554 Y-3.51792
G01 X3.50699 Y-3.54144
G01 X3.48918 Y-3.56458
G01 X3.47123 Y-3.58851
G01 X3.45398 Y-3.61207
G01 X3.43638 Y-3.63676
G01 X3.41904 Y-3.66170
G01 X3.40156 Y-3.68754
G01 X3.38465 Y-3.71325
G01 X3.36848 Y-3.73848
G01 X3.35223 Y-3.76455
G01 X3.33730 Y-3.78918
G01 X3.32189 Y-3.81529
G01 X3.30678 Y-3.84162
G01 X3.29219 Y-3.86779
G01 X3.27847 Y-3.89311
G01 X3.26472 Y-3.91922
G01 X3.25053 Y-3.94701
G01 X3.23724 Y-3.97383
G01 X3.22408 Y-4.00123
G01 X3.21163 Y-4.02800
G01 X3.19916 Y-4.05569
G01 X3.18686 Y-4.08392
G01 X3.17510 Y-4.11188
G01 X3.16396 Y-4.13930
G01 X3.15259 Y-4.16827
G01 X3.14255 Y-4.19484
G01 X3.13162 Y-4.22484
G01 X3.12197 Y-4.25240
G01 X3.11228 Y-4.28117
G01 X3.10331 Y-4.30892
G01 X3.09399 Y-4.33903
G01 X3.08560 Y-4.36738
G01 X3.07723 Y-4.39700
G01 X3.06912 Y-4.42712
G01 X3.06169 Y-4.45616
G01 X3.05426 Y-4.48680
G01 X3.04774 Y-4.51520
G01 X3.04181 Y-4.54252
G01 X3.03571 Y-4.57230
G01 X3.03013 Y-4.60133
G01 X3.02478 Y-4.63118
G01 X3.01971 Y-4.66156
G01 X3.01492 Y-4.69274
G01 X3.01074 Y-4.72241
G01 X3.00683 Y-4.75292
G01 X3.00347 Y-4.78193
G01 X3.00026 Y-4.81289
G01 X2.99755 Y-4.84277
G01 X2.99514 Y-4.87344
G01 X2.99310 Y-4.90450
G01 X2.99160 Y-4.93246
G01 X2.99032 Y-4.96315
G01 X2.98946 Y-4.99229
G01 X2.98894 Y-5.02229
G01 X2.98879 Y-5.05144
G01 Z-0.02193 F50.00000 ( plunge. )
G04 P0 ( dwell for no time -- G64 should not smooth over this point )
G01 F100.00000
G01 X2.98899 Y-5.08136
G01 X2.98958 Y-5.11256
G01 X2.99054 Y-5.14288
G01 X2.99194 Y-5.17442
G01 X2.99362 Y-5.20397
G01 X2.99562 Y-5.23306
G01 X2.99814 Y-5.26408
G01 X3.00090 Y-5.29355
G01 X3.00414 Y-5.32411
G01 X3.00761 Y-5.35346
G01 X3.01150 Y-5.38321
G01 X3.01587 Y-5.41363
G01 X3.02049 Y-5.44327
G01 X3.02546 Y-5.47276
G01 X3.03059 Y-5.50110
G01 X3.03635 Y-5.53091
G01 X3.04257 Y-5.56104
G01 X3.04862 Y-5.58869
G01 X3.05538 Y-5.61792
G01 X3.06258 Y-5.64738
G01 X3.06995 Y-5.67604
G01 X3.07777 Y-5.70496
G01 X3.08627 Y-5.73492
G01 X3.09504 Y-5.76441
G01 X3.10418 Y-5.79382
G01 X3.11319 Y-5.82156
G01 X3.12316 Y-5.85105
G01 X3.13310 Y-5.87930
G01 X3.14311 Y-5.90668
G01 X3.15347 Y-5.93398
G01 X3.16501 Y-5.96333
G01 X3.17648 Y-5.99144
G01 X3.18814 Y-6.01905
G01 X3.20048 Y-6.04727
G01 X3.21230 Y-6.07344
G01 X3.22548 Y-6.10172
G01 X3.23865 Y-6.12905
G01 X3.25218 Y-6.15627
G01 X3.26638 Y-6.18397
G01 X3.27965 Y-6.20908
G01 X3.29412 Y-6.23572
G01 X3.30877 Y-6.26190
G01 X3.32372 Y-6.28786
G01 X3.33982 Y-6.31502
G01 X3.35584 Y-6.34130
G01 X3.37133 Y-6.36601
G01 X3.38795 Y-6.39183
G01 X3.40384 Y-6.41585
G01 X3.42020 Y-6.43998
G01 X3.43775 Y-6.46520
G01 X3.45567 Y-6.49025
G01 X3.47385 Y-6.51502
G01 X3.49139 Y-6.53832
G01 X3.51022 Y-6.56270
G01 X3.52958 Y-6.58713
G01 X3.54795 Y-6.60972
G01 X3.56686 Y-6.63243
G01 X3.58608 Y-6.65494
G01 X3.60658 Y-6.67837
G01 X3.62607 Y-6.70010
G01 X3.64714 Y-6.72302
G01 X3.66717 Y-6.74427
G01 X3.68851 Y-6.76636
G01 X3.70905 Y-6.78712
G01 X3.73121 Y-6.80897
G01 X3.75252 Y-6.82947
G01 X3.76294 Y-6.83925
G00 Z0.08000
G01 X3.77527 Y-6.85082
G01 X3.79678 Y-6.87051
G01 X3.80939 Y-6.88178
G01 Z-0.02193 F50.00000
G01 F100.00000
G01 X3.81879 Y-6.89018
G01 X3.84170 Y-6.91016
G01 X3.86360 Y-6.92880
G01 X3.88754 Y-6.94867
G01 X3.90992 Y-6.96680
G01 X3.93406 Y-6.98587
G01 X3.95776 Y-7.00412
G01 X3.98172 Y-7.02211
G01 X4.00495 Y-7.03912
G01 X4.02999 Y-7.05699
G01 X4.05524 Y-7.07454
G01 X4.08174 Y-7.09247
G01 X4.10709 Y-7.10914
G01 X4.13303 Y-7.12575
G01 X4.15915 Y-7.14202
G01 X4.18371 Y-7.15690
G01 X4.21021 Y-7.17252
G01 X4.23554 Y-7.18704
G01 X4.26202 Y-7.20180
G01 X4.28770 Y-7.21570
G01 X4.31597 Y-7.23055
G01 X4.34194 Y-7.24379
G01 X4.36844 Y-7.25690
G01 X4.39585 Y-7.27005
G01 X4.42229 Y-7.28234
G01 X4.45034 Y-7.29496
G01 X4.47852 Y-7.30722
G01 X4.50618 Y-7.31884
G01 X4.53465 Y-7.33040
G01 X4.56184 Y-7.34105
G01 X4.59058 Y-7.35191
G01 X4.61915 Y-7.36230
G01 X4.64630 Y-7.37180
G01 X4.67579 Y-7.38172
G01 X4.70431 Y-7.39092
G01 X4.73259 Y-7.39966
G01 X4.76166 Y-7.40827
G01 X4.79014 Y-7.41632
G01 X4.81868 Y-7.42402
G01 X4.84961 Y-7.43194
G01 X4.87756 Y-7.43874
G01 X4.90793 Y-7.44573
G01 X4.93681 Y-7.45201
G01 X4.96581 Y-7.45795
G01 X4.99400 Y-7.46337
G01 X5.02469 Y-7.46889
G01 X5.05586 Y-7.47408
G01 X5.08508 Y-7.47858
G01 X5.11511 Y-7.48282
G01 X5.14521 Y-7.48670
G01 X5.17382 Y-7.49003
G01 X5.20482 Y-7.49326
G01 X5.23542 Y-7.49606
G01 X5.26493 Y-7.49840
G01 X5.29518 Y-7.50042
G01 X5.32550 Y-7.50207
G01 X5.35543 Y-7.50333
G01 X5.38462 Y-7.50420
G01 X5.41453 Y-7.50474
G01 X5.44493 Y-7.50491
G01 X5.47605 Y-7.50470
G01 X5.50365 Y-7.50418
G01 X5.53435 Y-7.50324
G01 X5.56468 Y-7.50193
G01 X5.59424 Y-7.50029
G01 X5.62533 Y-7.49818
G01 X5.65677 Y-7.49565
G01 X5.68579 Y-7.49295
G01 X5.71404 Y-7.48998
G01 X5.74494 Y-7.48636
G01 X5.77387 Y-7.48261
G01 X5.80515 Y-7.47816
G01 X5.83553 Y-7.47344
G01 X5.86546 Y-7.46841
G01 X5.89376 Y-7.46331
G01 X5.92358 Y-7.45755
G01 X5.95296 Y-7.45151
G01 X5.98259 Y-7.44504
G01 X6.01182 Y-7.43827
G01 X6.04167 Y-7.43097
G01 X6.07033 Y-7.42359
G01 X6.09960 Y-7.41567
G01 X6.12923 Y-7.40725
G01 X6.15641 Y-7.39918
G01 X6.18575 Y-7.39008
G01 X6.21387 Y-7.38097
G01 X6.24226 Y-7.37140
G01 X6.27091 Y-7.36135
G01 X6.29910 Y-7.35106
G01 X6.32787 Y-7.34016
G01 X6.35647 Y-7.32892
G01 X6.38459 Y-7.31745
G01 X6.41222 Y-7.30578
G01 X6.44005 Y-7.29363
G01 X6.46806 Y-7.28099
G01 X6.49488 Y-7.26847
G01 X6.52224 Y-7.25530
G01 X6.55015 Y-7.24143
G01 X6.57610 Y-7.22813
G01 X6.60256 Y-7.21417
G01 X6.62962 Y-7.19946
G01 X6.65609 Y-7.18464
G01 X6.68240 Y-7.16948
G01 X6.70821 Y-7.15419
G01 X6.73380 Y-7.13860
G01 X6.76017 Y-7.12207
G01 X6.78473 Y-7.10627
G01 X6.80972 Y-7.08975
G01 X6.83415 Y-7.07318
G01 X6.86041 Y-7.05488
G01 X6.88474 Y-7.03746
G01 X6.90892 Y-7.01970
G01 X6.93314 Y-7.00145
G01 X6.95717 Y-6.98287
G01 X6.98130 Y-6.96373
G01 X7.00393 Y-6.94533
G01 X7.02629 Y-6.92670
G01 X7.04941 Y-6.90696
G01 X7.07135 Y-6.88776
G01 X7.09392 Y-6.86752
G01 X7.11568 Y-6.84752
G01 X7.13752 Y-6.82695
G01 X7.15992 Y-6.80533
G01 X7.18150 Y-6.78397
G01 X7.20144 Y-6.76375
G01 X7.22305 Y-6.74130
G01 X7.24353 Y-6.71949
G01 X7.26353 Y-6.69767
G01 X7.28404 Y-6.67473
G01 X7.30476 Y-6.65096
G01 X7.32367 Y-6.62871
G01 X7.34254 Y-6.60596
G01 X7.36186 Y-6.58208
G01 X7.38041 Y-6.55856
G01 X7.39822 Y-6.53541
G01 X7.41617 Y-6.51149
G01 X7.43342 Y-6.48792
G01 X7.45102 Y-6.46324
G01 X7.46835 Y-6.43830
G01 X7.48583 Y-6.41246
G01 X7.50275 Y-6.38675
G01 X7.51892 Y-6.36152
G01 X7.53517 Y-6.33545
G01 X7.55010 Y-6.31082
G01 X7.56551 Y-6.28471
G01 X7.58062 Y-6.25838
G01 X7.59521 Y-6.23221
G01 X7.60893 Y-6.20689
G01 X7.62268 Y-6.18077
G01 X7.63687 Y-6.15299
G01 X7.65016 Y-6.12617
G01 X7.66331 Y-6.09877
G01 X7.67576 Y-6.07200
G01 X7.68824 Y-6.04431
G01 X7.70053 Y-6.01607
G01 X7.71230 Y-5.98812
G01 X7.72344 Y-5.96070
G01 X7.73481 Y-5.93172
G01 X7.74485 Y-5.90516
G01 X7.75578 Y-5.87516
G01 X7.76543 Y-5.84760
G01 X7.77512 Y-5.81883
G01 X7.78408 Y-5.79108
G01 X7.79341 Y-5.76096
G01 X7.80180 Y-5.73262
G01 X7.81017 Y-5.70300
G01 X7.81828 Y-5.67288
G01 X7.82571 Y-5.64384
G01 X7.83314 Y-5.61320
G01 X7.83574 Y-5.60187
G00 Z0.08000
G01 X7.83965 Y-5.58479
G01 X7.84559 Y-5.55748
G01 X7.84910 Y-5.54031
G01 Z-0.02193 F50.00000
G01 F100.00000
G01 X7.85169 Y-5.52769
G01 X7.85727 Y-5.49866
G01 X7.86262 Y-5.46882
G01 X7.86769 Y-5.43844
G01 X7.87248 Y-5.40726
G01 X7.87666 Y-5.37759
G01 X7.88057 Y-5.34707
G01 X7.88393 Y-5.31807
G01 X7.88714 Y-5.28710
G01 X7.88985 Y-5.25723
G01 X7.89226 Y-5.22655
G01 X7.89430 Y-5.19550
G01 X7.89580 Y-5.16754
G01 X7.89708 Y-5.13685
G01 X7.89794 Y-5.10771
G01 X7.89846 Y-5.07771
G01 X7.89861 Y-5.04856
G01 X7.89841 Y-5.01863
G01 X7.89782 Y-4.98744
G01 X7.89686 Y-4.95712
G01 X7.89546 Y-4.92558
G01 X7.89378 Y-4.89603
G01 X7.89178 Y-4.86694
G01 X7.88926 Y-4.83591
G01 X7.88650 Y-4.80645
G01 X7.88326 Y-4.77589
G01 X7.87979 Y-4.74654
G01 X7.87590 Y-4.71679
G01 X7.87153 Y-4.68637
G01 X7.86691 Y-4.65673
G01 X7.86194 Y-4.62724
G01 X7.85681 Y-4.59890
G01 X7.85105 Y-4.56909
G01 X7.84483 Y-4.53896
G01 X7.83878 Y-4.51131
G01 X7.83202 Y-4.48208
G01 X7.82482 Y-4.45262
G01 X7.81745 Y-4.42396
G01 X7.80963 Y-4.39503
G01 X7.80113 Y-4.36508
G01 X7.79236 Y-4.33559
G01 X7.78321 Y-4.30617
G01 X7.77421 Y-4.27844
G01 X7.76424 Y-4.24895
G01 X7.75430 Y-4.22070
G01 X7.74429 Y-4.19332
G01 X7.73393 Y-4.16601
G01 X7.72239 Y-4.13667
G01 X7.71092 Y-4.10855
G01 X7.69926 Y-4.08095
G01 X7.68692 Y-4.05273
G01 X7.67510 Y-4.02655
G01 X7.66192 Y-3.99828
G01 X7.64875 Y-3.97095
G01 X7.63522 Y-3.94373
G01 X7.62102 Y-3.91603
G01 X7.60775 Y-3.89092
G01 X7.59328 Y-3.86428
G01 X7.57863 Y-3.83810
G01 X7.56368 Y-3.81214
G01 X7.54758 Y-3.78498
G01 X7.53156 Y-3.75870
G01 X7.51607 Y-3.73399
G01 X7.49945 Y-3.70817
G01 X7.48356 Y-3.68414
G01 X7.46720 Y-3.66002
G01 X7.44964 Y-3.63480
G01 X7.43173 Y-3.60974
G01 X7.41355 Y-3.58498
G01 X7.39601 Y-3.56168
G01 X7.37718 Y-3.53730
G01 X7.35782 Y-3.51287
G01 X7.33945 Y-3.49028
G01 X7.32054 Y-3.46757
G01 X7.30132 Y-3.44505
G01 X7.28082 Y-3.42163
G01 X7.26132 Y-3.39989
G01 X7.24026 Y-3.37698
G01 X7.22023 Y-3.35573
G01 X7.19889 Y-3.33363
G01 X7.17835 Y-3.31288
G01 X7.15619 Y-3.29102
G01 X7.13488 Y-3.27053
G01 X7.11213 Y-3.24918
G01 X7.09062 Y-3.22948
G01 X7.06861 Y-3.20982
G01 X7.04570 Y-3.18984
G01 X7.02380 Y-3.17120
G01 X6.99986 Y-3.15132
G01 X6.97748 Y-3.13320
G01 X6.95334 Y-3.11413
G01 X6.92963 Y-3.09587
G01 X6.90568 Y-3.07789
G01 X6.88244 Y-3.06087
G01 X6.85711 Y-3.04279
G01 X6.83247 Y-3.02567
G01 X6.80534 Y-3.00732
G01 X6.78031 Y-2.99085
G01 X6.75437 Y-2.97425
G01 X6.72825 Y-2.95798
G01 X6.70369 Y-2.94310
G01 X6.67719 Y-2.92748
G01 X6.65186 Y-2.91296
G01 X6.62538 Y-2.89820
G01 X6.59970 Y-2.88430
G01 X6.57143 Y-2.86944
G01 X6.54546 Y-2.85621
G01 X6.51896 Y-2.84310
G01 X6.49155 Y-2.82995
G01 X6.46478 Y-2.81751
G01 X6.43706 Y-2.80504
G01 X6.40887 Y-2.79278
G01 X6.38122 Y-2.78115
G01 X6.35275 Y-2.76960
G01 X6.32556 Y-2.75895
G01 X6.29682 Y-2.74809
G01 X6.26825 Y-2.73770
G01 X6.24110 Y-2.72820
G01 X6.21160 Y-2.71828
G01 X6.18309 Y-2.70908
G01 X6.15481 Y-2.70033
G01 X6.12574 Y-2.69173
G01 X6.09726 Y-2.68368
G01 X6.06872 Y-2.67598
G01 X6.03779 Y-2.66805
G01 X6.00984 Y-2.66126
G01 X5.97947 Y-2.65426
G01 X5.95059 Y-2.64799
G01 X5.92159 Y-2.64205
G01 X5.89340 Y-2.63662
G01 X5.86271 Y-2.63111
G01 X5.83154 Y-2.62591
G01 X5.80231 Y-2.62142
G01 X5.77229 Y-2.61718
G01 X5.74218 Y-2.61330
G01 X5.71358 Y-2.60996
G01 X5.68258 Y-2.60674
G01 X5.65198 Y-2.60394
G01 X5.62247 Y-2.60160
G01 X5.59222 Y-2.59958
G01 X5.56190 Y-2.59793
G01 X5.53197 Y-2.59667
G01 X5.50278 Y-2.59580
G01 X5.47287 Y-2.59526
G01 X5.44247 Y-2.59509
G01 X5.41135 Y-2.59530
G01 X5.38375 Y-2.59582
G01 X5.35305 Y-2.59676
G01 X5.32271 Y-2.59807
G01 X5.29316 Y-2.59971
G01 X5.26207 Y-2.60181
G01 X5.23063 Y-2.60435
G01 X5.20161 Y-2.60705
G01 X5.17336 Y-2.61001
G01 X5.14246 Y-2.61364
G01 X5.11353 Y-2.61739
G01 X5.08225 Y-2.62184
G01 X5.05187 Y-2.62656
G01 X5.02193 Y-2.63159
G01 X4.99364 Y-2.63669
G01 X4.96382 Y-2.64244
G01 X4.93444 Y-2.64849
G01 X4.90481 Y-2.65496
G01 X4.87558 Y-2.66173
G01 X4.84573 Y-2.66902
G01 X4.81707 Y-2.67641
G01 X4.78780 Y-2.68433
G01 X4.75817 Y-2.69274
G01 X4.73098 Y-2.70082
G01 X4.71762 Y-2.70497
G00 Z0.08000
G01 X4.70165 Y-2.70992
G01 X4.67353 Y-2.71903
G01 X4.65769 Y-2.72437
G01 Z-0.02193 F50.00000
G01 F100.00000
G01 X4.64514 Y-2.72860
G01 X4.61649 Y-2.73865
G01 X4.58796 Y-2.74906
G01 X4.55953 Y-2.75983
G01 X4.53093 Y-2.77108
G01 X4.50281 Y-2.78255
G01 X4.47518 Y-2.79421
G01 X4.44735 Y-2.80637
G01 X4.41934 Y-2.81901
G01 X4.39252 Y-2.83153
G01 X4.36516 Y-2.84470
G01 X4.33725 Y-2.85857
G01 X4.31129 Y-2.87187
G01 X4.28483 Y-2.88583
G01 X4.25777 Y-2.90054
G01 X4.23131 Y-2.91535
G01 X4.20500 Y-2.93051
G01 X4.17919 Y-2.94581
G01 X4.15360 Y-2.96140
G01 X4.12722 Y-2.97792
G01 X4.10267 Y-2.99373
G01 X4.07768 Y-3.01025
G01 X4.05325 Y-3.02682
G01 X4.02699 Y-3.04512
G01 X4.00265 Y-3.06254
G01 X3.97818 Y-3.08052
G01 X3.95426 Y-3.09855
G01 X3.93023 Y-3.11712
G01 X3.90610 Y-3.13626
G01 X3.88347 Y-3.15466
G01 X3.86111 Y-3.17329
G01 X3.83799 Y-3.19304
G01 X3.81605 Y-3.21224
G01 X3.79348 Y-3.23248
G01 X3.77172 Y-3.25248
G01 X3.74988 Y-3.27305
G01 X3.72748 Y-3.29467
G01 X3.70590 Y-3.31602
G01 X3.68596 Y-3.33624
G01 X3.66435 Y-3.35869
G01 X3.64387 Y-3.38051
G01 X3.62387 Y-3.40233
G01 X3.60336 Y-3.42527
G01 X3.58264 Y-3.44904
G01 X3.56373 Y-3.47129
G01 X3.54486 Y-3.49404
G01 X3.52554 Y-3.51792
G01 X3.50699 Y-3.54144
G01 X3.48918 Y-3.56458
G01 X3.47123 Y-3.58851
G01 X3.45398 Y-3.61207
G01 X3.43638 Y-3.63676
G01 X3.41904 Y-3.66170
G01 X3.40156 Y-3.68754
G01 X3.38465 Y-3.71325
G01 X3.36848 Y-3.73848
G01 X3.35223 Y-3.76455
G01 X3.33730 Y-3.78918
G01 X3.32189 Y-3.81529
G01 X3.30678 Y-3.84162
G01 X3.29219 Y-3.86779
G01 X3.27847 Y-3.89311
G01 X3.26472 Y-3.91922
G01 X3.25053 Y-3.94701
G01 X3.23724 Y-3.97383
G01 X3.22408 Y-4.00123
G01 X3.21163 Y-4.02800
G01 X3.19916 Y-4.05569
G01 X3.18686 Y-4.08392
G01 X3.17510 Y-4.11188
G01 X3.16396 Y-4.13930
G01 X3.15259 Y-4.16827
G01 X3.14255 Y-4.19484
G01 X3.13162 Y-4.22484
G01 X3.12197 Y-4.25240
G01 X3.11228 Y-4.28117
G01 X3.10331 Y-4.30892
G01 X3.09399 Y-4.33903
G01 X3.08560 Y-4.36738
G01 X3.07723 Y-4.39700
G01 X3.06912 Y-4.42712
G01 X3.06169 Y-4.45616
G01 X3.05426 Y-4.48680
G01 X3.04774 Y-4.51520
G01 X3.04181 Y-4.54252
G01 X3.03571 Y-4.57230
G01 X3.03013 Y-4.60133
G01 X3.02478 Y-4.63118
G01 X3.01971 Y-4.66156
G01 X3.01492 Y-4.69274
G01 X3.01074 Y-4.72241
G01 X3.00683 Y-4.75292
G01 X3.00347 Y-4.78193
G01 X3.00026 Y-4.81289
G01 X2.99755 Y-4.84277
G01 X2.99514 Y-4.87344
G01 X2.99310 Y-4.90450
G01 X2.99160 Y-4.93246
G01 X2.99032 Y-4.96315
G01 X2.98946 Y-4.99229
G01 X2.98894 Y-5.02229
G01 X2.98879 Y-5.05144
G01 Z-0.02925 F50.00000 ( plunge. )
G04 P0 ( dwell for no time -- G64 should not smooth over this point )
G01 F100.00000
G01 X2.98899 Y-5.08136
G01 X2.98958 Y-5.11256
G01 X2.99054 Y-5.14288
G01 X2.99194 Y-5.17442
G01 X2.99362 Y-5.20397
G01 X2.99562 Y-5.23306
G01 X2.99814 Y-5.26408
G01 X3.00090 Y-5.29355
G01 X3.00414 Y-5.32411
G01 X3.00761 Y-5.35346
G01 X3.01150 Y-5.38321
G01 X3.01587 Y-5.41363
G01 X3.02049 Y-5.44327
G01 X3.02546 Y-5.47276
G01 X3.03059 Y-5.50110
G01 X3.03635 Y-5.53091
G01 X3.04257 Y-5.56104
G01 X3.04862 Y-5.58869
G01 X3.05538 Y-5.61792
G01 X3.06258 Y-5.64738
G01 X3.06995 Y-5.67604
G01 X3.07777 Y-5.70496
G01 X3.08627 Y-5.73492
G01 X3.09504 Y-5.76441
G01 X3.10418 Y-5.79382
G01 X3.11319 Y-5.82156
G01 X3.12316 Y-5.85105
G01 X3.13310 Y-5.87930
G01 X3.14311 Y-5.90668
G01 X3.15347 Y-5.93398
G01 X3.16501 Y-5.96333
G01 X3.17648 Y-5.99144
G01 X3.18814 Y-6.01905
G01 X3.20048 Y-6.04727
G01 X3.21230 Y-6.07344
G01 X3.22548 Y-6.10172
G01 X3.23865 Y-6.12905
G01 X3.25218 Y-6.15627
G01 X3.26638 Y-6.18397
G01 X3.27965 Y-6.20908
G01 X3.29412 Y-6.23572
G01 X3.30877 Y-6.26190
G01 X3.32372 Y-6.28786
G01 X3.33982 Y-6.31502
G01 X3.35584 Y-6.34130
G01 X3.37133 Y-6.36601
G01 X3.38795 Y-6.39183
G01 X3.40384 Y-6.41585
G01 X3.42020 Y-6.43998
G01 X3.43775 Y-6.46520
G01 X3.45567 Y-6.49025
G01 X3.47385 Y-6.51502
G01 X3.49139 Y-6.53832
G01 X3.51022 Y-6.56270
G01 X3.52958 Y-6.58713
G01 X3.54795 Y-6.60972
G01 X3.56686 Y-6.63243
G01 X3.58608 Y-6.65494
G01 X3.60658 Y-6.67837
G01 X3.62607 Y-6.70010
G01 X3.64714 Y-6.72302
G01 X3.66717 Y-6.74427
G01 X3.68851 Y-6.76636
G01 X3.70905 Y-6.78712
G01 X3.73121 Y-6.80897
G01 X3.75252 Y-6.82947
G01 X3.76294 Y-6.83925
G00 Z0.08000
G01 X3.77527 Y-6.85082
G01 X3.79678 Y-6.87051
G01 X3.80939 Y-6.88178
G01 Z-0.02925 F50.00000
G01 F100.00000
G01 X3.81879 Y-6.89018
G01 X3.84170 Y-6.91016
G01 X3.86360 Y-6.92880
G01 X3.88754 Y-6.94867
G01 X3.90992 Y-6.96680
G01 X3.93406 Y-6.98587
G01 X3.95776 Y-7.00412
G01 X3.98172 Y-7.02211
G01 X4.00495 Y-7.03912
G01 X4.02999 Y-7.05699
G01 X4.05524 Y-7.07454
G01 X4.08174 Y-7.09247
G01 X4.10709 Y-7.10914
G01 X4.13303 Y-7.12575
G01 X4.15915 Y-7.14202
G01 X4.18371 Y-7.15690
G01 X4.21021 Y-7.17252
G01 X4.23554 Y-7.18704
G01 X4.26202 Y-7.20180
G01 X4.28770 Y-7.21570
G01 X4.31597 Y-7.23055
G01 X4.34194 Y-7.24379
G01 X4.36844 Y-7.25690
G01 X4.39585 Y-7.27005
G01 X4.42229 Y-7.28234
G01 X4.45034 Y-7.29496
G01 X4.47852 Y-7.30722
G01 X4.50618 Y-7.31884
G01 X4.53465 Y-7.33040
G01 X4.56184 Y-7.34105
G01 X4.59058 Y-7.35191
G01 X4.61915 Y-7.36230
G01 X4.64630 Y-7.37180
G01 X4.67579 Y-7.38172
G01 X4.70431 Y-7.39092
G01 X4.73259 Y-7.39966
G01 X4.76166 Y-7.40827
G01 X4.79014 Y-7.41632
G01 X4.81868 Y-7.42402
G01 X4.84961 Y-7.43194
G01 X4.87756 Y-7.43874
G01 X4.90793 Y-7.44573
G01 X4.93681 Y-7.45201
G01 X4.96581 Y-7.45795
G01 X4.99400 Y-7.46337
G01 X5.02469 Y-7.46889
G01 X5.05586 Y-7.47408
G01 X5.08508 Y-7.47858
G01 X5.11511 Y-7.48282
G01 X5.14521 Y-7.48670
G01 X5.17382 Y-7.49003
G01 X5.20482 Y-7.49326
G01 X5.23542 Y-7.49606
G01 X5.26493 Y-7.49840
G01 X5.29518 Y-7.50042
G01 X5.32550 Y-7.50207
G01 X5.35543 Y-7.50333
G01 X5.38462 Y-7.50420
G01 X5.41453 Y-7.50474
G01 X5.44493 Y-7.50491
G01 X5.47605 Y-7.50470
G01 X5.50365 Y-7.50418
G01 X5.53435 Y-7.50324
G01 X5.56468 Y-7.50193
G01 X5.59424 Y-7.50029
G01 X5.62533 Y-7.49818
G01 X5.65677 Y-7.49565
G01 X5.68579 Y-7.49295
G01 X5.71404 Y-7.48998
G01 X5.74494 Y-7.48636
G01 X5.77387 Y-7.48261
G01 X5.80515 Y-7.47816
G01 X5.83553 Y-7.47344
G01 X5.86546 Y-7.46841
G01 X5.89376 Y-7.46331
G01 X5.92358 Y-7.45755
G01 X5.95296 Y-7.45151
G01 X5.98259 Y-7.44504
G01 X6.01182 Y-7.43827
G01 X6.04167 Y-7.43097
G01 X6.07033 Y-7.42359
G01 X6.09960 Y-7.41567
G01 X6.12923 Y-7.40725
G01 X6.15641 Y-7.39918
G01 X6.18575 Y-7.39008
G01 X6.21387 Y-7.38097
G01 X6.24226 Y-7.37140
G01 X6.27091 Y-7.36135
G01 X6.29910 Y-7.35106
G01 X6.32787 Y-7.34016
G01 X6.35647 Y-7.32892
G01 X6.38459 Y-7.31745
G01 X6.41222 Y-7.30578
G01 X6.44005 Y-7.29363
G01 X6.46806 Y-7.28099
G01 X6.49488 Y-7.26847
G01 X6.52224 Y-7.25530
G01 X6.55015 Y-7.24143
G01 X6.57610 Y-7.22813
G01 X6.60256 Y-7.21417
G01 X6.62962 Y-7.19946
G01 X6.65609 Y-7.18464
G01 X6.68240 Y-7.16948
G01 X6.70821 Y-7.15419
G01 X6.73380 Y-7.13860
G01 X6.76017 Y-7.12207
G01 X6.78473 Y-7.10627
G01 X6.80972 Y-7.08975
G01 X6.83415 Y-7.07318
G01 X6.86041 Y-7.05488
G01 X6.88474 Y-7.03746
G01 X6.90892 Y-7.01970
G01 X6.93314 Y-7.00145
G01 X6.95717 Y-6.98287
G01 X6.98130 Y-6.96373
G01 X7.00393 Y-6.94533
G01 X7.02629 Y-6.92670
G01 X7.04941 Y-6.90696
G01 X7.07135 Y-6.88776
G01 X7.09392 Y-6.86752
G01 X7.11568 Y-6.84752
G01 X7.13752 Y-6.82695
G01 X7.15992 Y-6.80533
G01 X7.18150 Y-6.78397
G01 X7.20144 Y-6.76375
G01 X7.22305 Y-6.74130
G01 X7.24353 Y-6.71949
G01 X7.26353 Y-6.69767
G01 X7.28404 Y-6.67473
G01 X7.30476 Y-6.65096
G01 X7.32367 Y-6.62871
G01 X7.34254 Y-6.60596
G01 X7.36186 Y-6.58208
G01 X7.38041 Y-6.55856
G01 X7.39822 Y-6.53541
G01 X7.41617 Y-6.51149
G01 X7.43342 Y-6.48792
G01 X7.45102 Y-6.46324
G01 X7.46835 Y-6.43830
G01 X7.48583 Y-6.41246
G01 X7.50275 Y-6.38675
G01 X7.51892 Y-6.36152
G01 X7.53517 Y-6.33545
G01 X7.55010 Y-6.31082
G01 X7.56551 Y-6.28471
G01 X7.58062 Y-6.25838
G01 X7.59521 Y-6.23221
G01 X7.60893 Y-6.20689
G01 X7.62268 Y-6.18077
G01 X7.63687 Y-6.15299
G01 X7.65016 Y-6.12617
G01 X7.66331 Y-6.09877
G01 X7.67576 Y-6.07200
G01 X7.68824 Y-6.04431
G01 X7.70053 Y-6.01607
G01 X7.71230 Y-5.98812
G01 X7.72344 Y-5.96070
G01 X7.73481 Y-5.93172
G01 X7.74485 Y-5.90516
G01 X7.75578 Y-5.87516
G01 X7.76543 Y-5.84760
G01 X7.77512 Y-5.81883
G01 X7.78408 Y-5.79108
G01 X7.79341 Y-5.76096
G01 X7.80180 Y-5.73262
G01 X7.81017 Y-5.70300
G01 X7.81828 Y-5.67288
G01 X7.82571 Y-5.64384
G01 X7.83314 Y-5.61320
G01 X7.83574 Y-5.60187
G00 Z0.08000
G01 X7.83965 Y-5.58479
G01 X7.84559 Y-5.55748
G01 X7.84910 Y-5.54031
G01 Z-0.02925 F50.00000
G01 F100.00000
G01 X7.85169 Y-5.52769
G01 X7.85727 Y-5.49866
G01 X7.86262 Y-5.46882
G01 X7.86769 Y-5.43844
G01 X7.87248 Y-5.40726
G01 X7.87666 Y-5.37759
G01 X7.88057 Y-5.34707
G01 X7.88393 Y-5.31807
G01 X7.88714 Y-5.28710
G01 X7.88985 Y-5.25723
G01 X7.89226 Y-5.22655
G01 X7.89430 Y-5.19550
G01 X7.89580 Y-5.16754
G01 X7.89708 Y-5.13685
G01 X7.89794 Y-5.10771
G01 X7.89846 Y-5.07771
G01 X7.89861 Y-5.04856
G01 X7.89841 Y-5.01863
G01 X7.89782 Y-4.98744
G01 X7.89686 Y-4.95712
G01 X7.89546 Y-4.92558
G01 X7.89378 Y-4.89603
G01 X7.89178 Y-4.86694
G01 X7.88926 Y-4.83591
G01 X7.88650 Y-4.80645
G01 X7.88326 Y-4.77589
G01 X7.87979 Y-4.74654
G01 X7.87590 Y-4.71679
G01 X7.87153 Y-4.68637
G01 X7.86691 Y-4.65673
G01 X7.86194 Y-4.62724
G01 X7.85681 Y-4.59890
G01 X7.85105 Y-4.56909
G01 X7.84483 Y-4.53896
G01 X7.83878 Y-4.51131
G01 X7.83202 Y-4.48208
G01 X7.82482 Y-4.45262
G01 X7.81745 Y-4.42396
G01 X7.80963 Y-4.39503
G01 X7.80113 Y-4.36508
G01 X7.79236 Y-4.33559
G01 X7.78321 Y-4.30617
G01 X7.77421 Y-4.27844
G01 X7.76424 Y-4.24895
G01 X7.75430 Y-4.22070
G01 X7.74429 Y-4.19332
G01 X7.73393 Y-4.16601
G01 X7.72239 Y-4.13667
G01 X7.71092 Y-4.10855
G01 X7.69926 Y-4.08095
G01 X7.68692 Y-4.05273
G01 X7.67510 Y-4.02655
G01 X7.66192 Y-3.99828
G01 X7.64875 Y-3.97095
G01 X7.63522 Y-3.94373
G01 X7.62102 Y-3.91603
G01 X7.60775 Y-3.89092
G01 X7.59328 Y-3.86428
G01 X7.57863 Y-3.83810
G01 X7.56368 Y-3.81214
G01 X7.54758 Y-3.78498
G01 X7.53156 Y-3.75870
G01 X7.51607 Y-3.73399
G01 X7.49945 Y-3.70817
G01 X7.48356 Y-3.68414
G01 X7.46720 Y-3.66002
G01 X7.44964 Y-3.63480
G01 X7.43173 Y-3.60974
G01 X7.41355 Y-3.58498
G01 X7.39601 Y-3.56168
G01 X7.37718 Y-3.53730
G01 X7.35782 Y-3.51287
G01 X7.33945 Y-3.49028
G01 X7.32054 Y-3.46757
G01 X7.30132 Y-3.44505
G01 X7.28082 Y-3.42163
G01 X7.26132 Y-3.39989
G01 X7.24026 Y-3.37698
G01 X7.22023 Y-3.35573
G01 X7.19889 Y-3.33363
G01 X7.17835 Y-3.31288
G01 X7.15619 Y-3.29102
G01 X7.13488 Y-3.27053
G01 X7.11213 Y-3.24918
G01 X7.09062 Y-3.22948
G01 X7.06861 Y-3.20982
G01 X7.04570 Y-3.18984
G01 X7.02380 Y-3.17120
G01 X6.99986 Y-3.15132
G01 X6.97748 Y-3.13320
G01 X6.95334 Y-3.11413
G01 X6.92963 Y-3.09587
G01 X6.90568 Y-3.07789
G01 X6.88244 Y-3.06087
G01 X6.85711 Y-3.04279
G01 X6.83247 Y-3.02567
G01 X6.80534 Y-3.00732
G01 X6.78031 Y-2.99085
G01 X6.75437 Y-2.97425
G01 X6.72825 Y-2.95798
G01 X6.70369 Y-2.94310
G01 X6.67719 Y-2.92748
G01 X6.65186 Y-2.91296
G01 X6.62538 Y-2.89820
G01 X6.59970 Y-2.88430
G01 X6.57143 Y-2.86944
G01 X6.54546 Y-2.85621
G01 X6.51896 Y-2.84310
G01 X6.49155 Y-2.82995
G01 X6.46478 Y-2.81751
G01 X6.43706 Y-2.80504
G01 X6.40887 Y-2.79278
G01 X6.38122 Y-2.78115
G01 X6.35275 Y-2.76960
G01 X6.32556 Y-2.75895
G01 X6.29682 Y-2.74809
G01 X6.26825 Y-2.73770
G01 X6.24110 Y-2.72820
G01 X6.21160 Y-2.71828
G01 X6.18309 Y-2.70908
G01 X6.15481 Y-2.70033
G01 X6.12574 Y-2.69173
G01 X6.09726 Y-2.68368
G01 X6.06872 Y-2.67598
G01 X6.03779 Y-2.66805
G01 X6.00984 Y-2.66126
G01 X5.97947 Y-2.65426
G01 X5.95059 Y-2.64799
G01 X5.92159 Y-2.64205
G01 X5.89340 Y-2.63662
G01 X5.86271 Y-2.63111
G01 X5.83154 Y-2.62591
G01 X5.80231 Y-2.62142
G01 X5.77229 Y-2.61718
G01 X5.74218 Y-2.61330
G01 X5.71358 Y-2.60996
G01 X5.68258 Y-2.60674
G01 X5.65198 Y-2.60394
G01 X5.62247 Y-2.60160
G01 X5.59222 Y-2.59958
G01 X5.56190 Y-2.59793
G01 X5.53197 Y-2.59667
G01 X5.50278 Y-2.59580
G01 X5.47287 Y-2.59526
G01 X5.44247 Y-2.59509
G01 X5.41135 Y-2.59530
G01 X5.38375 Y-2.59582
G01 X5.35305 Y-2.59676
G01 X5.32271 Y-2.59807
G01 X5.29316 Y-2.59971
G01 X5.26207 Y-2.60181
G01 X5.23063 Y-2.60435
G01 X5.20161 Y-2.60705
G01 X5.17336 Y-2.61001
G01 X5.14246 Y-2.61364
G01 X5.11353 Y-2.61739
G01 X5.08225 Y-2.62184
G01 X5.05187 Y-2.62656
G01 X5.02193 Y-2.63159
G01 X4.99364 Y-2.63669
G01 X4.96382 Y-2.64244
G01 X4.93444 Y-2.64849
G01 X4.90481 Y-2.65496
G01 X4.87558 Y-2.66173
G01 X4.84573 Y-2.66902
G01 X4.81707 Y-2.67641
G01 X4.78780 Y-2.68433
G01 X4.75817 Y-2.69274
G01 X4.73098 Y-2.70082
G01 X4.71762 Y-2.70497
G00 Z0.08000
G01 X4.70165 Y-2.70992
G01 X4.67353 Y-2.71903
G01 X4.65769 Y-2.72437
G01 Z-0.02925 F50.00000
G01 F100.00000
G01 X4.64514 Y-2.72860
G01 X4.61649 Y-2.73865
G01 X4.58796 Y-2.74906
G01 X4.55953 Y-2.75983
G01 X4.53093 Y-2.77108
G01 X4.50281 Y-2.78255
G01 X4.47518 Y-2.79421
G01 X4.44735 Y-2.80637
G01 X4.41934 Y-2.81901
G01 X4.39252 Y-2.83153
G01 X4.36516 Y-2.84470
G01 X4.33725 Y-2.85857
G01 X4.31129 Y-2.87187
G01 X4.28483 Y-2.88583
G01 X4.25777 Y-2.90054
G01 X4.23131 Y-2.91535
G01 X4.20500 Y-2.93051
G01 X4.17919 Y-2.94581
G01 X4.15360 Y-2.96140
G01 X4.12722 Y-2.97792
G01 X4.10267 Y-2.99373
G01 X4.07768 Y-3.01025
G01 X4.05325 Y-3.02682
G01 X4.02699 Y-3.04512
G01 X4.00265 Y-3.06254
G01 X3.97818 Y-3.08052
G01 X3.95426 Y-3.09855
G01 X3.93023 Y-3.11712
G01 X3.90610 Y-3.13626
G01 X3.88347 Y-3.15466
G01 X3.86111 Y-3.17329
G01 X3.83799 Y-3.19304
G01 X3.81605 Y-3.21224
G01 X3.79348 Y-3.23248
G01 X3.77172 Y-3.25248
G01 X3.74988 Y-3.27305
G01 X3.72748 Y-3.29467
G01 X3.70590 Y-3.31602
G01 X3.68596 Y-3.33624
G01 X3.66435 Y-3.35869
G01 X3.64387 Y-3.38051
G01 X3.62387 Y-3.40233
G01 X3.60336 Y-3.42527
G01 X3.58264 Y-3.44904
G01 X3.56373 Y-3.47129
G01 X3.54486 Y-3.49404
G01 X3.52554 Y-3.51792
G01 X3.50699 Y-3.54144
G01 X3.48918 Y-3.56458
G01 X3.47123 Y-3.58851
G01 X3.45398 Y-3.61207
G01 X3.43638 Y-3.63676
G01 X3.41904 Y-3.66170
G01 X3.40156 Y-3.68754
G01 X3.38465 Y-3.71325
G01 X3.36848 Y-3.73848
G01 X3.35223 Y-3.76455
G01 X3.33730 Y-3.78918
G01 X3.32189 Y-3.81529
G01 X3.30678 Y-3.84162
G01 X3.29219 Y-3.86779
G01 X3.27847 Y-3.89311
G01 X3.26472 Y-3.91922
G01 X3.25053 Y-3.94701
G01 X3.23724 Y-3.97383
G01 X3.22408 Y-4.00123
G01 X3.21163 Y-4.02800
G01 X3.19916 Y-4.05569
G01 X3.18686 Y-4.08392
G01 X3.17510 Y-4.11188
G01 X3.16396 Y-4.13930
G01 X3.15259 Y-4.16827
G01 X3.14255 Y-4.19484
G01 X3.13162 Y-4.22484
G01 X3.12197 Y-4.25240
G01 X3.11228 Y-4.28117
G01 X3.10331 Y-4.30892
G01 X3.09399 Y-4.33903
G01 X3.08560 Y-4.36738
G01 X3.07723 Y-4.39700
G01 X3.06912 Y-4.42712
G01 X3.06169 Y-4.45616
G01 X3.05426 Y-4.48680
G01 X3.04774 Y-4.51520
G01 X3.04181 Y-4.54252
G01 X3.03571 Y-4.57230
G01 X3.03013 Y-4.60133
G01 X3.02478 Y-4.63118
G01 X3.01971 Y-4.66156
G01 X3.01492 Y-4.69274
G01 X3.01074 Y-4.72241
G01 X3.00683 Y-4.75292
G01 X3.00347 Y-4.78193
G01 X3.00026 Y-4.81289
G01 X2.99755 Y-4.84277
G01 X2.99514 Y-4.87344
G01 X2.99310 Y-4.90450
G01 X2.99160 Y-4.93246
G01 X2.99032 Y-4.96315
G01 X2.98946 Y-4.99229
G01 X2.98894 Y-5.02229
G01 X2.98879 Y-5.05144
G01 Z-0.03656 F50.00000 ( plunge. )
G04 P0 ( dwell for no time -- G64 should not smooth over this point )
G01 F100.00000
G01 X2.98899 Y-5.08136
G01 X2.98958 Y-5.11256
G01 X2.99054 Y-5.14288
G01 X2.99194 Y-5.17442
G01 X2.99362 Y-5.20397
G01 X2.99562 Y-5.23306
G01 X2.99814 Y-5.26408
G01 X3.00090 Y-5.29355
G01 X3.00414 Y-5.32411
G01 X3.00761 Y-5.35346
G01 X3.01150 Y-5.38321
G01 X3.01587 Y-5.41363
G01 X3.02049 Y-5.44327
G01 X3.02546 Y-5.47276
G01 X3.03059 Y-5.50110
G01 X3.03635 Y-5.53091
G01 X3.04257 Y-5.56104
G01 X3.04862 Y-5.58869
G01 X3.05538 Y-5.61792
G01 X3.06258 Y-5.64738
G01 X3.06995 Y-5.67604
G01 X3.07777 Y-5.70496
G01 X3.08627 Y-5.73492
G01 X3.09504 Y-5.76441
G01 X3.10418 Y-5.79382
G01 X3.11319 Y-5.82156
G01 X3.12316 Y-5.85105
G01 X3.13310 Y-5.87930
G01 X3.14311 Y-5.90668
G01 X3.15347 Y-5.93398
G01 X3.16501 Y-5.96333
G01 X3.17648 Y-5.99144
G01 X3.18814 Y-6.01905
G01 X3.20048 Y-6.04727
G01 X3.21230 Y-6.07344
G01 X3.22548 Y-6.10172
G01 X3.23865 Y-6.12905
G01 X3.25218 Y-6.15627
G01 X3.26638 Y-6.18397
G01 X3.27965 Y-6.20908
G01 X3.29412 Y-6.23572
G01 X3.30877 Y-6.26190
G01 X3.32372 Y-6.28786
G01 X3.33982 Y-6.31502
G01 X3.35584 Y-6.34130
G01 X3.37133 Y-6.36601
G01 X3.38795 Y-6.39183
G01 X3.40384 Y-6.41585
G01 X3.42020 Y-6.43998
G01 X3.43775 Y-6.46520
G01 X3.45567 Y-6.49025
G01 X3.47385 Y-6.51502
G01 X3.49139 Y-6.53832
G01 X3.51022 Y-6.56270
G01 X3.52958 Y-6.58713
G01 X3.54795 Y-6.60972
G01 X3.56686 Y-6.63243
G01 X3.58608 Y-6.65494
G01 X3.60658 Y-6.67837
G01 X3.62607 Y-6.70010
G01 X3.64714 Y-6.72302
G01 X3.66717 Y-6.74427
G01 X3.68851 Y-6.76636
G01 X3.70905 Y-6.78712
G01 X3.73121 Y-6.80897
G01 X3.75252 Y-6.82947
G01 X3.76294 Y-6.83925
G00 Z0.08000
G01 X3.77527 Y-6.85082
G01 X3.79678 Y-6.87051
G01 X3.80939 Y-6.88178
G01 Z-0.03656 F50.00000
G01 F100.00000
G01 X3.81879 Y-6.89018
G01 X3.84170 Y-6.91016
G01 X3.86360 Y-6.92880
G01 X3.88754 Y-6.94867
G01 X3.90992 Y-6.96680
G01 X3.93406 Y-6.98587
G01 X3.95776 Y-7.00412
G01 X3.98172 Y-7.02211
G01 X4.00495 Y-7.03912
G01 X4.02999 Y-7.05699
G01 X4.05524 Y-7.07454
G01 X4.08174 Y-7.09247
G01 X4.10709 Y-7.10914
G01 X4.13303 Y-7.12575
G01 X4.15915 Y-7.14202
G01 X4.18371 Y-7.15690
G01 X4.21021 Y-7.17252
G01 X4.23554 Y-7.18704
G01 X4.26202 Y-7.20180
G01 X4.28770 Y-7.21570
G01 X4.31597 Y-7.23055
G01 X4.34194 Y-7.24379
G01 X4.36844 Y-7.25690
G01 X4.39585 Y-7.27005
G01 X4.42229 Y-7.28234
G01 X4.45034 Y-7.29496
G01 X4.47852 Y-7.30722
G01 X4.50618 Y-7.31884
G01 X4.53465 Y-7.33040
G01 X4.56184 Y-7.34105
G01 X4.59058 Y-7.35191
G01 X4.61915 Y-7.36230
G01 X4.64630 Y-7.37180
G01 X4.67579 Y-7.38172
G01 X4.70431 Y-7.39092
G01 X4.73259 Y-7.39966
G01 X4.76166 Y-7.40827
G01 X4.79014 Y-7.41632
G01 X4.81868 Y-7.42402
G01 X4.84961 Y-7.43194
G01 X4.87756 Y-7.43874
G01 X4.90793 Y-7.44573
G01 X4.93681 Y-7.45201
G01 X4.96581 Y-7.45795
G01 X4.99400 Y-7.46337
G01 X5.02469 Y-7.46889
G01 X5.05586 Y-7.47408
G01 X5.08508 Y-7.47858
G01 X5.11511 Y-7.48282
G01 X5.14521 Y-7.48670
G01 X5.17382 Y-7.49003
G01 X5.20482 Y-7.49326
G01 X5.23542 Y-7.49606
G01 X5.26493 Y-7.49840
G01 X5.29518 Y-7.50042
G01 X5.32550 Y-7.50207
G01 X5.35543 Y-7.50333
G01 X5.38462 Y-7.50420
G01 X5.41453 Y-7.50474
G01 X5.44493 Y-7.50491
G01 X5.47605 Y-7.50470
G01 X5.50365 Y-7.50418
G01 X5.53435 Y-7.50324
G01 X5.56468 Y-7.50193
G01 X5.59424 Y-7.50029
G01 X5.62533 Y-7.49818
G01 X5.65677 Y-7.49565
G01 X5.68579 Y-7.49295
G01 X5.71404 Y-7.48998
G01 X5.74494 Y-7.48636
G01 X5.77387 Y-7.48261
G01 X5.80515 Y-7.47816
G01 X5.83553 Y-7.47344
G01 X5.86546 Y-7.46841
G01 X5.89376 Y-7.46331
G01 X5.92358 Y-7.45755
G01 X5.95296 Y-7.45151
G01 X5.98259 Y-7.44504
G01 X6.01182 Y-7.43827
G01 X6.04167 Y-7.43097
G01 X6.07033 Y-7.42359
G01 X6.09960 Y-7.41567
G01 X6.12923 Y-7.40725
G01 X6.15641 Y-7.39918
G01 X6.18575 Y-7.39008
G01 X6.21387 Y-7.38097
G01 X6.24226 Y-7.37140
G01 X6.27091 Y-7.36135
G01 X6.29910 Y-7.35106
G01 X6.32787 Y-7.34016
G01 X6.35647 Y-7.32892
G01 X6.38459 Y-7.31745
G01 X6.41222 Y-7.30578
G01 X6.44005 Y-7.29363
G01 X6.46806 Y-7.28099
G01 X6.49488 Y-7.26847
G01 X6.52224 Y-7.25530
G01 X6.55015 Y-7.24143
G01 X6.57610 Y-7.22813
G01 X6.60256 Y-7.21417
G01 X6.62962 Y-7.19946
G01 X6.65609 Y-7.18464
G01 X6.68240 Y-7.16948
G01 X6.70821 Y-7.15419
G01 X6.73380 Y-7.13860
G01 X6.76017 Y-7.12207
G01 X6.78473 Y-7.10627
G01 X6.80972 Y-7.08975
G01 X6.83415 Y-7.07318
G01 X6.86041 Y-7.05488
G01 X6.88474 Y-7.03746
G01 X6.90892 Y-7.01970
G01 X6.93314 Y-7.00145
G01 X6.95717 Y-6.98287
G01 X6.98130 Y-6.96373
G01 X7.00393 Y-6.94533
G01 X7.02629 Y-6.92670
G01 X7.04941 Y-6.90696
G01 X7.07135 Y-6.88776
G01 X7.09392 Y-6.86752
G01 X7.11568 Y-6.84752
G01 X7.13752 Y-6.82695
G01 X7.15992 Y-6.80533
G01 X7.18150 Y-6.78397
G01 X7.20144 Y-6.76375
G01 X7.22305 Y-6.74130
G01 X7.24353 Y-6.71949
G01 X7.26353 Y-6.69767
G01 X7.28404 Y-6.67473
G01 X7.30476 Y-6.65096
G01 X7.32367 Y-6.62871
G01 X7.34254 Y-6.60596
G01 X7.36186 Y-6.58208
G01 X7.38041 Y-6.55856
G01 X7.39822 Y-6.53541
G01 X7.41617 Y-6.51149
G01 X7.43342 Y-6.48792
G01 X7.45102 Y-6.46324
G01 X7.46835 Y-6.43830
G01 X7.48583 Y-6.41246
G01 X7.50275 Y-6.38675
G01 X7.51892 Y-6.36152
G01 X7.53517 Y-6.33545
G01 X7.55010 Y-6.31082
G01 X7.56551 Y-6.28471
G01 X7.58062 Y-6.25838
G01 X7.59521 Y-6.23221
G01 X7.60893 Y-6.20689
G01 X7.62268 Y-6.18077
G01 X7.63687 Y-6.15299
G01 X7.65016 Y-6.12617
G01 X7.66331 Y-6.09877
G01 X7.67576 Y-6.07200
G01 X7.68824 Y-6.04431
G01 X7.70053 Y-6.01607
G01 X7.71230 Y-5.98812
G01 X7.72344 Y-5.96070
G01 X7.73481 Y-5.93172
G01 X7.74485 Y-5.90516
G01 X7.75578 Y-5.87516
G01 X7.76543 Y-5.84760
G01 X7.77512 Y-5.81883
G01 X7.78408 Y-5.79108
G01 X7.79341 Y-5.76096
G01 X7.80180 Y-5.73262
G01 X7.81017 Y-5.70300
G01 X7.81828 Y-5.67288
G01 X7.82571 Y-5.64384
G01 X7.83314 Y-5.61320
G01 X7.83574 Y-5.60187
G00 Z0.08000
G01 X7.83965 Y-5.58479
G01 X7.84559 Y-5.55748
G01 X7.84910 Y-5.54031
G01 Z-0.03656 F50.00000
G01 F100.00000
G01 X7.85169 Y-5.52769
G01 X7.85727 Y-5.49866
G01 X7.86262 Y-5.46882
G01 X7.86769 Y-5.43844
G01 X7.87248 Y-5.40726
G01 X7.87666 Y-5.37759
G01 X7.88057 Y-5.34707
G01 X7.88393 Y-5.31807
G01 X7.88714 Y-5.28710
G01 X7.88985 Y-5.25723
G01 X7.89226 Y-5.22655
G01 X7.89430 Y-5.19550
G01 X7.89580 Y-5.16754
G01 X7.89708 Y-5.13685
G01 X7.89794 Y-5.10771
G01 X7.89846 Y-5.07771
G01 X7.89861 Y-5.04856
G01 X7.89841 Y-5.01863
G01 X7.89782 Y-4.98744
