( pcb2gcode 2.5.0 )
( Software-independent Gcode )

G94 ( Millimeters per minute feed rate. )
G21 ( Units == Millimeters. )

G90 ( Absolute coordinates. )
G00 S30000 ( RPM spindle speed. )
G64 P0.01016 ( set maximum deviation from commanded toolpath )
G01 F80.00000 ( Feedrate. )


G00 Z15.00000 (Retract to tool change height)
T1
M5      (Spindle stop.)
G04 P1.00000 (Wait for spindle to stop)
(MSG, Change tool bit to mill diameter 1.25000mm)
M6      (Tool change.)
M0      (Temporary machine stop.)
M3 ( Spindle on clockwise. )
G04 P1.00000 (Wait for spindle to get up to speed)
G04 P0 ( dwell for no time -- G64 should not smooth over this point )
G00 Z1.00000 ( retract )

G00 X39.20015 Y-13.33500 ( rapid move to begin. )
G01 F40.00000
( Mill infeed pass 1/2 )
G01 Z-0.03000
G04 P0 ( dwell for no time -- G64 should not smooth over this point )
G01 F80.00000
G01 X39.20015 Y-13.33500
G01 X39.12022 Y-13.40587
G01 X38.95156 Y-13.56970
G01 X38.79423 Y-13.74559
G01 X38.71511 Y-13.84945
G01 X38.62479 Y-13.98537
G01 X38.57120 Y-14.07368
G01 X38.52253 Y-14.16482
G01 X38.44580 Y-14.33411
G01 X38.40394 Y-14.43975
G01 X38.36563 Y-14.55763
G01 X38.32664 Y-14.70754
G01 X38.30272 Y-14.81861
G01 X38.28684 Y-14.92070
G01 X38.27056 Y-15.09547
G01 X38.26543 Y-15.19867
G01 X38.26510 Y-17.64111
G01 X38.27714 Y-17.85821
G01 X38.30102 Y-18.02775
G01 X38.34633 Y-18.23611
G01 X38.41123 Y-18.43898
G01 X38.47584 Y-18.59752
G01 X38.56716 Y-18.77880
G01 X38.65049 Y-18.91617
G01 X38.78222 Y-19.09958
G01 X38.87612 Y-19.20913
G01 X39.04064 Y-19.37939
G01 X39.18339 Y-19.51030
G01 X39.30330 Y-19.60593
G01 X39.47963 Y-19.72511
G01 X39.62961 Y-19.80913
G01 X39.81430 Y-19.89524
G01 X39.96962 Y-19.95277
G01 X40.20607 Y-20.01827
G01 X40.38844 Y-20.05119
G01 X40.58013 Y-20.06976
G01 X40.71998 Y-20.07497
G01 X45.57702 Y-20.07497
G01 X45.58096 Y-20.05833
G01 X45.57702 Y-20.07497
G01 X45.68380 Y-20.13336
G01 X45.77580 Y-20.17740
G01 X45.99269 Y-20.26587
G01 X46.16630 Y-20.32000
( Mill infeed pass 2/2 )
G00 Z1.00000 ( retract )
G00 X39.20015 Y-13.33500 ( rapid move to begin. )
G01 Z-0.06000
G04 P0 ( dwell for no time -- G64 should not smooth over this point )
G01 F80.00000
G01 X39.20015 Y-13.33500
G01 X39.12022 Y-13.40587
G01 X38.95156 Y-13.56970
G01 X38.79423 Y-13.74559
G01 X38.71511 Y-13.84945
G01 X38.62479 Y-13.98537
G01 X38.57120 Y-14.07368
G01 X38.52253 Y-14.16482
G01 X38.44580 Y-14.33411
G01 X38.40394 Y-14.43975
G01 X38.36563 Y-14.55763
G01 X38.32664 Y-14.70754
G01 X38.30272 Y-14.81861
G01 X38.28684 Y-14.92070
G01 X38.27056 Y-15.09547
G01 X38.26543 Y-15.19867
G01 X38.26510 Y-17.64111
G01 X38.27714 Y-17.85821
G01 X38.30102 Y-18.02775
G01 X38.34633 Y-18.23611
G01 X38.41123 Y-18.43898
G01 X38.47584 Y-18.59752
G01 X38.56716 Y-18.77880
G01 X38.65049 Y-18.91617
G01 X38.78222 Y-19.09958
G01 X38.87612 Y-19.20913
G01 X39.04064 Y-19.37939
G01 X39.18339 Y-19.51030
G01 X39.30330 Y-19.60593
G01 X39.47963 Y-19.72511
G01 X39.62961 Y-19.80913
G01 X39.81430 Y-19.89524
G01 X39.96962 Y-19.95277
G01 X40.20607 Y-20.01827
G01 X40.38844 Y-20.05119
G01 X40.58013 Y-20.06976
G01 X40.71998 Y-20.07497
G01 X45.57702 Y-20.07497
G01 X45.58096 Y-20.05833
G01 X45.57702 Y-20.07497
G01 X45.68380 Y-20.13336
G01 X45.77580 Y-20.17740
G01 X45.99269 Y-20.26587
G01 X46.16630 Y-20.32000
G04 P0 ( dwell for no time -- G64 should not smooth over this point )
G00 Z1.00000 ( retract )

G00 X41.76499 Y-16.57497 ( rapid move to begin. )
G01 F40.00000
( Mill infeed pass 1/2 )
G01 Z-0.03000
G04 P0 ( dwell for no time -- G64 should not smooth over this point )
G01 F80.00000
G01 X41.76499 Y-16.57497
G01 X41.76499 Y-16.28498
G01 X45.49874 Y-16.28498
G01 X45.55195 Y-16.37403
G01 X45.61804 Y-16.45194
G01 X45.69595 Y-16.51803
G01 X45.79275 Y-16.57497
G01 X41.76499 Y-16.57497
( Mill infeed pass 2/2 )
G01 Z-0.06000
G04 P0 ( dwell for no time -- G64 should not smooth over this point )
G01 F80.00000
G01 X41.76499 Y-16.57497
G01 X41.76499 Y-16.28498
G01 X45.49874 Y-16.28498
G01 X45.55195 Y-16.37403
G01 X45.61804 Y-16.45194
G01 X45.69595 Y-16.51803
G01 X45.79275 Y-16.57497
G01 X41.76499 Y-16.57497
G04 P0 ( dwell for no time -- G64 should not smooth over this point )
G00 Z1.00000 ( retract )

G00 X39.51498 Y-17.61998 ( rapid move to begin. )
G01 F40.00000
( Mill infeed pass 1/2 )
G01 Z-0.03000
G04 P0 ( dwell for no time -- G64 should not smooth over this point )
G01 F80.00000
G01 X39.51498 Y-17.61998
G01 X39.51498 Y-15.24000
G01 X39.52486 Y-15.09580
G01 X39.53619 Y-15.02443
G01 X39.57592 Y-14.87477
G01 X39.63208 Y-14.74163
G01 X39.67137 Y-14.66898
G01 X39.76378 Y-14.53457
G01 X39.84437 Y-14.44462
G01 X39.97564 Y-14.31732
G01 X40.01999 Y-14.27937
G01 X40.14508 Y-14.19299
G01 X40.29210 Y-14.11956
G01 X40.40833 Y-14.07973
G01 X40.46499 Y-14.06434
G01 X40.58430 Y-14.04338
G01 X40.65875 Y-14.03761
G01 X45.49864 Y-14.03525
G01 X45.54032 Y-13.96276
G01 X45.59008 Y-13.89789
G01 X45.64789 Y-13.84008
G01 X45.72130 Y-13.78471
G01 X45.80204 Y-13.74069
G01 X45.87857 Y-13.71191
G01 X45.96828 Y-13.69174
G01 X46.04977 Y-13.68506
G01 X47.76000 Y-13.68499
G01 X47.83143 Y-13.68908
G01 X47.90191 Y-13.70132
G01 X47.96089 Y-13.71816
G01 X48.01794 Y-13.74069
G01 X48.07250 Y-13.76873
G01 X48.12403 Y-13.80195
G01 X48.17209 Y-13.84008
G01 X48.21616 Y-13.88275
G01 X48.26000 Y-13.93502
( Mill infeed pass 2/2 )
G00 Z1.00000 ( retract )
G00 X39.51498 Y-17.61998 ( rapid move to begin. )
G01 Z-0.06000
G04 P0 ( dwell for no time -- G64 should not smooth over this point )
G01 F80.00000
G01 X39.51498 Y-17.61998
G01 X39.51498 Y-15.24000
G01 X39.52486 Y-15.09580
G01 X39.53619 Y-15.02443
G01 X39.57592 Y-14.87477
G01 X39.63208 Y-14.74163
G01 X39.67137 Y-14.66898
G01 X39.76378 Y-14.53457
G01 X39.84437 Y-14.44462
G01 X39.97564 Y-14.31732
G01 X40.01999 Y-14.27937
G01 X40.14508 Y-14.19299
G01 X40.29210 Y-14.11956
G01 X40.40833 Y-14.07973
G01 X40.46499 Y-14.06434
G01 X40.58430 Y-14.04338
G01 X40.65875 Y-14.03761
G01 X45.49864 Y-14.03525
G01 X45.54032 Y-13.96276
G01 X45.59008 Y-13.89789
G01 X45.64789 Y-13.84008
G01 X45.72130 Y-13.78471
G01 X45.80204 Y-13.74069
G01 X45.87857 Y-13.71191
G01 X45.96828 Y-13.69174
G01 X46.04977 Y-13.68506
G01 X47.76000 Y-13.68499
G01 X47.83143 Y-13.68908
G01 X47.90191 Y-13.70132
G01 X47.96089 Y-13.71816
G01 X48.01794 Y-13.74069
G01 X48.07250 Y-13.76873
G01 X48.12403 Y-13.80195
G01 X48.17209 Y-13.84008
G01 X48.21616 Y-13.88275
G01 X48.26000 Y-13.93502
G04 P0 ( dwell for no time -- G64 should not smooth over this point )
G00 Z1.00000 ( retract )

G00 X45.27776 Y-13.33500 ( rapid move to begin. )
G01 F40.00000
( Mill infeed pass 1/2 )
G01 Z-0.03000
G04 P0 ( dwell for no time -- G64 should not smooth over this point )
G01 F80.00000
G01 X45.27776 Y-13.33500
G01 X48.26000 Y-13.33500
G01 X48.26000 Y-13.93502
G01 X48.31118 Y-14.01536
G01 X48.35182 Y-14.10909
G01 X48.37664 Y-14.20818
G01 X48.38499 Y-14.30998
G01 X48.38423 Y-16.04066
G01 X48.37298 Y-16.13192
G01 X48.34844 Y-16.22054
G01 X48.31118 Y-16.30462
G01 X48.26000 Y-16.38496
G01 X48.26000 Y-17.10583
G01 X48.26277 Y-17.11231
G01 X48.17892 Y-16.94805
G01 X48.09302 Y-16.81960
G01 X47.98903 Y-16.69473
G01 X47.90905 Y-16.61693
G01 X48.00859 Y-16.58343
G01 X48.10722 Y-16.52966
G01 X48.18723 Y-16.46616
G01 X48.26000 Y-16.38496
G01 X48.26000 Y-17.10583
G01 X48.31624 Y-17.25501
G01 X48.35667 Y-17.41246
G01 X48.37953 Y-17.57337
G01 X48.38443 Y-17.72569
G01 X48.37171 Y-17.89679
G01 X48.34407 Y-18.04393
G01 X48.29391 Y-18.20929
G01 X48.26000 Y-18.29049
G01 X48.26000 Y-20.06539
G01 X48.14349 Y-20.12983
G01 X48.02134 Y-20.18642
G01 X47.82429 Y-20.26686
G01 X47.65787 Y-20.32000
G01 X47.82429 Y-20.26686
G01 X48.02134 Y-20.18642
G01 X48.14349 Y-20.12983
G01 X48.26000 Y-20.06539
G01 X48.26000 Y-20.32000
G01 X37.35786 Y-20.32000
G01 X37.21842 Y-20.13989
G01 X37.06165 Y-19.91246
G01 X36.94511 Y-19.71982
G01 X36.83000 Y-19.50039
G01 X37.01499 Y-17.61998
G01 X37.01979 Y-17.79321
G01 X37.03810 Y-18.02839
G01 X37.06221 Y-18.20073
G01 X37.10120 Y-18.40233
G01 X37.13942 Y-18.56158
G01 X37.18913 Y-18.72833
G01 X37.25347 Y-18.91246
G01 X37.32345 Y-19.08289
G01 X37.42644 Y-19.29536
G01 X37.50493 Y-19.43976
G01 X37.60213 Y-19.59704
G01 X37.71913 Y-19.76572
G01 X37.81783 Y-19.89506
G01 X37.92314 Y-20.01909
G01 X38.12083 Y-20.22676
G01 X38.21496 Y-20.32000
G01 X36.83000 Y-20.32000
G01 X36.83000 Y-13.35768
G01 X36.84115 Y-13.33500
G01 X36.83000 Y-13.35768
G01 X36.83000 Y-13.33500
G01 X45.27776 Y-13.33500
G01 X45.19211 Y-13.41039
G01 X45.20730 Y-13.45057
G01 X45.19211 Y-13.41039
G01 X40.66911 Y-13.41252
G01 X40.51704 Y-13.42187
G01 X40.31620 Y-13.45722
G01 X40.14930 Y-13.50658
G01 X40.01953 Y-13.55659
G01 X39.86738 Y-13.63221
G01 X39.76530 Y-13.69377
G01 X39.61780 Y-13.80068
G01 X39.54087 Y-13.86827
G01 X39.36878 Y-14.03764
G01 X39.28219 Y-14.13619
G01 X39.21562 Y-14.22433
G01 X39.12634 Y-14.36233
G01 X39.07269 Y-14.46246
G01 X39.01021 Y-14.60419
G01 X38.97201 Y-14.71117
G01 X38.92781 Y-14.88105
G01 X38.90772 Y-14.99288
G01 X38.89345 Y-15.14709
G01 X38.89004 Y-15.22966
G01 X38.88999 Y-17.61998
G01 X39.51498 Y-17.61998
G01 X39.52547 Y-17.77268
G01 X39.56030 Y-17.93560
G01 X39.61028 Y-18.07258
G01 X39.66108 Y-18.17390
G01 X39.69802 Y-18.23369
G01 X39.75105 Y-18.30911
G01 X39.78907 Y-18.35523
G01 X39.93078 Y-18.50169
G01 X40.00475 Y-18.56801
G01 X40.05323 Y-18.60560
G01 X40.14653 Y-18.66778
G01 X40.29413 Y-18.74096
G01 X40.36449 Y-18.76654
G01 X40.50198 Y-18.80357
G01 X40.56301 Y-18.81320
G01 X40.71054 Y-18.82491
G01 X45.95627 Y-18.82498
G01 X46.08137 Y-18.91947
G01 X46.14426 Y-18.95991
G01 X46.27085 Y-19.02930
G01 X46.42404 Y-19.09262
G01 X46.59379 Y-19.14068
G01 X46.73625 Y-19.16407
G01 X46.80001 Y-19.17055
G01 X46.96371 Y-19.17393
G01 X47.16610 Y-19.15257
G01 X47.27456 Y-19.12920
G01 X47.37951 Y-19.09826
G01 X47.57321 Y-19.01746
G01 X47.75553 Y-18.90857
G01 X47.85180 Y-18.83514
G01 X47.92637 Y-18.76882
G01 X48.06752 Y-18.61401
G01 X48.18642 Y-18.43893
G01 X48.26000 Y-18.29049
G01 X48.26000 Y-19.30855
G01 X48.14476 Y-19.39841
G01 X48.06950 Y-19.45018
G01 X47.90458 Y-19.54908
G01 X47.80658 Y-19.59834
G01 X47.63790 Y-19.66920
G01 X47.54001 Y-19.70291
G01 X47.39688 Y-19.74245
G01 X47.20773 Y-19.77819
G01 X46.98428 Y-19.79861
G01 X46.78017 Y-19.79529
G01 X46.65111 Y-19.78330
G01 X46.44291 Y-19.74728
G01 X46.22058 Y-19.68360
G01 X46.01571 Y-19.59996
G01 X45.93562 Y-19.55950
G01 X45.76996 Y-19.46361
G01 X45.74944 Y-19.44997
G01 X45.75495 Y-19.42912
G01 X45.74944 Y-19.44997
G01 X40.68907 Y-19.44959
G01 X40.48595 Y-19.43346
G01 X40.35402 Y-19.41098
G01 X40.15811 Y-19.35686
G01 X40.01590 Y-19.30108
G01 X39.89832 Y-19.24461
G01 X39.81183 Y-19.19569
G01 X39.67823 Y-19.10580
G01 X39.59019 Y-19.03580
G01 X39.49065 Y-18.94545
G01 X39.32634 Y-18.77535
G01 X39.25628 Y-18.69105
G01 X39.17422 Y-18.57497
G01 X39.11171 Y-18.47195
G01 X39.04358 Y-18.33616
G01 X39.00569 Y-18.24497
G01 X38.96053 Y-18.11147
G01 X38.93594 Y-18.01584
G01 X38.90622 Y-17.85747
G01 X38.89687 Y-17.76910
G01 X38.88999 Y-17.61998
G01 X37.01499 Y-17.61998
G01 X37.01514 Y-15.20899
G01 X37.02251 Y-15.02319
G01 X37.04610 Y-14.76873
G01 X37.07224 Y-14.59855
G01 X37.10770 Y-14.43007
G01 X37.16411 Y-14.21290
G01 X37.22301 Y-14.02972
G01 X37.28913 Y-13.85981
G01 X37.38489 Y-13.64577
G01 X37.46876 Y-13.48392
G01 X37.55702 Y-13.33500
G01 X38.32273 Y-13.33500
G01 X38.19731 Y-13.49924
G01 X38.05893 Y-13.71176
G01 X37.96645 Y-13.87942
G01 X37.87351 Y-14.08285
G01 X37.80742 Y-14.25179
G01 X37.75113 Y-14.43479
G01 X37.69642 Y-14.66205
G01 X37.66447 Y-14.86103
G01 X37.64544 Y-15.07480
G01 X37.64008 Y-15.21932
G01 X37.64051 Y-17.67162
G01 X37.65070 Y-17.86715
G01 X37.66530 Y-18.00883
G01 X37.68987 Y-18.15945
G01 X37.73023 Y-18.34957
G01 X37.76815 Y-18.48686
G01 X37.82695 Y-18.66125
G01 X37.87521 Y-18.78442
G01 X37.92990 Y-18.90484
G01 X38.00823 Y-19.05919
G01 X38.08349 Y-19.18970
G01 X38.15499 Y-19.29895
G01 X38.27478 Y-19.46524
G01 X38.35885 Y-19.56813
G01 X38.45537 Y-19.67375
G01 X38.61971 Y-19.84212
G01 X38.76883 Y-19.97807
G01 X38.87135 Y-20.06272
G01 X38.97823 Y-20.14184
G01 X39.13007 Y-20.24360
G01 X39.25877 Y-20.32000
( Mill infeed pass 2/2 )
G00 Z1.00000 ( retract )
G00 X45.27776 Y-13.33500 ( rapid move to begin. )
G01 Z-0.06000
G04 P0 ( dwell for no time -- G64 should not smooth over this point )
G01 F80.00000
G01 X45.27776 Y-13.33500
G01 X48.26000 Y-13.33500
G01 X48.26000 Y-13.93502
G01 X48.31118 Y-14.01536
G01 X48.35182 Y-14.10909
G01 X48.37664 Y-14.20818
G01 X48.38499 Y-14.30998
G01 X48.38423 Y-16.04066
G01 X48.37298 Y-16.13192
G01 X48.34844 Y-16.22054
G01 X48.31118 Y-16.30462
G01 X48.26000 Y-16.38496
G01 X48.26000 Y-17.10583
G01 X48.26277 Y-17.11231
G01 X48.17892 Y-16.94805
G01 X48.09302 Y-16.81960
G01 X47.98903 Y-16.69473
G01 X47.90905 Y-16.61693
G01 X48.00859 Y-16.58343
G01 X48.10722 Y-16.52966
G01 X48.18723 Y-16.46616
G01 X48.26000 Y-16.38496
G01 X48.26000 Y-17.10583
G01 X48.31624 Y-17.25501
G01 X48.35667 Y-17.41246
G01 X48.37953 Y-17.57337
G01 X48.38443 Y-17.72569
G01 X48.37171 Y-17.89679
G01 X48.34407 Y-18.04393
G01 X48.29391 Y-18.20929
G01 X48.26000 Y-18.29049
G01 X48.26000 Y-20.06539
G01 X48.14349 Y-20.12983
G01 X48.02134 Y-20.18642
G01 X47.82429 Y-20.26686
G01 X47.65787 Y-20.32000
G01 X47.82429 Y-20.26686
G01 X48.02134 Y-20.18642
G01 X48.14349 Y-20.12983
G01 X48.26000 Y-20.06539
G01 X48.26000 Y-20.32000
G01 X37.35786 Y-20.32000
G01 X37.21842 Y-20.13989
G01 X37.06165 Y-19.91246
G01 X36.94511 Y-19.71982
G01 X36.83000 Y-19.50039
G01 X37.01499 Y-17.61998
G01 X37.01979 Y-17.79321
G01 X37.03810 Y-18.02839
G01 X37.06221 Y-18.20073
G01 X37.10120 Y-18.40233
G01 X37.13942 Y-18.56158
G01 X37.18913 Y-18.72833
G01 X37.25347 Y-18.91246
G01 X37.32345 Y-19.08289
G01 X37.42644 Y-19.29536
G01 X37.50493 Y-19.43976
G01 X37.60213 Y-19.59704
G01 X37.71913 Y-19.76572
G01 X37.81783 Y-19.89506
G01 X37.92314 Y-20.01909
G01 X38.12083 Y-20.22676
G01 X38.21496 Y-20.32000
G01 X36.83000 Y-20.32000
G01 X36.83000 Y-13.35768
G01 X36.84115 Y-13.33500
G01 X36.83000 Y-13.35768
G01 X36.83000 Y-13.33500
G01 X45.27776 Y-13.33500
G01 X45.19211 Y-13.41039
G01 X45.20730 Y-13.45057
G01 X45.19211 Y-13.41039
G01 X40.66911 Y-13.41252
G01 X40.51704 Y-13.42187
G01 X40.31620 Y-13.45722
G01 X40.14930 Y-13.50658
G01 X40.01953 Y-13.55659
G01 X39.86738 Y-13.63221
G01 X39.76530 Y-13.69377
G01 X39.61780 Y-13.80068
G01 X39.54087 Y-13.86827
G01 X39.36878 Y-14.03764
G01 X39.28219 Y-14.13619
G01 X39.21562 Y-14.22433
G01 X39.12634 Y-14.36233
G01 X39.07269 Y-14.46246
G01 X39.01021 Y-14.60419
G01 X38.97201 Y-14.71117
G01 X38.92781 Y-14.88105
G01 X38.90772 Y-14.99288
G01 X38.89345 Y-15.14709
G01 X38.89004 Y-15.22966
G01 X38.88999 Y-17.61998
G01 X39.51498 Y-17.61998
G01 X39.52547 Y-17.77268
G01 X39.56030 Y-17.93560
G01 X39.61028 Y-18.07258
G01 X39.66108 Y-18.17390
G01 X39.69802 Y-18.23369
G01 X39.75105 Y-18.30911
G01 X39.78907 Y-18.35523
G01 X39.93078 Y-18.50169
G01 X40.00475 Y-18.56801
G01 X40.05323 Y-18.60560
G01 X40.14653 Y-18.66778
G01 X40.29413 Y-18.74096
G01 X40.36449 Y-18.76654
G01 X40.50198 Y-18.80357
G01 X40.56301 Y-18.81320
G01 X40.71054 Y-18.82491
G01 X45.95627 Y-18.82498
G01 X46.08137 Y-18.91947
G01 X46.14426 Y-18.95991
G01 X46.27085 Y-19.02930
G01 X46.42404 Y-19.09262
G01 X46.59379 Y-19.14068
G01 X46.73625 Y-19.16407
G01 X46.80001 Y-19.17055
G01 X46.96371 Y-19.17393
G01 X47.16610 Y-19.15257
G01 X47.27456 Y-19.12920
G01 X47.37951 Y-19.09826
G01 X47.57321 Y-19.01746
G01 X47.75553 Y-18.90857
G01 X47.85180 Y-18.83514
G01 X47.92637 Y-18.76882
G01 X48.06752 Y-18.61401
G01 X48.18642 Y-18.43893
G01 X48.26000 Y-18.29049
G01 X48.26000 Y-19.30855
G01 X48.14476 Y-19.39841
G01 X48.06950 Y-19.45018
G01 X47.90458 Y-19.54908
G01 X47.80658 Y-19.59834
G01 X47.63790 Y-19.66920
G01 X47.54001 Y-19.70291
G01 X47.39688 Y-19.74245
G01 X47.20773 Y-19.77819
G01 X46.98428 Y-19.79861
G01 X46.78017 Y-19.79529
G01 X46.65111 Y-19.78330
G01 X46.44291 Y-19.74728
G01 X46.22058 Y-19.68360
G01 X46.01571 Y-19.59996
G01 X45.93562 Y-19.55950
G01 X45.76996 Y-19.46361
G01 X45.74944 Y-19.44997
G01 X45.75495 Y-19.42912
G01 X45.74944 Y-19.44997
G01 X40.68907 Y-19.44959
G01 X40.48595 Y-19.43346
G01 X40.35402 Y-19.41098
G01 X40.15811 Y-19.35686
G01 X40.01590 Y-19.30108
G01 X39.89832 Y-19.24461
G01 X39.81183 Y-19.19569
G01 X39.67823 Y-19.10580
G01 X39.59019 Y-19.03580
G01 X39.49065 Y-18.94545
G01 X39.32634 Y-18.77535
G01 X39.25628 Y-18.69105
G01 X39.17422 Y-18.57497
G01 X39.11171 Y-18.47195
G01 X39.04358 Y-18.33616
G01 X39.00569 Y-18.24497
G01 X38.96053 Y-18.11147
G01 X38.93594 Y-18.01584
G01 X38.90622 Y-17.85747
G01 X38.89687 Y-17.76910
G01 X38.88999 Y-17.61998
G01 X37.01499 Y-17.61998
G01 X37.01514 Y-15.20899
G01 X37.02251 Y-15.02319
G01 X37.04610 Y-14.76873
G01 X37.07224 Y-14.59855
G01 X37.10770 Y-14.43007
G01 X37.16411 Y-14.21290
G01 X37.22301 Y-14.02972
G01 X37.28913 Y-13.85981
G01 X37.38489 Y-13.64577
G01 X37.46876 Y-13.48392
G01 X37.55702 Y-13.33500
G01 X38.32273 Y-13.33500
G01 X38.19731 Y-13.49924
G01 X38.05893 Y-13.71176
G01 X37.96645 Y-13.87942
G01 X37.87351 Y-14.08285
G01 X37.80742 Y-14.25179
G01 X37.75113 Y-14.43479
G01 X37.69642 Y-14.66205
G01 X37.66447 Y-14.86103
G01 X37.64544 Y-15.07480
G01 X37.64008 Y-15.21932
G01 X37.64051 Y-17.67162
G01 X37.65070 Y-17.86715
G01 X37.66530 Y-18.00883
G01 X37.68987 Y-18.15945
G01 X37.73023 Y-18.34957
G01 X37.76815 Y-18.48686
G01 X37.82695 Y-18.66125
G01 X37.87521 Y-18.78442
G01 X37.92990 Y-18.90484
G01 X38.00823 Y-19.05919
G01 X38.08349 Y-19.18970
G01 X38.15499 Y-19.29895
G01 X38.27478 Y-19.46524
G01 X38.35885 Y-19.56813
G01 X38.45537 Y-19.67375
G01 X38.61971 Y-19.84212
G01 X38.76883 Y-19.97807
G01 X38.87135 Y-20.06272
G01 X38.97823 Y-20.14184
G01 X39.13007 Y-20.24360
G01 X39.25877 Y-20.32000

G00 Z15.00000 (Retract to tool change height)
T2
M5      (Spindle stop.)
G04 P1.00000 (Wait for spindle to stop)
(MSG, Change tool bit to mill diameter 0.25000mm)
M6      (Tool change.)
M0      (Temporary machine stop.)
M3 ( Spindle on clockwise. )
G04 P1.00000 (Wait for spindle to get up to speed)
G04 P0 ( dwell for no time -- G64 should not smooth over this point )
G00 Z1.00000 ( retract )

G00 X41.35338 Y-16.98658 ( rapid move to begin. )
G01 F40.00000
( Mill infeed pass 1/2 )
G01 Z-0.03000
G04 P0 ( dwell for no time -- G64 should not smooth over this point )
G01 F80.00000
G01 X41.35338 Y-16.98658
G01 X41.38999 Y-16.94998
G01 X41.38999 Y-16.92082
G01 X41.38999 Y-16.94998
G01 X41.41915 Y-16.94998
G01 X41.66382 Y-17.07497
G01 X41.26499 Y-17.07497
G01 X41.26499 Y-15.78498
G01 X41.66370 Y-15.78498
G01 X41.41912 Y-15.90998
G01 X41.38999 Y-15.90998
G01 X41.38999 Y-15.93911
G01 X41.38999 Y-15.90998
G01 X41.35338 Y-15.87337
( Mill infeed pass 2/2 )
G00 Z1.00000 ( retract )
G00 X41.35338 Y-16.98658 ( rapid move to begin. )
G01 Z-0.06000
G04 P0 ( dwell for no time -- G64 should not smooth over this point )
G01 F80.00000
G01 X41.35338 Y-16.98658
G01 X41.38999 Y-16.94998
G01 X41.38999 Y-16.92082
G01 X41.38999 Y-16.94998
G01 X41.41915 Y-16.94998
G01 X41.66382 Y-17.07497
G01 X41.26499 Y-17.07497
G01 X41.26499 Y-15.78498
G01 X41.66370 Y-15.78498
G01 X41.41912 Y-15.90998
G01 X41.38999 Y-15.90998
G01 X41.38999 Y-15.93911
G01 X41.38999 Y-15.90998
G01 X41.35338 Y-15.87337
G04 P0 ( dwell for no time -- G64 should not smooth over this point )
G00 Z1.00000 ( retract )

G00 X45.60009 Y-14.53520 ( rapid move to begin. )
G01 F40.00000
( Mill infeed pass 1/2 )
G01 Z-0.03000
G04 P0 ( dwell for no time -- G64 should not smooth over this point )
G01 F80.00000
G01 X45.60009 Y-14.53520
G01 X45.93499 Y-14.53505
G01 X45.93554 Y-14.29857
G01 X45.82599 Y-14.42649
G01 X45.84466 Y-14.44559
( Mill infeed pass 2/2 )
G00 Z1.00000 ( retract )
G00 X45.60009 Y-14.53520 ( rapid move to begin. )
G01 Z-0.06000
G04 P0 ( dwell for no time -- G64 should not smooth over this point )
G01 F80.00000
G01 X45.60009 Y-14.53520
G01 X45.93499 Y-14.53505
G01 X45.93554 Y-14.29857
G01 X45.82599 Y-14.42649
G01 X45.84466 Y-14.44559
G04 P0 ( dwell for no time -- G64 should not smooth over this point )
G00 Z1.00000 ( retract )

G00 X45.84469 Y-15.87442 ( rapid move to begin. )
G01 F40.00000
( Mill infeed pass 1/2 )
G01 Z-0.03000
G04 P0 ( dwell for no time -- G64 should not smooth over this point )
G01 F80.00000
G01 X45.84469 Y-15.87442
G01 X45.82597 Y-15.89362
G01 X45.59998 Y-15.78498
G01 X45.93499 Y-15.78498
G01 X45.93557 Y-16.02148
G01 X45.89389 Y-17.07497
G01 X46.16450 Y-17.07497
G01 X46.21108 Y-17.02016
G01 X46.30036 Y-16.93939
G01 X46.41243 Y-16.86151
G01 X46.52678 Y-16.80345
G01 X46.63994 Y-16.76336
G01 X46.78152 Y-16.73372
G01 X46.90123 Y-16.72504
G01 X47.02109 Y-16.73159
G01 X47.15045 Y-16.75526
G01 X47.23798 Y-16.78198
G01 X47.33478 Y-16.82257
G01 X47.43585 Y-16.87919
G01 X47.50567 Y-16.92923
G01 X47.54453 Y-16.25999
G01 X46.19404 Y-16.25999
G01 X46.23257 Y-16.83339
G01 X46.35337 Y-16.75127
G01 X46.48274 Y-16.68640
G01 X46.61946 Y-16.63908
G01 X46.76125 Y-16.61013
G01 X46.90560 Y-16.60004
G01 X47.05937 Y-16.61053
G01 X47.16864 Y-16.63088
G01 X47.27448 Y-16.66243
G01 X47.40935 Y-16.72026
G01 X47.45467 Y-16.38498
G01 X46.26620 Y-16.38498
G01 X46.27758 Y-16.47342
G01 X46.29785 Y-16.50360
G01 X46.58685 Y-16.41980
G01 X46.29785 Y-16.50360
G01 X46.27758 Y-16.47342
G01 X46.29889 Y-16.63860
G01 X46.43308 Y-16.57165
G01 X46.58533 Y-16.51881
G01 X46.73341 Y-16.48780
G01 X46.88418 Y-16.47546
G01 X47.05408 Y-16.48353
G01 X47.19249 Y-16.50815
G01 X47.32058 Y-16.54594
G01 X47.40031 Y-16.57871
G01 X47.41931 Y-16.47396
G01 X47.26650 Y-16.43027
G01 X47.41931 Y-16.47396
G01 X47.40031 Y-16.57871
G01 X47.32058 Y-16.54594
G01 X47.19249 Y-16.50815
G01 X47.05408 Y-16.48353
G01 X46.88418 Y-16.47546
G01 X46.73341 Y-16.48780
G01 X46.58533 Y-16.51881
G01 X46.43308 Y-16.57165
G01 X46.29889 Y-16.63860
G01 X46.27758 Y-16.47342
G01 X46.05025 Y-16.13459
G01 X47.74174 Y-16.13499
( Mill infeed pass 2/2 )
G00 Z1.00000 ( retract )
G00 X45.84469 Y-15.87442 ( rapid move to begin. )
G01 Z-0.06000
G04 P0 ( dwell for no time -- G64 should not smooth over this point )
G01 F80.00000
G01 X45.84469 Y-15.87442
G01 X45.82597 Y-15.89362
G01 X45.59998 Y-15.78498
G01 X45.93499 Y-15.78498
G01 X45.93557 Y-16.02148
G01 X45.89389 Y-17.07497
G01 X46.16450 Y-17.07497
G01 X46.21108 Y-17.02016
G01 X46.30036 Y-16.93939
G01 X46.41243 Y-16.86151
G01 X46.52678 Y-16.80345
G01 X46.63994 Y-16.76336
G01 X46.78152 Y-16.73372
G01 X46.90123 Y-16.72504
G01 X47.02109 Y-16.73159
G01 X47.15045 Y-16.75526
G01 X47.23798 Y-16.78198
G01 X47.33478 Y-16.82257
G01 X47.43585 Y-16.87919
G01 X47.50567 Y-16.92923
G01 X47.54453 Y-16.25999
G01 X46.19404 Y-16.25999
G01 X46.23257 Y-16.83339
G01 X46.35337 Y-16.75127
G01 X46.48274 Y-16.68640
G01 X46.61946 Y-16.63908
G01 X46.76125 Y-16.61013
G01 X46.90560 Y-16.60004
G01 X47.05937 Y-16.61053
G01 X47.16864 Y-16.63088
G01 X47.27448 Y-16.66243
G01 X47.40935 Y-16.72026
G01 X47.45467 Y-16.38498
G01 X46.26620 Y-16.38498
G01 X46.27758 Y-16.47342
G01 X46.29785 Y-16.50360
G01 X46.58685 Y-16.41980
G01 X46.29785 Y-16.50360
G01 X46.27758 Y-16.47342
G01 X46.29889 Y-16.63860
G01 X46.43308 Y-16.57165
G01 X46.58533 Y-16.51881
G01 X46.73341 Y-16.48780
G01 X46.88418 Y-16.47546
G01 X47.05408 Y-16.48353
G01 X47.19249 Y-16.50815
G01 X47.32058 Y-16.54594
G01 X47.40031 Y-16.57871
G01 X47.41931 Y-16.47396
G01 X47.26650 Y-16.43027
G01 X47.41931 Y-16.47396
G01 X47.40031 Y-16.57871
G01 X47.32058 Y-16.54594
G01 X47.19249 Y-16.50815
G01 X47.05408 Y-16.48353
G01 X46.88418 Y-16.47546
G01 X46.73341 Y-16.48780
G01 X46.58533 Y-16.51881
G01 X46.43308 Y-16.57165
G01 X46.29889 Y-16.63860
G01 X46.27758 Y-16.47342
G01 X46.05025 Y-16.13459
G01 X47.74174 Y-16.13499
G04 P0 ( dwell for no time -- G64 should not smooth over this point )
G00 Z1.00000 ( retract )

G00 X46.05754 Y-18.32498 ( rapid move to begin. )
G01 F40.00000
( Mill infeed pass 1/2 )
G01 Z-0.03000
G04 P0 ( dwell for no time -- G64 should not smooth over this point )
G01 F80.00000
G01 X46.05754 Y-18.32498
G01 X46.16402 Y-18.32498
G01 X46.22213 Y-18.38957
( Mill infeed pass 2/2 )
G00 Z1.00000 ( retract )
G00 X46.05754 Y-18.32498 ( rapid move to begin. )
G01 Z-0.06000
G04 P0 ( dwell for no time -- G64 should not smooth over this point )
G01 F80.00000
G01 X46.05754 Y-18.32498
G01 X46.16402 Y-18.32498
G01 X46.22213 Y-18.38957

G04 P0 ( dwell for no time -- G64 should not smooth over this point )
G00 Z15.000000 ( retract )

M5 ( Spindle off. )
G04 P1.000000
M9 ( Coolant off. )
M2 ( Program end. )

