( pcb2gcode 2.5.0 )
( Software-independent Gcode )

G94 ( Inches per minute feed rate. )
G20 ( Units == INCHES. )

G90 ( Absolute coordinates. )
G00 S12000 ( RPM spindle speed. )
G64 P0.00040 ( set maximum deviation from commanded toolpath )
G01 F360.00000 ( Feedrate. )


G00 Z1.00000 (Retract to tool change height)
T1
M5      (Spindle stop.)
G04 P1.00000 (Wait for spindle to stop)
(MSG, Change tool bit to mill diameter 0.00000in)
M6      (Tool change.)
M0      (Temporary machine stop.)
M3 ( Spindle on clockwise. )
G04 P1.00000 (Wait for spindle to get up to speed)
G04 P0 ( dwell for no time -- G64 should not smooth over this point )
G00 Z0.08000 ( retract )

G00 X-0.06201 Y1.15710 ( rapid move to begin. )
G01 F180.00000
( Mill infeed pass 1/1 )
G01 Z-0.04000
G04 P0 ( dwell for no time -- G64 should not smooth over this point )
G01 F360.00000
G01 X-0.06201 Y1.15710
G01 X-0.10709 Y1.15709
G01 X-0.10710 Y1.11160
G01 X-0.10724 Y1.11080
G01 X-0.10768 Y1.10967
G01 X-0.10867 Y1.10839
G01 X-0.11003 Y1.10750
G01 X-0.11120 Y1.10715
G01 X-0.11201 Y1.10709
G01 X-0.11282 Y1.10715
G01 X-0.11398 Y1.10750
G01 X-0.11534 Y1.10839
G01 X-0.11634 Y1.10967
G01 X-0.11678 Y1.11080
G01 X-0.11691 Y1.11160
G01 X-0.11693 Y1.15709
G01 X-0.16241 Y1.15710
G01 X-0.16322 Y1.15724
G01 X-0.16435 Y1.15768
G01 X-0.16503 Y1.15812
G01 X-0.16589 Y1.15899
G01 X-0.16634 Y1.15967
G01 X-0.16678 Y1.16080
G01 X-0.16691 Y1.16241
G01 X-0.16678 Y1.16322
G01 X-0.16634 Y1.16435
G01 X-0.16534 Y1.16563
G01 X-0.16398 Y1.16651
G01 X-0.16241 Y1.16691
G01 X-0.11693 Y1.16693
G01 X-0.11691 Y1.21201
G01 X-0.10710 Y1.21201
G01 X-0.10709 Y1.16693
G01 X-0.06201 Y1.16691
G01 X-0.06201 Y1.15710
G01 X-0.27502 Y0.56915
G01 X-0.27536 Y0.57436
G01 X-0.27639 Y0.57947
G01 X-0.27809 Y0.58440
G01 X-0.27983 Y0.58802
G01 X-0.28216 Y0.59177
G01 X-0.28490 Y0.59524
G01 X-0.28771 Y0.59810
G01 X-0.29079 Y0.60067
G01 X-0.29447 Y0.60311
G01 X-0.29840 Y0.60513
G01 X-0.30214 Y0.60657
G01 X-0.30641 Y0.60770
G01 X-0.31038 Y0.60832
G01 X-0.31479 Y0.60852
G01 X-0.31880 Y0.60827
G01 X-0.32276 Y0.60762
G01 X-0.32663 Y0.60657
G01 X-0.33038 Y0.60513
G01 X-0.33430 Y0.60311
G01 X-0.33830 Y0.60043
G01 X-0.34194 Y0.59727
G01 X-0.46549 Y0.47372
G01 X-0.46549 Y0.73582
G01 X-0.46579 Y0.74062
G01 X-0.46639 Y0.74419
G01 X-0.46732 Y0.74768
G01 X-0.46857 Y0.75107
G01 X-0.46993 Y0.75398
G01 X-0.47174 Y0.75710
G01 X-0.47359 Y0.75973
G01 X-0.47591 Y0.76250
G01 X-0.47818 Y0.76477
G01 X-0.48095 Y0.76709
G01 X-0.48358 Y0.76894
G01 X-0.48635 Y0.77056
G01 X-0.48961 Y0.77211
G01 X-0.49300 Y0.77336
G01 X-0.49650 Y0.77429
G01 X-0.49966 Y0.77484
G01 X-0.50326 Y0.77516
G01 X-0.50727 Y0.77511
G01 X-0.51086 Y0.77473
G01 X-0.51441 Y0.77401
G01 X-0.51825 Y0.77284
G01 X-0.52195 Y0.77129
G01 X-0.52547 Y0.76937
G01 X-0.52878 Y0.76709
G01 X-0.53154 Y0.76477
G01 X-0.53409 Y0.76220
G01 X-0.53662 Y0.75909
G01 X-0.53882 Y0.75573
G01 X-0.54068 Y0.75217
G01 X-0.54216 Y0.74844
G01 X-0.54316 Y0.74497
G01 X-0.54389 Y0.74102
G01 X-0.54420 Y0.73742
G01 X-0.54422 Y0.23461
G01 X-0.54383 Y0.23022
G01 X-0.54296 Y0.22589
G01 X-0.54161 Y0.22168
G01 X-0.53961 Y0.21730
G01 X-0.53732 Y0.21353
G01 X-0.53462 Y0.21004
G01 X-0.53125 Y0.20660
G01 X-0.52781 Y0.20383
G01 X-0.52408 Y0.20146
G01 X-0.52012 Y0.19952
G01 X-0.51596 Y0.19804
G01 X-0.51126 Y0.19697
G01 X-0.50687 Y0.19650
G01 X-0.50246 Y0.19652
G01 X-0.49807 Y0.19704
G01 X-0.49377 Y0.19804
G01 X-0.48961 Y0.19952
G01 X-0.48564 Y0.20146
G01 X-0.48192 Y0.20383
G01 X-0.47848 Y0.20660
G01 X-0.47537 Y0.20973
G01 X-0.47264 Y0.21320
G01 X-0.47031 Y0.21695
G01 X-0.46841 Y0.22094
G01 X-0.46720 Y0.22434
G01 X-0.46631 Y0.22784
G01 X-0.46574 Y0.23141
G01 X-0.46550 Y0.23501
G01 X-0.46549 Y0.36237
G01 X-0.46150 Y0.36636
G01 X-0.34564 Y0.21188
G01 X-0.34358 Y0.20941
G01 X-0.34163 Y0.20739
G01 X-0.33953 Y0.20552
G01 X-0.33730 Y0.20381
G01 X-0.33287 Y0.20106
G01 X-0.32811 Y0.19892
G01 X-0.32311 Y0.19743
G01 X-0.32035 Y0.19690
G01 X-0.31756 Y0.19658
G01 X-0.31234 Y0.19650
G01 X-0.30716 Y0.19712
G01 X-0.30211 Y0.19841
G01 X-0.29727 Y0.20036
G01 X-0.29479 Y0.20167
G01 X-0.29240 Y0.20316
G01 X-0.28828 Y0.20635
G01 X-0.28461 Y0.21006
G01 X-0.28147 Y0.21423
G01 X-0.27890 Y0.21877
G01 X-0.27696 Y0.22361
G01 X-0.27567 Y0.22867
G01 X-0.27526 Y0.23145
G01 X-0.27505 Y0.23425
G01 X-0.27505 Y0.23746
G01 X-0.27532 Y0.24066
G01 X-0.27584 Y0.24383
G01 X-0.27662 Y0.24694
G01 X-0.27765 Y0.24999
G01 X-0.27893 Y0.25293
G01 X-0.28024 Y0.25542
G01 X-0.28195 Y0.25814
G01 X-0.40526 Y0.42260
G01 X-0.28655 Y0.54131
G01 X-0.28336 Y0.54492
G01 X-0.28043 Y0.54923
G01 X-0.27809 Y0.55390
G01 X-0.27639 Y0.55883
G01 X-0.27536 Y0.56395
G01 X-0.27502 Y0.56915
G04 P0 ( dwell for no time -- G64 should not smooth over this point )
G00 Z0.08000 ( retract )

G00 X-0.67982 Y0.54717 ( rapid move to begin. )
G01 F180.00000
( Mill infeed pass 1/1 )
G01 Z-0.04000
G04 P0 ( dwell for no time -- G64 should not smooth over this point )
G01 F360.00000
G01 X-0.67982 Y0.54717
G01 X-0.67993 Y0.54195
G01 X-0.68063 Y0.53719
G01 X-0.68205 Y0.53217
G01 X-0.68394 Y0.52774
G01 X-0.68657 Y0.52323
G01 X-0.68952 Y0.51942
G01 X-0.69290 Y0.51600
G01 X-0.69701 Y0.51279
G01 X-0.70115 Y0.51033
G01 X-0.70594 Y0.50825
G01 X-0.70901 Y0.50730
G01 X-0.71175 Y0.50667
G01 X-0.71492 Y0.50620
G01 X-0.71813 Y0.50599
G01 X-0.72134 Y0.50603
G01 X-0.72454 Y0.50634
G01 X-0.72770 Y0.50691
G01 X-0.73080 Y0.50774
G01 X-0.73345 Y0.50866
G01 X-0.73640 Y0.50995
G01 X-0.77606 Y0.52978
G01 X-0.85271 Y0.52978
G01 X-0.88630 Y0.51299
G01 X-0.90108 Y0.49821
G01 X-0.91787 Y0.46462
G01 X-0.91787 Y0.34035
G01 X-0.90108 Y0.30676
G01 X-0.88630 Y0.29198
G01 X-0.85271 Y0.27519
G01 X-0.77606 Y0.27519
G01 X-0.73640 Y0.29502
G01 X-0.73308 Y0.29645
G01 X-0.72964 Y0.29757
G01 X-0.72652 Y0.29830
G01 X-0.72294 Y0.29882
G01 X-0.71973 Y0.29899
G01 X-0.71612 Y0.29888
G01 X-0.71293 Y0.29850
G01 X-0.70940 Y0.29777
G01 X-0.70594 Y0.29672
G01 X-0.70296 Y0.29552
G01 X-0.69939 Y0.29368
G01 X-0.69570 Y0.29125
G01 X-0.69231 Y0.28843
G01 X-0.68925 Y0.28524
G01 X-0.68680 Y0.28207
G01 X-0.68449 Y0.27830
G01 X-0.68262 Y0.27431
G01 X-0.68120 Y0.27012
G01 X-0.68027 Y0.26581
G01 X-0.67984 Y0.26182
G01 X-0.67984 Y0.25740
G01 X-0.68034 Y0.25302
G01 X-0.68132 Y0.24871
G01 X-0.68263 Y0.24492
G01 X-0.68451 Y0.24092
G01 X-0.68682 Y0.23716
G01 X-0.68954 Y0.23368
G01 X-0.69293 Y0.23026
G01 X-0.69671 Y0.22728
G01 X-0.70083 Y0.22478
G01 X-0.75100 Y0.19974
G01 X-0.75441 Y0.19844
G01 X-0.75792 Y0.19746
G01 X-0.76151 Y0.19680
G01 X-0.76515 Y0.19648
G01 X-0.86241 Y0.19645
G01 X-0.86606 Y0.19666
G01 X-0.86927 Y0.19712
G01 X-0.87437 Y0.19844
G01 X-0.87888 Y0.20025
G01 X-0.92759 Y0.22459
G01 X-0.93200 Y0.22723
G01 X-0.93453 Y0.22914
G01 X-0.93690 Y0.23124
G01 X-0.96127 Y0.25560
G01 X-0.96418 Y0.25884
G01 X-0.96649 Y0.26205
G01 X-0.96865 Y0.26583
G01 X-0.99299 Y0.31455
G01 X-0.99422 Y0.31754
G01 X-0.99521 Y0.32063
G01 X-0.99594 Y0.32380
G01 X-0.99641 Y0.32701
G01 X-0.99662 Y0.33106
G01 X-0.99662 Y0.47391
G01 X-0.99651 Y0.47675
G01 X-0.99621 Y0.47957
G01 X-0.99570 Y0.48237
G01 X-0.99487 Y0.48550
G01 X-0.99394 Y0.48818
G01 X-0.99281 Y0.49079
G01 X-0.96847 Y0.53949
G01 X-0.96583 Y0.54391
G01 X-0.96393 Y0.54644
G01 X-0.96183 Y0.54880
G01 X-0.93747 Y0.57318
G01 X-0.93453 Y0.57583
G01 X-0.93101 Y0.57840
G01 X-0.92723 Y0.58056
G01 X-0.87852 Y0.60489
G01 X-0.87552 Y0.60613
G01 X-0.87243 Y0.60712
G01 X-0.86927 Y0.60785
G01 X-0.86606 Y0.60831
G01 X-0.86201 Y0.60852
G01 X-0.76677 Y0.60852
G01 X-0.76272 Y0.60831
G01 X-0.75911 Y0.60777
G01 X-0.75441 Y0.60653
G01 X-0.74989 Y0.60472
G01 X-0.70118 Y0.58037
G01 X-0.69873 Y0.57900
G01 X-0.69638 Y0.57746
G01 X-0.69384 Y0.57550
G01 X-0.69175 Y0.57362
G01 X-0.68851 Y0.57006
G01 X-0.68551 Y0.56579
G01 X-0.68326 Y0.56153
G01 X-0.68155 Y0.55703
G01 X-0.68034 Y0.55195
G01 X-0.67982 Y0.54717
G04 P0 ( dwell for no time -- G64 should not smooth over this point )
G00 Z0.08000 ( retract )

G00 X-1.21090 Y0.28396 ( rapid move to begin. )
G01 F180.00000
( Mill infeed pass 1/1 )
G01 Z-0.04000
G04 P0 ( dwell for no time -- G64 should not smooth over this point )
G01 F360.00000
G01 X-1.21090 Y0.28396
G01 X-1.21090 Y0.38780
G01 X-1.21470 Y0.38718
G01 X-1.21874 Y0.38693
G01 X-1.32890 Y0.38692
G01 X-1.35647 Y0.37314
G01 X-1.37026 Y0.34557
G01 X-1.37026 Y0.31654
G01 X-1.35647 Y0.28897
G01 X-1.32890 Y0.27519
G01 X-1.22844 Y0.27519
G01 X-1.21090 Y0.28396
G04 P0 ( dwell for no time -- G64 should not smooth over this point )
G00 Z0.08000 ( retract )

G00 X-1.56073 Y0.33106 ( rapid move to begin. )
G01 F180.00000
( Mill infeed pass 1/1 )
G01 Z-0.04000
G04 P0 ( dwell for no time -- G64 should not smooth over this point )
G01 F360.00000
G01 X-1.56073 Y0.33106
G01 X-1.56074 Y0.40330
G01 X-1.56094 Y0.40653
G01 X-1.56133 Y0.40935
G01 X-1.56203 Y0.41251
G01 X-1.56285 Y0.41523
G01 X-1.56471 Y0.41973
G01 X-1.58870 Y0.46771
G01 X-1.59023 Y0.47048
G01 X-1.59174 Y0.47280
G01 X-1.59367 Y0.47531
G01 X-1.59579 Y0.47766
G01 X-1.62046 Y0.50232
G01 X-1.62450 Y0.50571
G01 X-1.62890 Y0.50849
G01 X-1.61825 Y0.51923
G01 X-1.61578 Y0.52232
G01 X-1.61363 Y0.52564
G01 X-1.58852 Y0.57572
G01 X-1.58722 Y0.57869
G01 X-1.58617 Y0.58176
G01 X-1.58501 Y0.58690
G01 X-1.58456 Y0.59174
G01 X-1.58454 Y0.64058
G01 X-1.58464 Y0.64342
G01 X-1.58495 Y0.64624
G01 X-1.58546 Y0.64903
G01 X-1.58629 Y0.65217
G01 X-1.58737 Y0.65523
G01 X-1.58852 Y0.65782
G01 X-1.61287 Y0.70651
G01 X-1.61445 Y0.70925
G01 X-1.61602 Y0.71154
G01 X-1.61960 Y0.71576
G01 X-1.64426 Y0.74040
G01 X-1.64693 Y0.74275
G01 X-1.64981 Y0.74485
G01 X-1.65392 Y0.74722
G01 X-1.70154 Y0.77103
G01 X-1.70564 Y0.77280
G01 X-1.70873 Y0.77378
G01 X-1.71189 Y0.77451
G01 X-1.71510 Y0.77498
G01 X-1.71874 Y0.77519
G01 X-1.88582 Y0.77519
G01 X-1.89022 Y0.77494
G01 X-1.89300 Y0.77453
G01 X-1.89844 Y0.77311
G01 X-1.90362 Y0.77093
G01 X-1.90608 Y0.76957
G01 X-1.91036 Y0.76660
G01 X-1.91422 Y0.76308
G01 X-1.91609 Y0.76099
G01 X-1.91781 Y0.75876
G01 X-1.92056 Y0.75433
G01 X-1.92179 Y0.75181
G01 X-1.92284 Y0.74920
G01 X-1.92391 Y0.74575
G01 X-1.92460 Y0.74261
G01 X-1.92506 Y0.73903
G01 X-1.92519 Y0.73582
G01 X-1.92518 Y0.23501
G01 X-1.92489 Y0.23101
G01 X-1.92429 Y0.22745
G01 X-1.92323 Y0.22358
G01 X-1.92179 Y0.21983
G01 X-1.92018 Y0.21660
G01 X-1.91804 Y0.21320
G01 X-1.91557 Y0.21004
G01 X-1.91279 Y0.20714
G01 X-1.91036 Y0.20504
G01 X-1.90744 Y0.20292
G01 X-1.90433 Y0.20107
G01 X-1.90107 Y0.19952
G01 X-1.89768 Y0.19828
G01 X-1.89418 Y0.19735
G01 X-1.89102 Y0.19679
G01 X-1.88742 Y0.19648
G01 X-1.69493 Y0.19645
G01 X-1.69210 Y0.19658
G01 X-1.68928 Y0.19692
G01 X-1.68649 Y0.19746
G01 X-1.68336 Y0.19831
G01 X-1.68069 Y0.19927
G01 X-1.67810 Y0.20042
G01 X-1.62941 Y0.22478
G01 X-1.62667 Y0.22636
G01 X-1.62438 Y0.22792
G01 X-1.62191 Y0.22990
G01 X-1.61988 Y0.23179
G01 X-1.59552 Y0.25616
G01 X-1.59317 Y0.25884
G01 X-1.59107 Y0.26172
G01 X-1.58870 Y0.26583
G01 X-1.56489 Y0.31345
G01 X-1.56312 Y0.31754
G01 X-1.56203 Y0.32103
G01 X-1.56133 Y0.32420
G01 X-1.56090 Y0.32741
G01 X-1.56073 Y0.33106
G04 P0 ( dwell for no time -- G64 should not smooth over this point )
G00 Z0.08000 ( retract )

G00 X-1.63947 Y0.34035 ( rapid move to begin. )
G01 F180.00000
( Mill infeed pass 1/1 )
G01 Z-0.04000
G04 P0 ( dwell for no time -- G64 should not smooth over this point )
G01 F360.00000
G01 X-1.63947 Y0.34035
G01 X-1.65627 Y0.30676
G01 X-1.67104 Y0.29198
G01 X-1.70463 Y0.27519
G01 X-1.84645 Y0.27519
G01 X-1.84645 Y0.45835
G01 X-1.72554 Y0.45835
G01 X-1.66899 Y0.43950
G01 X-1.65627 Y0.42678
G01 X-1.63947 Y0.39319
G01 X-1.63947 Y0.34035
G01 X-1.75021 Y0.36141
G01 X-1.75058 Y0.35903
G01 X-1.75142 Y0.35678
G01 X-1.75269 Y0.35475
G01 X-1.75436 Y0.35301
G01 X-1.75633 Y0.35165
G01 X-1.75817 Y0.35084
G01 X-1.76051 Y0.35029
G01 X-1.76291 Y0.35023
G01 X-1.76527 Y0.35066
G01 X-1.76714 Y0.35137
G01 X-1.76919 Y0.35263
G01 X-1.77094 Y0.35428
G01 X-1.77212 Y0.35590
G01 X-1.77314 Y0.35807
G01 X-1.77371 Y0.36041
G01 X-1.77381 Y0.36241
G01 X-1.77349 Y0.36479
G01 X-1.77269 Y0.36706
G01 X-1.77144 Y0.36911
G01 X-1.76981 Y0.37087
G01 X-1.76785 Y0.37227
G01 X-1.76604 Y0.37311
G01 X-1.76371 Y0.37370
G01 X-1.76131 Y0.37380
G01 X-1.75932 Y0.37351
G01 X-1.75705 Y0.37273
G01 X-1.75498 Y0.37150
G01 X-1.75321 Y0.36989
G01 X-1.75180 Y0.36794
G01 X-1.75094 Y0.36613
G01 X-1.75033 Y0.36381
G01 X-1.75021 Y0.36141
G04 P0 ( dwell for no time -- G64 should not smooth over this point )
G00 Z0.08000 ( retract )

G00 X-2.02861 Y0.62525 ( rapid move to begin. )
G01 F180.00000
( Mill infeed pass 1/1 )
G01 Z-0.04000
G04 P0 ( dwell for no time -- G64 should not smooth over this point )
G01 F360.00000
G01 X-2.02861 Y0.62525
G01 X-2.02908 Y0.62720
G01 X-2.03018 Y0.62888
G01 X-2.03109 Y0.62968
G01 X-2.03214 Y0.63027
G01 X-2.03409 Y0.63075
G01 X-2.03609 Y0.63055
G01 X-2.03790 Y0.62969
G01 X-2.03881 Y0.62890
G01 X-2.03955 Y0.62794
G01 X-2.04007 Y0.62685
G01 X-2.04856 Y0.60305
G01 X-2.05706 Y0.62685
G01 X-2.05805 Y0.62859
G01 X-2.05891 Y0.62945
G01 X-2.06028 Y0.63028
G01 X-2.06183 Y0.63071
G01 X-2.06344 Y0.63071
G01 X-2.06499 Y0.63027
G01 X-2.06636 Y0.62944
G01 X-2.06721 Y0.62858
G01 X-2.06805 Y0.62720
G01 X-2.06852 Y0.62525
G01 X-2.06831 Y0.62326
G01 X-2.05488 Y0.58561
G01 X-2.05922 Y0.57475
G01 X-2.06050 Y0.57347
G01 X-2.06527 Y0.57109
G01 X-2.06629 Y0.57044
G01 X-2.06740 Y0.56928
G01 X-2.06829 Y0.56748
G01 X-2.06851 Y0.56629
G01 X-2.06849 Y0.56509
G01 X-2.06807 Y0.56353
G01 X-2.06750 Y0.56247
G01 X-2.06642 Y0.56128
G01 X-2.06542 Y0.56060
G01 X-2.06430 Y0.56014
G01 X-2.06311 Y0.55992
G01 X-2.06191 Y0.55994
G01 X-2.06035 Y0.56036
G01 X-2.05370 Y0.56372
G01 X-2.05001 Y0.56725
G01 X-2.04887 Y0.56887
G01 X-2.04300 Y0.58350
G01 X-2.02882 Y0.62326
G01 X-2.02861 Y0.62525
G04 P0 ( dwell for no time -- G64 should not smooth over this point )
G00 Z0.08000 ( retract )

G00 X-2.00710 Y0.66160 ( rapid move to begin. )
G01 F180.00000
( Mill infeed pass 1/1 )
G01 Z-0.04000
G04 P0 ( dwell for no time -- G64 should not smooth over this point )
G01 F360.00000
G01 X-2.00710 Y0.66160
G01 X-2.00724 Y0.66080
G01 X-2.00768 Y0.65967
G01 X-2.00867 Y0.65839
G01 X-2.01003 Y0.65750
G01 X-2.01160 Y0.65710
G01 X-2.06201 Y0.65709
G01 X-2.06282 Y0.65715
G01 X-2.06398 Y0.65750
G01 X-2.06563 Y0.65867
G01 X-2.06651 Y0.66003
G01 X-2.06686 Y0.66120
G01 X-2.06693 Y0.66201
G01 X-2.06686 Y0.66282
G01 X-2.06651 Y0.66398
G01 X-2.06563 Y0.66534
G01 X-2.06435 Y0.66634
G01 X-2.06322 Y0.66678
G01 X-2.06241 Y0.66691
G01 X-2.01201 Y0.66693
G01 X-2.01120 Y0.66686
G01 X-2.01003 Y0.66651
G01 X-2.00898 Y0.66589
G01 X-2.00839 Y0.66534
G01 X-2.00768 Y0.66435
G01 X-2.00735 Y0.66361
G01 X-2.00715 Y0.66282
G01 X-2.00710 Y0.66160
G04 P0 ( dwell for no time -- G64 should not smooth over this point )
G00 Z0.08000 ( retract )

G00 X-1.96200 Y0.59653 ( rapid move to begin. )
G01 F180.00000
( Mill infeed pass 1/1 )
G01 Z-0.04000
G04 P0 ( dwell for no time -- G64 should not smooth over this point )
G01 F360.00000
G01 X-1.96200 Y0.59653
G01 X-1.96177 Y0.59683
G01 X-1.96116 Y0.59875
G01 X-1.96112 Y0.61683
G01 X-1.96116 Y0.61562
G01 X-1.96177 Y0.61371
G01 X-1.96298 Y0.61211
G01 X-1.96466 Y0.61101
G01 X-1.96661 Y0.61053
G01 X-2.01201 Y0.61052
G01 X-2.01321 Y0.61064
G01 X-2.01436 Y0.61101
G01 X-2.01604 Y0.61211
G01 X-2.01683 Y0.61302
G01 X-2.01742 Y0.61407
G01 X-2.01779 Y0.61522
G01 X-2.01791 Y0.61642
G01 X-2.01757 Y0.61840
G01 X-2.01659 Y0.62015
G01 X-2.01508 Y0.62147
G01 X-2.01398 Y0.62199
G01 X-2.01281 Y0.62227
G01 X-1.96701 Y0.62233
G01 X-1.96581 Y0.62221
G01 X-1.96466 Y0.62184
G01 X-1.96361 Y0.62125
G01 X-1.96243 Y0.62015
G01 X-1.96177 Y0.61914
G01 X-1.96133 Y0.61802
G01 X-1.96112 Y0.61683
G01 X-1.96112 Y0.59995
G01 X-1.96200 Y0.59653
G01 X-1.96298 Y0.59524
G01 X-1.96466 Y0.59413
G01 X-1.96661 Y0.59366
G01 X-2.01201 Y0.59365
G01 X-2.01321 Y0.59377
G01 X-2.01436 Y0.59413
G01 X-2.01541 Y0.59473
G01 X-2.01632 Y0.59552
G01 X-2.01742 Y0.59720
G01 X-2.01779 Y0.59835
G01 X-2.01791 Y0.59955
G01 X-2.01757 Y0.60153
G01 X-2.01659 Y0.60328
G01 X-2.01508 Y0.60460
G01 X-2.01398 Y0.60512
G01 X-2.01281 Y0.60540
G01 X-1.96701 Y0.60546
G01 X-1.96581 Y0.60533
G01 X-1.96466 Y0.60497
G01 X-1.96361 Y0.60438
G01 X-1.96243 Y0.60328
G01 X-1.96177 Y0.60227
G01 X-1.96133 Y0.60114
G01 X-1.96112 Y0.59995
G01 X-1.99063 Y0.48510
G01 X-1.99069 Y0.52527
G01 X-1.99098 Y0.52644
G01 X-1.99149 Y0.52753
G01 X-1.99281 Y0.52905
G01 X-1.99456 Y0.53003
G01 X-1.99654 Y0.53037
G01 X-1.99774 Y0.53025
G01 X-1.99889 Y0.52988
G01 X-1.99995 Y0.52929
G01 X-2.00086 Y0.52850
G01 X-2.00196 Y0.52682
G01 X-2.00232 Y0.52567
G01 X-2.00245 Y0.52447
G01 X-2.00239 Y0.48429
G01 X-2.00196 Y0.48274
G01 X-2.00086 Y0.48107
G01 X-1.99926 Y0.47985
G01 X-1.99734 Y0.47925
G01 X-1.99614 Y0.47920
G01 X-1.99495 Y0.47941
G01 X-1.99382 Y0.47985
G01 X-1.99281 Y0.48052
G01 X-1.99172 Y0.48169
G01 X-1.99112 Y0.48274
G01 X-1.99076 Y0.48389
G01 X-1.98783 Y0.54154
G01 X-1.98791 Y0.54034
G01 X-1.98839 Y0.53880
G01 X-1.98902 Y0.53777
G01 X-1.99281 Y0.53395
G01 X-1.99400 Y0.53319
G01 X-1.99514 Y0.53279
G01 X-1.99634 Y0.53262
G01 X-1.99754 Y0.53271
G01 X-1.99889 Y0.53311
G01 X-2.00011 Y0.53382
G01 X-2.00406 Y0.53777
G01 X-2.00469 Y0.53880
G01 X-2.00517 Y0.54034
G01 X-2.00523 Y0.54194
G01 X-2.00498 Y0.54313
G01 X-2.00450 Y0.54423
G01 X-2.00380 Y0.54522
G01 X-2.00011 Y0.54886
G01 X-1.99908 Y0.54948
G01 X-1.99794 Y0.54989
G01 X-1.99674 Y0.55005
G01 X-1.99559 Y0.54998
G01 X-1.99437 Y0.54964
G01 X-1.99297 Y0.54886
G01 X-1.98902 Y0.54491
G01 X-1.98839 Y0.54388
G01 X-1.98799 Y0.54274
G01 X-1.98783 Y0.54154
G04 P0 ( dwell for no time -- G64 should not smooth over this point )
G00 Z0.08000 ( retract )

G00 X-2.07219 Y0.48811 ( rapid move to begin. )
G01 F180.00000
( Mill infeed pass 1/1 )
G01 Z-0.04000
G04 P0 ( dwell for no time -- G64 should not smooth over this point )
G01 F360.00000
G01 X-2.07219 Y0.48811
G01 X-2.07235 Y0.48931
G01 X-2.07276 Y0.49044
G01 X-2.07339 Y0.49148
G01 X-2.07733 Y0.49542
G01 X-2.07870 Y0.49620
G01 X-2.07990 Y0.49654
G01 X-2.08104 Y0.49663
G01 X-2.08222 Y0.49648
G01 X-2.08335 Y0.49610
G01 X-2.08437 Y0.49550
G01 X-2.08817 Y0.49179
G01 X-2.08886 Y0.49080
G01 X-2.08935 Y0.48969
G01 X-2.08962 Y0.48811
G01 X-2.08954 Y0.48690
G01 X-2.08905 Y0.48537
G01 X-2.08842 Y0.48434
G01 X-2.08447 Y0.48039
G01 X-2.08326 Y0.47968
G01 X-2.08191 Y0.47928
G01 X-2.08070 Y0.47919
G01 X-2.07951 Y0.47936
G01 X-2.07837 Y0.47976
G01 X-2.07718 Y0.48052
G01 X-2.07339 Y0.48434
G01 X-2.07276 Y0.48537
G01 X-2.07227 Y0.48690
G01 X-2.07219 Y0.48811
G04 P0 ( dwell for no time -- G64 should not smooth over this point )
G00 Z0.08000 ( retract )

G00 X-2.01594 Y0.51041 ( rapid move to begin. )
G01 F180.00000
( Mill infeed pass 1/1 )
G01 Z-0.04000
G04 P0 ( dwell for no time -- G64 should not smooth over this point )
G01 F360.00000
G01 X-2.01594 Y0.51041
G01 X-2.01606 Y0.51157
G01 X-2.01640 Y0.51269
G01 X-2.01998 Y0.51964
G01 X-2.02418 Y0.52374
G01 X-2.03046 Y0.52694
G01 X-2.03155 Y0.52735
G01 X-2.03310 Y0.52756
G01 X-2.04716 Y0.52756
G01 X-2.04852 Y0.52740
G01 X-2.04744 Y0.53825
G01 X-2.02426 Y0.53826
G01 X-2.02231 Y0.53873
G01 X-2.02093 Y0.53957
G01 X-2.01984 Y0.54075
G01 X-2.01924 Y0.54180
G01 X-2.01881 Y0.54335
G01 X-2.01881 Y0.54496
G01 X-2.01924 Y0.54650
G01 X-2.01984 Y0.54756
G01 X-2.02093 Y0.54873
G01 X-2.02194 Y0.54939
G01 X-2.02307 Y0.54984
G01 X-2.02466 Y0.55006
G01 X-2.05318 Y0.55004
G01 X-2.05472 Y0.54973
G01 X-2.05613 Y0.54902
G01 X-2.05703 Y0.54826
G01 X-2.05796 Y0.54699
G01 X-2.05842 Y0.54590
G01 X-2.05866 Y0.54474
G01 X-2.06147 Y0.51662
G01 X-2.06147 Y0.51541
G01 X-2.06122 Y0.51423
G01 X-2.06029 Y0.51245
G01 X-2.05916 Y0.51132
G01 X-2.05775 Y0.51053
G01 X-2.05619 Y0.51015
G01 X-2.05499 Y0.51016
G01 X-2.05381 Y0.51040
G01 X-2.05270 Y0.51088
G01 X-2.05171 Y0.51158
G01 X-2.04928 Y0.51399
G01 X-2.04576 Y0.51575
G01 X-2.03449 Y0.51575
G01 X-2.03097 Y0.51399
G01 X-2.02951 Y0.51253
G01 X-2.02775 Y0.50901
G01 X-2.02775 Y0.49774
G01 X-2.02951 Y0.49422
G01 X-2.03097 Y0.49276
G01 X-2.03449 Y0.49100
G01 X-2.04576 Y0.49100
G01 X-2.04928 Y0.49276
G01 X-2.05236 Y0.49566
G01 X-2.05343 Y0.49621
G01 X-2.05459 Y0.49654
G01 X-2.05580 Y0.49662
G01 X-2.05738 Y0.49635
G01 X-2.05849 Y0.49587
G01 X-2.05977 Y0.49490
G01 X-2.06074 Y0.49362
G01 X-2.06133 Y0.49212
G01 X-2.06150 Y0.49052
G01 X-2.06122 Y0.48894
G01 X-2.06074 Y0.48783
G01 X-2.06005 Y0.48684
G01 X-2.05696 Y0.48373
G01 X-2.05576 Y0.48281
G01 X-2.04944 Y0.47965
G01 X-2.04794 Y0.47924
G01 X-2.03232 Y0.47924
G01 X-2.03046 Y0.47981
G01 X-2.02418 Y0.48301
G01 X-2.02048 Y0.48655
G01 X-2.01938 Y0.48808
G01 X-2.01640 Y0.49406
G01 X-2.01600 Y0.49556
G01 X-2.01594 Y0.51041
G04 P0 ( dwell for no time -- G64 should not smooth over this point )
G00 Z0.08000 ( retract )

G00 X-1.93720 Y0.48510 ( rapid move to begin. )
G01 F180.00000
( Mill infeed pass 1/1 )
G01 Z-0.04000
G04 P0 ( dwell for no time -- G64 should not smooth over this point )
G01 F360.00000
G01 X-1.93720 Y0.48510
G01 X-1.93742 Y0.48350
G01 X-1.93806 Y0.48203
G01 X-1.93908 Y0.48078
G01 X-1.94039 Y0.47985
G01 X-1.94191 Y0.47931
G01 X-1.94351 Y0.47920
G01 X-1.94509 Y0.47953
G01 X-1.94651 Y0.48027
G01 X-1.94769 Y0.48137
G01 X-1.94835 Y0.48238
G01 X-1.94880 Y0.48350
G01 X-1.94901 Y0.48510
G01 X-1.94901 Y0.51464
G01 X-1.95032 Y0.51725
G01 X-1.95294 Y0.51856
G01 X-1.95859 Y0.51856
G01 X-1.96211 Y0.51680
G01 X-1.96251 Y0.51640
G01 X-1.96251 Y0.48510
G01 X-1.96285 Y0.48312
G01 X-1.96359 Y0.48169
G01 X-1.96439 Y0.48078
G01 X-1.96535 Y0.48005
G01 X-1.96682 Y0.47941
G01 X-1.96842 Y0.47919
G01 X-1.97001 Y0.47941
G01 X-1.97149 Y0.48005
G01 X-1.97245 Y0.48078
G01 X-1.97324 Y0.48169
G01 X-1.97383 Y0.48274
G01 X-1.97420 Y0.48389
G01 X-1.97432 Y0.48510
G01 X-1.97432 Y0.52447
G01 X-1.97410 Y0.52606
G01 X-1.97346 Y0.52753
G01 X-1.97273 Y0.52850
G01 X-1.97182 Y0.52929
G01 X-1.97077 Y0.52988
G01 X-1.96922 Y0.53032
G01 X-1.96801 Y0.53036
G01 X-1.96682 Y0.53015
G01 X-1.96570 Y0.52971
G01 X-1.96445 Y0.52884
G01 X-1.96227 Y0.52991
G01 X-1.96076 Y0.53032
G01 X-1.95115 Y0.53036
G01 X-1.94926 Y0.52991
G01 X-1.94255 Y0.52651
G01 X-1.94160 Y0.52568
G01 X-1.94084 Y0.52467
G01 X-1.93766 Y0.51832
G01 X-1.93726 Y0.51681
G01 X-1.93720 Y0.48510
G04 P0 ( dwell for no time -- G64 should not smooth over this point )
G00 Z0.08000 ( retract )

G00 X-1.75021 Y0.61141 ( rapid move to begin. )
G01 F180.00000
( Mill infeed pass 1/1 )
G01 Z-0.04000
G04 P0 ( dwell for no time -- G64 should not smooth over this point )
G01 F360.00000
G01 X-1.75021 Y0.61141
G01 X-1.75033 Y0.61381
G01 X-1.75094 Y0.61613
G01 X-1.75180 Y0.61794
G01 X-1.75321 Y0.61989
G01 X-1.75498 Y0.62150
G01 X-1.75705 Y0.62273
G01 X-1.75932 Y0.62351
G01 X-1.76131 Y0.62380
G01 X-1.76371 Y0.62370
G01 X-1.76604 Y0.62311
G01 X-1.76785 Y0.62227
G01 X-1.76981 Y0.62087
G01 X-1.77144 Y0.61911
G01 X-1.77269 Y0.61706
G01 X-1.77349 Y0.61479
G01 X-1.77381 Y0.61241
G01 X-1.77371 Y0.61041
G01 X-1.77314 Y0.60807
G01 X-1.77212 Y0.60590
G01 X-1.77094 Y0.60428
G01 X-1.76919 Y0.60263
G01 X-1.76714 Y0.60137
G01 X-1.76527 Y0.60066
G01 X-1.76291 Y0.60023
G01 X-1.76051 Y0.60029
G01 X-1.75817 Y0.60084
G01 X-1.75633 Y0.60165
G01 X-1.75436 Y0.60301
G01 X-1.75269 Y0.60475
G01 X-1.75142 Y0.60678
G01 X-1.75058 Y0.60903
G01 X-1.75021 Y0.61141
G01 X-1.66328 Y0.60226
G01 X-1.66328 Y0.63129
G01 X-1.68008 Y0.66488
G01 X-1.69485 Y0.67965
G01 X-1.72844 Y0.69645
G01 X-1.84645 Y0.69645
G01 X-1.84645 Y0.53709
G01 X-1.72844 Y0.53709
G01 X-1.69485 Y0.55389
G01 X-1.68008 Y0.56866
G01 X-1.66328 Y0.60226
G04 P0 ( dwell for no time -- G64 should not smooth over this point )
G00 Z0.08000 ( retract )

G00 X-1.12861 Y1.16663 ( rapid move to begin. )
G01 F180.00000
( Mill infeed pass 1/1 )
G01 Z-0.04000
G04 P0 ( dwell for no time -- G64 should not smooth over this point )
G01 F360.00000
G01 X-1.12861 Y1.16663
G01 X-1.12865 Y1.16542
G01 X-1.12926 Y1.16351
G01 X-1.13047 Y1.16191
G01 X-1.13215 Y1.16081
G01 X-1.13410 Y1.16033
G01 X-1.17950 Y1.16032
G01 X-1.18070 Y1.16044
G01 X-1.18185 Y1.16081
G01 X-1.18353 Y1.16191
G01 X-1.18432 Y1.16282
G01 X-1.18491 Y1.16387
G01 X-1.18528 Y1.16502
G01 X-1.18540 Y1.16623
G01 X-1.18506 Y1.16820
G01 X-1.18408 Y1.16995
G01 X-1.18257 Y1.17127
G01 X-1.18148 Y1.17179
G01 X-1.18030 Y1.17208
G01 X-1.13450 Y1.17213
G01 X-1.13330 Y1.17201
G01 X-1.13215 Y1.17164
G01 X-1.13110 Y1.17105
G01 X-1.12992 Y1.16995
G01 X-1.12926 Y1.16894
G01 X-1.12882 Y1.16782
G01 X-1.12861 Y1.16663
G01 X-1.12865 Y1.14855
G01 X-1.12926 Y1.14664
G01 X-1.13047 Y1.14504
G01 X-1.13215 Y1.14394
G01 X-1.13410 Y1.14346
G01 X-1.17950 Y1.14345
G01 X-1.18070 Y1.14357
G01 X-1.18185 Y1.14394
G01 X-1.18353 Y1.14504
G01 X-1.18432 Y1.14595
G01 X-1.18491 Y1.14700
G01 X-1.18528 Y1.14815
G01 X-1.18540 Y1.14935
G01 X-1.18506 Y1.15133
G01 X-1.18408 Y1.15308
G01 X-1.18257 Y1.15440
G01 X-1.18148 Y1.15492
G01 X-1.18030 Y1.15520
G01 X-1.13450 Y1.15526
G01 X-1.13330 Y1.15514
G01 X-1.13215 Y1.15477
G01 X-1.13110 Y1.15418
G01 X-1.12992 Y1.15308
G01 X-1.12926 Y1.15207
G01 X-1.12882 Y1.15095
G01 X-1.12861 Y1.14976
G01 X-1.13216 Y0.49772
G01 X-1.10709 Y1.06201
G01 X-1.10715 Y1.06120
G01 X-1.10750 Y1.06003
G01 X-1.10812 Y1.05899
G01 X-1.10867 Y1.05839
G01 X-1.10966 Y1.05768
G01 X-1.11120 Y1.05715
G01 X-1.11241 Y1.05710
G01 X-1.11322 Y1.05724
G01 X-1.11435 Y1.05768
G01 X-1.11563 Y1.05867
G01 X-1.11651 Y1.06003
G01 X-1.11691 Y1.06160
G01 X-1.11693 Y1.11201
G01 X-1.11686 Y1.11282
G01 X-1.11651 Y1.11398
G01 X-1.11589 Y1.11503
G01 X-1.11534 Y1.11563
G01 X-1.11398 Y1.11651
G01 X-1.11282 Y1.11686
G01 X-1.11201 Y1.11693
G01 X-1.11120 Y1.11686
G01 X-1.11003 Y1.11651
G01 X-1.10867 Y1.11563
G01 X-1.10768 Y1.11435
G01 X-1.10724 Y1.11322
G01 X-1.10710 Y1.11241
G01 X-1.10709 Y1.06201
G01 X-1.13216 Y0.49772
G01 X-1.19613 Y1.13600
G01 X-1.19616 Y1.13439
G01 X-1.19662 Y1.13285
G01 X-1.19748 Y1.13149
G01 X-1.19835 Y1.13065
G01 X-1.19937 Y1.13001
G01 X-1.20129 Y1.12943
G01 X-1.20329 Y1.12953
G01 X-1.20444 Y1.12992
G01 X-1.20548 Y1.13053
G01 X-1.20664 Y1.13164
G01 X-1.21746 Y1.14542
G01 X-1.22829 Y1.13164
G01 X-1.22944 Y1.13053
G01 X-1.23048 Y1.12992
G01 X-1.23163 Y1.12953
G01 X-1.23363 Y1.12943
G01 X-1.23556 Y1.13001
G01 X-1.23718 Y1.13119
G01 X-1.23813 Y1.13249
G01 X-1.23877 Y1.13439
G01 X-1.23879 Y1.13600
G01 X-1.23822 Y1.13792
G01 X-1.23757 Y1.13894
G01 X-1.22497 Y1.15498
G01 X-1.23757 Y1.17101
G01 X-1.23822 Y1.17203
G01 X-1.23873 Y1.17356
G01 X-1.23881 Y1.17516
G04 P0 ( dwell for no time -- G64 should not smooth over this point )
G00 Z0.08000 ( retract )

G00 X-1.23881 Y1.17516 ( rapid move to begin. )
G01 F180.00000
( Mill infeed pass 1/1 )
G01 Z-0.04000
G04 P0 ( dwell for no time -- G64 should not smooth over this point )
G01 F360.00000
G01 X-1.23881 Y1.17516
G01 X-1.23846 Y1.17673
G01 X-1.23745 Y1.17847
G01 X-1.23591 Y1.17976
G01 X-1.23481 Y1.18026
G01 X-1.23363 Y1.18052
G01 X-1.23243 Y1.18055
G01 X-1.23124 Y1.18032
G01 X-1.22944 Y1.17943
G01 X-1.22829 Y1.17831
G01 X-1.21746 Y1.16453
G01 X-1.20664 Y1.17831
G01 X-1.20548 Y1.17943
G01 X-1.20368 Y1.18032
G01 X-1.20169 Y1.18056
G01 X-1.19973 Y1.18012
G01 X-1.19835 Y1.17930
G01 X-1.19700 Y1.17781
G01 X-1.19623 Y1.17596
G01 X-1.19613 Y1.17396
G01 X-1.19671 Y1.17203
G01 X-1.19735 Y1.17101
G01 X-1.20995 Y1.15498
G01 X-1.19735 Y1.13894
G01 X-1.19671 Y1.13792
G01 X-1.19613 Y1.13600
G01 X-1.13216 Y0.49772
G01 X-1.13217 Y0.23501
G01 X-1.13233 Y0.23221
G01 X-1.13268 Y0.22942
G01 X-1.13333 Y0.22628
G01 X-1.13411 Y0.22358
G01 X-1.13508 Y0.22094
G01 X-1.13623 Y0.21838
G01 X-1.13777 Y0.21556
G01 X-1.13931 Y0.21320
G01 X-1.14178 Y0.21004
G01 X-1.14485 Y0.20687
G01 X-1.14826 Y0.20406
G01 X-1.15196 Y0.20166
G01 X-1.15554 Y0.19984
G01 X-1.15967 Y0.19828
G01 X-1.16395 Y0.19718
G01 X-1.16832 Y0.19658
G01 X-1.17193 Y0.19645
G01 X-1.17514 Y0.19661
G01 X-1.17872 Y0.19711
G01 X-1.18224 Y0.19793
G01 X-1.18566 Y0.19907
G01 X-1.18861 Y0.20035
G01 X-1.19179 Y0.20206
G01 X-1.19473 Y0.20401
G01 X-1.20264 Y0.20008
G01 X-1.20679 Y0.19844
G01 X-1.21189 Y0.19712
G01 X-1.21712 Y0.19650
G01 X-1.33820 Y0.19645
G01 X-1.34103 Y0.19655
G01 X-1.34506 Y0.19705
G01 X-1.34862 Y0.19785
G01 X-1.35209 Y0.19898
G01 X-1.35544 Y0.20042
G01 X-1.40449 Y0.22497
G01 X-1.40726 Y0.22661
G01 X-1.40956 Y0.22823
G01 X-1.41205 Y0.23027
G01 X-1.41436 Y0.23251
G01 X-1.41770 Y0.23653
G01 X-1.42047 Y0.24095
G01 X-1.44537 Y0.29074
G01 X-1.44700 Y0.29488
G01 X-1.44808 Y0.29879
G01 X-1.44874 Y0.30279
G01 X-1.44899 Y0.30684
G01 X-1.44899 Y0.35568
G01 X-1.44859 Y0.36053
G01 X-1.44770 Y0.36490
G01 X-1.44646 Y0.36876
G01 X-1.44484 Y0.37247
G01 X-1.42085 Y0.42045
G01 X-1.41905 Y0.42359
G01 X-1.41673 Y0.42687
G01 X-1.41408 Y0.42989
G01 X-1.41114 Y0.43263
G01 X-1.40793 Y0.43506
G01 X-1.40449 Y0.43714
G01 X-1.35507 Y0.46186
G01 X-1.35094 Y0.46354
G01 X-1.34625 Y0.46483
G01 X-1.34265 Y0.46541
G01 X-1.33860 Y0.46566
G01 X-1.22844 Y0.46566
G01 X-1.21090 Y0.47444
G01 X-1.21090 Y0.48843
G01 X-1.22468 Y0.51600
G01 X-1.25225 Y0.52978
G01 X-1.32890 Y0.52978
G01 X-1.36857 Y0.50995
G01 X-1.37151 Y0.50866
G01 X-1.37455 Y0.50762
G01 X-1.37766 Y0.50683
G01 X-1.38083 Y0.50629
G01 X-1.38403 Y0.50601
G01 X-1.38724 Y0.50600
G01 X-1.39044 Y0.50624
G01 X-1.39361 Y0.50675
G01 X-1.39673 Y0.50752
G01 X-1.39978 Y0.50853
G01 X-1.40417 Y0.51051
G01 X-1.40795 Y0.51279
G01 X-1.41146 Y0.51547
G01 X-1.41464 Y0.51853
G01 X-1.41746 Y0.52192
G01 X-1.41989 Y0.52561
G01 X-1.42188 Y0.52955
G01 X-1.42342 Y0.53369
G01 X-1.42456 Y0.53837
G01 X-1.42510 Y0.54275
G01 X-1.42514 Y0.54717
G01 X-1.42469 Y0.55156
G01 X-1.42375 Y0.55587
G01 X-1.42233 Y0.56005
G01 X-1.42046 Y0.56405
G01 X-1.41815 Y0.56781
G01 X-1.41516 Y0.57159
G01 X-1.41174 Y0.57498
G01 X-1.40792 Y0.57792
G01 X-1.40414 Y0.58019
G01 X-1.35397 Y0.60522
G01 X-1.35056 Y0.60653
G01 X-1.34704 Y0.60751
G01 X-1.34345 Y0.60817
G01 X-1.33982 Y0.60849
G01 X-1.24255 Y0.60852
G01 X-1.23891 Y0.60831
G01 X-1.23570 Y0.60785
G01 X-1.23098 Y0.60666
G01 X-1.22608 Y0.60472
G01 X-1.17737 Y0.58037
G01 X-1.17289 Y0.57769
G01 X-1.16911 Y0.57470
G01 X-1.16572 Y0.57127
G01 X-1.16277 Y0.56746
G01 X-1.16049 Y0.56366
G01 X-1.13562 Y0.51386
G01 X-1.13441 Y0.51085
G01 X-1.13346 Y0.50775
G01 X-1.13276 Y0.50458
G01 X-1.13233 Y0.50137
G01 X-1.13216 Y0.49772
G01 X-1.06956 Y1.13570
G01 X-1.06976 Y1.13370
G01 X-1.07062 Y1.13189
G01 X-1.07172 Y1.13071
G01 X-1.07310 Y1.12988
G01 X-1.07505 Y1.12940
G01 X-1.10919 Y1.12939
G01 X-1.11117 Y1.12973
G01 X-1.11260 Y1.13047
G01 X-1.11377 Y1.13157
G01 X-1.11461 Y1.13294
G01 X-1.11498 Y1.13409
G01 X-1.11508 Y1.13570
G01 X-1.11476 Y1.13727
G01 X-1.11402 Y1.13870
G01 X-1.11322 Y1.13961
G01 X-1.11155 Y1.14071
G01 X-1.11000 Y1.14114
G01 X-1.09823 Y1.14120
G01 X-1.09823 Y1.17728
G01 X-1.09967 Y1.17585
G01 X-1.10059 Y1.17518
G01 X-1.10655 Y1.17219
G01 X-1.10808 Y1.17167
G01 X-1.10968 Y1.17159
G01 X-1.11087 Y1.17181
G01 X-1.11199 Y1.17227
G01 X-1.11299 Y1.17295
G01 X-1.11407 Y1.17414
G01 X-1.11464 Y1.17520
G01 X-1.11505 Y1.17675
G01 X-1.11508 Y1.17796
G01 X-1.11486 Y1.17915
G01 X-1.11420 Y1.18061
G01 X-1.11316 Y1.18185
G01 X-1.11184 Y1.18276
G01 X-1.10707 Y1.18514
G01 X-1.10254 Y1.18967
G01 X-1.09723 Y1.19762
G01 X-1.09616 Y1.19884
G01 X-1.09515 Y1.19953
G01 X-1.09363 Y1.20010
G01 X-1.09201 Y1.20024
G01 X-1.09081 Y1.20005
G01 X-1.08896 Y1.19920
G01 X-1.08777 Y1.19811
G01 X-1.08676 Y1.19634
G01 X-1.08643 Y1.19475
G01 X-1.08642 Y1.14120
G01 X-1.07505 Y1.14118
G01 X-1.07310 Y1.14071
G01 X-1.07204 Y1.14012
G01 X-1.07113 Y1.13932
G01 X-1.07003 Y1.13765
G01 X-1.06956 Y1.13570
G01 X-1.00021 Y0.71141
G01 X-1.00058 Y0.70903
G01 X-1.00142 Y0.70678
G01 X-1.00269 Y0.70475
G01 X-1.00436 Y0.70301
G01 X-1.00633 Y0.70165
G01 X-1.00817 Y0.70084
G01 X-1.01051 Y0.70029
G01 X-1.01291 Y0.70023
G01 X-1.01527 Y0.70066
G01 X-1.01714 Y0.70137
G01 X-1.01919 Y0.70263
G01 X-1.02094 Y0.70428
G01 X-1.02212 Y0.70590
G01 X-1.02314 Y0.70807
G01 X-1.02371 Y0.71041
G01 X-1.02381 Y0.71241
G01 X-1.02349 Y0.71479
G01 X-1.02269 Y0.71706
G01 X-1.02144 Y0.71911
G01 X-1.01981 Y0.72087
G01 X-1.01785 Y0.72227
G01 X-1.01604 Y0.72311
G01 X-1.01371 Y0.72370
G01 X-1.01131 Y0.72380
G01 X-1.00932 Y0.72351
G01 X-1.00705 Y0.72273
G01 X-1.00498 Y0.72150
G01 X-1.00321 Y0.71989
G01 X-1.00180 Y0.71794
G01 X-1.00094 Y0.71613
G01 X-1.00054 Y0.71462
G01 X-1.00021 Y0.71141
G01 X-0.99080 Y1.13529
G01 X-0.99085 Y1.16701
G01 X-0.99126 Y1.16851
G01 X-0.99444 Y1.17486
G01 X-0.99520 Y1.17587
G01 X-0.99615 Y1.17670
G01 X-1.00286 Y1.18011
G01 X-1.00475 Y1.18055
G01 X-1.01436 Y1.18051
G01 X-1.01587 Y1.18011
G01 X-1.01805 Y1.17903
G01 X-1.01930 Y1.17990
G01 X-1.02042 Y1.18035
G01 X-1.02161 Y1.18055
G01 X-1.02282 Y1.18051
G01 X-1.02437 Y1.18008
G01 X-1.02542 Y1.17949
G01 X-1.02633 Y1.17869
G01 X-1.02706 Y1.17773
G01 X-1.02770 Y1.17625
G01 X-1.02792 Y1.17466
G01 X-1.02792 Y1.13529
G01 X-1.02780 Y1.13409
G01 X-1.02743 Y1.13294
G01 X-1.02684 Y1.13189
G01 X-1.02605 Y1.13098
G01 X-1.02509 Y1.13025
G01 X-1.02361 Y1.12961
G01 X-1.02202 Y1.12939
G01 X-1.02042 Y1.12961
G01 X-1.01895 Y1.13025
G01 X-1.01799 Y1.13098
G01 X-1.01719 Y1.13189
G01 X-1.01645 Y1.13332
G01 X-1.01611 Y1.13529
G01 X-1.01611 Y1.16659
G01 X-1.01571 Y1.16700
G01 X-1.01219 Y1.16876
G01 X-1.00654 Y1.16876
G01 X-1.00392 Y1.16745
G01 X-1.00261 Y1.16483
G01 X-1.00261 Y1.13529
G01 X-1.00239 Y1.13370
G01 X-1.00195 Y1.13258
G01 X-1.00129 Y1.13157
G01 X-1.00011 Y1.13047
G01 X-0.99869 Y1.12973
G01 X-0.99711 Y1.12940
G01 X-0.99551 Y1.12951
G01 X-0.99399 Y1.13005
G01 X-0.99268 Y1.13098
G01 X-0.99166 Y1.13222
G01 X-0.99102 Y1.13370
G01 X-0.99080 Y1.13529
G01 X-1.00021 Y0.71141
G01 X-1.00033 Y0.71381
G01 X-1.00054 Y0.71462
G01 X-1.04423 Y1.13529
G01 X-1.04429 Y1.17547
G01 X-1.04457 Y1.17664
G01 X-1.04509 Y1.17773
G01 X-1.04641 Y1.17924
G01 X-1.04816 Y1.18023
G01 X-1.05014 Y1.18057
G01 X-1.05134 Y1.18044
G01 X-1.05249 Y1.18008
G01 X-1.05354 Y1.17949
G01 X-1.05445 Y1.17869
G01 X-1.05556 Y1.17701
G01 X-1.05592 Y1.17586
G01 X-1.05604 Y1.17466
G01 X-1.05599 Y1.13449
G01 X-1.05556 Y1.13294
G01 X-1.05445 Y1.13126
G01 X-1.05286 Y1.13005
G01 X-1.05094 Y1.12944
G01 X-1.04974 Y1.12940
G01 X-1.04855 Y1.12961
G01 X-1.04742 Y1.13005
G01 X-1.04641 Y1.13071
G01 X-1.04531 Y1.13189
G01 X-1.04472 Y1.13294
G01 X-1.04436 Y1.13409
G01 X-1.04142 Y1.19174
G01 X-1.04159 Y1.19293
G01 X-1.04199 Y1.19407
G01 X-1.04262 Y1.19510
G01 X-1.04656 Y1.19904
G01 X-1.04794 Y1.19983
G01 X-1.04914 Y1.20017
G01 X-1.05027 Y1.20025
G01 X-1.05145 Y1.20010
G01 X-1.05258 Y1.19972
G01 X-1.05361 Y1.19912
G01 X-1.05740 Y1.19542
G01 X-1.05810 Y1.19443
G01 X-1.05858 Y1.19332
G01 X-1.05883 Y1.19214
G01 X-1.05877 Y1.19053
G01 X-1.05828 Y1.18900
G01 X-1.05766 Y1.18797
G01 X-1.05371 Y1.18402
G01 X-1.05249 Y1.18331
G01 X-1.05114 Y1.18290
G01 X-1.04994 Y1.18282
G01 X-1.04874 Y1.18298
G01 X-1.04760 Y1.18339
G01 X-1.04641 Y1.18414
G01 X-1.04262 Y1.18797
G01 X-1.04199 Y1.18900
G01 X-1.04151 Y1.19053
G01 X-1.04142 Y1.19174

G04 P0 ( dwell for no time -- G64 should not smooth over this point )
G00 Z1.000000 ( retract )

M5 ( Spindle off. )
G04 P1.000000
M9 ( Coolant off. )
M2 ( Program end. )

