( pcb2gcode 3.0.1 )
( Software-independent Gcode )

G94 ( Inches per minute feed rate. )
G20 ( Units == INCHES. )

G90 ( Absolute coordinates. )
G00 S12000 ( RPM spindle speed. )
G64 P0.00040 ( set maximum deviation from commanded toolpath )
G01 F360.00000 ( Feedrate. )


G00 Z1.00000 (Retract to tool change height)
T1
M5      (Spindle stop.)
G04 P1.00000 (Wait for spindle to stop)
(MSG, Change tool bit to mill diameter 0.00000in)
M6      (Tool change.)
M0      (Temporary machine stop.)
M3 ( Spindle on clockwise. )
G04 P1.00000 (Wait for spindle to get up to speed)
( Piece #1, position [0;0] )

G04 P0 ( dwell for no time -- G64 should not smooth over this point )
G00 Z0.08000 ( retract )

G00 X-4.73296 Y-4.21762 ( rapid move to begin. )
G01 F180.00000
( Mill infeed pass 1/1 )
G01 Z-0.04000
G04 P0 ( dwell for no time -- G64 should not smooth over this point )
G01 F360.00000
G01 X-4.73296 Y-4.21762
G01 X-4.73310 Y-4.21964
G01 X-4.73360 Y-4.22202
G01 X-4.73414 Y-4.22355
G01 X-4.73504 Y-4.22537
G01 X-4.73617 Y-4.22706
G01 X-4.73750 Y-4.22858
G01 X-4.91868 Y-4.40976
G01 X-4.92020 Y-4.41109
G01 X-4.92224 Y-4.41242
G01 X-4.92485 Y-4.41354
G01 X-4.92722 Y-4.41411
G01 X-4.92964 Y-4.41430
G01 X-5.40350 Y-4.41421
G01 X-5.40590 Y-4.41377
G01 X-5.40819 Y-4.41296
G01 X-5.41033 Y-4.41180
G01 X-5.41226 Y-4.41032
G01 X-5.44127 Y-4.38133
G01 X-5.44331 Y-4.37881
G01 X-5.44430 Y-4.37704
G01 X-5.44506 Y-4.37516
G01 X-5.44555 Y-4.37319
G01 X-5.44579 Y-4.37118
G01 X-5.44581 Y-4.33937
G01 X-5.46772 Y-4.33937
G01 X-5.46772 Y-4.31550
G01 X-5.59291 Y-4.31550
G01 X-5.59291 Y-4.33937
G01 X-5.66772 Y-4.33937
G01 X-5.66772 Y-4.26063
G01 X-5.59291 Y-4.26063
G01 X-5.59291 Y-4.28450
G01 X-5.46772 Y-4.28450
G01 X-5.46772 Y-4.26063
G01 X-5.39291 Y-4.26063
G01 X-5.39291 Y-4.33937
G01 X-5.41481 Y-4.33937
G01 X-5.41481 Y-4.36395
G01 X-5.39546 Y-4.38330
G01 X-4.93606 Y-4.38330
G01 X-4.76396 Y-4.21120
G01 X-4.76396 Y-3.81713
G01 X-4.79745 Y-3.78365
G01 X-5.15326 Y-3.78365
G01 X-5.15529 Y-3.78352
G01 X-5.15728 Y-3.78312
G01 X-5.15920 Y-3.78247
G01 X-5.16101 Y-3.78157
G01 X-5.16270 Y-3.78045
G01 X-5.16422 Y-3.77911
G01 X-5.30183 Y-3.64150
G01 X-5.32641 Y-3.64150
G01 X-5.32641 Y-3.69490
G01 X-5.46421 Y-3.69490
G01 X-5.46421 Y-3.57902
G01 X-5.51141 Y-3.53182
G01 X-5.51141 Y-3.57680
G01 X-5.64921 Y-3.57680
G01 X-5.64921 Y-3.43900
G01 X-5.51141 Y-3.43900
G01 X-5.51141 Y-3.49253
G01 X-5.50901 Y-3.49304
G01 X-5.50674 Y-3.49391
G01 X-5.50463 Y-3.49513
G01 X-5.50274 Y-3.49666
G01 X-5.44229 Y-3.55710
G01 X-5.32641 Y-3.55710
G01 X-5.32641 Y-3.61050
G01 X-5.29420 Y-3.61055
G01 X-5.29180 Y-3.61093
G01 X-5.28948 Y-3.61168
G01 X-5.28732 Y-3.61278
G01 X-5.28566 Y-3.61395
G01 X-5.14684 Y-3.75265
G01 X-4.79103 Y-3.75265
G01 X-4.78900 Y-3.75278
G01 X-4.78662 Y-3.75329
G01 X-4.78472 Y-3.75399
G01 X-4.78258 Y-3.75515
G01 X-4.78065 Y-3.75663
G01 X-4.73750 Y-3.79975
G01 X-4.73617 Y-3.80127
G01 X-4.73484 Y-3.80332
G01 X-4.73372 Y-3.80592
G01 X-4.73315 Y-3.80829
G01 X-4.73296 Y-3.81071
G01 X-4.73296 Y-4.21762
G04 P0 ( dwell for no time -- G64 should not smooth over this point )
G00 Z0.08000 ( retract )

G00 X-4.93111 Y-4.32790 ( rapid move to begin. )
G01 F180.00000
( Mill infeed pass 1/1 )
G01 Z-0.04000
G04 P0 ( dwell for no time -- G64 should not smooth over this point )
G01 F360.00000
G01 X-4.93111 Y-4.32790
G01 X-4.93133 Y-4.32522
G01 X-4.93180 Y-4.32258
G01 X-4.93253 Y-4.31999
G01 X-4.93350 Y-4.31749
G01 X-4.93472 Y-4.31509
G01 X-4.93616 Y-4.31282
G01 X-4.93797 Y-4.31054
G01 X-4.93984 Y-4.30861
G01 X-4.94207 Y-4.30674
G01 X-4.94429 Y-4.30523
G01 X-4.94665 Y-4.30394
G01 X-4.94933 Y-4.30281
G01 X-4.95190 Y-4.30202
G01 X-4.95453 Y-4.30149
G01 X-4.95721 Y-4.30122
G01 X-5.00219 Y-4.30118
G01 X-5.00665 Y-4.30158
G01 X-5.00927 Y-4.30217
G01 X-5.01182 Y-4.30300
G01 X-5.01448 Y-4.30419
G01 X-5.01682 Y-4.30552
G01 X-5.01901 Y-4.30708
G01 X-5.02103 Y-4.30884
G01 X-5.02288 Y-4.31079
G01 X-5.02458 Y-4.31299
G01 X-5.24879 Y-4.31299
G01 X-5.29305 Y-4.29683
G01 X-5.29349 Y-4.29343
G01 X-5.29419 Y-4.29030
G01 X-5.29515 Y-4.28725
G01 X-5.29654 Y-4.28393
G01 X-5.29804 Y-4.28110
G01 X-5.29978 Y-4.27841
G01 X-5.30173 Y-4.27587
G01 X-5.30419 Y-4.27324
G01 X-5.30688 Y-4.27085
G01 X-5.30946 Y-4.26895
G01 X-5.31219 Y-4.26728
G01 X-5.31506 Y-4.26585
G01 X-5.31804 Y-4.26467
G01 X-5.32110 Y-4.26375
G01 X-5.32424 Y-4.26309
G01 X-5.32781 Y-4.26268
G01 X-5.33181 Y-4.26263
G01 X-5.33540 Y-4.26295
G01 X-5.33894 Y-4.26361
G01 X-5.34278 Y-4.26474
G01 X-5.34648 Y-4.26627
G01 X-5.34965 Y-4.26798
G01 X-5.35296 Y-4.27023
G01 X-5.35601 Y-4.27282
G01 X-5.35876 Y-4.27572
G01 X-5.36097 Y-4.27857
G01 X-5.36289 Y-4.28162
G01 X-5.36466 Y-4.28520
G01 X-5.36593 Y-4.28857
G01 X-5.36694 Y-4.29244
G01 X-5.36754 Y-4.29640
G01 X-5.36772 Y-4.30000
G01 X-5.36761 Y-4.30280
G01 X-5.36730 Y-4.30558
G01 X-5.36677 Y-4.30834
G01 X-5.36605 Y-4.31104
G01 X-5.36512 Y-4.31369
G01 X-5.36400 Y-4.31625
G01 X-5.36269 Y-4.31873
G01 X-5.36120 Y-4.32110
G01 X-5.35953 Y-4.32335
G01 X-5.35770 Y-4.32547
G01 X-5.35572 Y-4.32745
G01 X-5.35359 Y-4.32928
G01 X-5.35133 Y-4.33094
G01 X-5.34896 Y-4.33242
G01 X-5.34648 Y-4.33373
G01 X-5.34391 Y-4.33484
G01 X-5.33894 Y-4.33639
G01 X-5.33619 Y-4.33694
G01 X-5.33341 Y-4.33727
G01 X-5.33061 Y-4.33740
G01 X-5.32781 Y-4.33732
G01 X-5.32266 Y-4.33661
G01 X-5.31766 Y-4.33520
G01 X-5.31506 Y-4.33415
G01 X-5.31255 Y-4.33291
G01 X-5.31013 Y-4.33149
G01 X-5.30783 Y-4.32989
G01 X-5.30385 Y-4.32643
G01 X-5.25697 Y-4.34354
G01 X-5.25509 Y-4.34409
G01 X-5.25275 Y-4.34445
G01 X-5.02458 Y-4.34449
G01 X-5.02281 Y-4.34677
G01 X-5.02095 Y-4.34872
G01 X-5.01892 Y-4.35047
G01 X-5.01672 Y-4.35202
G01 X-5.01438 Y-4.35334
G01 X-5.01193 Y-4.35444
G01 X-5.00938 Y-4.35528
G01 X-5.00676 Y-4.35588
G01 X-5.00208 Y-4.35630
G01 X-4.95754 Y-4.35628
G01 X-4.95509 Y-4.35607
G01 X-4.95266 Y-4.35564
G01 X-4.95028 Y-4.35500
G01 X-4.94777 Y-4.35405
G01 X-4.94555 Y-4.35298
G01 X-4.94344 Y-4.35171
G01 X-4.94145 Y-4.35026
G01 X-4.93943 Y-4.34848
G01 X-4.93760 Y-4.34652
G01 X-4.93610 Y-4.34456
G01 X-4.93477 Y-4.34249
G01 X-4.93364 Y-4.34030
G01 X-4.93271 Y-4.33802
G01 X-4.93199 Y-4.33567
G01 X-4.93144 Y-4.33303
G01 X-4.93116 Y-4.33059
G01 X-4.93111 Y-4.32790
G04 P0 ( dwell for no time -- G64 should not smooth over this point )
G00 Z0.08000 ( retract )

G00 X-4.93113 Y-4.16997 ( rapid move to begin. )
G01 F180.00000
( Mill infeed pass 1/1 )
G01 Z-0.04000
G04 P0 ( dwell for no time -- G64 should not smooth over this point )
G01 F360.00000
G01 X-4.93113 Y-4.16997
G01 X-4.93146 Y-4.16685
G01 X-4.93213 Y-4.16379
G01 X-4.93315 Y-4.16083
G01 X-4.93450 Y-4.15800
G01 X-4.93616 Y-4.15534
G01 X-4.93812 Y-4.15289
G01 X-4.94033 Y-4.15068
G01 X-4.94279 Y-4.14873
G01 X-4.94545 Y-4.14707
G01 X-4.94849 Y-4.14565
G01 X-4.95146 Y-4.14466
G01 X-4.95453 Y-4.14401
G01 X-4.95765 Y-4.14372
G01 X-5.00219 Y-4.14370
G01 X-5.00665 Y-4.14410
G01 X-5.00949 Y-4.14475
G01 X-5.01203 Y-4.14560
G01 X-5.01448 Y-4.14671
G01 X-5.01682 Y-4.14804
G01 X-5.01901 Y-4.14960
G01 X-5.02103 Y-4.15136
G01 X-5.02288 Y-4.15331
G01 X-5.02458 Y-4.15551
G01 X-5.61659 Y-4.15551
G01 X-5.86456 Y-3.90754
G01 X-5.86465 Y-3.84838
G01 X-5.86499 Y-3.84638
G01 X-5.86544 Y-3.84483
G01 X-5.86681 Y-3.84189
G01 X-5.86876 Y-3.83930
G01 X-5.87119 Y-3.83716
G01 X-5.87291 Y-3.83610
G01 X-5.87514 Y-3.83512
G01 X-5.87749 Y-3.83451
G01 X-5.87991 Y-3.83426
G01 X-6.01172 Y-3.83425
G01 X-6.01362 Y-3.83208
G01 X-6.01600 Y-3.82994
G01 X-6.01863 Y-3.82811
G01 X-6.02111 Y-3.82679
G01 X-6.02410 Y-3.82563
G01 X-6.02681 Y-3.82492
G01 X-6.02999 Y-3.82448
G01 X-6.03279 Y-3.82443
G01 X-6.03677 Y-3.82488
G01 X-6.04063 Y-3.82595
G01 X-6.04428 Y-3.82761
G01 X-6.04762 Y-3.82981
G01 X-6.05058 Y-3.83252
G01 X-6.05308 Y-3.83565
G01 X-6.05506 Y-3.83913
G01 X-6.05647 Y-3.84288
G01 X-6.05710 Y-3.84561
G01 X-6.05740 Y-3.84800
G01 X-6.05747 Y-3.85080
G01 X-6.05723 Y-3.85360
G01 X-6.05668 Y-3.85635
G01 X-6.05584 Y-3.85902
G01 X-6.05470 Y-3.86159
G01 X-6.05330 Y-3.86402
G01 X-6.05163 Y-3.86628
G01 X-6.04973 Y-3.86834
G01 X-6.04793 Y-3.86993
G01 X-6.04566 Y-3.87157
G01 X-6.04321 Y-3.87295
G01 X-6.04063 Y-3.87405
G01 X-6.03795 Y-3.87486
G01 X-6.03558 Y-3.87532
G01 X-6.03239 Y-3.87559
G01 X-6.02879 Y-3.87540
G01 X-6.02564 Y-3.87481
G01 X-6.02221 Y-3.87369
G01 X-6.01933 Y-3.87229
G01 X-6.01632 Y-3.87031
G01 X-6.01390 Y-3.86820
G01 X-6.01172 Y-3.86575
G01 X-5.89606 Y-3.86575
G01 X-5.89606 Y-3.91394
G01 X-5.90068 Y-3.91633
G01 X-5.90494 Y-3.91931
G01 X-5.90877 Y-3.92282
G01 X-5.91186 Y-3.92648
G01 X-5.91469 Y-3.93085
G01 X-5.91676 Y-3.93517
G01 X-5.91830 Y-3.93972
G01 X-5.91932 Y-3.94481
G01 X-5.91965 Y-3.94880
G01 X-5.91953 Y-3.95320
G01 X-5.91901 Y-3.95716
G01 X-5.91808 Y-3.96105
G01 X-5.91676 Y-3.96483
G01 X-5.91488 Y-3.96880
G01 X-5.91279 Y-3.97221
G01 X-5.91037 Y-3.97539
G01 X-5.90706 Y-3.97886
G01 X-5.90367 Y-3.98167
G01 X-5.89964 Y-3.98428
G01 X-5.89533 Y-3.98637
G01 X-5.89117 Y-3.98782
G01 X-5.88649 Y-3.98886
G01 X-5.88171 Y-3.98933
G01 X-5.87692 Y-3.98920
G01 X-5.87256 Y-3.98858
G01 X-5.86793 Y-3.98735
G01 X-5.86347 Y-3.98556
G01 X-5.85927 Y-3.98325
G01 X-5.85569 Y-3.98069
G01 X-5.85214 Y-3.97747
G01 X-5.84900 Y-3.97383
G01 X-5.84651 Y-3.97014
G01 X-5.63425 Y-4.18239
G01 X-5.63271 Y-4.18375
G01 X-5.63135 Y-4.18469
G01 X-5.62952 Y-4.18565
G01 X-5.62759 Y-4.18636
G01 X-5.62558 Y-4.18682
G01 X-5.62312 Y-4.18701
G01 X-5.02458 Y-4.18701
G01 X-5.02281 Y-4.18929
G01 X-5.02095 Y-4.19123
G01 X-5.01892 Y-4.19299
G01 X-5.01672 Y-4.19454
G01 X-5.01438 Y-4.19586
G01 X-5.01193 Y-4.19695
G01 X-5.00938 Y-4.19780
G01 X-5.00676 Y-4.19840
G01 X-5.00230 Y-4.19882
G01 X-4.95844 Y-4.19882
G01 X-4.95420 Y-4.19846
G01 X-4.94986 Y-4.19738
G01 X-4.94594 Y-4.19571
G01 X-4.94216 Y-4.19333
G01 X-4.93896 Y-4.19053
G01 X-4.93610 Y-4.18708
G01 X-4.93393 Y-4.18342
G01 X-4.93229 Y-4.17926
G01 X-4.93155 Y-4.17622
G01 X-4.93116 Y-4.17311
G01 X-4.93113 Y-4.16997
G04 P0 ( dwell for no time -- G64 should not smooth over this point )
G00 Z0.08000 ( retract )

G00 X-4.79097 Y-3.95040 ( rapid move to begin. )
G01 F180.00000
( Mill infeed pass 1/1 )
G01 Z-0.04000
G04 P0 ( dwell for no time -- G64 should not smooth over this point )
G01 F360.00000
G01 X-4.79097 Y-3.95040
G01 X-4.79121 Y-3.95439
G01 X-4.79177 Y-3.95795
G01 X-4.79278 Y-3.96182
G01 X-4.79402 Y-3.96520
G01 X-4.79575 Y-3.96880
G01 X-4.79761 Y-3.97188
G01 X-4.80000 Y-3.97509
G01 X-4.80242 Y-3.97775
G01 X-4.80507 Y-3.98019
G01 X-4.80827 Y-3.98259
G01 X-4.81134 Y-3.98447
G01 X-4.81481 Y-3.98617
G01 X-4.81490 Y-4.18183
G01 X-4.81534 Y-4.18422
G01 X-4.81615 Y-4.18652
G01 X-4.81731 Y-4.18865
G01 X-4.81907 Y-4.19088
G01 X-4.88914 Y-4.26096
G01 X-4.89099 Y-4.26254
G01 X-4.89306 Y-4.26381
G01 X-4.89609 Y-4.26497
G01 X-4.89929 Y-4.26548
G01 X-4.93587 Y-4.26550
G01 X-4.93775 Y-4.26795
G01 X-4.93976 Y-4.27005
G01 X-4.94198 Y-4.27193
G01 X-4.94438 Y-4.27357
G01 X-4.94695 Y-4.27495
G01 X-4.94965 Y-4.27604
G01 X-4.95244 Y-4.27685
G01 X-4.95531 Y-4.27735
G01 X-4.95866 Y-4.27756
G01 X-5.00208 Y-4.27756
G01 X-5.00499 Y-4.27739
G01 X-5.00916 Y-4.27660
G01 X-5.01317 Y-4.27518
G01 X-5.01672 Y-4.27328
G01 X-5.02013 Y-4.27073
G01 X-5.02310 Y-4.26769
G01 X-5.02557 Y-4.26423
G01 X-5.02748 Y-4.26043
G01 X-5.02878 Y-4.25638
G01 X-5.02944 Y-4.25218
G01 X-5.02945 Y-4.24793
G01 X-5.02880 Y-4.24373
G01 X-5.02752 Y-4.23967
G01 X-5.02563 Y-4.23587
G01 X-5.02331 Y-4.23257
G01 X-5.02038 Y-4.22949
G01 X-5.01700 Y-4.22690
G01 X-5.01408 Y-4.22525
G01 X-5.01077 Y-4.22388
G01 X-5.00753 Y-4.22301
G01 X-5.00398 Y-4.22251
G01 X-4.95676 Y-4.22251
G01 X-4.95365 Y-4.22290
G01 X-4.95060 Y-4.22364
G01 X-4.94766 Y-4.22473
G01 X-4.94486 Y-4.22614
G01 X-4.94224 Y-4.22786
G01 X-4.93984 Y-4.22987
G01 X-4.93767 Y-4.23214
G01 X-4.93587 Y-4.23450
G01 X-4.90652 Y-4.23450
G01 X-4.84581 Y-4.17379
G01 X-4.84581 Y-3.98617
G01 X-4.84929 Y-3.98447
G01 X-4.85236 Y-3.98259
G01 X-4.85556 Y-3.98019
G01 X-4.85821 Y-3.97775
G01 X-4.86063 Y-3.97509
G01 X-4.86302 Y-3.97188
G01 X-4.86488 Y-3.96880
G01 X-4.86661 Y-3.96520
G01 X-4.86785 Y-3.96182
G01 X-4.86885 Y-3.95795
G01 X-4.86942 Y-3.95439
G01 X-4.86966 Y-3.95040
G01 X-4.86953 Y-3.94680
G01 X-4.86901 Y-3.94284
G01 X-4.86808 Y-3.93895
G01 X-4.86685 Y-3.93539
G01 X-4.93673 Y-3.86550
G01 X-4.95472 Y-3.86550
G01 X-4.95472 Y-3.87559
G01 X-5.00590 Y-3.87559
G01 X-5.00590 Y-3.82441
G01 X-4.95472 Y-3.82441
G01 X-4.95472 Y-3.83450
G01 X-4.92869 Y-3.83458
G01 X-4.92670 Y-3.83493
G01 X-4.92438 Y-3.83568
G01 X-4.92256 Y-3.83658
G01 X-4.92056 Y-3.83795
G01 X-4.84493 Y-3.91346
G01 X-4.84117 Y-3.91218
G01 X-4.83728 Y-3.91127
G01 X-4.83331 Y-3.91076
G01 X-4.82971 Y-3.91065
G01 X-4.82572 Y-3.91092
G01 X-4.82178 Y-3.91159
G01 X-4.81793 Y-3.91265
G01 X-4.81457 Y-3.91394
G01 X-4.81099 Y-3.91572
G01 X-4.80761 Y-3.91786
G01 X-4.80477 Y-3.92007
G01 X-4.80186 Y-3.92282
G01 X-4.79925 Y-3.92585
G01 X-4.79717 Y-3.92879
G01 X-4.79537 Y-3.93190
G01 X-4.79372 Y-3.93554
G01 X-4.79255 Y-3.93895
G01 X-4.79162 Y-3.94284
G01 X-4.79109 Y-3.94680
G01 X-4.79097 Y-3.95040
G04 P0 ( dwell for no time -- G64 should not smooth over this point )
G00 Z0.08000 ( retract )

G00 X-4.79096 Y-3.55000 ( rapid move to begin. )
G01 F180.00000
( Mill infeed pass 1/1 )
G01 Z-0.04000
G04 P0 ( dwell for no time -- G64 should not smooth over this point )
G01 F360.00000
G01 X-4.79096 Y-3.55000
G01 X-4.79113 Y-3.55360
G01 X-4.79162 Y-3.55716
G01 X-4.79244 Y-3.56067
G01 X-4.79357 Y-3.56408
G01 X-4.79501 Y-3.56738
G01 X-4.79696 Y-3.57087
G01 X-4.79900 Y-3.57383
G01 X-4.80131 Y-3.57660
G01 X-4.80387 Y-3.57913
G01 X-4.80664 Y-3.58143
G01 X-4.80961 Y-3.58346
G01 X-4.81311 Y-3.58539
G01 X-4.81642 Y-3.58681
G01 X-4.81984 Y-3.58793
G01 X-4.82335 Y-3.58873
G01 X-4.82692 Y-3.58920
G01 X-4.83011 Y-3.58935
G01 X-4.83331 Y-3.58923
G01 X-4.83649 Y-3.58886
G01 X-4.83924 Y-3.58832
G01 X-4.84232 Y-3.58747
G01 X-4.84496 Y-3.58652
G01 X-4.84752 Y-3.58539
G01 X-4.85033 Y-3.58388
G01 X-4.85302 Y-3.58214
G01 X-4.85556 Y-3.58019
G01 X-4.85793 Y-3.57804
G01 X-4.85985 Y-3.57600
G01 X-4.86186 Y-3.57352
G01 X-4.86346 Y-3.57121
G01 X-4.86507 Y-3.56845
G01 X-4.86637 Y-3.56575
G01 X-5.19425 Y-3.56575
G01 X-5.19556 Y-3.56845
G01 X-5.19717 Y-3.57121
G01 X-5.19900 Y-3.57383
G01 X-5.20104 Y-3.57630
G01 X-5.20328 Y-3.57859
G01 X-5.20569 Y-3.58069
G01 X-5.20827 Y-3.58259
G01 X-5.21099 Y-3.58428
G01 X-5.21384 Y-3.58573
G01 X-5.21679 Y-3.58695
G01 X-5.21984 Y-3.58793
G01 X-5.22296 Y-3.58866
G01 X-5.22612 Y-3.58913
G01 X-5.22931 Y-3.58934
G01 X-5.23251 Y-3.58929
G01 X-5.23570 Y-3.58898
G01 X-5.24001 Y-3.58813
G01 X-5.24458 Y-3.58667
G01 X-5.24859 Y-3.58485
G01 X-5.25236 Y-3.58259
G01 X-5.25586 Y-3.57993
G01 X-5.25904 Y-3.57689
G01 X-5.26186 Y-3.57352
G01 X-5.26429 Y-3.56985
G01 X-5.26629 Y-3.56593
G01 X-5.26785 Y-3.56182
G01 X-5.26893 Y-3.55755
G01 X-5.26956 Y-3.55280
G01 X-5.26963 Y-3.54840
G01 X-5.26921 Y-3.54402
G01 X-5.26830 Y-3.53972
G01 X-5.26685 Y-3.53538
G01 X-5.38323 Y-3.41900
G01 X-5.72739 Y-3.41900
G01 X-5.84378 Y-3.53539
G01 X-5.84244 Y-3.53933
G01 X-5.84148 Y-3.54363
G01 X-5.84101 Y-3.54800
G01 X-5.84102 Y-3.55204
G01 X-5.59470 Y-3.67520
G01 X-5.51141 Y-3.67520
G01 X-5.51141 Y-3.81300
G01 X-5.64921 Y-3.81300
G01 X-5.64921 Y-3.68316
G01 X-5.85510 Y-3.58021
G01 X-5.85893 Y-3.58303
G01 X-5.86275 Y-3.58521
G01 X-5.86717 Y-3.58709
G01 X-5.87139 Y-3.58832
G01 X-5.87612 Y-3.58913
G01 X-5.88051 Y-3.58935
G01 X-5.88490 Y-3.58908
G01 X-5.88924 Y-3.58832
G01 X-5.89346 Y-3.58709
G01 X-5.89787 Y-3.58521
G01 X-5.90203 Y-3.58282
G01 X-5.90556 Y-3.58019
G01 X-5.90877 Y-3.57718
G01 X-5.91186 Y-3.57352
G01 X-5.91429 Y-3.56985
G01 X-5.91637 Y-3.56575
G01 X-6.24425 Y-3.56575
G01 X-6.24556 Y-3.56845
G01 X-6.24717 Y-3.57121
G01 X-6.24876 Y-3.57352
G01 X-6.25078 Y-3.57600
G01 X-6.25270 Y-3.57804
G01 X-6.25507 Y-3.58019
G01 X-6.25761 Y-3.58214
G01 X-6.25995 Y-3.58367
G01 X-6.26240 Y-3.58503
G01 X-6.26530 Y-3.58637
G01 X-6.26793 Y-3.58735
G01 X-6.27100 Y-3.58823
G01 X-6.27374 Y-3.58880
G01 X-6.27692 Y-3.58920
G01 X-6.27971 Y-3.58934
G01 X-6.28291 Y-3.58926
G01 X-6.28649 Y-3.58886
G01 X-6.29001 Y-3.58813
G01 X-6.29346 Y-3.58709
G01 X-6.29716 Y-3.58556
G01 X-6.30033 Y-3.58388
G01 X-6.30367 Y-3.58167
G01 X-6.30647 Y-3.57940
G01 X-6.30904 Y-3.57689
G01 X-6.31138 Y-3.57415
G01 X-6.31346 Y-3.57121
G01 X-6.31526 Y-3.56810
G01 X-6.31691 Y-3.56446
G01 X-6.31808 Y-3.56105
G01 X-6.31893 Y-3.55755
G01 X-6.31950 Y-3.55360
G01 X-6.31966 Y-3.55000
G01 X-6.31950 Y-3.54640
G01 X-6.31893 Y-3.54244
G01 X-6.31808 Y-3.53895
G01 X-6.31691 Y-3.53554
G01 X-6.31526 Y-3.53190
G01 X-6.31346 Y-3.52879
G01 X-6.31138 Y-3.52585
G01 X-6.30877 Y-3.52282
G01 X-6.30586 Y-3.52007
G01 X-6.30302 Y-3.51786
G01 X-6.29964 Y-3.51572
G01 X-6.29643 Y-3.51410
G01 X-6.29270 Y-3.51265
G01 X-6.28924 Y-3.51167
G01 X-6.28530 Y-3.51097
G01 X-6.28171 Y-3.51067
G01 X-6.27891 Y-3.51067
G01 X-6.27572 Y-3.51092
G01 X-6.27256 Y-3.51142
G01 X-6.26984 Y-3.51207
G01 X-6.26717 Y-3.51291
G01 X-6.26420 Y-3.51410
G01 X-6.25927 Y-3.51675
G01 X-6.25477 Y-3.52007
G01 X-6.25242 Y-3.52225
G01 X-6.25052 Y-3.52430
G01 X-6.24876 Y-3.52648
G01 X-6.24696 Y-3.52913
G01 X-6.24556 Y-3.53155
G01 X-6.24425 Y-3.53425
G01 X-5.91637 Y-3.53425
G01 X-5.91469 Y-3.53085
G01 X-5.91279 Y-3.52779
G01 X-5.91037 Y-3.52460
G01 X-5.90793 Y-3.52196
G01 X-5.90494 Y-3.51931
G01 X-5.90203 Y-3.51718
G01 X-5.89859 Y-3.51515
G01 X-5.89533 Y-3.51363
G01 X-5.89156 Y-3.51229
G01 X-5.88806 Y-3.51142
G01 X-5.88411 Y-3.51083
G01 X-5.88051 Y-3.51065
G01 X-5.87692 Y-3.51080
G01 X-5.87296 Y-3.51134
G01 X-5.86945 Y-3.51218
G01 X-5.86570 Y-3.51346
G01 X-5.74448 Y-3.39226
G01 X-5.74259 Y-3.39073
G01 X-5.74049 Y-3.38951
G01 X-5.73822 Y-3.38864
G01 X-5.73624 Y-3.38819
G01 X-5.73381 Y-3.38800
G01 X-5.37681 Y-3.38800
G01 X-5.37399 Y-3.38826
G01 X-5.37088 Y-3.38918
G01 X-5.36837 Y-3.39050
G01 X-5.36614 Y-3.39226
G01 X-5.24493 Y-3.51346
G01 X-5.24117 Y-3.51218
G01 X-5.23767 Y-3.51134
G01 X-5.23371 Y-3.51080
G01 X-5.23011 Y-3.51065
G01 X-5.22652 Y-3.51083
G01 X-5.22256 Y-3.51142
G01 X-5.21907 Y-3.51229
G01 X-5.21530 Y-3.51363
G01 X-5.21204 Y-3.51515
G01 X-5.20860 Y-3.51718
G01 X-5.20569 Y-3.51931
G01 X-5.20270 Y-3.52196
G01 X-5.20026 Y-3.52460
G01 X-5.19783 Y-3.52779
G01 X-5.19594 Y-3.53085
G01 X-5.19425 Y-3.53425
G01 X-4.86637 Y-3.53425
G01 X-4.86507 Y-3.53155
G01 X-4.86367 Y-3.52913
G01 X-4.86186 Y-3.52648
G01 X-4.86011 Y-3.52430
G01 X-4.85821 Y-3.52225
G01 X-4.85586 Y-3.52007
G01 X-4.85136 Y-3.51675
G01 X-4.84643 Y-3.51410
G01 X-4.84346 Y-3.51291
G01 X-4.84079 Y-3.51207
G01 X-4.83806 Y-3.51142
G01 X-4.83490 Y-3.51092
G01 X-4.83171 Y-3.51067
G01 X-4.82891 Y-3.51067
G01 X-4.82533 Y-3.51097
G01 X-4.82139 Y-3.51167
G01 X-4.81793 Y-3.51265
G01 X-4.81420 Y-3.51410
G01 X-4.81099 Y-3.51572
G01 X-4.80761 Y-3.51786
G01 X-4.80477 Y-3.52007
G01 X-4.80186 Y-3.52282
G01 X-4.79925 Y-3.52585
G01 X-4.79717 Y-3.52879
G01 X-4.79537 Y-3.53190
G01 X-4.79372 Y-3.53554
G01 X-4.79255 Y-3.53895
G01 X-4.79170 Y-3.54244
G01 X-4.79113 Y-3.54640
G01 X-4.79096 Y-3.55000
G04 P0 ( dwell for no time -- G64 should not smooth over this point )
G00 Z0.08000 ( retract )

G00 X-5.05319 Y-3.85140 ( rapid move to begin. )
G01 F180.00000
( Mill infeed pass 1/1 )
G01 Z-0.04000
G04 P0 ( dwell for no time -- G64 should not smooth over this point )
G01 F360.00000
G01 X-5.05319 Y-3.85140
G01 X-5.05319 Y-3.84860
G01 X-5.05364 Y-3.84502
G01 X-5.05446 Y-3.84192
G01 X-5.05566 Y-3.83895
G01 X-5.05744 Y-3.83581
G01 X-5.05938 Y-3.83326
G01 X-5.06193 Y-3.83071
G01 X-5.06447 Y-3.82876
G01 X-5.06724 Y-3.82714
G01 X-5.07019 Y-3.82588
G01 X-5.07327 Y-3.82500
G01 X-5.07684 Y-3.82448
G01 X-5.08004 Y-3.82444
G01 X-5.08362 Y-3.82488
G01 X-5.08672 Y-3.82569
G01 X-5.08970 Y-3.82687
G01 X-5.09284 Y-3.82864
G01 X-5.09570 Y-3.83084
G01 X-5.09823 Y-3.83341
G01 X-5.10037 Y-3.83632
G01 X-5.10207 Y-3.83949
G01 X-5.10332 Y-3.84288
G01 X-5.10408 Y-3.84640
G01 X-5.10433 Y-3.85000
G01 X-5.10410 Y-3.85344
G01 X-5.18516 Y-3.93450
G01 X-5.19415 Y-3.93450
G01 X-5.19556 Y-3.93155
G01 X-5.19717 Y-3.92879
G01 X-5.19925 Y-3.92585
G01 X-5.20131 Y-3.92340
G01 X-5.20357 Y-3.92113
G01 X-5.20632 Y-3.91881
G01 X-5.20927 Y-3.91675
G01 X-5.21204 Y-3.91515
G01 X-5.21604 Y-3.91333
G01 X-5.22061 Y-3.91186
G01 X-5.22533 Y-3.91097
G01 X-5.23011 Y-3.91065
G01 X-5.23570 Y-3.91102
G01 X-5.23885 Y-3.91159
G01 X-5.24156 Y-3.91229
G01 X-5.24458 Y-3.91333
G01 X-5.24716 Y-3.91444
G01 X-5.25203 Y-3.91718
G01 X-5.25462 Y-3.91906
G01 X-5.25676 Y-3.92086
G01 X-5.26063 Y-3.92491
G01 X-5.26388 Y-3.92946
G01 X-5.26526 Y-3.93190
G01 X-5.26648 Y-3.93450
G01 X-5.56969 Y-3.93450
G01 X-5.72624 Y-3.77795
G01 X-5.72777 Y-3.77661
G01 X-5.72945 Y-3.77549
G01 X-5.73165 Y-3.77444
G01 X-5.73358 Y-3.77384
G01 X-5.73518 Y-3.77354
G01 X-5.73720 Y-3.77341
G01 X-6.23081 Y-3.77343
G01 X-6.23362 Y-3.77384
G01 X-6.23593 Y-3.77459
G01 X-6.23844 Y-3.77591
G01 X-6.24067 Y-3.77766
G01 X-6.36612 Y-3.90311
G01 X-6.36794 Y-3.90529
G01 X-6.36932 Y-3.90777
G01 X-6.37024 Y-3.91045
G01 X-6.37064 Y-3.91326
G01 X-6.37066 Y-3.98633
G01 X-6.37047 Y-3.98835
G01 X-6.36991 Y-3.99072
G01 X-6.36915 Y-3.99260
G01 X-6.36794 Y-3.99471
G01 X-6.36612 Y-3.99689
G01 X-6.18020 Y-4.18278
G01 X-6.17827 Y-4.18426
G01 X-6.17576 Y-4.18558
G01 X-6.17345 Y-4.18633
G01 X-6.17105 Y-4.18671
G01 X-6.12475 Y-4.18676
G01 X-6.12295 Y-4.18912
G01 X-6.12095 Y-4.19123
G01 X-6.11874 Y-4.19313
G01 X-6.11634 Y-4.19477
G01 X-6.11378 Y-4.19616
G01 X-6.11109 Y-4.19726
G01 X-6.10829 Y-4.19808
G01 X-6.10543 Y-4.19860
G01 X-6.10208 Y-4.19882
G01 X-6.05732 Y-4.19879
G01 X-6.05310 Y-4.19825
G01 X-6.04922 Y-4.19715
G01 X-6.04535 Y-4.19539
G01 X-6.04198 Y-4.19319
G01 X-6.03880 Y-4.19037
G01 X-6.03610 Y-4.18708
G01 X-6.03403 Y-4.18363
G01 X-6.03242 Y-4.17969
G01 X-6.03144 Y-4.17555
G01 X-6.03110 Y-4.17131
G01 X-6.03139 Y-4.16730
G01 X-6.03232 Y-4.16315
G01 X-6.03388 Y-4.15919
G01 X-6.03603 Y-4.15553
G01 X-6.03857 Y-4.15240
G01 X-6.04171 Y-4.14953
G01 X-6.04486 Y-4.14740
G01 X-6.04849 Y-4.14565
G01 X-6.05233 Y-4.14444
G01 X-6.05609 Y-4.14382
G01 X-6.05866 Y-4.14370
G01 X-6.10331 Y-4.14373
G01 X-6.10665 Y-4.14410
G01 X-6.10970 Y-4.14481
G01 X-6.11266 Y-4.14586
G01 X-6.11547 Y-4.14724
G01 X-6.11811 Y-4.14892
G01 X-6.12054 Y-4.15090
G01 X-6.12274 Y-4.15314
G01 X-6.12475 Y-4.15576
G01 X-6.16341 Y-4.15576
G01 X-6.33966 Y-3.97951
G01 X-6.33966 Y-3.92049
G01 X-6.22358 Y-3.80441
G01 X-5.74362 Y-3.80441
G01 X-5.58707 Y-3.96096
G01 X-5.58555 Y-3.96230
G01 X-5.58421 Y-3.96321
G01 X-5.58129 Y-3.96461
G01 X-5.57854 Y-3.96531
G01 X-5.57611 Y-3.96550
G01 X-5.26648 Y-3.96550
G01 X-5.26409 Y-3.97019
G01 X-5.26088 Y-3.97478
G01 X-5.25706 Y-3.97886
G01 X-5.25269 Y-3.98237
G01 X-5.24787 Y-3.98521
G01 X-5.24270 Y-3.98735
G01 X-5.23728 Y-3.98873
G01 X-5.23171 Y-3.98933
G01 X-5.22891 Y-3.98933
G01 X-5.22572 Y-3.98908
G01 X-5.22256 Y-3.98858
G01 X-5.21984 Y-3.98793
G01 X-5.21717 Y-3.98709
G01 X-5.21420 Y-3.98590
G01 X-5.20927 Y-3.98325
G01 X-5.20664 Y-3.98143
G01 X-5.20446 Y-3.97967
G01 X-5.20242 Y-3.97775
G01 X-5.20026 Y-3.97539
G01 X-5.19853 Y-3.97319
G01 X-5.19675 Y-3.97053
G01 X-5.19537 Y-3.96809
G01 X-5.19415 Y-3.96550
G01 X-5.17874 Y-3.96550
G01 X-5.17672 Y-3.96537
G01 X-5.17473 Y-3.96497
G01 X-5.17281 Y-3.96432
G01 X-5.17099 Y-3.96342
G01 X-5.16930 Y-3.96230
G01 X-5.16778 Y-3.96096
G01 X-5.08218 Y-3.87536
G01 X-5.07924 Y-3.87559
G01 X-5.07644 Y-3.87549
G01 X-5.07327 Y-3.87500
G01 X-5.07056 Y-3.87425
G01 X-5.06796 Y-3.87321
G01 X-5.06548 Y-3.87189
G01 X-5.06285 Y-3.87006
G01 X-5.06075 Y-3.86820
G01 X-5.05912 Y-3.86643
G01 X-5.05744 Y-3.86419
G01 X-5.05602 Y-3.86177
G01 X-5.05486 Y-3.85921
G01 X-5.05410 Y-3.85693
G01 X-5.05349 Y-3.85419
G01 X-5.05319 Y-3.85140
G04 P0 ( dwell for no time -- G64 should not smooth over this point )
G00 Z0.08000 ( retract )

G00 X-5.69291 Y-4.29980 ( rapid move to begin. )
G01 F180.00000
( Mill infeed pass 1/1 )
G01 Z-0.04000
G04 P0 ( dwell for no time -- G64 should not smooth over this point )
G01 F360.00000
G01 X-5.69291 Y-4.29980
G01 X-5.69315 Y-4.29580
G01 X-5.69381 Y-4.29186
G01 X-5.69476 Y-4.28838
G01 X-5.69621 Y-4.28465
G01 X-5.69784 Y-4.28144
G01 X-5.70001 Y-4.27808
G01 X-5.70226 Y-4.27527
G01 X-5.70506 Y-4.27241
G01 X-5.70815 Y-4.26987
G01 X-5.71115 Y-4.26788
G01 X-5.71433 Y-4.26619
G01 X-5.71804 Y-4.26467
G01 X-5.72149 Y-4.26365
G01 X-5.72542 Y-4.26292
G01 X-5.72901 Y-4.26262
G01 X-5.73301 Y-4.26270
G01 X-5.73738 Y-4.26327
G01 X-5.74126 Y-4.26424
G01 X-5.74539 Y-4.26577
G01 X-5.74930 Y-4.26778
G01 X-5.75296 Y-4.27023
G01 X-5.75630 Y-4.27310
G01 X-5.75928 Y-4.27633
G01 X-5.76164 Y-4.27956
G01 X-5.76382 Y-4.28339
G01 X-5.76541 Y-4.28706
G01 X-5.76668 Y-4.29127
G01 X-5.76746 Y-4.29561
G01 X-5.76772 Y-4.30000
G01 X-5.76750 Y-4.30400
G01 X-5.76686 Y-4.30795
G01 X-5.76544 Y-4.31285
G01 X-5.76558 Y-4.31299
G01 X-6.03605 Y-4.31299
G01 X-6.03782 Y-4.31071
G01 X-6.03967 Y-4.30876
G01 X-6.04171 Y-4.30701
G01 X-6.04391 Y-4.30546
G01 X-6.04624 Y-4.30414
G01 X-6.04870 Y-4.30304
G01 X-6.05125 Y-4.30220
G01 X-6.05387 Y-4.30160
G01 X-6.05855 Y-4.30118
G01 X-6.10331 Y-4.30121
G01 X-6.10599 Y-4.30147
G01 X-6.10862 Y-4.30200
G01 X-6.11119 Y-4.30277
G01 X-6.11388 Y-4.30389
G01 X-6.11625 Y-4.30517
G01 X-6.11865 Y-4.30681
G01 X-6.12071 Y-4.30853
G01 X-6.12259 Y-4.31046
G01 X-6.12427 Y-4.31255
G01 X-6.12585 Y-4.31499
G01 X-6.12708 Y-4.31738
G01 X-6.12806 Y-4.31988
G01 X-6.12880 Y-4.32247
G01 X-6.12929 Y-4.32511
G01 X-6.12951 Y-4.32779
G01 X-6.12946 Y-4.33070
G01 X-6.12917 Y-4.33315
G01 X-6.12867 Y-4.33556
G01 X-6.12795 Y-4.33791
G01 X-6.12694 Y-4.34040
G01 X-6.12580 Y-4.34258
G01 X-6.12447 Y-4.34466
G01 X-6.12281 Y-4.34677
G01 X-6.12112 Y-4.34856
G01 X-6.11927 Y-4.35019
G01 X-6.11728 Y-4.35165
G01 X-6.11518 Y-4.35293
G01 X-6.11276 Y-4.35410
G01 X-6.11045 Y-4.35496
G01 X-6.10786 Y-4.35566
G01 X-6.10543 Y-4.35608
G01 X-6.10298 Y-4.35628
G01 X-6.05844 Y-4.35630
G01 X-6.05398 Y-4.35590
G01 X-6.05114 Y-4.35525
G01 X-6.04859 Y-4.35440
G01 X-6.04614 Y-4.35329
G01 X-6.04381 Y-4.35196
G01 X-6.04162 Y-4.35040
G01 X-6.03959 Y-4.34864
G01 X-6.03775 Y-4.34669
G01 X-6.03605 Y-4.34449
G01 X-5.75786 Y-4.34444
G01 X-5.75588 Y-4.34417
G01 X-5.75396 Y-4.34364
G01 X-5.75248 Y-4.34305
G01 X-5.75072 Y-4.34211
G01 X-5.74849 Y-4.34043
G01 X-5.74316 Y-4.33512
G01 X-5.73894 Y-4.33639
G01 X-5.73461 Y-4.33715
G01 X-5.73021 Y-4.33740
G01 X-5.72582 Y-4.33713
G01 X-5.72149 Y-4.33634
G01 X-5.71728 Y-4.33506
G01 X-5.71290 Y-4.33310
G01 X-5.70913 Y-4.33082
G01 X-5.70536 Y-4.32786
G01 X-5.70226 Y-4.32473
G01 X-5.69955 Y-4.32127
G01 X-5.69708 Y-4.31715
G01 X-5.69529 Y-4.31312
G01 X-5.69399 Y-4.30892
G01 X-5.69320 Y-4.30459
G01 X-5.69291 Y-4.29980
G04 P0 ( dwell for no time -- G64 should not smooth over this point )
G00 Z0.08000 ( retract )

G00 X-5.98010 Y-4.04130 ( rapid move to begin. )
G01 F180.00000
( Mill infeed pass 1/1 )
G01 Z-0.04000
G04 P0 ( dwell for no time -- G64 should not smooth over this point )
G01 F360.00000
G01 X-5.98010 Y-4.04130
G01 X-5.98012 Y-4.24631
G01 X-5.98044 Y-4.24872
G01 X-5.98113 Y-4.25105
G01 X-5.98218 Y-4.25325
G01 X-5.98355 Y-4.25525
G01 X-5.99035 Y-4.26204
G01 X-5.99235 Y-4.26342
G01 X-5.99493 Y-4.26461
G01 X-5.99728 Y-4.26524
G01 X-5.99970 Y-4.26549
G01 X-6.03587 Y-4.26550
G01 X-6.03775 Y-4.26795
G01 X-6.03976 Y-4.27005
G01 X-6.04198 Y-4.27193
G01 X-6.04438 Y-4.27357
G01 X-6.04695 Y-4.27495
G01 X-6.04965 Y-4.27604
G01 X-6.05244 Y-4.27685
G01 X-6.05531 Y-4.27735
G01 X-6.05866 Y-4.27756
G01 X-6.10298 Y-4.27754
G01 X-6.10676 Y-4.27714
G01 X-6.11066 Y-4.27615
G01 X-6.11438 Y-4.27460
G01 X-6.11784 Y-4.27253
G01 X-6.12095 Y-4.26998
G01 X-6.12352 Y-4.26717
G01 X-6.12580 Y-4.26384
G01 X-6.12756 Y-4.26022
G01 X-6.12856 Y-4.25725
G01 X-6.12917 Y-4.25441
G01 X-6.12949 Y-4.25151
G01 X-6.12949 Y-4.24860
G01 X-6.12919 Y-4.24571
G01 X-6.12853 Y-4.24264
G01 X-6.12760 Y-4.23988
G01 X-6.12639 Y-4.23723
G01 X-6.12478 Y-4.23454
G01 X-6.12303 Y-4.23222
G01 X-6.12103 Y-4.23010
G01 X-6.11865 Y-4.22806
G01 X-6.11605 Y-4.22631
G01 X-6.11348 Y-4.22496
G01 X-6.11077 Y-4.22388
G01 X-6.10797 Y-4.22310
G01 X-6.10510 Y-4.22262
G01 X-6.10219 Y-4.22244
G01 X-6.05855 Y-4.22244
G01 X-6.05542 Y-4.22263
G01 X-6.05255 Y-4.22313
G01 X-6.04975 Y-4.22392
G01 X-6.04685 Y-4.22510
G01 X-6.04429 Y-4.22649
G01 X-6.04189 Y-4.22813
G01 X-6.03967 Y-4.23002
G01 X-6.03767 Y-4.23214
G01 X-6.03587 Y-4.23450
G01 X-6.01110 Y-4.23450
G01 X-6.01110 Y-4.04772
G01 X-6.14236 Y-3.91634
G01 X-6.14374 Y-3.91434
G01 X-6.14463 Y-3.91252
G01 X-6.14539 Y-3.91021
G01 X-6.14577 Y-3.90781
G01 X-6.14581 Y-3.87559
G01 X-6.15590 Y-3.87559
G01 X-6.15590 Y-3.86550
G01 X-6.17389 Y-3.86550
G01 X-6.24378 Y-3.93539
G01 X-6.24266 Y-3.93857
G01 X-6.24177 Y-3.94205
G01 X-6.24121 Y-3.94561
G01 X-6.24098 Y-3.94880
G01 X-6.24101 Y-3.95200
G01 X-6.24136 Y-3.95558
G01 X-6.24203 Y-3.95912
G01 X-6.24303 Y-3.96258
G01 X-6.24433 Y-3.96593
G01 X-6.24575 Y-3.96880
G01 X-6.24739 Y-3.97155
G01 X-6.24950 Y-3.97447
G01 X-6.25186 Y-3.97718
G01 X-6.25446 Y-3.97967
G01 X-6.25696 Y-3.98167
G01 X-6.25995 Y-3.98367
G01 X-6.26384 Y-3.98573
G01 X-6.26793 Y-3.98735
G01 X-6.27217 Y-3.98850
G01 X-6.27652 Y-3.98917
G01 X-6.28091 Y-3.98935
G01 X-6.28530 Y-3.98903
G01 X-6.28924 Y-3.98832
G01 X-6.29346 Y-3.98709
G01 X-6.29752 Y-3.98539
G01 X-6.30136 Y-3.98325
G01 X-6.30494 Y-3.98069
G01 X-6.30821 Y-3.97775
G01 X-6.31113 Y-3.97447
G01 X-6.31346 Y-3.97121
G01 X-6.31562 Y-3.96738
G01 X-6.31734 Y-3.96333
G01 X-6.31830 Y-3.96028
G01 X-6.31893 Y-3.95755
G01 X-6.31942 Y-3.95439
G01 X-6.31963 Y-3.95160
G01 X-6.31965 Y-3.94880
G01 X-6.31942 Y-3.94561
G01 X-6.31893 Y-3.94245
G01 X-6.31830 Y-3.93972
G01 X-6.31734 Y-3.93667
G01 X-6.31629 Y-3.93407
G01 X-6.31488 Y-3.93120
G01 X-6.31186 Y-3.92648
G01 X-6.30985 Y-3.92400
G01 X-6.30586 Y-3.92007
G01 X-6.30170 Y-3.91696
G01 X-6.29716 Y-3.91444
G01 X-6.29232 Y-3.91253
G01 X-6.28688 Y-3.91120
G01 X-6.28171 Y-3.91067
G01 X-6.27612 Y-3.91087
G01 X-6.27100 Y-3.91177
G01 X-6.26570 Y-3.91346
G01 X-6.19007 Y-3.83795
G01 X-6.18806 Y-3.83658
G01 X-6.18625 Y-3.83568
G01 X-6.18393 Y-3.83493
G01 X-6.18193 Y-3.83458
G01 X-6.15590 Y-3.83450
G01 X-6.15590 Y-3.82441
G01 X-6.10472 Y-3.82441
G01 X-6.10472 Y-3.87559
G01 X-6.11481 Y-3.87559
G01 X-6.11481 Y-3.90017
G01 X-5.98464 Y-4.03034
G01 X-5.98356 Y-4.03155
G01 X-5.98239 Y-4.03320
G01 X-5.98099 Y-4.03613
G01 X-5.98036 Y-4.03848
G01 X-5.98010 Y-4.04130
( Piece #2, position [1;0] )

G04 P0 ( dwell for no time -- G64 should not smooth over this point )
G00 Z0.08000 ( retract )

G00 X-2.75895 Y-4.21762 ( rapid move to begin. )
G01 F180.00000
( Mill infeed pass 1/1 )
G01 Z-0.04000
G04 P0 ( dwell for no time -- G64 should not smooth over this point )
G01 F360.00000
G01 X-2.75895 Y-4.21762
G01 X-2.75908 Y-4.21964
G01 X-2.75959 Y-4.22202
G01 X-2.76013 Y-4.22355
G01 X-2.76102 Y-4.22537
G01 X-2.76215 Y-4.22706
G01 X-2.76349 Y-4.22858
G01 X-2.94466 Y-4.40976
G01 X-2.94619 Y-4.41109
G01 X-2.94823 Y-4.41242
G01 X-2.95084 Y-4.41354
G01 X-2.95320 Y-4.41411
G01 X-2.95563 Y-4.41430
G01 X-3.42949 Y-4.41421
G01 X-3.43188 Y-4.41377
G01 X-3.43417 Y-4.41296
G01 X-3.43631 Y-4.41180
G01 X-3.43824 Y-4.41032
G01 X-3.46726 Y-4.38133
G01 X-3.46930 Y-4.37881
G01 X-3.47029 Y-4.37704
G01 X-3.47104 Y-4.37516
G01 X-3.47154 Y-4.37319
G01 X-3.47178 Y-4.37118
G01 X-3.47180 Y-4.33937
G01 X-3.49370 Y-4.33937
G01 X-3.49370 Y-4.31550
G01 X-3.61890 Y-4.31550
G01 X-3.61890 Y-4.33937
G01 X-3.69370 Y-4.33937
G01 X-3.69370 Y-4.26063
G01 X-3.61890 Y-4.26063
G01 X-3.61890 Y-4.28450
G01 X-3.49370 Y-4.28450
G01 X-3.49370 Y-4.26063
G01 X-3.41890 Y-4.26063
G01 X-3.41890 Y-4.33937
G01 X-3.44080 Y-4.33937
G01 X-3.44080 Y-4.36395
G01 X-3.42145 Y-4.38330
G01 X-2.96205 Y-4.38330
G01 X-2.78995 Y-4.21120
G01 X-2.78995 Y-3.81713
G01 X-2.82343 Y-3.78365
G01 X-3.17925 Y-3.78365
G01 X-3.18127 Y-3.78352
G01 X-3.18326 Y-3.78312
G01 X-3.18518 Y-3.78247
G01 X-3.18700 Y-3.78157
G01 X-3.18868 Y-3.78045
G01 X-3.19021 Y-3.77911
G01 X-3.32782 Y-3.64150
G01 X-3.35240 Y-3.64150
G01 X-3.35240 Y-3.69490
G01 X-3.49020 Y-3.69490
G01 X-3.49020 Y-3.57902
G01 X-3.53740 Y-3.53182
G01 X-3.53740 Y-3.57680
G01 X-3.67520 Y-3.57680
G01 X-3.67520 Y-3.43900
G01 X-3.53740 Y-3.43900
G01 X-3.53740 Y-3.49253
G01 X-3.53500 Y-3.49304
G01 X-3.53273 Y-3.49391
G01 X-3.53062 Y-3.49513
G01 X-3.52873 Y-3.49666
G01 X-3.46828 Y-3.55710
G01 X-3.35240 Y-3.55710
G01 X-3.35240 Y-3.61050
G01 X-3.32018 Y-3.61055
G01 X-3.31778 Y-3.61093
G01 X-3.31547 Y-3.61168
G01 X-3.31330 Y-3.61278
G01 X-3.31164 Y-3.61395
G01 X-3.17283 Y-3.75265
G01 X-2.81701 Y-3.75265
G01 X-2.81499 Y-3.75278
G01 X-2.81261 Y-3.75329
G01 X-2.81071 Y-3.75399
G01 X-2.80857 Y-3.75515
G01 X-2.80664 Y-3.75663
G01 X-2.76349 Y-3.79975
G01 X-2.76215 Y-3.80127
G01 X-2.76083 Y-3.80332
G01 X-2.75971 Y-3.80592
G01 X-2.75914 Y-3.80829
G01 X-2.75895 Y-3.81071
G01 X-2.75895 Y-4.21762
G04 P0 ( dwell for no time -- G64 should not smooth over this point )
G00 Z0.08000 ( retract )

G00 X-2.95710 Y-4.32790 ( rapid move to begin. )
G01 F180.00000
( Mill infeed pass 1/1 )
G01 Z-0.04000
G04 P0 ( dwell for no time -- G64 should not smooth over this point )
G01 F360.00000
G01 X-2.95710 Y-4.32790
G01 X-2.95731 Y-4.32522
G01 X-2.95778 Y-4.32258
G01 X-2.95851 Y-4.31999
G01 X-2.95949 Y-4.31749
G01 X-2.96070 Y-4.31509
G01 X-2.96215 Y-4.31282
G01 X-2.96395 Y-4.31054
G01 X-2.96582 Y-4.30861
G01 X-2.96805 Y-4.30674
G01 X-2.97027 Y-4.30523
G01 X-2.97263 Y-4.30394
G01 X-2.97531 Y-4.30281
G01 X-2.97788 Y-4.30202
G01 X-2.98052 Y-4.30149
G01 X-2.98319 Y-4.30122
G01 X-3.02818 Y-4.30118
G01 X-3.03263 Y-4.30158
G01 X-3.03526 Y-4.30217
G01 X-3.03781 Y-4.30300
G01 X-3.04047 Y-4.30419
G01 X-3.04280 Y-4.30552
G01 X-3.04499 Y-4.30708
G01 X-3.04702 Y-4.30884
G01 X-3.04887 Y-4.31079
G01 X-3.05057 Y-4.31299
G01 X-3.27477 Y-4.31299
G01 X-3.31903 Y-4.29683
G01 X-3.31948 Y-4.29343
G01 X-3.32018 Y-4.29030
G01 X-3.32114 Y-4.28725
G01 X-3.32253 Y-4.28393
G01 X-3.32403 Y-4.28110
G01 X-3.32576 Y-4.27841
G01 X-3.32772 Y-4.27587
G01 X-3.33017 Y-4.27324
G01 X-3.33287 Y-4.27085
G01 X-3.33545 Y-4.26895
G01 X-3.33818 Y-4.26728
G01 X-3.34104 Y-4.26585
G01 X-3.34402 Y-4.26467
G01 X-3.34709 Y-4.26375
G01 X-3.35022 Y-4.26309
G01 X-3.35380 Y-4.26268
G01 X-3.35780 Y-4.26263
G01 X-3.36139 Y-4.26295
G01 X-3.36493 Y-4.26361
G01 X-3.36877 Y-4.26474
G01 X-3.37246 Y-4.26627
G01 X-3.37563 Y-4.26798
G01 X-3.37894 Y-4.27023
G01 X-3.38199 Y-4.27282
G01 X-3.38475 Y-4.27572
G01 X-3.38695 Y-4.27857
G01 X-3.38887 Y-4.28162
G01 X-3.39065 Y-4.28520
G01 X-3.39191 Y-4.28857
G01 X-3.39293 Y-4.29244
G01 X-3.39353 Y-4.29640
G01 X-3.39370 Y-4.30000
G01 X-3.39360 Y-4.30280
G01 X-3.39328 Y-4.30558
G01 X-3.39276 Y-4.30834
G01 X-3.39203 Y-4.31104
G01 X-3.39111 Y-4.31369
G01 X-3.38998 Y-4.31625
G01 X-3.38867 Y-4.31873
G01 X-3.38718 Y-4.32110
G01 X-3.38551 Y-4.32335
G01 X-3.38368 Y-4.32547
G01 X-3.38170 Y-4.32745
G01 X-3.37957 Y-4.32928
G01 X-3.37732 Y-4.33094
G01 X-3.37494 Y-4.33242
G01 X-3.37246 Y-4.33373
G01 X-3.36989 Y-4.33484
G01 X-3.36493 Y-4.33639
G01 X-3.36218 Y-4.33694
G01 X-3.35940 Y-4.33727
G01 X-3.35660 Y-4.33740
G01 X-3.35380 Y-4.33732
G01 X-3.34865 Y-4.33661
G01 X-3.34364 Y-4.33520
G01 X-3.34104 Y-4.33415
G01 X-3.33853 Y-4.33291
G01 X-3.33612 Y-4.33149
G01 X-3.33382 Y-4.32989
G01 X-3.32983 Y-4.32643
G01 X-3.28296 Y-4.34354
G01 X-3.28107 Y-4.34409
G01 X-3.27874 Y-4.34445
G01 X-3.05057 Y-4.34449
G01 X-3.04879 Y-4.34677
G01 X-3.04694 Y-4.34872
G01 X-3.04490 Y-4.35047
G01 X-3.04271 Y-4.35202
G01 X-3.04037 Y-4.35334
G01 X-3.03791 Y-4.35444
G01 X-3.03536 Y-4.35528
G01 X-3.03274 Y-4.35588
G01 X-3.02806 Y-4.35630
G01 X-2.98353 Y-4.35628
G01 X-2.98107 Y-4.35607
G01 X-2.97865 Y-4.35564
G01 X-2.97627 Y-4.35500
G01 X-2.97375 Y-4.35405
G01 X-2.97153 Y-4.35298
G01 X-2.96942 Y-4.35171
G01 X-2.96743 Y-4.35026
G01 X-2.96542 Y-4.34848
G01 X-2.96359 Y-4.34652
G01 X-2.96208 Y-4.34456
G01 X-2.96076 Y-4.34249
G01 X-2.95963 Y-4.34030
G01 X-2.95870 Y-4.33802
G01 X-2.95797 Y-4.33567
G01 X-2.95742 Y-4.33303
G01 X-2.95715 Y-4.33059
G01 X-2.95710 Y-4.32790
G04 P0 ( dwell for no time -- G64 should not smooth over this point )
G00 Z0.08000 ( retract )

G00 X-2.95712 Y-4.16997 ( rapid move to begin. )
G01 F180.00000
( Mill infeed pass 1/1 )
G01 Z-0.04000
G04 P0 ( dwell for no time -- G64 should not smooth over this point )
G01 F360.00000
G01 X-2.95712 Y-4.16997
G01 X-2.95744 Y-4.16685
G01 X-2.95812 Y-4.16379
G01 X-2.95914 Y-4.16083
G01 X-2.96049 Y-4.15800
G01 X-2.96215 Y-4.15534
G01 X-2.96410 Y-4.15289
G01 X-2.96632 Y-4.15068
G01 X-2.96877 Y-4.14873
G01 X-2.97144 Y-4.14707
G01 X-2.97448 Y-4.14565
G01 X-2.97745 Y-4.14466
G01 X-2.98052 Y-4.14401
G01 X-2.98364 Y-4.14372
G01 X-3.02818 Y-4.14370
G01 X-3.03263 Y-4.14410
G01 X-3.03547 Y-4.14475
G01 X-3.03802 Y-4.14560
G01 X-3.04047 Y-4.14671
G01 X-3.04280 Y-4.14804
G01 X-3.04499 Y-4.14960
G01 X-3.04702 Y-4.15136
G01 X-3.04887 Y-4.15331
G01 X-3.05057 Y-4.15551
G01 X-3.64258 Y-4.15551
G01 X-3.89055 Y-3.90754
G01 X-3.89063 Y-3.84838
G01 X-3.89097 Y-3.84638
G01 X-3.89142 Y-3.84483
G01 X-3.89280 Y-3.84189
G01 X-3.89474 Y-3.83930
G01 X-3.89717 Y-3.83716
G01 X-3.89890 Y-3.83610
G01 X-3.90112 Y-3.83512
G01 X-3.90348 Y-3.83451
G01 X-3.90589 Y-3.83426
G01 X-4.03770 Y-3.83425
G01 X-4.03960 Y-3.83208
G01 X-4.04199 Y-3.82994
G01 X-4.04462 Y-3.82811
G01 X-4.04709 Y-3.82679
G01 X-4.05008 Y-3.82563
G01 X-4.05280 Y-3.82492
G01 X-4.05597 Y-3.82448
G01 X-4.05878 Y-3.82443
G01 X-4.06276 Y-3.82488
G01 X-4.06662 Y-3.82595
G01 X-4.07026 Y-3.82761
G01 X-4.07360 Y-3.82981
G01 X-4.07656 Y-3.83252
G01 X-4.07906 Y-3.83565
G01 X-4.08104 Y-3.83913
G01 X-4.08245 Y-3.84288
G01 X-4.08309 Y-3.84561
G01 X-4.08339 Y-3.84800
G01 X-4.08345 Y-3.85080
G01 X-4.08321 Y-3.85360
G01 X-4.08266 Y-3.85635
G01 X-4.08182 Y-3.85902
G01 X-4.08069 Y-3.86159
G01 X-4.07928 Y-3.86402
G01 X-4.07762 Y-3.86628
G01 X-4.07572 Y-3.86834
G01 X-4.07392 Y-3.86993
G01 X-4.07164 Y-3.87157
G01 X-4.06920 Y-3.87295
G01 X-4.06662 Y-3.87405
G01 X-4.06393 Y-3.87486
G01 X-4.06157 Y-3.87532
G01 X-4.05837 Y-3.87559
G01 X-4.05477 Y-3.87540
G01 X-4.05162 Y-3.87481
G01 X-4.04820 Y-3.87369
G01 X-4.04531 Y-3.87229
G01 X-4.04230 Y-3.87031
G01 X-4.03989 Y-3.86820
G01 X-4.03770 Y-3.86575
G01 X-3.92205 Y-3.86575
G01 X-3.92205 Y-3.91394
G01 X-3.92666 Y-3.91633
G01 X-3.93092 Y-3.91931
G01 X-3.93475 Y-3.92282
G01 X-3.93785 Y-3.92648
G01 X-3.94067 Y-3.93085
G01 X-3.94275 Y-3.93517
G01 X-3.94428 Y-3.93972
G01 X-3.94531 Y-3.94481
G01 X-3.94563 Y-3.94880
G01 X-3.94552 Y-3.95320
G01 X-3.94499 Y-3.95716
G01 X-3.94407 Y-3.96105
G01 X-3.94275 Y-3.96483
G01 X-3.94087 Y-3.96880
G01 X-3.93878 Y-3.97221
G01 X-3.93636 Y-3.97539
G01 X-3.93304 Y-3.97886
G01 X-3.92965 Y-3.98167
G01 X-3.92563 Y-3.98428
G01 X-3.92131 Y-3.98637
G01 X-3.91716 Y-3.98782
G01 X-3.91247 Y-3.98886
G01 X-3.90770 Y-3.98933
G01 X-3.90290 Y-3.98920
G01 X-3.89855 Y-3.98858
G01 X-3.89391 Y-3.98735
G01 X-3.88946 Y-3.98556
G01 X-3.88525 Y-3.98325
G01 X-3.88168 Y-3.98069
G01 X-3.87812 Y-3.97747
G01 X-3.87499 Y-3.97383
G01 X-3.87249 Y-3.97014
G01 X-3.66024 Y-4.18239
G01 X-3.65869 Y-4.18375
G01 X-3.65733 Y-4.18469
G01 X-3.65551 Y-4.18565
G01 X-3.65358 Y-4.18636
G01 X-3.65157 Y-4.18682
G01 X-3.64910 Y-4.18701
G01 X-3.05057 Y-4.18701
G01 X-3.04879 Y-4.18929
G01 X-3.04694 Y-4.19123
G01 X-3.04490 Y-4.19299
G01 X-3.04271 Y-4.19454
G01 X-3.04037 Y-4.19586
G01 X-3.03791 Y-4.19695
G01 X-3.03536 Y-4.19780
G01 X-3.03274 Y-4.19840
G01 X-3.02829 Y-4.19882
G01 X-2.98442 Y-4.19882
G01 X-2.98018 Y-4.19846
G01 X-2.97584 Y-4.19738
G01 X-2.97193 Y-4.19571
G01 X-2.96814 Y-4.19333
G01 X-2.96494 Y-4.19053
G01 X-2.96208 Y-4.18708
G01 X-2.95992 Y-4.18342
G01 X-2.95827 Y-4.17926
G01 X-2.95754 Y-4.17622
G01 X-2.95715 Y-4.17311
G01 X-2.95712 Y-4.16997
G04 P0 ( dwell for no time -- G64 should not smooth over this point )
G00 Z0.08000 ( retract )

G00 X-2.81695 Y-3.95040 ( rapid move to begin. )
G01 F180.00000
( Mill infeed pass 1/1 )
G01 Z-0.04000
G04 P0 ( dwell for no time -- G64 should not smooth over this point )
G01 F360.00000
G01 X-2.81695 Y-3.95040
G01 X-2.81719 Y-3.95439
G01 X-2.81776 Y-3.95795
G01 X-2.81877 Y-3.96182
G01 X-2.82000 Y-3.96520
G01 X-2.82173 Y-3.96880
G01 X-2.82359 Y-3.97188
G01 X-2.82598 Y-3.97509
G01 X-2.82840 Y-3.97775
G01 X-2.83106 Y-3.98019
G01 X-2.83425 Y-3.98259
G01 X-2.83732 Y-3.98447
G01 X-2.84080 Y-3.98617
G01 X-2.84088 Y-4.18183
G01 X-2.84133 Y-4.18422
G01 X-2.84214 Y-4.18652
G01 X-2.84330 Y-4.18865
G01 X-2.84506 Y-4.19088
G01 X-2.91513 Y-4.26096
G01 X-2.91698 Y-4.26254
G01 X-2.91905 Y-4.26381
G01 X-2.92207 Y-4.26497
G01 X-2.92527 Y-4.26548
G01 X-2.96186 Y-4.26550
G01 X-2.96373 Y-4.26795
G01 X-2.96574 Y-4.27005
G01 X-2.96796 Y-4.27193
G01 X-2.97037 Y-4.27357
G01 X-2.97293 Y-4.27495
G01 X-2.97563 Y-4.27604
G01 X-2.97843 Y-4.27685
G01 X-2.98129 Y-4.27735
G01 X-2.98465 Y-4.27756
G01 X-3.02806 Y-4.27756
G01 X-3.03097 Y-4.27739
G01 X-3.03515 Y-4.27660
G01 X-3.03915 Y-4.27518
G01 X-3.04271 Y-4.27328
G01 X-3.04611 Y-4.27073
G01 X-3.04908 Y-4.26769
G01 X-3.05155 Y-4.26423
G01 X-3.05346 Y-4.26043
G01 X-3.05476 Y-4.25638
G01 X-3.05543 Y-4.25218
G01 X-3.05543 Y-4.24793
G01 X-3.05479 Y-4.24373
G01 X-3.05350 Y-4.23967
G01 X-3.05161 Y-4.23587
G01 X-3.04930 Y-4.23257
G01 X-3.04636 Y-4.22949
G01 X-3.04299 Y-4.22690
G01 X-3.04007 Y-4.22525
G01 X-3.03676 Y-4.22388
G01 X-3.03351 Y-4.22301
G01 X-3.02997 Y-4.22251
G01 X-2.98274 Y-4.22251
G01 X-2.97963 Y-4.22290
G01 X-2.97659 Y-4.22364
G01 X-2.97365 Y-4.22473
G01 X-2.97085 Y-4.22614
G01 X-2.96823 Y-4.22786
G01 X-2.96582 Y-4.22987
G01 X-2.96366 Y-4.23214
G01 X-2.96186 Y-4.23450
G01 X-2.93251 Y-4.23450
G01 X-2.87180 Y-4.17379
G01 X-2.87180 Y-3.98617
G01 X-2.87528 Y-3.98447
G01 X-2.87835 Y-3.98259
G01 X-2.88154 Y-3.98019
G01 X-2.88419 Y-3.97775
G01 X-2.88661 Y-3.97509
G01 X-2.88900 Y-3.97188
G01 X-2.89087 Y-3.96880
G01 X-2.89260 Y-3.96520
G01 X-2.89383 Y-3.96182
G01 X-2.89484 Y-3.95795
G01 X-2.89540 Y-3.95439
G01 X-2.89565 Y-3.95040
G01 X-2.89552 Y-3.94680
G01 X-2.89499 Y-3.94284
G01 X-2.89407 Y-3.93895
G01 X-2.89283 Y-3.93539
G01 X-2.96272 Y-3.86550
G01 X-2.98071 Y-3.86550
G01 X-2.98071 Y-3.87559
G01 X-3.03189 Y-3.87559
G01 X-3.03189 Y-3.82441
G01 X-2.98071 Y-3.82441
G01 X-2.98071 Y-3.83450
G01 X-2.95468 Y-3.83458
G01 X-2.95268 Y-3.83493
G01 X-2.95037 Y-3.83568
G01 X-2.94855 Y-3.83658
G01 X-2.94654 Y-3.83795
G01 X-2.87091 Y-3.91346
G01 X-2.86716 Y-3.91218
G01 X-2.86326 Y-3.91127
G01 X-2.85930 Y-3.91076
G01 X-2.85570 Y-3.91065
G01 X-2.85171 Y-3.91092
G01 X-2.84777 Y-3.91159
G01 X-2.84391 Y-3.91265
G01 X-2.84055 Y-3.91394
G01 X-2.83697 Y-3.91572
G01 X-2.83359 Y-3.91786
G01 X-2.83075 Y-3.92007
G01 X-2.82785 Y-3.92282
G01 X-2.82523 Y-3.92585
G01 X-2.82316 Y-3.92879
G01 X-2.82136 Y-3.93190
G01 X-2.81970 Y-3.93554
G01 X-2.81853 Y-3.93895
G01 X-2.81761 Y-3.94284
G01 X-2.81708 Y-3.94680
G01 X-2.81695 Y-3.95040
G04 P0 ( dwell for no time -- G64 should not smooth over this point )
G00 Z0.08000 ( retract )

G00 X-2.81695 Y-3.55000 ( rapid move to begin. )
G01 F180.00000
( Mill infeed pass 1/1 )
G01 Z-0.04000
G04 P0 ( dwell for no time -- G64 should not smooth over this point )
G01 F360.00000
G01 X-2.81695 Y-3.55000
G01 X-2.81711 Y-3.55360
G01 X-2.81761 Y-3.55716
G01 X-2.81842 Y-3.56067
G01 X-2.81956 Y-3.56408
G01 X-2.82100 Y-3.56738
G01 X-2.82294 Y-3.57087
G01 X-2.82499 Y-3.57383
G01 X-2.82730 Y-3.57660
G01 X-2.82985 Y-3.57913
G01 X-2.83262 Y-3.58143
G01 X-2.83559 Y-3.58346
G01 X-2.83910 Y-3.58539
G01 X-2.84240 Y-3.58681
G01 X-2.84582 Y-3.58793
G01 X-2.84933 Y-3.58873
G01 X-2.85290 Y-3.58920
G01 X-2.85610 Y-3.58935
G01 X-2.85930 Y-3.58923
G01 X-2.86247 Y-3.58886
G01 X-2.86522 Y-3.58832
G01 X-2.86831 Y-3.58747
G01 X-2.87094 Y-3.58652
G01 X-2.87350 Y-3.58539
G01 X-2.87632 Y-3.58388
G01 X-2.87901 Y-3.58214
G01 X-2.88154 Y-3.58019
G01 X-2.88391 Y-3.57804
G01 X-2.88583 Y-3.57600
G01 X-2.88785 Y-3.57352
G01 X-2.88944 Y-3.57121
G01 X-2.89106 Y-3.56845
G01 X-2.89236 Y-3.56575
G01 X-3.22024 Y-3.56575
G01 X-3.22154 Y-3.56845
G01 X-3.22316 Y-3.57121
G01 X-3.22499 Y-3.57383
G01 X-3.22703 Y-3.57630
G01 X-3.22926 Y-3.57859
G01 X-3.23168 Y-3.58069
G01 X-3.23425 Y-3.58259
G01 X-3.23697 Y-3.58428
G01 X-3.23982 Y-3.58573
G01 X-3.24278 Y-3.58695
G01 X-3.24582 Y-3.58793
G01 X-3.24894 Y-3.58866
G01 X-3.25211 Y-3.58913
G01 X-3.25530 Y-3.58934
G01 X-3.25850 Y-3.58929
G01 X-3.26168 Y-3.58898
G01 X-3.26600 Y-3.58813
G01 X-3.27057 Y-3.58667
G01 X-3.27457 Y-3.58485
G01 X-3.27835 Y-3.58259
G01 X-3.28185 Y-3.57993
G01 X-3.28503 Y-3.57689
G01 X-3.28785 Y-3.57352
G01 X-3.29028 Y-3.56985
G01 X-3.29228 Y-3.56593
G01 X-3.29383 Y-3.56182
G01 X-3.29492 Y-3.55755
G01 X-3.29555 Y-3.55280
G01 X-3.29562 Y-3.54840
G01 X-3.29519 Y-3.54402
G01 X-3.29428 Y-3.53972
G01 X-3.29283 Y-3.53538
G01 X-3.40922 Y-3.41900
G01 X-3.75338 Y-3.41900
G01 X-3.86976 Y-3.53539
G01 X-3.86842 Y-3.53933
G01 X-3.86747 Y-3.54363
G01 X-3.86700 Y-3.54800
G01 X-3.86700 Y-3.55204
G01 X-3.62068 Y-3.67520
G01 X-3.53740 Y-3.67520
G01 X-3.53740 Y-3.81300
G01 X-3.67520 Y-3.81300
G01 X-3.67520 Y-3.68316
G01 X-3.88109 Y-3.58021
G01 X-3.88492 Y-3.58303
G01 X-3.88874 Y-3.58521
G01 X-3.89315 Y-3.58709
G01 X-3.89738 Y-3.58832
G01 X-3.90211 Y-3.58913
G01 X-3.90650 Y-3.58935
G01 X-3.91089 Y-3.58908
G01 X-3.91522 Y-3.58832
G01 X-3.91944 Y-3.58709
G01 X-3.92386 Y-3.58521
G01 X-3.92801 Y-3.58282
G01 X-3.93154 Y-3.58019
G01 X-3.93475 Y-3.57718
G01 X-3.93785 Y-3.57352
G01 X-3.94028 Y-3.56985
G01 X-3.94236 Y-3.56575
G01 X-4.27024 Y-3.56575
G01 X-4.27154 Y-3.56845
G01 X-4.27316 Y-3.57121
G01 X-4.27475 Y-3.57352
G01 X-4.27676 Y-3.57600
G01 X-4.27869 Y-3.57804
G01 X-4.28106 Y-3.58019
G01 X-4.28359 Y-3.58214
G01 X-4.28594 Y-3.58367
G01 X-4.28838 Y-3.58503
G01 X-4.29129 Y-3.58637
G01 X-4.29391 Y-3.58735
G01 X-4.29699 Y-3.58823
G01 X-4.29973 Y-3.58880
G01 X-4.30290 Y-3.58920
G01 X-4.30570 Y-3.58934
G01 X-4.30890 Y-3.58926
G01 X-4.31247 Y-3.58886
G01 X-4.31600 Y-3.58813
G01 X-4.31944 Y-3.58709
G01 X-4.32314 Y-3.58556
G01 X-4.32632 Y-3.58388
G01 X-4.32965 Y-3.58167
G01 X-4.33245 Y-3.57940
G01 X-4.33503 Y-3.57689
G01 X-4.33736 Y-3.57415
G01 X-4.33944 Y-3.57121
G01 X-4.34124 Y-3.56810
G01 X-4.34290 Y-3.56446
G01 X-4.34407 Y-3.56105
G01 X-4.34492 Y-3.55755
G01 X-4.34548 Y-3.55360
G01 X-4.34565 Y-3.55000
G01 X-4.34548 Y-3.54640
G01 X-4.34492 Y-3.54244
G01 X-4.34407 Y-3.53895
G01 X-4.34290 Y-3.53554
G01 X-4.34124 Y-3.53190
G01 X-4.33944 Y-3.52879
G01 X-4.33736 Y-3.52585
G01 X-4.33475 Y-3.52282
G01 X-4.33185 Y-3.52007
G01 X-4.32901 Y-3.51786
G01 X-4.32563 Y-3.51572
G01 X-4.32241 Y-3.51410
G01 X-4.31869 Y-3.51265
G01 X-4.31522 Y-3.51167
G01 X-4.31129 Y-3.51097
G01 X-4.30770 Y-3.51067
G01 X-4.30490 Y-3.51067
G01 X-4.30171 Y-3.51092
G01 X-4.29855 Y-3.51142
G01 X-4.29582 Y-3.51207
G01 X-4.29315 Y-3.51291
G01 X-4.29018 Y-3.51410
G01 X-4.28525 Y-3.51675
G01 X-4.28075 Y-3.52007
G01 X-4.27840 Y-3.52225
G01 X-4.27650 Y-3.52430
G01 X-4.27475 Y-3.52648
G01 X-4.27294 Y-3.52913
G01 X-4.27154 Y-3.53155
G01 X-4.27024 Y-3.53425
G01 X-3.94236 Y-3.53425
G01 X-3.94067 Y-3.53085
G01 X-3.93878 Y-3.52779
G01 X-3.93636 Y-3.52460
G01 X-3.93391 Y-3.52196
G01 X-3.93092 Y-3.51931
G01 X-3.92801 Y-3.51718
G01 X-3.92457 Y-3.51515
G01 X-3.92131 Y-3.51363
G01 X-3.91754 Y-3.51229
G01 X-3.91405 Y-3.51142
G01 X-3.91009 Y-3.51083
G01 X-3.90650 Y-3.51065
G01 X-3.90290 Y-3.51080
G01 X-3.89894 Y-3.51134
G01 X-3.89544 Y-3.51218
G01 X-3.89168 Y-3.51346
G01 X-3.77047 Y-3.39226
G01 X-3.76858 Y-3.39073
G01 X-3.76647 Y-3.38951
G01 X-3.76420 Y-3.38864
G01 X-3.76222 Y-3.38819
G01 X-3.75980 Y-3.38800
G01 X-3.40280 Y-3.38800
G01 X-3.39997 Y-3.38826
G01 X-3.39687 Y-3.38918
G01 X-3.39436 Y-3.39050
G01 X-3.39213 Y-3.39226
G01 X-3.27091 Y-3.51346
G01 X-3.26716 Y-3.51218
G01 X-3.26366 Y-3.51134
G01 X-3.25970 Y-3.51080
G01 X-3.25610 Y-3.51065
G01 X-3.25250 Y-3.51083
G01 X-3.24855 Y-3.51142
G01 X-3.24506 Y-3.51229
G01 X-3.24129 Y-3.51363
G01 X-3.23803 Y-3.51515
G01 X-3.23458 Y-3.51718
G01 X-3.23168 Y-3.51931
G01 X-3.22869 Y-3.52196
G01 X-3.22624 Y-3.52460
G01 X-3.22382 Y-3.52779
G01 X-3.22192 Y-3.53085
G01 X-3.22024 Y-3.53425
G01 X-2.89236 Y-3.53425
G01 X-2.89106 Y-3.53155
G01 X-2.88966 Y-3.52913
G01 X-2.88785 Y-3.52648
G01 X-2.88610 Y-3.52430
G01 X-2.88419 Y-3.52225
G01 X-2.88185 Y-3.52007
G01 X-2.87734 Y-3.51675
G01 X-2.87241 Y-3.51410
G01 X-2.86944 Y-3.51291
G01 X-2.86677 Y-3.51207
G01 X-2.86405 Y-3.51142
G01 X-2.86089 Y-3.51092
G01 X-2.85770 Y-3.51067
G01 X-2.85490 Y-3.51067
G01 X-2.85131 Y-3.51097
G01 X-2.84738 Y-3.51167
G01 X-2.84391 Y-3.51265
G01 X-2.84018 Y-3.51410
G01 X-2.83697 Y-3.51572
G01 X-2.83359 Y-3.51786
G01 X-2.83075 Y-3.52007
G01 X-2.82785 Y-3.52282
G01 X-2.82523 Y-3.52585
G01 X-2.82316 Y-3.52879
G01 X-2.82136 Y-3.53190
G01 X-2.81970 Y-3.53554
G01 X-2.81853 Y-3.53895
G01 X-2.81768 Y-3.54244
G01 X-2.81711 Y-3.54640
G01 X-2.81695 Y-3.55000
G04 P0 ( dwell for no time -- G64 should not smooth over this point )
G00 Z0.08000 ( retract )

G00 X-3.07917 Y-3.85140 ( rapid move to begin. )
G01 F180.00000
( Mill infeed pass 1/1 )
G01 Z-0.04000
G04 P0 ( dwell for no time -- G64 should not smooth over this point )
G01 F360.00000
G01 X-3.07917 Y-3.85140
G01 X-3.07917 Y-3.84860
G01 X-3.07962 Y-3.84502
G01 X-3.08044 Y-3.84192
G01 X-3.08164 Y-3.83895
G01 X-3.08343 Y-3.83581
G01 X-3.08537 Y-3.83326
G01 X-3.08791 Y-3.83071
G01 X-3.09045 Y-3.82876
G01 X-3.09322 Y-3.82714
G01 X-3.09617 Y-3.82588
G01 X-3.09925 Y-3.82500
G01 X-3.10282 Y-3.82448
G01 X-3.10603 Y-3.82444
G01 X-3.10961 Y-3.82488
G01 X-3.11271 Y-3.82569
G01 X-3.11569 Y-3.82687
G01 X-3.11883 Y-3.82864
G01 X-3.12169 Y-3.83084
G01 X-3.12421 Y-3.83341
G01 X-3.12635 Y-3.83632
G01 X-3.12806 Y-3.83949
G01 X-3.12930 Y-3.84288
G01 X-3.13006 Y-3.84640
G01 X-3.13031 Y-3.85000
G01 X-3.13008 Y-3.85344
G01 X-3.21114 Y-3.93450
G01 X-3.22013 Y-3.93450
G01 X-3.22154 Y-3.93155
G01 X-3.22316 Y-3.92879
G01 X-3.22523 Y-3.92585
G01 X-3.22730 Y-3.92340
G01 X-3.22956 Y-3.92113
G01 X-3.23230 Y-3.91881
G01 X-3.23525 Y-3.91675
G01 X-3.23803 Y-3.91515
G01 X-3.24203 Y-3.91333
G01 X-3.24660 Y-3.91186
G01 X-3.25131 Y-3.91097
G01 X-3.25610 Y-3.91065
G01 X-3.26168 Y-3.91102
G01 X-3.26483 Y-3.91159
G01 X-3.26754 Y-3.91229
G01 X-3.27057 Y-3.91333
G01 X-3.27314 Y-3.91444
G01 X-3.27801 Y-3.91718
G01 X-3.28061 Y-3.91906
G01 X-3.28275 Y-3.92086
G01 X-3.28661 Y-3.92491
G01 X-3.28987 Y-3.92946
G01 X-3.29124 Y-3.93190
G01 X-3.29247 Y-3.93450
G01 X-3.59568 Y-3.93450
G01 X-3.75223 Y-3.77795
G01 X-3.75375 Y-3.77661
G01 X-3.75544 Y-3.77549
G01 X-3.75763 Y-3.77444
G01 X-3.75957 Y-3.77384
G01 X-3.76116 Y-3.77354
G01 X-3.76319 Y-3.77341
G01 X-4.25680 Y-3.77343
G01 X-4.25960 Y-3.77384
G01 X-4.26192 Y-3.77459
G01 X-4.26443 Y-3.77591
G01 X-4.26666 Y-3.77766
G01 X-4.39211 Y-3.90311
G01 X-4.39392 Y-3.90529
G01 X-4.39531 Y-3.90777
G01 X-4.39622 Y-3.91045
G01 X-4.39663 Y-3.91326
G01 X-4.39664 Y-3.98633
G01 X-4.39646 Y-3.98835
G01 X-4.39589 Y-3.99072
G01 X-4.39514 Y-3.99260
G01 X-4.39392 Y-3.99471
G01 X-4.39211 Y-3.99689
G01 X-4.20619 Y-4.18278
G01 X-4.20426 Y-4.18426
G01 X-4.20175 Y-4.18558
G01 X-4.19944 Y-4.18633
G01 X-4.19703 Y-4.18671
G01 X-4.15074 Y-4.18676
G01 X-4.14894 Y-4.18912
G01 X-4.14694 Y-4.19123
G01 X-4.14473 Y-4.19313
G01 X-4.14233 Y-4.19477
G01 X-4.13977 Y-4.19616
G01 X-4.13707 Y-4.19726
G01 X-4.13428 Y-4.19808
G01 X-4.13142 Y-4.19860
G01 X-4.12806 Y-4.19882
G01 X-4.08330 Y-4.19879
G01 X-4.07908 Y-4.19825
G01 X-4.07521 Y-4.19715
G01 X-4.07134 Y-4.19539
G01 X-4.06796 Y-4.19319
G01 X-4.06479 Y-4.19037
G01 X-4.06208 Y-4.18708
G01 X-4.06002 Y-4.18363
G01 X-4.05841 Y-4.17969
G01 X-4.05742 Y-4.17555
G01 X-4.05709 Y-4.17131
G01 X-4.05737 Y-4.16730
G01 X-4.05831 Y-4.16315
G01 X-4.05987 Y-4.15919
G01 X-4.06202 Y-4.15553
G01 X-4.06455 Y-4.15240
G01 X-4.06770 Y-4.14953
G01 X-4.07085 Y-4.14740
G01 X-4.07448 Y-4.14565
G01 X-4.07832 Y-4.14444
G01 X-4.08207 Y-4.14382
G01 X-4.08465 Y-4.14370
G01 X-4.12930 Y-4.14373
G01 X-4.13263 Y-4.14410
G01 X-4.13569 Y-4.14481
G01 X-4.13864 Y-4.14586
G01 X-4.14146 Y-4.14724
G01 X-4.14410 Y-4.14892
G01 X-4.14653 Y-4.15090
G01 X-4.14872 Y-4.15314
G01 X-4.15074 Y-4.15576
G01 X-4.18940 Y-4.15576
G01 X-4.36565 Y-3.97951
G01 X-4.36565 Y-3.92049
G01 X-4.24957 Y-3.80441
G01 X-3.76961 Y-3.80441
G01 X-3.61306 Y-3.96096
G01 X-3.61153 Y-3.96230
G01 X-3.61020 Y-3.96321
G01 X-3.60727 Y-3.96461
G01 X-3.60452 Y-3.96531
G01 X-3.60210 Y-3.96550
G01 X-3.29247 Y-3.96550
G01 X-3.29007 Y-3.97019
G01 X-3.28687 Y-3.97478
G01 X-3.28304 Y-3.97886
G01 X-3.27868 Y-3.98237
G01 X-3.27386 Y-3.98521
G01 X-3.26869 Y-3.98735
G01 X-3.26326 Y-3.98873
G01 X-3.25770 Y-3.98933
G01 X-3.25490 Y-3.98933
G01 X-3.25171 Y-3.98908
G01 X-3.24855 Y-3.98858
G01 X-3.24582 Y-3.98793
G01 X-3.24315 Y-3.98709
G01 X-3.24018 Y-3.98590
G01 X-3.23525 Y-3.98325
G01 X-3.23262 Y-3.98143
G01 X-3.23045 Y-3.97967
G01 X-3.22840 Y-3.97775
G01 X-3.22624 Y-3.97539
G01 X-3.22451 Y-3.97319
G01 X-3.22273 Y-3.97053
G01 X-3.22136 Y-3.96809
G01 X-3.22013 Y-3.96550
G01 X-3.20472 Y-3.96550
G01 X-3.20270 Y-3.96537
G01 X-3.20071 Y-3.96497
G01 X-3.19879 Y-3.96432
G01 X-3.19697 Y-3.96342
G01 X-3.19529 Y-3.96230
G01 X-3.19376 Y-3.96096
G01 X-3.10816 Y-3.87536
G01 X-3.10523 Y-3.87559
G01 X-3.10242 Y-3.87549
G01 X-3.09925 Y-3.87500
G01 X-3.09655 Y-3.87425
G01 X-3.09394 Y-3.87321
G01 X-3.09147 Y-3.87189
G01 X-3.08884 Y-3.87006
G01 X-3.08674 Y-3.86820
G01 X-3.08511 Y-3.86643
G01 X-3.08343 Y-3.86419
G01 X-3.08200 Y-3.86177
G01 X-3.08085 Y-3.85921
G01 X-3.08009 Y-3.85693
G01 X-3.07948 Y-3.85419
G01 X-3.07917 Y-3.85140
G04 P0 ( dwell for no time -- G64 should not smooth over this point )
G00 Z0.08000 ( retract )

G00 X-3.71890 Y-4.29980 ( rapid move to begin. )
G01 F180.00000
( Mill infeed pass 1/1 )
G01 Z-0.04000
G04 P0 ( dwell for no time -- G64 should not smooth over this point )
G01 F360.00000
G01 X-3.71890 Y-4.29980
G01 X-3.71913 Y-4.29580
G01 X-3.71979 Y-4.29186
G01 X-3.72075 Y-4.28838
G01 X-3.72219 Y-4.28465
G01 X-3.72383 Y-4.28144
G01 X-3.72599 Y-4.27808
G01 X-3.72824 Y-4.27527
G01 X-3.73105 Y-4.27241
G01 X-3.73414 Y-4.26987
G01 X-3.73714 Y-4.26788
G01 X-3.74032 Y-4.26619
G01 X-3.74402 Y-4.26467
G01 X-3.74747 Y-4.26365
G01 X-3.75141 Y-4.26292
G01 X-3.75500 Y-4.26262
G01 X-3.75900 Y-4.26270
G01 X-3.76336 Y-4.26327
G01 X-3.76725 Y-4.26424
G01 X-3.77137 Y-4.26577
G01 X-3.77529 Y-4.26778
G01 X-3.77894 Y-4.27023
G01 X-3.78228 Y-4.27310
G01 X-3.78526 Y-4.27633
G01 X-3.78762 Y-4.27956
G01 X-3.78981 Y-4.28339
G01 X-3.79139 Y-4.28706
G01 X-3.79267 Y-4.29127
G01 X-3.79344 Y-4.29561
G01 X-3.79370 Y-4.30000
G01 X-3.79349 Y-4.30400
G01 X-3.79285 Y-4.30795
G01 X-3.79142 Y-4.31285
G01 X-3.79156 Y-4.31299
G01 X-4.06203 Y-4.31299
G01 X-4.06380 Y-4.31071
G01 X-4.06566 Y-4.30876
G01 X-4.06770 Y-4.30701
G01 X-4.06989 Y-4.30546
G01 X-4.07223 Y-4.30414
G01 X-4.07468 Y-4.30304
G01 X-4.07723 Y-4.30220
G01 X-4.07985 Y-4.30160
G01 X-4.08453 Y-4.30118
G01 X-4.12930 Y-4.30121
G01 X-4.13197 Y-4.30147
G01 X-4.13461 Y-4.30200
G01 X-4.13718 Y-4.30277
G01 X-4.13987 Y-4.30389
G01 X-4.14223 Y-4.30517
G01 X-4.14464 Y-4.30681
G01 X-4.14669 Y-4.30853
G01 X-4.14857 Y-4.31046
G01 X-4.15025 Y-4.31255
G01 X-4.15184 Y-4.31499
G01 X-4.15306 Y-4.31738
G01 X-4.15405 Y-4.31988
G01 X-4.15479 Y-4.32247
G01 X-4.15527 Y-4.32511
G01 X-4.15550 Y-4.32779
G01 X-4.15544 Y-4.33070
G01 X-4.15516 Y-4.33315
G01 X-4.15466 Y-4.33556
G01 X-4.15394 Y-4.33791
G01 X-4.15292 Y-4.34040
G01 X-4.15178 Y-4.34258
G01 X-4.15045 Y-4.34466
G01 X-4.14879 Y-4.34677
G01 X-4.14710 Y-4.34856
G01 X-4.14525 Y-4.35019
G01 X-4.14327 Y-4.35165
G01 X-4.14116 Y-4.35293
G01 X-4.13874 Y-4.35410
G01 X-4.13644 Y-4.35496
G01 X-4.13384 Y-4.35566
G01 X-4.13142 Y-4.35608
G01 X-4.12896 Y-4.35628
G01 X-4.08442 Y-4.35630
G01 X-4.07996 Y-4.35590
G01 X-4.07713 Y-4.35525
G01 X-4.07458 Y-4.35440
G01 X-4.07213 Y-4.35329
G01 X-4.06980 Y-4.35196
G01 X-4.06761 Y-4.35040
G01 X-4.06558 Y-4.34864
G01 X-4.06373 Y-4.34669
G01 X-4.06203 Y-4.34449
G01 X-3.78384 Y-4.34444
G01 X-3.78187 Y-4.34417
G01 X-3.77994 Y-4.34364
G01 X-3.77846 Y-4.34305
G01 X-3.77671 Y-4.34211
G01 X-3.77448 Y-4.34043
G01 X-3.76915 Y-4.33512
G01 X-3.76493 Y-4.33639
G01 X-3.76059 Y-4.33715
G01 X-3.75620 Y-4.33740
G01 X-3.75181 Y-4.33713
G01 X-3.74747 Y-4.33634
G01 X-3.74327 Y-4.33506
G01 X-3.73888 Y-4.33310
G01 X-3.73511 Y-4.33082
G01 X-3.73134 Y-4.32786
G01 X-3.72824 Y-4.32473
G01 X-3.72553 Y-4.32127
G01 X-3.72306 Y-4.31715
G01 X-3.72128 Y-4.31312
G01 X-3.71998 Y-4.30892
G01 X-3.71918 Y-4.30459
G01 X-3.71890 Y-4.29980
G04 P0 ( dwell for no time -- G64 should not smooth over this point )
G00 Z0.08000 ( retract )

G00 X-4.00609 Y-4.04130 ( rapid move to begin. )
G01 F180.00000
( Mill infeed pass 1/1 )
G01 Z-0.04000
G04 P0 ( dwell for no time -- G64 should not smooth over this point )
G01 F360.00000
G01 X-4.00609 Y-4.04130
G01 X-4.00611 Y-4.24631
G01 X-4.00642 Y-4.24872
G01 X-4.00712 Y-4.25105
G01 X-4.00816 Y-4.25325
G01 X-4.00954 Y-4.25525
G01 X-4.01633 Y-4.26204
G01 X-4.01834 Y-4.26342
G01 X-4.02091 Y-4.26461
G01 X-4.02326 Y-4.26524
G01 X-4.02568 Y-4.26549
G01 X-4.06186 Y-4.26550
G01 X-4.06373 Y-4.26795
G01 X-4.06574 Y-4.27005
G01 X-4.06796 Y-4.27193
G01 X-4.07037 Y-4.27357
G01 X-4.07293 Y-4.27495
G01 X-4.07563 Y-4.27604
G01 X-4.07843 Y-4.27685
G01 X-4.08129 Y-4.27735
G01 X-4.08465 Y-4.27756
G01 X-4.12896 Y-4.27754
G01 X-4.13274 Y-4.27714
G01 X-4.13665 Y-4.27615
G01 X-4.14037 Y-4.27460
G01 X-4.14382 Y-4.27253
G01 X-4.14694 Y-4.26998
G01 X-4.14951 Y-4.26717
G01 X-4.15178 Y-4.26384
G01 X-4.15355 Y-4.26022
G01 X-4.15454 Y-4.25725
G01 X-4.15516 Y-4.25441
G01 X-4.15547 Y-4.25151
G01 X-4.15548 Y-4.24860
G01 X-4.15517 Y-4.24571
G01 X-4.15451 Y-4.24264
G01 X-4.15359 Y-4.23988
G01 X-4.15238 Y-4.23723
G01 X-4.15077 Y-4.23454
G01 X-4.14901 Y-4.23222
G01 X-4.14702 Y-4.23010
G01 X-4.14464 Y-4.22806
G01 X-4.14204 Y-4.22631
G01 X-4.13946 Y-4.22496
G01 X-4.13676 Y-4.22388
G01 X-4.13395 Y-4.22310
G01 X-4.13108 Y-4.22262
G01 X-4.12818 Y-4.22244
G01 X-4.08453 Y-4.22244
G01 X-4.08140 Y-4.22263
G01 X-4.07854 Y-4.22313
G01 X-4.07574 Y-4.22392
G01 X-4.07283 Y-4.22510
G01 X-4.07027 Y-4.22649
G01 X-4.06787 Y-4.22813
G01 X-4.06566 Y-4.23002
G01 X-4.06366 Y-4.23214
G01 X-4.06186 Y-4.23450
G01 X-4.03709 Y-4.23450
G01 X-4.03709 Y-4.04772
G01 X-4.16834 Y-3.91634
G01 X-4.16972 Y-3.91434
G01 X-4.17062 Y-3.91252
G01 X-4.17137 Y-3.91021
G01 X-4.17175 Y-3.90781
G01 X-4.17180 Y-3.87559
G01 X-4.18189 Y-3.87559
G01 X-4.18189 Y-3.86550
G01 X-4.19988 Y-3.86550
G01 X-4.26976 Y-3.93539
G01 X-4.26865 Y-3.93857
G01 X-4.26776 Y-3.94205
G01 X-4.26719 Y-3.94561
G01 X-4.26697 Y-3.94880
G01 X-4.26700 Y-3.95200
G01 X-4.26735 Y-3.95558
G01 X-4.26802 Y-3.95912
G01 X-4.26901 Y-3.96258
G01 X-4.27032 Y-3.96593
G01 X-4.27173 Y-3.96880
G01 X-4.27337 Y-3.97155
G01 X-4.27548 Y-3.97447
G01 X-4.27785 Y-3.97718
G01 X-4.28045 Y-3.97967
G01 X-4.28294 Y-3.98167
G01 X-4.28594 Y-3.98367
G01 X-4.28982 Y-3.98573
G01 X-4.29391 Y-3.98735
G01 X-4.29816 Y-3.98850
G01 X-4.30250 Y-3.98917
G01 X-4.30690 Y-3.98935
G01 X-4.31129 Y-3.98903
G01 X-4.31522 Y-3.98832
G01 X-4.31944 Y-3.98709
G01 X-4.32350 Y-3.98539
G01 X-4.32734 Y-3.98325
G01 X-4.33092 Y-3.98069
G01 X-4.33419 Y-3.97775
G01 X-4.33712 Y-3.97447
G01 X-4.33944 Y-3.97121
G01 X-4.34160 Y-3.96738
G01 X-4.34332 Y-3.96333
G01 X-4.34428 Y-3.96028
G01 X-4.34492 Y-3.95755
G01 X-4.34540 Y-3.95439
G01 X-4.34562 Y-3.95160
G01 X-4.34563 Y-3.94880
G01 X-4.34540 Y-3.94561
G01 X-4.34492 Y-3.94245
G01 X-4.34428 Y-3.93972
G01 X-4.34332 Y-3.93667
G01 X-4.34228 Y-3.93407
G01 X-4.34087 Y-3.93120
G01 X-4.33785 Y-3.92648
G01 X-4.33583 Y-3.92400
G01 X-4.33185 Y-3.92007
G01 X-4.32768 Y-3.91696
G01 X-4.32314 Y-3.91444
G01 X-4.31831 Y-3.91253
G01 X-4.31287 Y-3.91120
G01 X-4.30770 Y-3.91067
G01 X-4.30211 Y-3.91087
G01 X-4.29699 Y-3.91177
G01 X-4.29168 Y-3.91346
G01 X-4.21605 Y-3.83795
G01 X-4.21405 Y-3.83658
G01 X-4.21223 Y-3.83568
G01 X-4.20992 Y-3.83493
G01 X-4.20792 Y-3.83458
G01 X-4.18189 Y-3.83450
G01 X-4.18189 Y-3.82441
G01 X-4.13071 Y-3.82441
G01 X-4.13071 Y-3.87559
G01 X-4.14080 Y-3.87559
G01 X-4.14080 Y-3.90017
G01 X-4.01063 Y-4.03034
G01 X-4.00954 Y-4.03155
G01 X-4.00837 Y-4.03320
G01 X-4.00698 Y-4.03613
G01 X-4.00635 Y-4.03848
G01 X-4.00609 Y-4.04130
( Piece #3, position [0;1] )

G04 P0 ( dwell for no time -- G64 should not smooth over this point )
G00 Z0.08000 ( retract )

G00 X-2.75895 Y-2.84361 ( rapid move to begin. )
G01 F180.00000
( Mill infeed pass 1/1 )
G01 Z-0.04000
G04 P0 ( dwell for no time -- G64 should not smooth over this point )
G01 F360.00000
G01 X-2.75895 Y-2.84361
G01 X-2.75908 Y-2.84563
G01 X-2.75959 Y-2.84801
G01 X-2.76013 Y-2.84954
G01 X-2.76102 Y-2.85136
G01 X-2.76215 Y-2.85304
G01 X-2.76349 Y-2.85457
G01 X-2.94466 Y-3.03574
G01 X-2.94619 Y-3.03708
G01 X-2.94823 Y-3.03840
G01 X-2.95084 Y-3.03952
G01 X-2.95320 Y-3.04009
G01 X-2.95563 Y-3.04028
G01 X-3.42949 Y-3.04020
G01 X-3.43188 Y-3.03975
G01 X-3.43417 Y-3.03894
G01 X-3.43631 Y-3.03778
G01 X-3.43824 Y-3.03630
G01 X-3.46726 Y-3.00731
G01 X-3.46930 Y-3.00480
G01 X-3.47029 Y-3.00303
G01 X-3.47104 Y-3.00114
G01 X-3.47154 Y-2.99918
G01 X-3.47178 Y-2.99717
G01 X-3.47180 Y-2.96535
G01 X-3.49370 Y-2.96535
G01 X-3.49370 Y-2.94148
G01 X-3.61890 Y-2.94148
G01 X-3.61890 Y-2.96535
G01 X-3.69370 Y-2.96535
G01 X-3.69370 Y-2.88661
G01 X-3.61890 Y-2.88661
G01 X-3.61890 Y-2.91048
G01 X-3.49370 Y-2.91048
G01 X-3.49370 Y-2.88661
G01 X-3.41890 Y-2.88661
G01 X-3.41890 Y-2.96535
G01 X-3.44080 Y-2.96535
G01 X-3.44080 Y-2.98993
G01 X-3.42145 Y-3.00928
G01 X-2.96205 Y-3.00928
G01 X-2.78995 Y-2.83719
G01 X-2.78995 Y-2.44312
G01 X-2.82343 Y-2.40963
G01 X-3.17925 Y-2.40963
G01 X-3.18127 Y-2.40950
G01 X-3.18326 Y-2.40910
G01 X-3.18518 Y-2.40845
G01 X-3.18700 Y-2.40756
G01 X-3.18868 Y-2.40643
G01 X-3.19021 Y-2.40509
G01 X-3.32782 Y-2.26748
G01 X-3.35240 Y-2.26748
G01 X-3.35240 Y-2.32088
G01 X-3.49020 Y-2.32088
G01 X-3.49020 Y-2.20500
G01 X-3.53740 Y-2.15780
G01 X-3.53740 Y-2.20278
G01 X-3.67520 Y-2.20278
G01 X-3.67520 Y-2.06498
G01 X-3.53740 Y-2.06498
G01 X-3.53740 Y-2.11851
G01 X-3.53500 Y-2.11902
G01 X-3.53273 Y-2.11989
G01 X-3.53062 Y-2.12111
G01 X-3.52873 Y-2.12264
G01 X-3.46828 Y-2.18308
G01 X-3.35240 Y-2.18308
G01 X-3.35240 Y-2.23648
G01 X-3.32018 Y-2.23653
G01 X-3.31778 Y-2.23691
G01 X-3.31547 Y-2.23766
G01 X-3.31330 Y-2.23877
G01 X-3.31164 Y-2.23994
G01 X-3.17283 Y-2.37863
G01 X-2.81701 Y-2.37863
G01 X-2.81499 Y-2.37877
G01 X-2.81261 Y-2.37927
G01 X-2.81071 Y-2.37997
G01 X-2.80857 Y-2.38113
G01 X-2.80664 Y-2.38261
G01 X-2.76349 Y-2.42573
G01 X-2.76215 Y-2.42726
G01 X-2.76083 Y-2.42930
G01 X-2.75971 Y-2.43191
G01 X-2.75914 Y-2.43427
G01 X-2.75895 Y-2.43670
G01 X-2.75895 Y-2.84361
G04 P0 ( dwell for no time -- G64 should not smooth over this point )
G00 Z0.08000 ( retract )

G00 X-2.95710 Y-2.95388 ( rapid move to begin. )
G01 F180.00000
( Mill infeed pass 1/1 )
G01 Z-0.04000
G04 P0 ( dwell for no time -- G64 should not smooth over this point )
G01 F360.00000
G01 X-2.95710 Y-2.95388
G01 X-2.95731 Y-2.95121
G01 X-2.95778 Y-2.94856
G01 X-2.95851 Y-2.94597
G01 X-2.95949 Y-2.94347
G01 X-2.96070 Y-2.94107
G01 X-2.96215 Y-2.93881
G01 X-2.96395 Y-2.93652
G01 X-2.96582 Y-2.93459
G01 X-2.96805 Y-2.93272
G01 X-2.97027 Y-2.93121
G01 X-2.97263 Y-2.92992
G01 X-2.97531 Y-2.92879
G01 X-2.97788 Y-2.92801
G01 X-2.98052 Y-2.92748
G01 X-2.98319 Y-2.92720
G01 X-3.02818 Y-2.92717
G01 X-3.03263 Y-2.92757
G01 X-3.03526 Y-2.92815
G01 X-3.03781 Y-2.92899
G01 X-3.04047 Y-2.93017
G01 X-3.04280 Y-2.93151
G01 X-3.04499 Y-2.93306
G01 X-3.04702 Y-2.93483
G01 X-3.04887 Y-2.93678
G01 X-3.05057 Y-2.93897
G01 X-3.27477 Y-2.93897
G01 X-3.31903 Y-2.92282
G01 X-3.31948 Y-2.91941
G01 X-3.32018 Y-2.91629
G01 X-3.32114 Y-2.91323
G01 X-3.32253 Y-2.90991
G01 X-3.32403 Y-2.90708
G01 X-3.32576 Y-2.90439
G01 X-3.32772 Y-2.90186
G01 X-3.33017 Y-2.89922
G01 X-3.33287 Y-2.89683
G01 X-3.33545 Y-2.89493
G01 X-3.33818 Y-2.89326
G01 X-3.34104 Y-2.89183
G01 X-3.34402 Y-2.89066
G01 X-3.34709 Y-2.88973
G01 X-3.35022 Y-2.88908
G01 X-3.35380 Y-2.88867
G01 X-3.35780 Y-2.88861
G01 X-3.36139 Y-2.88893
G01 X-3.36493 Y-2.88959
G01 X-3.36877 Y-2.89072
G01 X-3.37246 Y-2.89226
G01 X-3.37563 Y-2.89397
G01 X-3.37894 Y-2.89622
G01 X-3.38199 Y-2.89880
G01 X-3.38475 Y-2.90171
G01 X-3.38695 Y-2.90455
G01 X-3.38887 Y-2.90760
G01 X-3.39065 Y-2.91119
G01 X-3.39191 Y-2.91456
G01 X-3.39293 Y-2.91843
G01 X-3.39353 Y-2.92239
G01 X-3.39370 Y-2.92598
G01 X-3.39360 Y-2.92878
G01 X-3.39328 Y-2.93157
G01 X-3.39276 Y-2.93432
G01 X-3.39203 Y-2.93703
G01 X-3.39111 Y-2.93967
G01 X-3.38998 Y-2.94224
G01 X-3.38867 Y-2.94471
G01 X-3.38718 Y-2.94708
G01 X-3.38551 Y-2.94934
G01 X-3.38368 Y-2.95146
G01 X-3.38170 Y-2.95344
G01 X-3.37957 Y-2.95526
G01 X-3.37732 Y-2.95692
G01 X-3.37494 Y-2.95841
G01 X-3.37246 Y-2.95971
G01 X-3.36989 Y-2.96083
G01 X-3.36493 Y-2.96238
G01 X-3.36218 Y-2.96292
G01 X-3.35940 Y-2.96326
G01 X-3.35660 Y-2.96338
G01 X-3.35380 Y-2.96330
G01 X-3.34865 Y-2.96259
G01 X-3.34364 Y-2.96118
G01 X-3.34104 Y-2.96013
G01 X-3.33853 Y-2.95890
G01 X-3.33612 Y-2.95747
G01 X-3.33382 Y-2.95587
G01 X-3.32983 Y-2.95241
G01 X-3.28296 Y-2.96952
G01 X-3.28107 Y-2.97008
G01 X-3.27874 Y-2.97043
G01 X-3.05057 Y-2.97047
G01 X-3.04879 Y-2.97276
G01 X-3.04694 Y-2.97470
G01 X-3.04490 Y-2.97645
G01 X-3.04271 Y-2.97800
G01 X-3.04037 Y-2.97933
G01 X-3.03791 Y-2.98042
G01 X-3.03536 Y-2.98127
G01 X-3.03274 Y-2.98186
G01 X-3.02806 Y-2.98228
G01 X-2.98353 Y-2.98226
G01 X-2.98107 Y-2.98205
G01 X-2.97865 Y-2.98162
G01 X-2.97627 Y-2.98098
G01 X-2.97375 Y-2.98004
G01 X-2.97153 Y-2.97896
G01 X-2.96942 Y-2.97770
G01 X-2.96743 Y-2.97625
G01 X-2.96542 Y-2.97447
G01 X-2.96359 Y-2.97250
G01 X-2.96208 Y-2.97055
G01 X-2.96076 Y-2.96847
G01 X-2.95963 Y-2.96628
G01 X-2.95870 Y-2.96400
G01 X-2.95797 Y-2.96165
G01 X-2.95742 Y-2.95902
G01 X-2.95715 Y-2.95657
G01 X-2.95710 Y-2.95388
G04 P0 ( dwell for no time -- G64 should not smooth over this point )
G00 Z0.08000 ( retract )

G00 X-2.95712 Y-2.79596 ( rapid move to begin. )
G01 F180.00000
( Mill infeed pass 1/1 )
G01 Z-0.04000
G04 P0 ( dwell for no time -- G64 should not smooth over this point )
G01 F360.00000
G01 X-2.95712 Y-2.79596
G01 X-2.95744 Y-2.79284
G01 X-2.95812 Y-2.78978
G01 X-2.95914 Y-2.78681
G01 X-2.96049 Y-2.78398
G01 X-2.96215 Y-2.78133
G01 X-2.96410 Y-2.77888
G01 X-2.96632 Y-2.77666
G01 X-2.96877 Y-2.77471
G01 X-2.97144 Y-2.77306
G01 X-2.97448 Y-2.77163
G01 X-2.97745 Y-2.77064
G01 X-2.98052 Y-2.77000
G01 X-2.98364 Y-2.76970
G01 X-3.02818 Y-2.76969
G01 X-3.03263 Y-2.77009
G01 X-3.03547 Y-2.77073
G01 X-3.03802 Y-2.77159
G01 X-3.04047 Y-2.77269
G01 X-3.04280 Y-2.77403
G01 X-3.04499 Y-2.77558
G01 X-3.04702 Y-2.77735
G01 X-3.04887 Y-2.77930
G01 X-3.05057 Y-2.78149
G01 X-3.64258 Y-2.78149
G01 X-3.89055 Y-2.53352
G01 X-3.89063 Y-2.47436
G01 X-3.89097 Y-2.47237
G01 X-3.89142 Y-2.47081
G01 X-3.89280 Y-2.46788
G01 X-3.89474 Y-2.46529
G01 X-3.89717 Y-2.46315
G01 X-3.89890 Y-2.46208
G01 X-3.90112 Y-2.46111
G01 X-3.90348 Y-2.46049
G01 X-3.90589 Y-2.46024
G01 X-4.03770 Y-2.46023
G01 X-4.03960 Y-2.45807
G01 X-4.04199 Y-2.45592
G01 X-4.04462 Y-2.45409
G01 X-4.04709 Y-2.45277
G01 X-4.05008 Y-2.45161
G01 X-4.05280 Y-2.45090
G01 X-4.05597 Y-2.45046
G01 X-4.05878 Y-2.45041
G01 X-4.06276 Y-2.45086
G01 X-4.06662 Y-2.45193
G01 X-4.07026 Y-2.45359
G01 X-4.07360 Y-2.45580
G01 X-4.07656 Y-2.45850
G01 X-4.07906 Y-2.46163
G01 X-4.08104 Y-2.46511
G01 X-4.08245 Y-2.46886
G01 X-4.08309 Y-2.47160
G01 X-4.08339 Y-2.47398
G01 X-4.08345 Y-2.47679
G01 X-4.08321 Y-2.47958
G01 X-4.08266 Y-2.48233
G01 X-4.08182 Y-2.48501
G01 X-4.08069 Y-2.48758
G01 X-4.07928 Y-2.49000
G01 X-4.07762 Y-2.49226
G01 X-4.07572 Y-2.49433
G01 X-4.07392 Y-2.49592
G01 X-4.07164 Y-2.49756
G01 X-4.06920 Y-2.49893
G01 X-4.06662 Y-2.50004
G01 X-4.06393 Y-2.50085
G01 X-4.06157 Y-2.50131
G01 X-4.05837 Y-2.50157
G01 X-4.05477 Y-2.50139
G01 X-4.05162 Y-2.50080
G01 X-4.04820 Y-2.49967
G01 X-4.04531 Y-2.49828
G01 X-4.04230 Y-2.49629
G01 X-4.03989 Y-2.49419
G01 X-4.03770 Y-2.49173
G01 X-3.92205 Y-2.49173
G01 X-3.92205 Y-2.53992
G01 X-3.92666 Y-2.54231
G01 X-3.93092 Y-2.54529
G01 X-3.93475 Y-2.54880
G01 X-3.93785 Y-2.55247
G01 X-3.94067 Y-2.55683
G01 X-3.94275 Y-2.56116
G01 X-3.94428 Y-2.56570
G01 X-3.94531 Y-2.57080
G01 X-3.94563 Y-2.57478
G01 X-3.94552 Y-2.57918
G01 X-3.94499 Y-2.58315
G01 X-3.94407 Y-2.58704
G01 X-3.94275 Y-2.59081
G01 X-3.94087 Y-2.59479
G01 X-3.93878 Y-2.59820
G01 X-3.93636 Y-2.60138
G01 X-3.93304 Y-2.60485
G01 X-3.92965 Y-2.60765
G01 X-3.92563 Y-2.61026
G01 X-3.92131 Y-2.61236
G01 X-3.91716 Y-2.61381
G01 X-3.91247 Y-2.61485
G01 X-3.90770 Y-2.61531
G01 X-3.90290 Y-2.61519
G01 X-3.89855 Y-2.61456
G01 X-3.89391 Y-2.61333
G01 X-3.88946 Y-2.61155
G01 X-3.88525 Y-2.60923
G01 X-3.88168 Y-2.60668
G01 X-3.87812 Y-2.60345
G01 X-3.87499 Y-2.59982
G01 X-3.87249 Y-2.59613
G01 X-3.66024 Y-2.80838
G01 X-3.65869 Y-2.80974
G01 X-3.65733 Y-2.81067
G01 X-3.65551 Y-2.81163
G01 X-3.65358 Y-2.81234
G01 X-3.65157 Y-2.81280
G01 X-3.64910 Y-2.81299
G01 X-3.05057 Y-2.81299
G01 X-3.04879 Y-2.81528
G01 X-3.04694 Y-2.81722
G01 X-3.04490 Y-2.81897
G01 X-3.04271 Y-2.82052
G01 X-3.04037 Y-2.82185
G01 X-3.03791 Y-2.82294
G01 X-3.03536 Y-2.82379
G01 X-3.03274 Y-2.82438
G01 X-3.02829 Y-2.82480
G01 X-2.98442 Y-2.82480
G01 X-2.98018 Y-2.82444
G01 X-2.97584 Y-2.82336
G01 X-2.97193 Y-2.82169
G01 X-2.96814 Y-2.81931
G01 X-2.96494 Y-2.81651
G01 X-2.96208 Y-2.81307
G01 X-2.95992 Y-2.80941
G01 X-2.95827 Y-2.80525
G01 X-2.95754 Y-2.80220
G01 X-2.95715 Y-2.79909
G01 X-2.95712 Y-2.79596
G04 P0 ( dwell for no time -- G64 should not smooth over this point )
G00 Z0.08000 ( retract )

G00 X-2.81695 Y-2.57638 ( rapid move to begin. )
G01 F180.00000
( Mill infeed pass 1/1 )
G01 Z-0.04000
G04 P0 ( dwell for no time -- G64 should not smooth over this point )
G01 F360.00000
G01 X-2.81695 Y-2.57638
G01 X-2.81719 Y-2.58038
G01 X-2.81776 Y-2.58393
G01 X-2.81877 Y-2.58780
G01 X-2.82000 Y-2.59118
G01 X-2.82173 Y-2.59479
G01 X-2.82359 Y-2.59787
G01 X-2.82598 Y-2.60107
G01 X-2.82840 Y-2.60374
G01 X-2.83106 Y-2.60617
G01 X-2.83425 Y-2.60858
G01 X-2.83732 Y-2.61046
G01 X-2.84080 Y-2.61215
G01 X-2.84088 Y-2.80782
G01 X-2.84133 Y-2.81021
G01 X-2.84214 Y-2.81250
G01 X-2.84330 Y-2.81464
G01 X-2.84506 Y-2.81687
G01 X-2.91513 Y-2.88694
G01 X-2.91698 Y-2.88852
G01 X-2.91905 Y-2.88979
G01 X-2.92207 Y-2.89096
G01 X-2.92527 Y-2.89146
G01 X-2.96186 Y-2.89148
G01 X-2.96373 Y-2.89393
G01 X-2.96574 Y-2.89604
G01 X-2.96796 Y-2.89792
G01 X-2.97037 Y-2.89956
G01 X-2.97293 Y-2.90093
G01 X-2.97563 Y-2.90203
G01 X-2.97843 Y-2.90283
G01 X-2.98129 Y-2.90334
G01 X-2.98465 Y-2.90354
G01 X-3.02806 Y-2.90354
G01 X-3.03097 Y-2.90338
G01 X-3.03515 Y-2.90259
G01 X-3.03915 Y-2.90116
G01 X-3.04271 Y-2.89926
G01 X-3.04611 Y-2.89671
G01 X-3.04908 Y-2.89367
G01 X-3.05155 Y-2.89021
G01 X-3.05346 Y-2.88641
G01 X-3.05476 Y-2.88237
G01 X-3.05543 Y-2.87817
G01 X-3.05543 Y-2.87391
G01 X-3.05479 Y-2.86971
G01 X-3.05350 Y-2.86566
G01 X-3.05161 Y-2.86185
G01 X-3.04930 Y-2.85855
G01 X-3.04636 Y-2.85548
G01 X-3.04299 Y-2.85289
G01 X-3.04007 Y-2.85123
G01 X-3.03676 Y-2.84987
G01 X-3.03351 Y-2.84899
G01 X-3.02997 Y-2.84850
G01 X-2.98274 Y-2.84849
G01 X-2.97963 Y-2.84888
G01 X-2.97659 Y-2.84963
G01 X-2.97365 Y-2.85071
G01 X-2.97085 Y-2.85213
G01 X-2.96823 Y-2.85385
G01 X-2.96582 Y-2.85585
G01 X-2.96366 Y-2.85812
G01 X-2.96186 Y-2.86048
G01 X-2.93251 Y-2.86048
G01 X-2.87180 Y-2.79978
G01 X-2.87180 Y-2.61215
G01 X-2.87528 Y-2.61046
G01 X-2.87835 Y-2.60858
G01 X-2.88154 Y-2.60617
G01 X-2.88419 Y-2.60374
G01 X-2.88661 Y-2.60107
G01 X-2.88900 Y-2.59787
G01 X-2.89087 Y-2.59479
G01 X-2.89260 Y-2.59118
G01 X-2.89383 Y-2.58780
G01 X-2.89484 Y-2.58393
G01 X-2.89540 Y-2.58038
G01 X-2.89565 Y-2.57638
G01 X-2.89552 Y-2.57279
G01 X-2.89499 Y-2.56882
G01 X-2.89407 Y-2.56493
G01 X-2.89283 Y-2.56137
G01 X-2.96272 Y-2.49148
G01 X-2.98071 Y-2.49148
G01 X-2.98071 Y-2.50157
G01 X-3.03189 Y-2.50157
G01 X-3.03189 Y-2.45039
G01 X-2.98071 Y-2.45039
G01 X-2.98071 Y-2.46048
G01 X-2.95468 Y-2.46057
G01 X-2.95268 Y-2.46091
G01 X-2.95037 Y-2.46166
G01 X-2.94855 Y-2.46256
G01 X-2.94654 Y-2.46394
G01 X-2.87091 Y-2.53945
G01 X-2.86716 Y-2.53816
G01 X-2.86326 Y-2.53726
G01 X-2.85930 Y-2.53675
G01 X-2.85570 Y-2.53664
G01 X-2.85171 Y-2.53690
G01 X-2.84777 Y-2.53757
G01 X-2.84391 Y-2.53863
G01 X-2.84055 Y-2.53992
G01 X-2.83697 Y-2.54171
G01 X-2.83359 Y-2.54385
G01 X-2.83075 Y-2.54606
G01 X-2.82785 Y-2.54880
G01 X-2.82523 Y-2.55183
G01 X-2.82316 Y-2.55477
G01 X-2.82136 Y-2.55789
G01 X-2.81970 Y-2.56153
G01 X-2.81853 Y-2.56493
G01 X-2.81761 Y-2.56882
G01 X-2.81708 Y-2.57279
G01 X-2.81695 Y-2.57638
G04 P0 ( dwell for no time -- G64 should not smooth over this point )
G00 Z0.08000 ( retract )

G00 X-2.81695 Y-2.17598 ( rapid move to begin. )
G01 F180.00000
( Mill infeed pass 1/1 )
G01 Z-0.04000
G04 P0 ( dwell for no time -- G64 should not smooth over this point )
G01 F360.00000
G01 X-2.81695 Y-2.17598
G01 X-2.81711 Y-2.17958
G01 X-2.81761 Y-2.18315
G01 X-2.81842 Y-2.18665
G01 X-2.81956 Y-2.19007
G01 X-2.82100 Y-2.19337
G01 X-2.82294 Y-2.19686
G01 X-2.82499 Y-2.19982
G01 X-2.82730 Y-2.20258
G01 X-2.82985 Y-2.20512
G01 X-2.83262 Y-2.20741
G01 X-2.83559 Y-2.20945
G01 X-2.83910 Y-2.21137
G01 X-2.84240 Y-2.21280
G01 X-2.84582 Y-2.21391
G01 X-2.84933 Y-2.21471
G01 X-2.85290 Y-2.21519
G01 X-2.85610 Y-2.21533
G01 X-2.85930 Y-2.21522
G01 X-2.86247 Y-2.21485
G01 X-2.86522 Y-2.21431
G01 X-2.86831 Y-2.21346
G01 X-2.87094 Y-2.21251
G01 X-2.87350 Y-2.21137
G01 X-2.87632 Y-2.20986
G01 X-2.87901 Y-2.20812
G01 X-2.88154 Y-2.20617
G01 X-2.88391 Y-2.20402
G01 X-2.88583 Y-2.20199
G01 X-2.88785 Y-2.19950
G01 X-2.88944 Y-2.19720
G01 X-2.89106 Y-2.19443
G01 X-2.89236 Y-2.19173
G01 X-3.22024 Y-2.19173
G01 X-3.22154 Y-2.19443
G01 X-3.22316 Y-2.19720
G01 X-3.22499 Y-2.19982
G01 X-3.22703 Y-2.20228
G01 X-3.22926 Y-2.20458
G01 X-3.23168 Y-2.20668
G01 X-3.23425 Y-2.20858
G01 X-3.23697 Y-2.21026
G01 X-3.23982 Y-2.21172
G01 X-3.24278 Y-2.21294
G01 X-3.24582 Y-2.21391
G01 X-3.24894 Y-2.21464
G01 X-3.25211 Y-2.21511
G01 X-3.25530 Y-2.21532
G01 X-3.25850 Y-2.21527
G01 X-3.26168 Y-2.21496
G01 X-3.26600 Y-2.21412
G01 X-3.27057 Y-2.21266
G01 X-3.27457 Y-2.21083
G01 X-3.27835 Y-2.20858
G01 X-3.28185 Y-2.20591
G01 X-3.28503 Y-2.20287
G01 X-3.28785 Y-2.19950
G01 X-3.29028 Y-2.19583
G01 X-3.29228 Y-2.19192
G01 X-3.29383 Y-2.18780
G01 X-3.29492 Y-2.18354
G01 X-3.29555 Y-2.17878
G01 X-3.29562 Y-2.17438
G01 X-3.29519 Y-2.17001
G01 X-3.29428 Y-2.16570
G01 X-3.29283 Y-2.16137
G01 X-3.40922 Y-2.04498
G01 X-3.75338 Y-2.04498
G01 X-3.86976 Y-2.16137
G01 X-3.86842 Y-2.16532
G01 X-3.86747 Y-2.16961
G01 X-3.86700 Y-2.17398
G01 X-3.86700 Y-2.17802
G01 X-3.62068 Y-2.30118
G01 X-3.53740 Y-2.30118
G01 X-3.53740 Y-2.43898
G01 X-3.67520 Y-2.43898
G01 X-3.67520 Y-2.30914
G01 X-3.88109 Y-2.20620
G01 X-3.88492 Y-2.20902
G01 X-3.88874 Y-2.21120
G01 X-3.89315 Y-2.21307
G01 X-3.89738 Y-2.21431
G01 X-3.90211 Y-2.21511
G01 X-3.90650 Y-2.21533
G01 X-3.91089 Y-2.21507
G01 X-3.91522 Y-2.21431
G01 X-3.91944 Y-2.21307
G01 X-3.92386 Y-2.21120
G01 X-3.92801 Y-2.20880
G01 X-3.93154 Y-2.20617
G01 X-3.93475 Y-2.20316
G01 X-3.93785 Y-2.19950
G01 X-3.94028 Y-2.19583
G01 X-3.94236 Y-2.19173
G01 X-4.27024 Y-2.19173
G01 X-4.27154 Y-2.19443
G01 X-4.27316 Y-2.19720
G01 X-4.27475 Y-2.19950
G01 X-4.27676 Y-2.20199
G01 X-4.27869 Y-2.20402
G01 X-4.28106 Y-2.20617
G01 X-4.28359 Y-2.20812
G01 X-4.28594 Y-2.20966
G01 X-4.28838 Y-2.21102
G01 X-4.29129 Y-2.21236
G01 X-4.29391 Y-2.21333
G01 X-4.29699 Y-2.21422
G01 X-4.29973 Y-2.21478
G01 X-4.30290 Y-2.21519
G01 X-4.30570 Y-2.21533
G01 X-4.30890 Y-2.21525
G01 X-4.31247 Y-2.21485
G01 X-4.31600 Y-2.21412
G01 X-4.31944 Y-2.21307
G01 X-4.32314 Y-2.21155
G01 X-4.32632 Y-2.20986
G01 X-4.32965 Y-2.20765
G01 X-4.33245 Y-2.20539
G01 X-4.33503 Y-2.20287
G01 X-4.33736 Y-2.20014
G01 X-4.33944 Y-2.19720
G01 X-4.34124 Y-2.19408
G01 X-4.34290 Y-2.19044
G01 X-4.34407 Y-2.18704
G01 X-4.34492 Y-2.18354
G01 X-4.34548 Y-2.17958
G01 X-4.34565 Y-2.17598
G01 X-4.34548 Y-2.17239
G01 X-4.34492 Y-2.16843
G01 X-4.34407 Y-2.16493
G01 X-4.34290 Y-2.16153
G01 X-4.34124 Y-2.15789
G01 X-4.33944 Y-2.15477
G01 X-4.33736 Y-2.15183
G01 X-4.33475 Y-2.14880
G01 X-4.33185 Y-2.14606
G01 X-4.32901 Y-2.14385
G01 X-4.32563 Y-2.14171
G01 X-4.32241 Y-2.14008
G01 X-4.31869 Y-2.13863
G01 X-4.31522 Y-2.13766
G01 X-4.31129 Y-2.13695
G01 X-4.30770 Y-2.13666
G01 X-4.30490 Y-2.13666
G01 X-4.30171 Y-2.13690
G01 X-4.29855 Y-2.13740
G01 X-4.29582 Y-2.13805
G01 X-4.29315 Y-2.13889
G01 X-4.29018 Y-2.14008
G01 X-4.28525 Y-2.14273
G01 X-4.28075 Y-2.14606
G01 X-4.27840 Y-2.14823
G01 X-4.27650 Y-2.15028
G01 X-4.27475 Y-2.15247
G01 X-4.27294 Y-2.15511
G01 X-4.27154 Y-2.15753
G01 X-4.27024 Y-2.16023
G01 X-3.94236 Y-2.16023
G01 X-3.94067 Y-2.15683
G01 X-3.93878 Y-2.15377
G01 X-3.93636 Y-2.15059
G01 X-3.93391 Y-2.14795
G01 X-3.93092 Y-2.14529
G01 X-3.92801 Y-2.14317
G01 X-3.92457 Y-2.14113
G01 X-3.92131 Y-2.13961
G01 X-3.91754 Y-2.13827
G01 X-3.91405 Y-2.13740
G01 X-3.91009 Y-2.13682
G01 X-3.90650 Y-2.13663
G01 X-3.90290 Y-2.13678
G01 X-3.89894 Y-2.13733
G01 X-3.89544 Y-2.13816
G01 X-3.89168 Y-2.13945
G01 X-3.77047 Y-2.01824
G01 X-3.76858 Y-2.01671
G01 X-3.76647 Y-2.01549
G01 X-3.76420 Y-2.01462
G01 X-3.76222 Y-2.01417
G01 X-3.75980 Y-2.01398
G01 X-3.40280 Y-2.01398
G01 X-3.39997 Y-2.01424
G01 X-3.39687 Y-2.01516
G01 X-3.39436 Y-2.01648
G01 X-3.39213 Y-2.01824
G01 X-3.27091 Y-2.13945
G01 X-3.26716 Y-2.13816
G01 X-3.26366 Y-2.13733
G01 X-3.25970 Y-2.13678
G01 X-3.25610 Y-2.13663
G01 X-3.25250 Y-2.13682
G01 X-3.24855 Y-2.13740
G01 X-3.24506 Y-2.13827
G01 X-3.24129 Y-2.13961
G01 X-3.23803 Y-2.14113
G01 X-3.23458 Y-2.14317
G01 X-3.23168 Y-2.14529
G01 X-3.22869 Y-2.14795
G01 X-3.22624 Y-2.15059
G01 X-3.22382 Y-2.15377
G01 X-3.22192 Y-2.15683
G01 X-3.22024 Y-2.16023
G01 X-2.89236 Y-2.16023
G01 X-2.89106 Y-2.15753
G01 X-2.88966 Y-2.15511
G01 X-2.88785 Y-2.15247
G01 X-2.88610 Y-2.15028
G01 X-2.88419 Y-2.14823
G01 X-2.88185 Y-2.14606
G01 X-2.87734 Y-2.14273
G01 X-2.87241 Y-2.14008
G01 X-2.86944 Y-2.13889
G01 X-2.86677 Y-2.13805
G01 X-2.86405 Y-2.13740
G01 X-2.86089 Y-2.13690
G01 X-2.85770 Y-2.13666
G01 X-2.85490 Y-2.13666
G01 X-2.85131 Y-2.13695
G01 X-2.84738 Y-2.13766
G01 X-2.84391 Y-2.13863
G01 X-2.84018 Y-2.14008
G01 X-2.83697 Y-2.14171
G01 X-2.83359 Y-2.14385
G01 X-2.83075 Y-2.14606
G01 X-2.82785 Y-2.14880
G01 X-2.82523 Y-2.15183
G01 X-2.82316 Y-2.15477
G01 X-2.82136 Y-2.15789
G01 X-2.81970 Y-2.16153
G01 X-2.81853 Y-2.16493
G01 X-2.81768 Y-2.16843
G01 X-2.81711 Y-2.17239
G01 X-2.81695 Y-2.17598
G04 P0 ( dwell for no time -- G64 should not smooth over this point )
G00 Z0.08000 ( retract )

G00 X-3.07917 Y-2.47739 ( rapid move to begin. )
G01 F180.00000
( Mill infeed pass 1/1 )
G01 Z-0.04000
G04 P0 ( dwell for no time -- G64 should not smooth over this point )
G01 F360.00000
G01 X-3.07917 Y-2.47739
G01 X-3.07917 Y-2.47458
G01 X-3.07962 Y-2.47100
G01 X-3.08044 Y-2.46790
G01 X-3.08164 Y-2.46493
G01 X-3.08343 Y-2.46180
G01 X-3.08537 Y-2.45925
G01 X-3.08791 Y-2.45669
G01 X-3.09045 Y-2.45474
G01 X-3.09322 Y-2.45312
G01 X-3.09617 Y-2.45187
G01 X-3.09925 Y-2.45099
G01 X-3.10282 Y-2.45046
G01 X-3.10603 Y-2.45043
G01 X-3.10961 Y-2.45086
G01 X-3.11271 Y-2.45167
G01 X-3.11569 Y-2.45286
G01 X-3.11883 Y-2.45463
G01 X-3.12169 Y-2.45682
G01 X-3.12421 Y-2.45940
G01 X-3.12635 Y-2.46230
G01 X-3.12806 Y-2.46548
G01 X-3.12930 Y-2.46886
G01 X-3.13006 Y-2.47239
G01 X-3.13031 Y-2.47598
G01 X-3.13008 Y-2.47942
G01 X-3.21114 Y-2.56048
G01 X-3.22013 Y-2.56048
G01 X-3.22154 Y-2.55753
G01 X-3.22316 Y-2.55477
G01 X-3.22523 Y-2.55183
G01 X-3.22730 Y-2.54939
G01 X-3.22956 Y-2.54712
G01 X-3.23230 Y-2.54480
G01 X-3.23525 Y-2.54273
G01 X-3.23803 Y-2.54113
G01 X-3.24203 Y-2.53931
G01 X-3.24660 Y-2.53785
G01 X-3.25131 Y-2.53695
G01 X-3.25610 Y-2.53663
G01 X-3.26168 Y-2.53700
G01 X-3.26483 Y-2.53757
G01 X-3.26754 Y-2.53827
G01 X-3.27057 Y-2.53931
G01 X-3.27314 Y-2.54042
G01 X-3.27801 Y-2.54317
G01 X-3.28061 Y-2.54504
G01 X-3.28275 Y-2.54685
G01 X-3.28661 Y-2.55090
G01 X-3.28987 Y-2.55545
G01 X-3.29124 Y-2.55789
G01 X-3.29247 Y-2.56048
G01 X-3.59568 Y-2.56048
G01 X-3.75223 Y-2.40393
G01 X-3.75375 Y-2.40260
G01 X-3.75544 Y-2.40147
G01 X-3.75763 Y-2.40042
G01 X-3.75957 Y-2.39982
G01 X-3.76116 Y-2.39953
G01 X-3.76319 Y-2.39939
G01 X-4.25680 Y-2.39941
G01 X-4.25960 Y-2.39982
G01 X-4.26192 Y-2.40057
G01 X-4.26443 Y-2.40189
G01 X-4.26666 Y-2.40365
G01 X-4.39211 Y-2.52909
G01 X-4.39392 Y-2.53128
G01 X-4.39531 Y-2.53375
G01 X-4.39622 Y-2.53644
G01 X-4.39663 Y-2.53924
G01 X-4.39664 Y-2.61232
G01 X-4.39646 Y-2.61434
G01 X-4.39589 Y-2.61670
G01 X-4.39514 Y-2.61858
G01 X-4.39392 Y-2.62069
G01 X-4.39211 Y-2.62287
G01 X-4.20619 Y-2.80876
G01 X-4.20426 Y-2.81024
G01 X-4.20175 Y-2.81156
G01 X-4.19944 Y-2.81231
G01 X-4.19703 Y-2.81270
G01 X-4.15074 Y-2.81274
G01 X-4.14894 Y-2.81511
G01 X-4.14694 Y-2.81722
G01 X-4.14473 Y-2.81911
G01 X-4.14233 Y-2.82076
G01 X-4.13977 Y-2.82214
G01 X-4.13707 Y-2.82325
G01 X-4.13428 Y-2.82407
G01 X-4.13142 Y-2.82458
G01 X-4.12806 Y-2.82480
G01 X-4.08330 Y-2.82477
G01 X-4.07908 Y-2.82424
G01 X-4.07521 Y-2.82314
G01 X-4.07134 Y-2.82138
G01 X-4.06796 Y-2.81918
G01 X-4.06479 Y-2.81635
G01 X-4.06208 Y-2.81307
G01 X-4.06002 Y-2.80961
G01 X-4.05841 Y-2.80567
G01 X-4.05742 Y-2.80154
G01 X-4.05709 Y-2.79730
G01 X-4.05737 Y-2.79328
G01 X-4.05831 Y-2.78913
G01 X-4.05987 Y-2.78518
G01 X-4.06202 Y-2.78151
G01 X-4.06455 Y-2.77838
G01 X-4.06770 Y-2.77551
G01 X-4.07085 Y-2.77339
G01 X-4.07448 Y-2.77163
G01 X-4.07832 Y-2.77042
G01 X-4.08207 Y-2.76981
G01 X-4.08465 Y-2.76968
G01 X-4.12930 Y-2.76972
G01 X-4.13263 Y-2.77009
G01 X-4.13569 Y-2.77079
G01 X-4.13864 Y-2.77184
G01 X-4.14146 Y-2.77322
G01 X-4.14410 Y-2.77491
G01 X-4.14653 Y-2.77689
G01 X-4.14872 Y-2.77913
G01 X-4.15074 Y-2.78174
G01 X-4.18940 Y-2.78174
G01 X-4.36565 Y-2.60549
G01 X-4.36565 Y-2.54648
G01 X-4.24957 Y-2.43039
G01 X-3.76961 Y-2.43039
G01 X-3.61306 Y-2.58694
G01 X-3.61153 Y-2.58828
G01 X-3.61020 Y-2.58920
G01 X-3.60727 Y-2.59059
G01 X-3.60452 Y-2.59129
G01 X-3.60210 Y-2.59148
G01 X-3.29247 Y-2.59148
G01 X-3.29007 Y-2.59618
G01 X-3.28687 Y-2.60076
G01 X-3.28304 Y-2.60485
G01 X-3.27868 Y-2.60835
G01 X-3.27386 Y-2.61120
G01 X-3.26869 Y-2.61333
G01 X-3.26326 Y-2.61471
G01 X-3.25770 Y-2.61531
G01 X-3.25490 Y-2.61531
G01 X-3.25171 Y-2.61507
G01 X-3.24855 Y-2.61456
G01 X-3.24582 Y-2.61391
G01 X-3.24315 Y-2.61307
G01 X-3.24018 Y-2.61188
G01 X-3.23525 Y-2.60923
G01 X-3.23262 Y-2.60741
G01 X-3.23045 Y-2.60565
G01 X-3.22840 Y-2.60374
G01 X-3.22624 Y-2.60138
G01 X-3.22451 Y-2.59918
G01 X-3.22273 Y-2.59652
G01 X-3.22136 Y-2.59408
G01 X-3.22013 Y-2.59148
G01 X-3.20472 Y-2.59148
G01 X-3.20270 Y-2.59135
G01 X-3.20071 Y-2.59096
G01 X-3.19879 Y-2.59030
G01 X-3.19697 Y-2.58941
G01 X-3.19529 Y-2.58828
G01 X-3.19376 Y-2.58694
G01 X-3.10816 Y-2.50134
G01 X-3.10523 Y-2.50157
G01 X-3.10242 Y-2.50147
G01 X-3.09925 Y-2.50098
G01 X-3.09655 Y-2.50023
G01 X-3.09394 Y-2.49919
G01 X-3.09147 Y-2.49787
G01 X-3.08884 Y-2.49604
G01 X-3.08674 Y-2.49419
G01 X-3.08511 Y-2.49242
G01 X-3.08343 Y-2.49017
G01 X-3.08200 Y-2.48775
G01 X-3.08085 Y-2.48520
G01 X-3.08009 Y-2.48291
G01 X-3.07948 Y-2.48018
G01 X-3.07917 Y-2.47739
G04 P0 ( dwell for no time -- G64 should not smooth over this point )
G00 Z0.08000 ( retract )

G00 X-3.71890 Y-2.92578 ( rapid move to begin. )
G01 F180.00000
( Mill infeed pass 1/1 )
G01 Z-0.04000
G04 P0 ( dwell for no time -- G64 should not smooth over this point )
G01 F360.00000
G01 X-3.71890 Y-2.92578
G01 X-3.71913 Y-2.92179
G01 X-3.71979 Y-2.91784
G01 X-3.72075 Y-2.91437
G01 X-3.72219 Y-2.91064
G01 X-3.72383 Y-2.90743
G01 X-3.72599 Y-2.90406
G01 X-3.72824 Y-2.90125
G01 X-3.73105 Y-2.89840
G01 X-3.73414 Y-2.89586
G01 X-3.73714 Y-2.89386
G01 X-3.74032 Y-2.89217
G01 X-3.74402 Y-2.89066
G01 X-3.74747 Y-2.88964
G01 X-3.75141 Y-2.88890
G01 X-3.75500 Y-2.88861
G01 X-3.75900 Y-2.88868
G01 X-3.76336 Y-2.88926
G01 X-3.76725 Y-2.89022
G01 X-3.77137 Y-2.89175
G01 X-3.77529 Y-2.89376
G01 X-3.77894 Y-2.89622
G01 X-3.78228 Y-2.89908
G01 X-3.78526 Y-2.90232
G01 X-3.78762 Y-2.90555
G01 X-3.78981 Y-2.90937
G01 X-3.79139 Y-2.91305
G01 X-3.79267 Y-2.91726
G01 X-3.79344 Y-2.92159
G01 X-3.79370 Y-2.92598
G01 X-3.79349 Y-2.92998
G01 X-3.79285 Y-2.93393
G01 X-3.79142 Y-2.93883
G01 X-3.79156 Y-2.93897
G01 X-4.06203 Y-2.93897
G01 X-4.06380 Y-2.93669
G01 X-4.06566 Y-2.93475
G01 X-4.06770 Y-2.93299
G01 X-4.06989 Y-2.93145
G01 X-4.07223 Y-2.93012
G01 X-4.07468 Y-2.92903
G01 X-4.07723 Y-2.92818
G01 X-4.07985 Y-2.92758
G01 X-4.08453 Y-2.92717
G01 X-4.12930 Y-2.92720
G01 X-4.13197 Y-2.92746
G01 X-4.13461 Y-2.92798
G01 X-4.13718 Y-2.92876
G01 X-4.13987 Y-2.92987
G01 X-4.14223 Y-2.93115
G01 X-4.14464 Y-2.93279
G01 X-4.14669 Y-2.93452
G01 X-4.14857 Y-2.93644
G01 X-4.15025 Y-2.93853
G01 X-4.15184 Y-2.94098
G01 X-4.15306 Y-2.94337
G01 X-4.15405 Y-2.94587
G01 X-4.15479 Y-2.94845
G01 X-4.15527 Y-2.95109
G01 X-4.15550 Y-2.95377
G01 X-4.15544 Y-2.95668
G01 X-4.15516 Y-2.95913
G01 X-4.15466 Y-2.96154
G01 X-4.15394 Y-2.96390
G01 X-4.15292 Y-2.96639
G01 X-4.15178 Y-2.96857
G01 X-4.15045 Y-2.97064
G01 X-4.14879 Y-2.97276
G01 X-4.14710 Y-2.97455
G01 X-4.14525 Y-2.97618
G01 X-4.14327 Y-2.97763
G01 X-4.14116 Y-2.97891
G01 X-4.13874 Y-2.98008
G01 X-4.13644 Y-2.98094
G01 X-4.13384 Y-2.98165
G01 X-4.13142 Y-2.98206
G01 X-4.12896 Y-2.98226
G01 X-4.08442 Y-2.98228
G01 X-4.07996 Y-2.98188
G01 X-4.07713 Y-2.98124
G01 X-4.07458 Y-2.98038
G01 X-4.07213 Y-2.97928
G01 X-4.06980 Y-2.97794
G01 X-4.06761 Y-2.97638
G01 X-4.06558 Y-2.97462
G01 X-4.06373 Y-2.97267
G01 X-4.06203 Y-2.97047
G01 X-3.78384 Y-2.97043
G01 X-3.78187 Y-2.97015
G01 X-3.77994 Y-2.96963
G01 X-3.77846 Y-2.96904
G01 X-3.77671 Y-2.96809
G01 X-3.77448 Y-2.96641
G01 X-3.76915 Y-2.96111
G01 X-3.76493 Y-2.96238
G01 X-3.76059 Y-2.96314
G01 X-3.75620 Y-2.96339
G01 X-3.75181 Y-2.96311
G01 X-3.74747 Y-2.96233
G01 X-3.74327 Y-2.96104
G01 X-3.73888 Y-2.95908
G01 X-3.73511 Y-2.95681
G01 X-3.73134 Y-2.95384
G01 X-3.72824 Y-2.95072
G01 X-3.72553 Y-2.94725
G01 X-3.72306 Y-2.94313
G01 X-3.72128 Y-2.93911
G01 X-3.71998 Y-2.93490
G01 X-3.71918 Y-2.93058
G01 X-3.71890 Y-2.92578
G04 P0 ( dwell for no time -- G64 should not smooth over this point )
G00 Z0.08000 ( retract )

G00 X-4.00609 Y-2.66729 ( rapid move to begin. )
G01 F180.00000
( Mill infeed pass 1/1 )
G01 Z-0.04000
G04 P0 ( dwell for no time -- G64 should not smooth over this point )
G01 F360.00000
G01 X-4.00609 Y-2.66729
G01 X-4.00611 Y-2.87229
G01 X-4.00642 Y-2.87471
G01 X-4.00712 Y-2.87704
G01 X-4.00816 Y-2.87923
G01 X-4.00954 Y-2.88124
G01 X-4.01633 Y-2.88803
G01 X-4.01834 Y-2.88941
G01 X-4.02091 Y-2.89059
G01 X-4.02326 Y-2.89122
G01 X-4.02568 Y-2.89148
G01 X-4.06186 Y-2.89148
G01 X-4.06373 Y-2.89393
G01 X-4.06574 Y-2.89604
G01 X-4.06796 Y-2.89792
G01 X-4.07037 Y-2.89956
G01 X-4.07293 Y-2.90093
G01 X-4.07563 Y-2.90203
G01 X-4.07843 Y-2.90283
G01 X-4.08129 Y-2.90334
G01 X-4.08465 Y-2.90354
G01 X-4.12896 Y-2.90352
G01 X-4.13274 Y-2.90312
G01 X-4.13665 Y-2.90213
G01 X-4.14037 Y-2.90059
G01 X-4.14382 Y-2.89851
G01 X-4.14694 Y-2.89596
G01 X-4.14951 Y-2.89315
G01 X-4.15178 Y-2.88983
G01 X-4.15355 Y-2.88621
G01 X-4.15454 Y-2.88323
G01 X-4.15516 Y-2.88039
G01 X-4.15547 Y-2.87750
G01 X-4.15548 Y-2.87458
G01 X-4.15517 Y-2.87169
G01 X-4.15451 Y-2.86863
G01 X-4.15359 Y-2.86587
G01 X-4.15238 Y-2.86322
G01 X-4.15077 Y-2.86053
G01 X-4.14901 Y-2.85821
G01 X-4.14702 Y-2.85609
G01 X-4.14464 Y-2.85405
G01 X-4.14204 Y-2.85230
G01 X-4.13946 Y-2.85094
G01 X-4.13676 Y-2.84987
G01 X-4.13395 Y-2.84909
G01 X-4.13108 Y-2.84860
G01 X-4.12818 Y-2.84843
G01 X-4.08453 Y-2.84843
G01 X-4.08140 Y-2.84862
G01 X-4.07854 Y-2.84911
G01 X-4.07574 Y-2.84990
G01 X-4.07283 Y-2.85109
G01 X-4.07027 Y-2.85247
G01 X-4.06787 Y-2.85412
G01 X-4.06566 Y-2.85601
G01 X-4.06366 Y-2.85812
G01 X-4.06186 Y-2.86048
G01 X-4.03709 Y-2.86048
G01 X-4.03709 Y-2.67371
G01 X-4.16834 Y-2.54233
G01 X-4.16972 Y-2.54032
G01 X-4.17062 Y-2.53851
G01 X-4.17137 Y-2.53619
G01 X-4.17175 Y-2.53379
G01 X-4.17180 Y-2.50157
G01 X-4.18189 Y-2.50157
G01 X-4.18189 Y-2.49148
G01 X-4.19988 Y-2.49148
G01 X-4.26976 Y-2.56137
G01 X-4.26865 Y-2.56455
G01 X-4.26776 Y-2.56804
G01 X-4.26719 Y-2.57159
G01 X-4.26697 Y-2.57478
G01 X-4.26700 Y-2.57798
G01 X-4.26735 Y-2.58157
G01 X-4.26802 Y-2.58510
G01 X-4.26901 Y-2.58856
G01 X-4.27032 Y-2.59192
G01 X-4.27173 Y-2.59479
G01 X-4.27337 Y-2.59753
G01 X-4.27548 Y-2.60045
G01 X-4.27785 Y-2.60316
G01 X-4.28045 Y-2.60565
G01 X-4.28294 Y-2.60765
G01 X-4.28594 Y-2.60966
G01 X-4.28982 Y-2.61172
G01 X-4.29391 Y-2.61333
G01 X-4.29816 Y-2.61448
G01 X-4.30250 Y-2.61515
G01 X-4.30690 Y-2.61533
G01 X-4.31129 Y-2.61502
G01 X-4.31522 Y-2.61431
G01 X-4.31944 Y-2.61307
G01 X-4.32350 Y-2.61137
G01 X-4.32734 Y-2.60923
G01 X-4.33092 Y-2.60668
G01 X-4.33419 Y-2.60374
G01 X-4.33712 Y-2.60045
G01 X-4.33944 Y-2.59720
G01 X-4.34160 Y-2.59337
G01 X-4.34332 Y-2.58932
G01 X-4.34428 Y-2.58627
G01 X-4.34492 Y-2.58354
G01 X-4.34540 Y-2.58038
G01 X-4.34562 Y-2.57758
G01 X-4.34563 Y-2.57478
G01 X-4.34540 Y-2.57159
G01 X-4.34492 Y-2.56843
G01 X-4.34428 Y-2.56570
G01 X-4.34332 Y-2.56265
G01 X-4.34228 Y-2.56005
G01 X-4.34087 Y-2.55718
G01 X-4.33785 Y-2.55247
G01 X-4.33583 Y-2.54998
G01 X-4.33185 Y-2.54606
G01 X-4.32768 Y-2.54295
G01 X-4.32314 Y-2.54042
G01 X-4.31831 Y-2.53851
G01 X-4.31287 Y-2.53719
G01 X-4.30770 Y-2.53666
G01 X-4.30211 Y-2.53686
G01 X-4.29699 Y-2.53775
G01 X-4.29168 Y-2.53945
G01 X-4.21605 Y-2.46394
G01 X-4.21405 Y-2.46256
G01 X-4.21223 Y-2.46166
G01 X-4.20992 Y-2.46091
G01 X-4.20792 Y-2.46057
G01 X-4.18189 Y-2.46048
G01 X-4.18189 Y-2.45039
G01 X-4.13071 Y-2.45039
G01 X-4.13071 Y-2.50157
G01 X-4.14080 Y-2.50157
G01 X-4.14080 Y-2.52615
G01 X-4.01063 Y-2.65633
G01 X-4.00954 Y-2.65753
G01 X-4.00837 Y-2.65919
G01 X-4.00698 Y-2.66211
G01 X-4.00635 Y-2.66446
G01 X-4.00609 Y-2.66729
( Piece #4, position [1;1] )

G04 P0 ( dwell for no time -- G64 should not smooth over this point )
G00 Z0.08000 ( retract )

G00 X-4.73296 Y-2.84361 ( rapid move to begin. )
G01 F180.00000
( Mill infeed pass 1/1 )
G01 Z-0.04000
G04 P0 ( dwell for no time -- G64 should not smooth over this point )
G01 F360.00000
G01 X-4.73296 Y-2.84361
G01 X-4.73310 Y-2.84563
G01 X-4.73360 Y-2.84801
G01 X-4.73414 Y-2.84954
G01 X-4.73504 Y-2.85136
G01 X-4.73617 Y-2.85304
G01 X-4.73750 Y-2.85457
G01 X-4.91868 Y-3.03574
G01 X-4.92020 Y-3.03708
G01 X-4.92224 Y-3.03840
G01 X-4.92485 Y-3.03952
G01 X-4.92722 Y-3.04009
G01 X-4.92964 Y-3.04028
G01 X-5.40350 Y-3.04020
G01 X-5.40590 Y-3.03975
G01 X-5.40819 Y-3.03894
G01 X-5.41033 Y-3.03778
G01 X-5.41226 Y-3.03630
G01 X-5.44127 Y-3.00731
G01 X-5.44331 Y-3.00480
G01 X-5.44430 Y-3.00303
G01 X-5.44506 Y-3.00114
G01 X-5.44555 Y-2.99918
G01 X-5.44579 Y-2.99717
G01 X-5.44581 Y-2.96535
G01 X-5.46772 Y-2.96535
G01 X-5.46772 Y-2.94148
G01 X-5.59291 Y-2.94148
G01 X-5.59291 Y-2.96535
G01 X-5.66772 Y-2.96535
G01 X-5.66772 Y-2.88661
G01 X-5.59291 Y-2.88661
G01 X-5.59291 Y-2.91048
G01 X-5.46772 Y-2.91048
G01 X-5.46772 Y-2.88661
G01 X-5.39291 Y-2.88661
G01 X-5.39291 Y-2.96535
G01 X-5.41481 Y-2.96535
G01 X-5.41481 Y-2.98993
G01 X-5.39546 Y-3.00928
G01 X-4.93606 Y-3.00928
G01 X-4.76396 Y-2.83719
G01 X-4.76396 Y-2.44312
G01 X-4.79745 Y-2.40963
G01 X-5.15326 Y-2.40963
G01 X-5.15529 Y-2.40950
G01 X-5.15728 Y-2.40910
G01 X-5.15920 Y-2.40845
G01 X-5.16101 Y-2.40756
G01 X-5.16270 Y-2.40643
G01 X-5.16422 Y-2.40509
G01 X-5.30183 Y-2.26748
G01 X-5.32641 Y-2.26748
G01 X-5.32641 Y-2.32088
G01 X-5.46421 Y-2.32088
G01 X-5.46421 Y-2.20500
G01 X-5.51141 Y-2.15780
G01 X-5.51141 Y-2.20278
G01 X-5.64921 Y-2.20278
G01 X-5.64921 Y-2.06498
G01 X-5.51141 Y-2.06498
G01 X-5.51141 Y-2.11851
G01 X-5.50901 Y-2.11902
G01 X-5.50674 Y-2.11989
G01 X-5.50463 Y-2.12111
G01 X-5.50274 Y-2.12264
G01 X-5.44229 Y-2.18308
G01 X-5.32641 Y-2.18308
G01 X-5.32641 Y-2.23648
G01 X-5.29420 Y-2.23653
G01 X-5.29180 Y-2.23691
G01 X-5.28948 Y-2.23766
G01 X-5.28732 Y-2.23877
G01 X-5.28566 Y-2.23994
G01 X-5.14684 Y-2.37863
G01 X-4.79103 Y-2.37863
G01 X-4.78900 Y-2.37877
G01 X-4.78662 Y-2.37927
G01 X-4.78472 Y-2.37997
G01 X-4.78258 Y-2.38113
G01 X-4.78065 Y-2.38261
G01 X-4.73750 Y-2.42573
G01 X-4.73617 Y-2.42726
G01 X-4.73484 Y-2.42930
G01 X-4.73372 Y-2.43191
G01 X-4.73315 Y-2.43427
G01 X-4.73296 Y-2.43670
G01 X-4.73296 Y-2.84361
G04 P0 ( dwell for no time -- G64 should not smooth over this point )
G00 Z0.08000 ( retract )

G00 X-4.93111 Y-2.95388 ( rapid move to begin. )
G01 F180.00000
( Mill infeed pass 1/1 )
G01 Z-0.04000
G04 P0 ( dwell for no time -- G64 should not smooth over this point )
G01 F360.00000
G01 X-4.93111 Y-2.95388
G01 X-4.93133 Y-2.95121
G01 X-4.93180 Y-2.94856
G01 X-4.93253 Y-2.94597
G01 X-4.93350 Y-2.94347
G01 X-4.93472 Y-2.94107
G01 X-4.93616 Y-2.93881
G01 X-4.93797 Y-2.93652
G01 X-4.93984 Y-2.93459
G01 X-4.94207 Y-2.93272
G01 X-4.94429 Y-2.93121
G01 X-4.94665 Y-2.92992
G01 X-4.94933 Y-2.92879
G01 X-4.95190 Y-2.92801
G01 X-4.95453 Y-2.92748
G01 X-4.95721 Y-2.92720
G01 X-5.00219 Y-2.92717
G01 X-5.00665 Y-2.92757
G01 X-5.00927 Y-2.92815
G01 X-5.01182 Y-2.92899
G01 X-5.01448 Y-2.93017
G01 X-5.01682 Y-2.93151
G01 X-5.01901 Y-2.93306
G01 X-5.02103 Y-2.93483
G01 X-5.02288 Y-2.93678
G01 X-5.02458 Y-2.93897
G01 X-5.24879 Y-2.93897
G01 X-5.29305 Y-2.92282
G01 X-5.29349 Y-2.91941
G01 X-5.29419 Y-2.91629
G01 X-5.29515 Y-2.91323
G01 X-5.29654 Y-2.90991
G01 X-5.29804 Y-2.90708
G01 X-5.29978 Y-2.90439
G01 X-5.30173 Y-2.90186
G01 X-5.30419 Y-2.89922
G01 X-5.30688 Y-2.89683
G01 X-5.30946 Y-2.89493
G01 X-5.31219 Y-2.89326
G01 X-5.31506 Y-2.89183
G01 X-5.31804 Y-2.89066
G01 X-5.32110 Y-2.88973
G01 X-5.32424 Y-2.88908
G01 X-5.32781 Y-2.88867
G01 X-5.33181 Y-2.88861
G01 X-5.33540 Y-2.88893
G01 X-5.33894 Y-2.88959
G01 X-5.34278 Y-2.89072
G01 X-5.34648 Y-2.89226
G01 X-5.34965 Y-2.89397
G01 X-5.35296 Y-2.89622
G01 X-5.35601 Y-2.89880
G01 X-5.35876 Y-2.90171
G01 X-5.36097 Y-2.90455
G01 X-5.36289 Y-2.90760
G01 X-5.36466 Y-2.91119
G01 X-5.36593 Y-2.91456
G01 X-5.36694 Y-2.91843
G01 X-5.36754 Y-2.92239
G01 X-5.36772 Y-2.92598
G01 X-5.36761 Y-2.92878
G01 X-5.36730 Y-2.93157
G01 X-5.36677 Y-2.93432
G01 X-5.36605 Y-2.93703
G01 X-5.36512 Y-2.93967
G01 X-5.36400 Y-2.94224
G01 X-5.36269 Y-2.94471
G01 X-5.36120 Y-2.94708
G01 X-5.35953 Y-2.94934
G01 X-5.35770 Y-2.95146
G01 X-5.35572 Y-2.95344
G01 X-5.35359 Y-2.95526
G01 X-5.35133 Y-2.95692
G01 X-5.34896 Y-2.95841
G01 X-5.34648 Y-2.95971
G01 X-5.34391 Y-2.96083
G01 X-5.33894 Y-2.96238
G01 X-5.33619 Y-2.96292
G01 X-5.33341 Y-2.96326
G01 X-5.33061 Y-2.96338
G01 X-5.32781 Y-2.96330
G01 X-5.32266 Y-2.96259
G01 X-5.31766 Y-2.96118
G01 X-5.31506 Y-2.96013
G01 X-5.31255 Y-2.95890
G01 X-5.31013 Y-2.95747
G01 X-5.30783 Y-2.95587
G01 X-5.30385 Y-2.95241
G01 X-5.25697 Y-2.96952
G01 X-5.25509 Y-2.97008
G01 X-5.25275 Y-2.97043
G01 X-5.02458 Y-2.97047
G01 X-5.02281 Y-2.97276
G01 X-5.02095 Y-2.97470
G01 X-5.01892 Y-2.97645
G01 X-5.01672 Y-2.97800
G01 X-5.01438 Y-2.97933
G01 X-5.01193 Y-2.98042
G01 X-5.00938 Y-2.98127
G01 X-5.00676 Y-2.98186
G01 X-5.00208 Y-2.98228
G01 X-4.95754 Y-2.98226
G01 X-4.95509 Y-2.98205
G01 X-4.95266 Y-2.98162
G01 X-4.95028 Y-2.98098
G01 X-4.94777 Y-2.98004
G01 X-4.94555 Y-2.97896
G01 X-4.94344 Y-2.97770
G01 X-4.94145 Y-2.97625
G01 X-4.93943 Y-2.97447
G01 X-4.93760 Y-2.97250
G01 X-4.93610 Y-2.97055
G01 X-4.93477 Y-2.96847
G01 X-4.93364 Y-2.96628
G01 X-4.93271 Y-2.96400
G01 X-4.93199 Y-2.96165
G01 X-4.93144 Y-2.95902
G01 X-4.93116 Y-2.95657
G01 X-4.93111 Y-2.95388
G04 P0 ( dwell for no time -- G64 should not smooth over this point )
G00 Z0.08000 ( retract )

G00 X-4.93113 Y-2.79596 ( rapid move to begin. )
G01 F180.00000
( Mill infeed pass 1/1 )
G01 Z-0.04000
G04 P0 ( dwell for no time -- G64 should not smooth over this point )
G01 F360.00000
G01 X-4.93113 Y-2.79596
G01 X-4.93146 Y-2.79284
G01 X-4.93213 Y-2.78978
G01 X-4.93315 Y-2.78681
G01 X-4.93450 Y-2.78398
G01 X-4.93616 Y-2.78133
G01 X-4.93812 Y-2.77888
G01 X-4.94033 Y-2.77666
G01 X-4.94279 Y-2.77471
G01 X-4.94545 Y-2.77306
G01 X-4.94849 Y-2.77163
G01 X-4.95146 Y-2.77064
G01 X-4.95453 Y-2.77000
G01 X-4.95765 Y-2.76970
G01 X-5.00219 Y-2.76969
G01 X-5.00665 Y-2.77009
G01 X-5.00949 Y-2.77073
G01 X-5.01203 Y-2.77159
G01 X-5.01448 Y-2.77269
G01 X-5.01682 Y-2.77403
G01 X-5.01901 Y-2.77558
G01 X-5.02103 Y-2.77735
G01 X-5.02288 Y-2.77930
G01 X-5.02458 Y-2.78149
G01 X-5.61659 Y-2.78149
G01 X-5.86456 Y-2.53352
G01 X-5.86465 Y-2.47436
G01 X-5.86499 Y-2.47237
G01 X-5.86544 Y-2.47081
G01 X-5.86681 Y-2.46788
G01 X-5.86876 Y-2.46529
G01 X-5.87119 Y-2.46315
G01 X-5.87291 Y-2.46208
G01 X-5.87514 Y-2.46111
G01 X-5.87749 Y-2.46049
G01 X-5.87991 Y-2.46024
G01 X-6.01172 Y-2.46023
G01 X-6.01362 Y-2.45807
G01 X-6.01600 Y-2.45592
G01 X-6.01863 Y-2.45409
G01 X-6.02111 Y-2.45277
G01 X-6.02410 Y-2.45161
G01 X-6.02681 Y-2.45090
G01 X-6.02999 Y-2.45046
G01 X-6.03279 Y-2.45041
G01 X-6.03677 Y-2.45086
G01 X-6.04063 Y-2.45193
G01 X-6.04428 Y-2.45359
G01 X-6.04762 Y-2.45580
G01 X-6.05058 Y-2.45850
G01 X-6.05308 Y-2.46163
G01 X-6.05506 Y-2.46511
G01 X-6.05647 Y-2.46886
G01 X-6.05710 Y-2.47160
G01 X-6.05740 Y-2.47398
G01 X-6.05747 Y-2.47679
G01 X-6.05723 Y-2.47958
G01 X-6.05668 Y-2.48233
G01 X-6.05584 Y-2.48501
G01 X-6.05470 Y-2.48758
G01 X-6.05330 Y-2.49000
G01 X-6.05163 Y-2.49226
G01 X-6.04973 Y-2.49433
G01 X-6.04793 Y-2.49592
G01 X-6.04566 Y-2.49756
G01 X-6.04321 Y-2.49893
G01 X-6.04063 Y-2.50004
G01 X-6.03795 Y-2.50085
G01 X-6.03558 Y-2.50131
G01 X-6.03239 Y-2.50157
G01 X-6.02879 Y-2.50139
G01 X-6.02564 Y-2.50080
G01 X-6.02221 Y-2.49967
G01 X-6.01933 Y-2.49828
G01 X-6.01632 Y-2.49629
G01 X-6.01390 Y-2.49419
G01 X-6.01172 Y-2.49173
G01 X-5.89606 Y-2.49173
G01 X-5.89606 Y-2.53992
G01 X-5.90068 Y-2.54231
G01 X-5.90494 Y-2.54529
G01 X-5.90877 Y-2.54880
G01 X-5.91186 Y-2.55247
G01 X-5.91469 Y-2.55683
G01 X-5.91676 Y-2.56116
G01 X-5.91830 Y-2.56570
G01 X-5.91932 Y-2.57080
G01 X-5.91965 Y-2.57478
G01 X-5.91953 Y-2.57918
G01 X-5.91901 Y-2.58315
G01 X-5.91808 Y-2.58704
G01 X-5.91676 Y-2.59081
G01 X-5.91488 Y-2.59479
G01 X-5.91279 Y-2.59820
G01 X-5.91037 Y-2.60138
G01 X-5.90706 Y-2.60485
G01 X-5.90367 Y-2.60765
G01 X-5.89964 Y-2.61026
G01 X-5.89533 Y-2.61236
G01 X-5.89117 Y-2.61381
G01 X-5.88649 Y-2.61485
G01 X-5.88171 Y-2.61531
G01 X-5.87692 Y-2.61519
G01 X-5.87256 Y-2.61456
G01 X-5.86793 Y-2.61333
G01 X-5.86347 Y-2.61155
G01 X-5.85927 Y-2.60923
G01 X-5.85569 Y-2.60668
G01 X-5.85214 Y-2.60345
G01 X-5.84900 Y-2.59982
G01 X-5.84651 Y-2.59613
G01 X-5.63425 Y-2.80838
G01 X-5.63271 Y-2.80974
G01 X-5.63135 Y-2.81067
G01 X-5.62952 Y-2.81163
G01 X-5.62759 Y-2.81234
G01 X-5.62558 Y-2.81280
G01 X-5.62312 Y-2.81299
G01 X-5.02458 Y-2.81299
G01 X-5.02281 Y-2.81528
G01 X-5.02095 Y-2.81722
G01 X-5.01892 Y-2.81897
G01 X-5.01672 Y-2.82052
G01 X-5.01438 Y-2.82185
G01 X-5.01193 Y-2.82294
G01 X-5.00938 Y-2.82379
G01 X-5.00676 Y-2.82438
G01 X-5.00230 Y-2.82480
G01 X-4.95844 Y-2.82480
G01 X-4.95420 Y-2.82444
G01 X-4.94986 Y-2.82336
G01 X-4.94594 Y-2.82169
G01 X-4.94216 Y-2.81931
G01 X-4.93896 Y-2.81651
G01 X-4.93610 Y-2.81307
G01 X-4.93393 Y-2.80941
G01 X-4.93229 Y-2.80525
G01 X-4.93155 Y-2.80220
G01 X-4.93116 Y-2.79909
G01 X-4.93113 Y-2.79596
G04 P0 ( dwell for no time -- G64 should not smooth over this point )
G00 Z0.08000 ( retract )

G00 X-4.79097 Y-2.57638 ( rapid move to begin. )
G01 F180.00000
( Mill infeed pass 1/1 )
G01 Z-0.04000
G04 P0 ( dwell for no time -- G64 should not smooth over this point )
G01 F360.00000
G01 X-4.79097 Y-2.57638
G01 X-4.79121 Y-2.58038
G01 X-4.79177 Y-2.58393
G01 X-4.79278 Y-2.58780
G01 X-4.79402 Y-2.59118
G01 X-4.79575 Y-2.59479
G01 X-4.79761 Y-2.59787
G01 X-4.80000 Y-2.60107
G01 X-4.80242 Y-2.60374
G01 X-4.80507 Y-2.60617
G01 X-4.80827 Y-2.60858
G01 X-4.81134 Y-2.61046
G01 X-4.81481 Y-2.61215
G01 X-4.81490 Y-2.80782
G01 X-4.81534 Y-2.81021
G01 X-4.81615 Y-2.81250
G01 X-4.81731 Y-2.81464
G01 X-4.81907 Y-2.81687
G01 X-4.88914 Y-2.88694
G01 X-4.89099 Y-2.88852
G01 X-4.89306 Y-2.88979
G01 X-4.89609 Y-2.89096
G01 X-4.89929 Y-2.89146
G01 X-4.93587 Y-2.89148
G01 X-4.93775 Y-2.89393
G01 X-4.93976 Y-2.89604
G01 X-4.94198 Y-2.89792
G01 X-4.94438 Y-2.89956
G01 X-4.94695 Y-2.90093
G01 X-4.94965 Y-2.90203
G01 X-4.95244 Y-2.90283
G01 X-4.95531 Y-2.90334
G01 X-4.95866 Y-2.90354
G01 X-5.00208 Y-2.90354
G01 X-5.00499 Y-2.90338
G01 X-5.00916 Y-2.90259
G01 X-5.01317 Y-2.90116
G01 X-5.01672 Y-2.89926
G01 X-5.02013 Y-2.89671
G01 X-5.02310 Y-2.89367
G01 X-5.02557 Y-2.89021
G01 X-5.02748 Y-2.88641
G01 X-5.02878 Y-2.88237
G01 X-5.02944 Y-2.87817
G01 X-5.02945 Y-2.87391
G01 X-5.02880 Y-2.86971
G01 X-5.02752 Y-2.86566
G01 X-5.02563 Y-2.86185
G01 X-5.02331 Y-2.85855
G01 X-5.02038 Y-2.85548
G01 X-5.01700 Y-2.85289
G01 X-5.01408 Y-2.85123
G01 X-5.01077 Y-2.84987
G01 X-5.00753 Y-2.84899
G01 X-5.00398 Y-2.84850
G01 X-4.95676 Y-2.84849
G01 X-4.95365 Y-2.84888
G01 X-4.95060 Y-2.84963
G01 X-4.94766 Y-2.85071
G01 X-4.94486 Y-2.85213
G01 X-4.94224 Y-2.85385
G01 X-4.93984 Y-2.85585
G01 X-4.93767 Y-2.85812
G01 X-4.93587 Y-2.86048
G01 X-4.90652 Y-2.86048
G01 X-4.84581 Y-2.79978
G01 X-4.84581 Y-2.61215
G01 X-4.84929 Y-2.61046
G01 X-4.85236 Y-2.60858
G01 X-4.85556 Y-2.60617
G01 X-4.85821 Y-2.60374
G01 X-4.86063 Y-2.60107
G01 X-4.86302 Y-2.59787
G01 X-4.86488 Y-2.59479
G01 X-4.86661 Y-2.59118
