( pcb2gcode 3.0.2 )
( Software-independent Gcode )

G94 ( Inches per minute feed rate. )
G20 ( Units == INCHES. )

G90 ( Absolute coordinates. )
G00 S12000 ( RPM spindle speed. )
G64 P0.00040 ( set maximum deviation from commanded toolpath )
G01 F360.00000 ( Feedrate. )


G00 Z1.00000 (Retract to tool change height)
T1
M5      (Spindle stop.)
G04 P1.00000 (Wait for spindle to stop)
(MSG, Change tool bit to mill diameter 0.00000in)
M6      (Tool change.)
M0      (Temporary machine stop.)
M3 ( Spindle on clockwise. )
G04 P1.00000 (Wait for spindle to get up to speed)
( Piece #1, position [0;0] )

G04 P0 ( dwell for no time -- G64 should not smooth over this point )
G00 Z0.08000 ( retract )

G00 X3.54635 Y-4.21762 ( rapid move to begin. )
G01 F180.00000
( Mill infeed pass 1/1 )
G01 Z-0.04000
G04 P0 ( dwell for no time -- G64 should not smooth over this point )
G01 F360.00000
G01 X3.54635 Y-4.21762
G01 X3.54648 Y-4.21964
G01 X3.54699 Y-4.22202
G01 X3.54753 Y-4.22355
G01 X3.54843 Y-4.22537
G01 X3.54955 Y-4.22706
G01 X3.55089 Y-4.22858
G01 X3.73207 Y-4.40976
G01 X3.73359 Y-4.41109
G01 X3.73563 Y-4.41242
G01 X3.73824 Y-4.41354
G01 X3.74060 Y-4.41411
G01 X3.74303 Y-4.41430
G01 X4.21689 Y-4.41421
G01 X4.21928 Y-4.41377
G01 X4.22157 Y-4.41296
G01 X4.22371 Y-4.41180
G01 X4.22564 Y-4.41032
G01 X4.25466 Y-4.38133
G01 X4.25670 Y-4.37881
G01 X4.25769 Y-4.37704
G01 X4.25844 Y-4.37516
G01 X4.25894 Y-4.37319
G01 X4.25918 Y-4.37118
G01 X4.25920 Y-4.33937
G01 X4.28110 Y-4.33937
G01 X4.28110 Y-4.31550
G01 X4.40630 Y-4.31550
G01 X4.40630 Y-4.33937
G01 X4.48110 Y-4.33937
G01 X4.48110 Y-4.26063
G01 X4.40630 Y-4.26063
G01 X4.40630 Y-4.28450
G01 X4.28110 Y-4.28450
G01 X4.28110 Y-4.26063
G01 X4.20630 Y-4.26063
G01 X4.20630 Y-4.33937
G01 X4.22820 Y-4.33937
G01 X4.22820 Y-4.36395
G01 X4.20885 Y-4.38330
G01 X3.74945 Y-4.38330
G01 X3.57735 Y-4.21120
G01 X3.57735 Y-3.81713
G01 X3.61083 Y-3.78365
G01 X3.96665 Y-3.78365
G01 X3.96867 Y-3.78352
G01 X3.97066 Y-3.78312
G01 X3.97258 Y-3.78247
G01 X3.97440 Y-3.78157
G01 X3.97609 Y-3.78045
G01 X3.97761 Y-3.77911
G01 X4.11522 Y-3.64150
G01 X4.13980 Y-3.64150
G01 X4.13980 Y-3.69490
G01 X4.27760 Y-3.69490
G01 X4.27760 Y-3.57902
G01 X4.32480 Y-3.53182
G01 X4.32480 Y-3.57680
G01 X4.46260 Y-3.57680
G01 X4.46260 Y-3.43900
G01 X4.32480 Y-3.43900
G01 X4.32480 Y-3.49253
G01 X4.32240 Y-3.49304
G01 X4.32013 Y-3.49391
G01 X4.31802 Y-3.49513
G01 X4.31613 Y-3.49666
G01 X4.25568 Y-3.55710
G01 X4.13980 Y-3.55710
G01 X4.13980 Y-3.61050
G01 X4.10758 Y-3.61055
G01 X4.10518 Y-3.61093
G01 X4.10287 Y-3.61168
G01 X4.10070 Y-3.61278
G01 X4.09905 Y-3.61395
G01 X3.96023 Y-3.75265
G01 X3.60441 Y-3.75265
G01 X3.60239 Y-3.75278
G01 X3.60001 Y-3.75329
G01 X3.59811 Y-3.75399
G01 X3.59597 Y-3.75515
G01 X3.59404 Y-3.75663
G01 X3.55089 Y-3.79975
G01 X3.54955 Y-3.80127
G01 X3.54823 Y-3.80332
G01 X3.54711 Y-3.80592
G01 X3.54654 Y-3.80829
G01 X3.54635 Y-3.81071
G01 X3.54635 Y-4.21762
G04 P0 ( dwell for no time -- G64 should not smooth over this point )
G00 Z0.08000 ( retract )

G00 X3.74450 Y-4.32790 ( rapid move to begin. )
G01 F180.00000
( Mill infeed pass 1/1 )
G01 Z-0.04000
G04 P0 ( dwell for no time -- G64 should not smooth over this point )
G01 F360.00000
G01 X3.74450 Y-4.32790
G01 X3.74471 Y-4.32522
G01 X3.74519 Y-4.32258
G01 X3.74591 Y-4.31999
G01 X3.74689 Y-4.31749
G01 X3.74811 Y-4.31509
G01 X3.74955 Y-4.31282
G01 X3.75135 Y-4.31054
G01 X3.75322 Y-4.30861
G01 X3.75545 Y-4.30674
G01 X3.75767 Y-4.30523
G01 X3.76003 Y-4.30394
G01 X3.76271 Y-4.30281
G01 X3.76528 Y-4.30202
G01 X3.76792 Y-4.30149
G01 X3.77059 Y-4.30122
G01 X3.81558 Y-4.30118
G01 X3.82003 Y-4.30158
G01 X3.82266 Y-4.30217
G01 X3.82521 Y-4.30300
G01 X3.82787 Y-4.30419
G01 X3.83020 Y-4.30552
G01 X3.83239 Y-4.30708
G01 X3.83442 Y-4.30884
G01 X3.83627 Y-4.31079
G01 X3.83797 Y-4.31299
G01 X4.06217 Y-4.31299
G01 X4.10643 Y-4.29683
G01 X4.10688 Y-4.29343
G01 X4.10758 Y-4.29030
G01 X4.10854 Y-4.28725
G01 X4.10993 Y-4.28393
G01 X4.11143 Y-4.28110
G01 X4.11316 Y-4.27841
G01 X4.11512 Y-4.27587
G01 X4.11757 Y-4.27324
G01 X4.12027 Y-4.27085
G01 X4.12285 Y-4.26895
G01 X4.12558 Y-4.26728
G01 X4.12844 Y-4.26585
G01 X4.13142 Y-4.26467
G01 X4.13449 Y-4.26375
G01 X4.13762 Y-4.26309
G01 X4.14120 Y-4.26268
G01 X4.14520 Y-4.26263
G01 X4.14879 Y-4.26295
G01 X4.15233 Y-4.26361
G01 X4.15617 Y-4.26474
G01 X4.15986 Y-4.26627
G01 X4.16303 Y-4.26798
G01 X4.16634 Y-4.27023
G01 X4.16939 Y-4.27282
G01 X4.17215 Y-4.27572
G01 X4.17435 Y-4.27857
G01 X4.17627 Y-4.28162
G01 X4.17805 Y-4.28520
G01 X4.17931 Y-4.28857
G01 X4.18033 Y-4.29244
G01 X4.18093 Y-4.29640
G01 X4.18110 Y-4.30000
G01 X4.18100 Y-4.30280
G01 X4.18068 Y-4.30558
G01 X4.18016 Y-4.30834
G01 X4.17943 Y-4.31104
G01 X4.17851 Y-4.31369
G01 X4.17739 Y-4.31625
G01 X4.17607 Y-4.31873
G01 X4.17458 Y-4.32110
G01 X4.17291 Y-4.32335
G01 X4.17108 Y-4.32547
G01 X4.16910 Y-4.32745
G01 X4.16697 Y-4.32928
G01 X4.16472 Y-4.33094
G01 X4.16234 Y-4.33242
G01 X4.15986 Y-4.33373
G01 X4.15729 Y-4.33484
G01 X4.15233 Y-4.33639
G01 X4.14958 Y-4.33694
G01 X4.14680 Y-4.33727
G01 X4.14400 Y-4.33740
G01 X4.14120 Y-4.33732
G01 X4.13605 Y-4.33661
G01 X4.13104 Y-4.33520
G01 X4.12844 Y-4.33415
G01 X4.12593 Y-4.33291
G01 X4.12352 Y-4.33149
G01 X4.12122 Y-4.32989
G01 X4.11723 Y-4.32643
G01 X4.07036 Y-4.34354
G01 X4.06847 Y-4.34409
G01 X4.06614 Y-4.34445
G01 X3.83797 Y-4.34449
G01 X3.83619 Y-4.34677
G01 X3.83434 Y-4.34872
G01 X3.83230 Y-4.35047
G01 X3.83011 Y-4.35202
G01 X3.82777 Y-4.35334
G01 X3.82532 Y-4.35444
G01 X3.82277 Y-4.35528
G01 X3.82015 Y-4.35588
G01 X3.81547 Y-4.35630
G01 X3.77093 Y-4.35628
G01 X3.76847 Y-4.35607
G01 X3.76605 Y-4.35564
G01 X3.76367 Y-4.35500
G01 X3.76115 Y-4.35405
G01 X3.75893 Y-4.35298
G01 X3.75682 Y-4.35171
G01 X3.75483 Y-4.35026
G01 X3.75282 Y-4.34848
G01 X3.75099 Y-4.34652
G01 X3.74948 Y-4.34456
G01 X3.74816 Y-4.34249
G01 X3.74703 Y-4.34030
G01 X3.74610 Y-4.33802
G01 X3.74537 Y-4.33567
G01 X3.74482 Y-4.33303
G01 X3.74455 Y-4.33059
G01 X3.74450 Y-4.32790
G04 P0 ( dwell for no time -- G64 should not smooth over this point )
G00 Z0.08000 ( retract )

G00 X3.74452 Y-4.16997 ( rapid move to begin. )
G01 F180.00000
( Mill infeed pass 1/1 )
G01 Z-0.04000
G04 P0 ( dwell for no time -- G64 should not smooth over this point )
G01 F360.00000
G01 X3.74452 Y-4.16997
G01 X3.74484 Y-4.16685
G01 X3.74552 Y-4.16379
G01 X3.74654 Y-4.16083
G01 X3.74789 Y-4.15800
G01 X3.74955 Y-4.15534
G01 X3.75150 Y-4.15289
G01 X3.75372 Y-4.15068
G01 X3.75618 Y-4.14873
G01 X3.75884 Y-4.14707
G01 X3.76188 Y-4.14565
G01 X3.76485 Y-4.14466
G01 X3.76792 Y-4.14401
G01 X3.77104 Y-4.14372
G01 X3.81558 Y-4.14370
G01 X3.82003 Y-4.14410
G01 X3.82287 Y-4.14475
G01 X3.82542 Y-4.14560
G01 X3.82787 Y-4.14671
G01 X3.83020 Y-4.14804
G01 X3.83239 Y-4.14960
G01 X3.83442 Y-4.15136
G01 X3.83627 Y-4.15331
G01 X3.83797 Y-4.15551
G01 X4.42998 Y-4.15551
G01 X4.67795 Y-3.90754
G01 X4.67803 Y-3.84838
G01 X4.67837 Y-3.84638
G01 X4.67882 Y-3.84483
G01 X4.68020 Y-3.84189
G01 X4.68214 Y-3.83930
G01 X4.68457 Y-3.83716
G01 X4.68630 Y-3.83610
G01 X4.68853 Y-3.83512
G01 X4.69088 Y-3.83451
G01 X4.69329 Y-3.83426
G01 X4.82511 Y-3.83425
G01 X4.82700 Y-3.83208
G01 X4.82939 Y-3.82994
G01 X4.83202 Y-3.82811
G01 X4.83450 Y-3.82679
G01 X4.83748 Y-3.82563
G01 X4.84020 Y-3.82492
G01 X4.84337 Y-3.82448
G01 X4.84618 Y-3.82443
G01 X4.85016 Y-3.82488
G01 X4.85402 Y-3.82595
G01 X4.85766 Y-3.82761
G01 X4.86101 Y-3.82981
G01 X4.86396 Y-3.83252
G01 X4.86646 Y-3.83565
G01 X4.86844 Y-3.83913
G01 X4.86985 Y-3.84288
G01 X4.87049 Y-3.84561
G01 X4.87079 Y-3.84800
G01 X4.87085 Y-3.85080
G01 X4.87061 Y-3.85360
G01 X4.87007 Y-3.85635
G01 X4.86922 Y-3.85902
G01 X4.86809 Y-3.86159
G01 X4.86668 Y-3.86402
G01 X4.86502 Y-3.86628
G01 X4.86312 Y-3.86834
G01 X4.86132 Y-3.86993
G01 X4.85904 Y-3.87157
G01 X4.85660 Y-3.87295
G01 X4.85402 Y-3.87405
G01 X4.85133 Y-3.87486
G01 X4.84897 Y-3.87532
G01 X4.84578 Y-3.87559
G01 X4.84217 Y-3.87540
G01 X4.83902 Y-3.87481
G01 X4.83560 Y-3.87369
G01 X4.83271 Y-3.87229
G01 X4.82970 Y-3.87031
G01 X4.82729 Y-3.86820
G01 X4.82511 Y-3.86575
G01 X4.70945 Y-3.86575
G01 X4.70945 Y-3.91394
G01 X4.71406 Y-3.91633
G01 X4.71832 Y-3.91931
G01 X4.72215 Y-3.92282
G01 X4.72525 Y-3.92648
G01 X4.72807 Y-3.93085
G01 X4.73015 Y-3.93517
G01 X4.73168 Y-3.93972
G01 X4.73271 Y-3.94481
G01 X4.73303 Y-3.94880
G01 X4.73292 Y-3.95320
G01 X4.73239 Y-3.95716
G01 X4.73147 Y-3.96105
G01 X4.73015 Y-3.96483
G01 X4.72827 Y-3.96880
G01 X4.72618 Y-3.97221
G01 X4.72376 Y-3.97539
G01 X4.72044 Y-3.97886
G01 X4.71706 Y-3.98167
G01 X4.71303 Y-3.98428
G01 X4.70871 Y-3.98637
G01 X4.70456 Y-3.98782
G01 X4.69988 Y-3.98886
G01 X4.69510 Y-3.98933
G01 X4.69030 Y-3.98920
G01 X4.68595 Y-3.98858
G01 X4.68131 Y-3.98735
G01 X4.67686 Y-3.98556
G01 X4.67266 Y-3.98325
G01 X4.66908 Y-3.98069
G01 X4.66552 Y-3.97747
G01 X4.66239 Y-3.97383
G01 X4.65990 Y-3.97014
G01 X4.44764 Y-4.18239
G01 X4.44609 Y-4.18375
G01 X4.44473 Y-4.18469
G01 X4.44291 Y-4.18565
G01 X4.44098 Y-4.18636
G01 X4.43897 Y-4.18682
G01 X4.43650 Y-4.18701
G01 X3.83797 Y-4.18701
G01 X3.83619 Y-4.18929
G01 X3.83434 Y-4.19123
G01 X3.83230 Y-4.19299
G01 X3.83011 Y-4.19454
G01 X3.82777 Y-4.19586
G01 X3.82532 Y-4.19695
G01 X3.82277 Y-4.19780
G01 X3.82015 Y-4.19840
G01 X3.81569 Y-4.19882
G01 X3.77182 Y-4.19882
G01 X3.76759 Y-4.19846
G01 X3.76324 Y-4.19738
G01 X3.75933 Y-4.19571
G01 X3.75554 Y-4.19333
G01 X3.75234 Y-4.19053
G01 X3.74948 Y-4.18708
G01 X3.74732 Y-4.18342
G01 X3.74568 Y-4.17926
G01 X3.74494 Y-4.17622
G01 X3.74455 Y-4.17311
G01 X3.74452 Y-4.16997
G04 P0 ( dwell for no time -- G64 should not smooth over this point )
G00 Z0.08000 ( retract )

G00 X3.60435 Y-3.95040 ( rapid move to begin. )
G01 F180.00000
( Mill infeed pass 1/1 )
G01 Z-0.04000
G04 P0 ( dwell for no time -- G64 should not smooth over this point )
G01 F360.00000
G01 X3.60435 Y-3.95040
G01 X3.60460 Y-3.95439
G01 X3.60516 Y-3.95795
G01 X3.60617 Y-3.96182
G01 X3.60740 Y-3.96520
G01 X3.60913 Y-3.96880
G01 X3.61100 Y-3.97188
G01 X3.61339 Y-3.97509
G01 X3.61580 Y-3.97775
G01 X3.61846 Y-3.98019
G01 X3.62165 Y-3.98259
G01 X3.62472 Y-3.98447
G01 X3.62820 Y-3.98617
G01 X3.62828 Y-4.18183
G01 X3.62873 Y-4.18422
G01 X3.62954 Y-4.18652
G01 X3.63070 Y-4.18865
G01 X3.63246 Y-4.19088
G01 X3.70253 Y-4.26096
G01 X3.70438 Y-4.26254
G01 X3.70645 Y-4.26381
G01 X3.70948 Y-4.26497
G01 X3.71268 Y-4.26548
G01 X3.74926 Y-4.26550
G01 X3.75113 Y-4.26795
G01 X3.75314 Y-4.27005
G01 X3.75536 Y-4.27193
G01 X3.75777 Y-4.27357
G01 X3.76033 Y-4.27495
G01 X3.76303 Y-4.27604
G01 X3.76583 Y-4.27685
G01 X3.76869 Y-4.27735
G01 X3.77205 Y-4.27756
G01 X3.81547 Y-4.27756
G01 X3.81837 Y-4.27739
G01 X3.82255 Y-4.27660
G01 X3.82656 Y-4.27518
G01 X3.83011 Y-4.27328
G01 X3.83351 Y-4.27073
G01 X3.83648 Y-4.26769
G01 X3.83895 Y-4.26423
G01 X3.84086 Y-4.26043
G01 X3.84216 Y-4.25638
G01 X3.84283 Y-4.25218
G01 X3.84283 Y-4.24793
G01 X3.84219 Y-4.24373
G01 X3.84090 Y-4.23967
G01 X3.83901 Y-4.23587
G01 X3.83670 Y-4.23257
G01 X3.83376 Y-4.22949
G01 X3.83039 Y-4.22690
G01 X3.82747 Y-4.22525
G01 X3.82416 Y-4.22388
G01 X3.82092 Y-4.22301
G01 X3.81737 Y-4.22251
G01 X3.77014 Y-4.22251
G01 X3.76703 Y-4.22290
G01 X3.76399 Y-4.22364
G01 X3.76105 Y-4.22473
G01 X3.75825 Y-4.22614
G01 X3.75563 Y-4.22786
G01 X3.75322 Y-4.22987
G01 X3.75106 Y-4.23214
G01 X3.74926 Y-4.23450
G01 X3.71991 Y-4.23450
G01 X3.65920 Y-4.17379
G01 X3.65920 Y-3.98617
G01 X3.66268 Y-3.98447
G01 X3.66575 Y-3.98259
G01 X3.66894 Y-3.98019
G01 X3.67160 Y-3.97775
G01 X3.67401 Y-3.97509
G01 X3.67640 Y-3.97188
G01 X3.67827 Y-3.96880
G01 X3.68000 Y-3.96520
G01 X3.68123 Y-3.96182
G01 X3.68224 Y-3.95795
G01 X3.68280 Y-3.95439
G01 X3.68305 Y-3.95040
G01 X3.68292 Y-3.94680
G01 X3.68239 Y-3.94284
G01 X3.68147 Y-3.93895
G01 X3.68023 Y-3.93539
G01 X3.75012 Y-3.86550
G01 X3.76811 Y-3.86550
G01 X3.76811 Y-3.87559
G01 X3.81929 Y-3.87559
G01 X3.81929 Y-3.82441
G01 X3.76811 Y-3.82441
G01 X3.76811 Y-3.83450
G01 X3.74208 Y-3.83458
G01 X3.74008 Y-3.83493
G01 X3.73777 Y-3.83568
G01 X3.73595 Y-3.83658
G01 X3.73395 Y-3.83795
G01 X3.65831 Y-3.91346
G01 X3.65456 Y-3.91218
G01 X3.65066 Y-3.91127
G01 X3.64670 Y-3.91076
G01 X3.64310 Y-3.91065
G01 X3.63911 Y-3.91092
G01 X3.63517 Y-3.91159
G01 X3.63131 Y-3.91265
G01 X3.62795 Y-3.91394
G01 X3.62437 Y-3.91572
G01 X3.62099 Y-3.91786
G01 X3.61815 Y-3.92007
G01 X3.61525 Y-3.92282
G01 X3.61263 Y-3.92585
G01 X3.61056 Y-3.92879
G01 X3.60876 Y-3.93190
G01 X3.60710 Y-3.93554
G01 X3.60593 Y-3.93895
G01 X3.60501 Y-3.94284
G01 X3.60448 Y-3.94680
G01 X3.60435 Y-3.95040
G04 P0 ( dwell for no time -- G64 should not smooth over this point )
G00 Z0.08000 ( retract )

G00 X3.60435 Y-3.55000 ( rapid move to begin. )
G01 F180.00000
( Mill infeed pass 1/1 )
G01 Z-0.04000
G04 P0 ( dwell for no time -- G64 should not smooth over this point )
G01 F360.00000
G01 X3.60435 Y-3.55000
G01 X3.60451 Y-3.55360
G01 X3.60501 Y-3.55716
G01 X3.60582 Y-3.56067
G01 X3.60696 Y-3.56408
G01 X3.60840 Y-3.56738
G01 X3.61034 Y-3.57087
G01 X3.61239 Y-3.57383
G01 X3.61470 Y-3.57660
G01 X3.61725 Y-3.57913
G01 X3.62002 Y-3.58143
G01 X3.62299 Y-3.58346
G01 X3.62650 Y-3.58539
G01 X3.62980 Y-3.58681
G01 X3.63323 Y-3.58793
G01 X3.63674 Y-3.58873
G01 X3.64030 Y-3.58920
G01 X3.64350 Y-3.58935
G01 X3.64670 Y-3.58923
G01 X3.64988 Y-3.58886
G01 X3.65262 Y-3.58832
G01 X3.65571 Y-3.58747
G01 X3.65834 Y-3.58652
G01 X3.66090 Y-3.58539
G01 X3.66372 Y-3.58388
G01 X3.66641 Y-3.58214
G01 X3.66894 Y-3.58019
G01 X3.67131 Y-3.57804
G01 X3.67324 Y-3.57600
G01 X3.67525 Y-3.57352
G01 X3.67684 Y-3.57121
G01 X3.67846 Y-3.56845
G01 X3.67976 Y-3.56575
G01 X4.00764 Y-3.56575
G01 X4.00894 Y-3.56845
G01 X4.01056 Y-3.57121
G01 X4.01239 Y-3.57383
G01 X4.01443 Y-3.57630
G01 X4.01666 Y-3.57859
G01 X4.01908 Y-3.58069
G01 X4.02165 Y-3.58259
G01 X4.02437 Y-3.58428
G01 X4.02722 Y-3.58573
G01 X4.03018 Y-3.58695
G01 X4.03323 Y-3.58793
G01 X4.03634 Y-3.58866
G01 X4.03951 Y-3.58913
G01 X4.04270 Y-3.58934
G01 X4.04590 Y-3.58929
G01 X4.04908 Y-3.58898
G01 X4.05340 Y-3.58813
G01 X4.05797 Y-3.58667
G01 X4.06197 Y-3.58485
G01 X4.06575 Y-3.58259
G01 X4.06925 Y-3.57993
G01 X4.07243 Y-3.57689
G01 X4.07525 Y-3.57352
G01 X4.07768 Y-3.56985
G01 X4.07968 Y-3.56593
G01 X4.08123 Y-3.56182
G01 X4.08232 Y-3.55755
G01 X4.08295 Y-3.55280
G01 X4.08302 Y-3.54840
G01 X4.08259 Y-3.54402
G01 X4.08168 Y-3.53972
G01 X4.08023 Y-3.53538
G01 X4.19662 Y-3.41900
G01 X4.54078 Y-3.41900
G01 X4.65717 Y-3.53539
G01 X4.65582 Y-3.53933
G01 X4.65487 Y-3.54363
G01 X4.65440 Y-3.54800
G01 X4.65440 Y-3.55204
G01 X4.40808 Y-3.67520
G01 X4.32480 Y-3.67520
G01 X4.32480 Y-3.81300
G01 X4.46260 Y-3.81300
G01 X4.46260 Y-3.68316
G01 X4.66849 Y-3.58021
G01 X4.67232 Y-3.58303
G01 X4.67614 Y-3.58521
G01 X4.68056 Y-3.58709
G01 X4.68478 Y-3.58832
G01 X4.68951 Y-3.58913
G01 X4.69390 Y-3.58935
G01 X4.69829 Y-3.58908
G01 X4.70262 Y-3.58832
G01 X4.70684 Y-3.58709
G01 X4.71126 Y-3.58521
G01 X4.71542 Y-3.58282
G01 X4.71894 Y-3.58019
G01 X4.72215 Y-3.57718
G01 X4.72525 Y-3.57352
G01 X4.72768 Y-3.56985
G01 X4.72976 Y-3.56575
G01 X5.05764 Y-3.56575
G01 X5.05894 Y-3.56845
G01 X5.06056 Y-3.57121
G01 X5.06215 Y-3.57352
G01 X5.06416 Y-3.57600
G01 X5.06609 Y-3.57804
G01 X5.06846 Y-3.58019
G01 X5.07099 Y-3.58214
G01 X5.07334 Y-3.58367
G01 X5.07578 Y-3.58503
G01 X5.07869 Y-3.58637
G01 X5.08131 Y-3.58735
G01 X5.08439 Y-3.58823
G01 X5.08713 Y-3.58880
G01 X5.09030 Y-3.58920
G01 X5.09310 Y-3.58934
G01 X5.09630 Y-3.58926
G01 X5.09988 Y-3.58886
G01 X5.10340 Y-3.58813
G01 X5.10684 Y-3.58709
G01 X5.11054 Y-3.58556
G01 X5.11372 Y-3.58388
G01 X5.11706 Y-3.58167
G01 X5.11985 Y-3.57940
G01 X5.12243 Y-3.57689
G01 X5.12477 Y-3.57415
G01 X5.12684 Y-3.57121
G01 X5.12864 Y-3.56810
G01 X5.13030 Y-3.56446
G01 X5.13147 Y-3.56105
G01 X5.13232 Y-3.55755
G01 X5.13289 Y-3.55360
G01 X5.13305 Y-3.55000
G01 X5.13289 Y-3.54640
G01 X5.13232 Y-3.54244
G01 X5.13147 Y-3.53895
G01 X5.13030 Y-3.53554
G01 X5.12864 Y-3.53190
G01 X5.12684 Y-3.52879
G01 X5.12477 Y-3.52585
G01 X5.12215 Y-3.52282
G01 X5.11925 Y-3.52007
G01 X5.11641 Y-3.51786
G01 X5.11303 Y-3.51572
G01 X5.10981 Y-3.51410
G01 X5.10609 Y-3.51265
G01 X5.10262 Y-3.51167
G01 X5.09869 Y-3.51097
G01 X5.09510 Y-3.51067
G01 X5.09230 Y-3.51067
G01 X5.08911 Y-3.51092
G01 X5.08595 Y-3.51142
G01 X5.08323 Y-3.51207
G01 X5.08056 Y-3.51291
G01 X5.07759 Y-3.51410
G01 X5.07266 Y-3.51675
G01 X5.06815 Y-3.52007
G01 X5.06580 Y-3.52225
G01 X5.06390 Y-3.52430
G01 X5.06215 Y-3.52648
G01 X5.06034 Y-3.52913
G01 X5.05894 Y-3.53155
G01 X5.05764 Y-3.53425
G01 X4.72976 Y-3.53425
G01 X4.72807 Y-3.53085
G01 X4.72618 Y-3.52779
G01 X4.72376 Y-3.52460
G01 X4.72131 Y-3.52196
G01 X4.71832 Y-3.51931
G01 X4.71542 Y-3.51718
G01 X4.71197 Y-3.51515
G01 X4.70871 Y-3.51363
G01 X4.70494 Y-3.51229
G01 X4.70145 Y-3.51142
G01 X4.69749 Y-3.51083
G01 X4.69390 Y-3.51065
G01 X4.69030 Y-3.51080
G01 X4.68634 Y-3.51134
G01 X4.68284 Y-3.51218
G01 X4.67909 Y-3.51346
G01 X4.55787 Y-3.39226
G01 X4.55598 Y-3.39073
G01 X4.55387 Y-3.38951
G01 X4.55160 Y-3.38864
G01 X4.54962 Y-3.38819
G01 X4.54720 Y-3.38800
G01 X4.19020 Y-3.38800
G01 X4.18738 Y-3.38826
G01 X4.18427 Y-3.38918
G01 X4.18176 Y-3.39050
G01 X4.17953 Y-3.39226
G01 X4.05831 Y-3.51346
G01 X4.05456 Y-3.51218
G01 X4.05106 Y-3.51134
G01 X4.04710 Y-3.51080
G01 X4.04350 Y-3.51065
G01 X4.03991 Y-3.51083
G01 X4.03595 Y-3.51142
G01 X4.03246 Y-3.51229
G01 X4.02869 Y-3.51363
G01 X4.02543 Y-3.51515
G01 X4.02198 Y-3.51718
G01 X4.01908 Y-3.51931
G01 X4.01609 Y-3.52196
G01 X4.01364 Y-3.52460
G01 X4.01122 Y-3.52779
G01 X4.00933 Y-3.53085
G01 X4.00764 Y-3.53425
G01 X3.67976 Y-3.53425
G01 X3.67846 Y-3.53155
G01 X3.67706 Y-3.52913
G01 X3.67525 Y-3.52648
G01 X3.67350 Y-3.52430
G01 X3.67160 Y-3.52225
G01 X3.66925 Y-3.52007
G01 X3.66474 Y-3.51675
G01 X3.65981 Y-3.51410
G01 X3.65684 Y-3.51291
G01 X3.65417 Y-3.51207
G01 X3.65145 Y-3.51142
G01 X3.64829 Y-3.51092
G01 X3.64510 Y-3.51067
G01 X3.64230 Y-3.51067
G01 X3.63871 Y-3.51097
G01 X3.63478 Y-3.51167
G01 X3.63131 Y-3.51265
G01 X3.62759 Y-3.51410
G01 X3.62437 Y-3.51572
G01 X3.62099 Y-3.51786
G01 X3.61815 Y-3.52007
G01 X3.61525 Y-3.52282
G01 X3.61263 Y-3.52585
G01 X3.61056 Y-3.52879
G01 X3.60876 Y-3.53190
G01 X3.60710 Y-3.53554
G01 X3.60593 Y-3.53895
G01 X3.60508 Y-3.54244
G01 X3.60451 Y-3.54640
G01 X3.60435 Y-3.55000
G04 P0 ( dwell for no time -- G64 should not smooth over this point )
G00 Z0.08000 ( retract )

G00 X3.86657 Y-3.85140 ( rapid move to begin. )
G01 F180.00000
( Mill infeed pass 1/1 )
G01 Z-0.04000
G04 P0 ( dwell for no time -- G64 should not smooth over this point )
G01 F360.00000
G01 X3.86657 Y-3.85140
G01 X3.86657 Y-3.84860
G01 X3.86702 Y-3.84502
G01 X3.86784 Y-3.84192
G01 X3.86904 Y-3.83895
G01 X3.87083 Y-3.83581
G01 X3.87277 Y-3.83326
G01 X3.87531 Y-3.83071
G01 X3.87786 Y-3.82876
G01 X3.88062 Y-3.82714
G01 X3.88357 Y-3.82588
G01 X3.88665 Y-3.82500
G01 X3.89022 Y-3.82448
G01 X3.89343 Y-3.82444
G01 X3.89701 Y-3.82488
G01 X3.90011 Y-3.82569
G01 X3.90309 Y-3.82687
G01 X3.90623 Y-3.82864
G01 X3.90909 Y-3.83084
G01 X3.91161 Y-3.83341
G01 X3.91375 Y-3.83632
G01 X3.91546 Y-3.83949
G01 X3.91670 Y-3.84288
G01 X3.91746 Y-3.84640
G01 X3.91772 Y-3.85000
G01 X3.91748 Y-3.85344
G01 X3.99855 Y-3.93450
G01 X4.00753 Y-3.93450
G01 X4.00894 Y-3.93155
G01 X4.01056 Y-3.92879
G01 X4.01263 Y-3.92585
G01 X4.01470 Y-3.92340
G01 X4.01696 Y-3.92113
G01 X4.01971 Y-3.91881
G01 X4.02266 Y-3.91675
G01 X4.02543 Y-3.91515
G01 X4.02943 Y-3.91333
G01 X4.03400 Y-3.91186
G01 X4.03871 Y-3.91097
G01 X4.04350 Y-3.91065
G01 X4.04908 Y-3.91102
G01 X4.05223 Y-3.91159
G01 X4.05494 Y-3.91229
G01 X4.05797 Y-3.91333
G01 X4.06054 Y-3.91444
G01 X4.06542 Y-3.91718
G01 X4.06801 Y-3.91906
G01 X4.07015 Y-3.92086
G01 X4.07401 Y-3.92491
G01 X4.07727 Y-3.92946
G01 X4.07864 Y-3.93190
G01 X4.07987 Y-3.93450
G01 X4.38308 Y-3.93450
G01 X4.53963 Y-3.77795
G01 X4.54115 Y-3.77661
G01 X4.54284 Y-3.77549
G01 X4.54503 Y-3.77444
G01 X4.54697 Y-3.77384
G01 X4.54857 Y-3.77354
G01 X4.55059 Y-3.77341
G01 X5.04420 Y-3.77343
G01 X5.04701 Y-3.77384
G01 X5.04932 Y-3.77459
G01 X5.05183 Y-3.77591
G01 X5.05406 Y-3.77766
G01 X5.17951 Y-3.90311
G01 X5.18132 Y-3.90529
G01 X5.18271 Y-3.90777
G01 X5.18362 Y-3.91045
G01 X5.18403 Y-3.91326
G01 X5.18404 Y-3.98633
G01 X5.18386 Y-3.98835
G01 X5.18329 Y-3.99072
G01 X5.18254 Y-3.99260
G01 X5.18132 Y-3.99471
G01 X5.17951 Y-3.99689
G01 X4.99359 Y-4.18278
G01 X4.99166 Y-4.18426
G01 X4.98915 Y-4.18558
G01 X4.98684 Y-4.18633
G01 X4.98443 Y-4.18671
G01 X4.93814 Y-4.18676
G01 X4.93634 Y-4.18912
G01 X4.93434 Y-4.19123
G01 X4.93213 Y-4.19313
G01 X4.92973 Y-4.19477
G01 X4.92717 Y-4.19616
G01 X4.92447 Y-4.19726
G01 X4.92168 Y-4.19808
G01 X4.91882 Y-4.19860
G01 X4.91547 Y-4.19882
G01 X4.87070 Y-4.19879
G01 X4.86648 Y-4.19825
G01 X4.86261 Y-4.19715
G01 X4.85874 Y-4.19539
G01 X4.85536 Y-4.19319
G01 X4.85219 Y-4.19037
G01 X4.84948 Y-4.18708
G01 X4.84742 Y-4.18363
G01 X4.84581 Y-4.17969
G01 X4.84482 Y-4.17555
G01 X4.84449 Y-4.17131
G01 X4.84477 Y-4.16730
G01 X4.84571 Y-4.16315
G01 X4.84727 Y-4.15919
G01 X4.84942 Y-4.15553
G01 X4.85196 Y-4.15240
G01 X4.85510 Y-4.14953
G01 X4.85825 Y-4.14740
G01 X4.86188 Y-4.14565
G01 X4.86572 Y-4.14444
G01 X4.86947 Y-4.14382
G01 X4.87205 Y-4.14370
G01 X4.91670 Y-4.14373
G01 X4.92003 Y-4.14410
G01 X4.92309 Y-4.14481
G01 X4.92604 Y-4.14586
G01 X4.92886 Y-4.14724
G01 X4.93150 Y-4.14892
G01 X4.93393 Y-4.15090
G01 X4.93612 Y-4.15314
G01 X4.93814 Y-4.15576
G01 X4.97680 Y-4.15576
G01 X5.15305 Y-3.97951
G01 X5.15305 Y-3.92049
G01 X5.03697 Y-3.80441
G01 X4.55701 Y-3.80441
G01 X4.40046 Y-3.96096
G01 X4.39894 Y-3.96230
G01 X4.39760 Y-3.96321
G01 X4.39467 Y-3.96461
G01 X4.39192 Y-3.96531
G01 X4.38950 Y-3.96550
G01 X4.07987 Y-3.96550
G01 X4.07747 Y-3.97019
G01 X4.07427 Y-3.97478
G01 X4.07044 Y-3.97886
G01 X4.06608 Y-3.98237
G01 X4.06126 Y-3.98521
G01 X4.05609 Y-3.98735
G01 X4.05066 Y-3.98873
G01 X4.04510 Y-3.98933
G01 X4.04230 Y-3.98933
G01 X4.03911 Y-3.98908
G01 X4.03595 Y-3.98858
G01 X4.03323 Y-3.98793
G01 X4.03056 Y-3.98709
G01 X4.02759 Y-3.98590
G01 X4.02266 Y-3.98325
G01 X4.02002 Y-3.98143
G01 X4.01785 Y-3.97967
G01 X4.01580 Y-3.97775
G01 X4.01364 Y-3.97539
G01 X4.01191 Y-3.97319
G01 X4.01013 Y-3.97053
G01 X4.00876 Y-3.96809
G01 X4.00753 Y-3.96550
G01 X3.99213 Y-3.96550
G01 X3.99010 Y-3.96537
G01 X3.98811 Y-3.96497
G01 X3.98619 Y-3.96432
G01 X3.98438 Y-3.96342
G01 X3.98269 Y-3.96230
G01 X3.98116 Y-3.96096
G01 X3.89556 Y-3.87536
G01 X3.89263 Y-3.87559
G01 X3.88982 Y-3.87549
G01 X3.88665 Y-3.87500
G01 X3.88395 Y-3.87425
G01 X3.88135 Y-3.87321
G01 X3.87887 Y-3.87189
G01 X3.87624 Y-3.87006
G01 X3.87414 Y-3.86820
G01 X3.87251 Y-3.86643
G01 X3.87083 Y-3.86419
G01 X3.86940 Y-3.86177
G01 X3.86825 Y-3.85921
G01 X3.86749 Y-3.85693
G01 X3.86688 Y-3.85419
G01 X3.86657 Y-3.85140
G04 P0 ( dwell for no time -- G64 should not smooth over this point )
G00 Z0.08000 ( retract )

G00 X4.50630 Y-4.29980 ( rapid move to begin. )
G01 F180.00000
( Mill infeed pass 1/1 )
G01 Z-0.04000
G04 P0 ( dwell for no time -- G64 should not smooth over this point )
G01 F360.00000
G01 X4.50630 Y-4.29980
G01 X4.50653 Y-4.29580
G01 X4.50720 Y-4.29186
G01 X4.50815 Y-4.28838
G01 X4.50959 Y-4.28465
G01 X4.51123 Y-4.28144
G01 X4.51339 Y-4.27808
G01 X4.51564 Y-4.27527
G01 X4.51845 Y-4.27241
G01 X4.52154 Y-4.26987
G01 X4.52454 Y-4.26788
G01 X4.52772 Y-4.26619
G01 X4.53142 Y-4.26467
G01 X4.53488 Y-4.26365
G01 X4.53881 Y-4.26292
G01 X4.54240 Y-4.26262
G01 X4.54640 Y-4.26270
G01 X4.55076 Y-4.26327
G01 X4.55465 Y-4.26424
G01 X4.55877 Y-4.26577
G01 X4.56269 Y-4.26778
G01 X4.56634 Y-4.27023
G01 X4.56968 Y-4.27310
G01 X4.57266 Y-4.27633
G01 X4.57503 Y-4.27956
G01 X4.57721 Y-4.28339
G01 X4.57879 Y-4.28706
G01 X4.58007 Y-4.29127
G01 X4.58084 Y-4.29561
G01 X4.58110 Y-4.30000
G01 X4.58089 Y-4.30400
G01 X4.58025 Y-4.30795
G01 X4.57882 Y-4.31285
G01 X4.57896 Y-4.31299
G01 X4.84943 Y-4.31299
G01 X4.85121 Y-4.31071
G01 X4.85306 Y-4.30876
G01 X4.85510 Y-4.30701
G01 X4.85729 Y-4.30546
G01 X4.85963 Y-4.30414
G01 X4.86208 Y-4.30304
G01 X4.86463 Y-4.30220
G01 X4.86725 Y-4.30160
G01 X4.87193 Y-4.30118
G01 X4.91670 Y-4.30121
G01 X4.91937 Y-4.30147
G01 X4.92201 Y-4.30200
G01 X4.92458 Y-4.30277
G01 X4.92727 Y-4.30389
G01 X4.92963 Y-4.30517
G01 X4.93204 Y-4.30681
G01 X4.93409 Y-4.30853
G01 X4.93597 Y-4.31046
G01 X4.93766 Y-4.31255
G01 X4.93924 Y-4.31499
G01 X4.94046 Y-4.31738
G01 X4.94145 Y-4.31988
G01 X4.94219 Y-4.32247
G01 X4.94267 Y-4.32511
G01 X4.94290 Y-4.32779
G01 X4.94284 Y-4.33070
G01 X4.94256 Y-4.33315
G01 X4.94206 Y-4.33556
G01 X4.94134 Y-4.33791
G01 X4.94032 Y-4.34040
G01 X4.93918 Y-4.34258
G01 X4.93785 Y-4.34466
G01 X4.93619 Y-4.34677
G01 X4.93450 Y-4.34856
G01 X4.93265 Y-4.35019
G01 X4.93067 Y-4.35165
G01 X4.92856 Y-4.35293
G01 X4.92615 Y-4.35410
G01 X4.92384 Y-4.35496
G01 X4.92124 Y-4.35566
G01 X4.91882 Y-4.35608
G01 X4.91636 Y-4.35628
G01 X4.87182 Y-4.35630
G01 X4.86737 Y-4.35590
G01 X4.86453 Y-4.35525
G01 X4.86198 Y-4.35440
G01 X4.85953 Y-4.35329
G01 X4.85720 Y-4.35196
G01 X4.85501 Y-4.35040
G01 X4.85298 Y-4.34864
G01 X4.85113 Y-4.34669
G01 X4.84943 Y-4.34449
G01 X4.57124 Y-4.34444
G01 X4.56927 Y-4.34417
G01 X4.56734 Y-4.34364
G01 X4.56586 Y-4.34305
G01 X4.56411 Y-4.34211
G01 X4.56188 Y-4.34043
G01 X4.55655 Y-4.33512
G01 X4.55233 Y-4.33639
G01 X4.54799 Y-4.33715
G01 X4.54360 Y-4.33740
G01 X4.53921 Y-4.33713
G01 X4.53488 Y-4.33634
G01 X4.53067 Y-4.33506
G01 X4.52628 Y-4.33310
G01 X4.52252 Y-4.33082
G01 X4.51874 Y-4.32786
G01 X4.51564 Y-4.32473
G01 X4.51293 Y-4.32127
G01 X4.51046 Y-4.31715
G01 X4.50868 Y-4.31312
G01 X4.50738 Y-4.30892
G01 X4.50658 Y-4.30459
G01 X4.50630 Y-4.29980
G04 P0 ( dwell for no time -- G64 should not smooth over this point )
G00 Z0.08000 ( retract )

G00 X4.79349 Y-4.04130 ( rapid move to begin. )
G01 F180.00000
( Mill infeed pass 1/1 )
G01 Z-0.04000
G04 P0 ( dwell for no time -- G64 should not smooth over this point )
G01 F360.00000
G01 X4.79349 Y-4.04130
G01 X4.79351 Y-4.24631
G01 X4.79383 Y-4.24872
G01 X4.79452 Y-4.25105
G01 X4.79556 Y-4.25325
G01 X4.79694 Y-4.25525
G01 X4.80373 Y-4.26204
G01 X4.80574 Y-4.26342
G01 X4.80831 Y-4.26461
G01 X4.81066 Y-4.26524
G01 X4.81308 Y-4.26549
G01 X4.84926 Y-4.26550
G01 X4.85113 Y-4.26795
G01 X4.85314 Y-4.27005
G01 X4.85536 Y-4.27193
G01 X4.85777 Y-4.27357
G01 X4.86033 Y-4.27495
G01 X4.86303 Y-4.27604
G01 X4.86583 Y-4.27685
G01 X4.86869 Y-4.27735
G01 X4.87205 Y-4.27756
G01 X4.91636 Y-4.27754
G01 X4.92015 Y-4.27714
G01 X4.92405 Y-4.27615
G01 X4.92777 Y-4.27460
G01 X4.93122 Y-4.27253
G01 X4.93434 Y-4.26998
G01 X4.93691 Y-4.26717
G01 X4.93918 Y-4.26384
G01 X4.94095 Y-4.26022
G01 X4.94194 Y-4.25725
G01 X4.94256 Y-4.25441
G01 X4.94287 Y-4.25151
G01 X4.94288 Y-4.24860
G01 X4.94258 Y-4.24571
G01 X4.94191 Y-4.24264
G01 X4.94099 Y-4.23988
G01 X4.93978 Y-4.23723
G01 X4.93817 Y-4.23454
G01 X4.93641 Y-4.23222
G01 X4.93442 Y-4.23010
G01 X4.93204 Y-4.22806
G01 X4.92944 Y-4.22631
G01 X4.92686 Y-4.22496
G01 X4.92416 Y-4.22388
G01 X4.92135 Y-4.22310
G01 X4.91848 Y-4.22262
G01 X4.91558 Y-4.22244
G01 X4.87193 Y-4.22244
G01 X4.86881 Y-4.22263
G01 X4.86594 Y-4.22313
G01 X4.86314 Y-4.22392
G01 X4.86023 Y-4.22510
G01 X4.85767 Y-4.22649
G01 X4.85527 Y-4.22813
G01 X4.85306 Y-4.23002
G01 X4.85106 Y-4.23214
G01 X4.84926 Y-4.23450
G01 X4.82449 Y-4.23450
G01 X4.82449 Y-4.04772
G01 X4.95575 Y-3.91634
G01 X4.95712 Y-3.91434
G01 X4.95802 Y-3.91252
G01 X4.95877 Y-3.91021
G01 X4.95915 Y-3.90781
G01 X4.95920 Y-3.87559
G01 X4.96929 Y-3.87559
G01 X4.96929 Y-3.86550
G01 X4.98728 Y-3.86550
G01 X5.05717 Y-3.93539
G01 X5.05605 Y-3.93857
G01 X5.05516 Y-3.94205
G01 X5.05460 Y-3.94561
G01 X5.05437 Y-3.94880
G01 X5.05440 Y-3.95200
G01 X5.05475 Y-3.95558
G01 X5.05542 Y-3.95912
G01 X5.05641 Y-3.96258
G01 X5.05772 Y-3.96593
G01 X5.05913 Y-3.96880
G01 X5.06077 Y-3.97155
G01 X5.06288 Y-3.97447
G01 X5.06525 Y-3.97718
G01 X5.06785 Y-3.97967
G01 X5.07034 Y-3.98167
G01 X5.07334 Y-3.98367
G01 X5.07722 Y-3.98573
G01 X5.08131 Y-3.98735
G01 X5.08556 Y-3.98850
G01 X5.08991 Y-3.98917
G01 X5.09430 Y-3.98935
G01 X5.09869 Y-3.98903
G01 X5.10262 Y-3.98832
G01 X5.10684 Y-3.98709
G01 X5.11090 Y-3.98539
G01 X5.11474 Y-3.98325
G01 X5.11832 Y-3.98069
G01 X5.12160 Y-3.97775
G01 X5.12452 Y-3.97447
G01 X5.12684 Y-3.97121
G01 X5.12900 Y-3.96738
G01 X5.13072 Y-3.96333
G01 X5.13168 Y-3.96028
G01 X5.13232 Y-3.95755
G01 X5.13280 Y-3.95439
G01 X5.13302 Y-3.95160
G01 X5.13303 Y-3.94880
G01 X5.13280 Y-3.94561
G01 X5.13232 Y-3.94245
G01 X5.13168 Y-3.93972
G01 X5.13072 Y-3.93667
G01 X5.12968 Y-3.93407
G01 X5.12827 Y-3.93120
G01 X5.12525 Y-3.92648
G01 X5.12324 Y-3.92400
G01 X5.11925 Y-3.92007
G01 X5.11508 Y-3.91696
G01 X5.11054 Y-3.91444
G01 X5.10571 Y-3.91253
G01 X5.10027 Y-3.91120
G01 X5.09510 Y-3.91067
G01 X5.08951 Y-3.91087
G01 X5.08439 Y-3.91177
G01 X5.07909 Y-3.91346
G01 X5.00345 Y-3.83795
G01 X5.00145 Y-3.83658
G01 X4.99963 Y-3.83568
G01 X4.99732 Y-3.83493
G01 X4.99532 Y-3.83458
G01 X4.96929 Y-3.83450
G01 X4.96929 Y-3.82441
G01 X4.91811 Y-3.82441
G01 X4.91811 Y-3.87559
G01 X4.92820 Y-3.87559
G01 X4.92820 Y-3.90017
G01 X4.79803 Y-4.03034
G01 X4.79694 Y-4.03155
G01 X4.79577 Y-4.03320
G01 X4.79438 Y-4.03613
G01 X4.79375 Y-4.03848
G01 X4.79349 Y-4.04130
( Piece #2, position [1;0] )

G04 P0 ( dwell for no time -- G64 should not smooth over this point )
G00 Z0.08000 ( retract )

G00 X5.52037 Y-4.21762 ( rapid move to begin. )
G01 F180.00000
( Mill infeed pass 1/1 )
G01 Z-0.04000
G04 P0 ( dwell for no time -- G64 should not smooth over this point )
G01 F360.00000
G01 X5.52037 Y-4.21762
G01 X5.52050 Y-4.21964
G01 X5.52100 Y-4.22202
G01 X5.52154 Y-4.22355
G01 X5.52244 Y-4.22537
G01 X5.52357 Y-4.22706
G01 X5.52490 Y-4.22858
G01 X5.70608 Y-4.40976
G01 X5.70761 Y-4.41109
G01 X5.70965 Y-4.41242
G01 X5.71225 Y-4.41354
G01 X5.71462 Y-4.41411
G01 X5.71704 Y-4.41430
G01 X6.19091 Y-4.41421
G01 X6.19330 Y-4.41377
G01 X6.19559 Y-4.41296
G01 X6.19773 Y-4.41180
G01 X6.19966 Y-4.41032
G01 X6.22868 Y-4.38133
G01 X6.23072 Y-4.37881
G01 X6.23171 Y-4.37704
G01 X6.23246 Y-4.37516
G01 X6.23296 Y-4.37319
G01 X6.23319 Y-4.37118
G01 X6.23322 Y-4.33937
G01 X6.25512 Y-4.33937
G01 X6.25512 Y-4.31550
G01 X6.38031 Y-4.31550
G01 X6.38031 Y-4.33937
G01 X6.45512 Y-4.33937
G01 X6.45512 Y-4.26063
G01 X6.38031 Y-4.26063
G01 X6.38031 Y-4.28450
G01 X6.25512 Y-4.28450
G01 X6.25512 Y-4.26063
G01 X6.18031 Y-4.26063
G01 X6.18031 Y-4.33937
G01 X6.20222 Y-4.33937
G01 X6.20222 Y-4.36395
G01 X6.18287 Y-4.38330
G01 X5.72346 Y-4.38330
G01 X5.55137 Y-4.21120
G01 X5.55137 Y-3.81713
G01 X5.58485 Y-3.78365
G01 X5.94067 Y-3.78365
G01 X5.94269 Y-3.78352
G01 X5.94468 Y-3.78312
G01 X5.94660 Y-3.78247
G01 X5.94842 Y-3.78157
G01 X5.95010 Y-3.78045
G01 X5.95163 Y-3.77911
G01 X6.08924 Y-3.64150
G01 X6.11382 Y-3.64150
G01 X6.11382 Y-3.69490
G01 X6.25162 Y-3.69490
G01 X6.25162 Y-3.57902
G01 X6.29882 Y-3.53182
G01 X6.29882 Y-3.57680
G01 X6.43662 Y-3.57680
G01 X6.43662 Y-3.43900
G01 X6.29882 Y-3.43900
G01 X6.29882 Y-3.49253
G01 X6.29641 Y-3.49304
G01 X6.29414 Y-3.49391
G01 X6.29204 Y-3.49513
G01 X6.29015 Y-3.49666
G01 X6.22970 Y-3.55710
G01 X6.11382 Y-3.55710
G01 X6.11382 Y-3.61050
G01 X6.08160 Y-3.61055
G01 X6.07920 Y-3.61093
G01 X6.07688 Y-3.61168
G01 X6.07472 Y-3.61278
G01 X6.07306 Y-3.61395
G01 X5.93425 Y-3.75265
G01 X5.57843 Y-3.75265
G01 X5.57640 Y-3.75278
G01 X5.57402 Y-3.75329
G01 X5.57212 Y-3.75399
G01 X5.56999 Y-3.75515
G01 X5.56806 Y-3.75663
G01 X5.52490 Y-3.79975
G01 X5.52357 Y-3.80127
G01 X5.52224 Y-3.80332
G01 X5.52112 Y-3.80592
G01 X5.52056 Y-3.80829
G01 X5.52037 Y-3.81071
G01 X5.52037 Y-4.21762
G04 P0 ( dwell for no time -- G64 should not smooth over this point )
G00 Z0.08000 ( retract )

G00 X5.71852 Y-4.32790 ( rapid move to begin. )
G01 F180.00000
( Mill infeed pass 1/1 )
G01 Z-0.04000
G04 P0 ( dwell for no time -- G64 should not smooth over this point )
G01 F360.00000
G01 X5.71852 Y-4.32790
G01 X5.71873 Y-4.32522
G01 X5.71920 Y-4.32258
G01 X5.71993 Y-4.31999
G01 X5.72091 Y-4.31749
G01 X5.72212 Y-4.31509
G01 X5.72356 Y-4.31282
G01 X5.72537 Y-4.31054
G01 X5.72724 Y-4.30861
G01 X5.72947 Y-4.30674
G01 X5.73169 Y-4.30523
G01 X5.73405 Y-4.30394
G01 X5.73673 Y-4.30281
G01 X5.73930 Y-4.30202
G01 X5.74193 Y-4.30149
G01 X5.74461 Y-4.30122
G01 X5.78959 Y-4.30118
G01 X5.79405 Y-4.30158
G01 X5.79667 Y-4.30217
G01 X5.79923 Y-4.30300
G01 X5.80189 Y-4.30419
G01 X5.80422 Y-4.30552
G01 X5.80641 Y-4.30708
G01 X5.80844 Y-4.30884
G01 X5.81028 Y-4.31079
G01 X5.81198 Y-4.31299
G01 X6.03619 Y-4.31299
G01 X6.08045 Y-4.29683
G01 X6.08090 Y-4.29343
G01 X6.08159 Y-4.29030
G01 X6.08255 Y-4.28725
G01 X6.08394 Y-4.28393
G01 X6.08544 Y-4.28110
G01 X6.08718 Y-4.27841
G01 X6.08914 Y-4.27587
G01 X6.09159 Y-4.27324
G01 X6.09428 Y-4.27085
G01 X6.09686 Y-4.26895
G01 X6.09960 Y-4.26728
G01 X6.10246 Y-4.26585
G01 X6.10544 Y-4.26467
G01 X6.10850 Y-4.26375
G01 X6.11164 Y-4.26309
G01 X6.11522 Y-4.26268
G01 X6.11922 Y-4.26263
G01 X6.12280 Y-4.26295
G01 X6.12635 Y-4.26361
G01 X6.13018 Y-4.26474
G01 X6.13388 Y-4.26627
G01 X6.13705 Y-4.26798
G01 X6.14036 Y-4.27023
G01 X6.14341 Y-4.27282
G01 X6.14617 Y-4.27572
G01 X6.14837 Y-4.27857
G01 X6.15029 Y-4.28162
G01 X6.15207 Y-4.28520
G01 X6.15333 Y-4.28857
G01 X6.15435 Y-4.29244
G01 X6.15494 Y-4.29640
G01 X6.15512 Y-4.30000
G01 X6.15501 Y-4.30280
G01 X6.15470 Y-4.30558
G01 X6.15418 Y-4.30834
G01 X6.15345 Y-4.31104
G01 X6.15252 Y-4.31369
G01 X6.15140 Y-4.31625
G01 X6.15009 Y-4.31873
G01 X6.14860 Y-4.32110
G01 X6.14693 Y-4.32335
G01 X6.14510 Y-4.32547
G01 X6.14312 Y-4.32745
G01 X6.14099 Y-4.32928
G01 X6.13873 Y-4.33094
G01 X6.13636 Y-4.33242
G01 X6.13388 Y-4.33373
G01 X6.13131 Y-4.33484
G01 X6.12635 Y-4.33639
G01 X6.12360 Y-4.33694
G01 X6.12082 Y-4.33727
G01 X6.11802 Y-4.33740
G01 X6.11522 Y-4.33732
G01 X6.11006 Y-4.33661
G01 X6.10506 Y-4.33520
G01 X6.10246 Y-4.33415
G01 X6.09995 Y-4.33291
G01 X6.09753 Y-4.33149
G01 X6.09523 Y-4.32989
G01 X6.09125 Y-4.32643
G01 X6.04438 Y-4.34354
G01 X6.04249 Y-4.34409
G01 X6.04016 Y-4.34445
G01 X5.81198 Y-4.34449
G01 X5.81021 Y-4.34677
G01 X5.80836 Y-4.34872
G01 X5.80632 Y-4.35047
G01 X5.80412 Y-4.35202
G01 X5.80179 Y-4.35334
G01 X5.79933 Y-4.35444
G01 X5.79678 Y-4.35528
G01 X5.79416 Y-4.35588
G01 X5.78948 Y-4.35630
G01 X5.74494 Y-4.35628
G01 X5.74249 Y-4.35607
G01 X5.74006 Y-4.35564
G01 X5.73768 Y-4.35500
G01 X5.73517 Y-4.35405
G01 X5.73295 Y-4.35298
G01 X5.73084 Y-4.35171
G01 X5.72885 Y-4.35026
G01 X5.72683 Y-4.34848
G01 X5.72500 Y-4.34652
G01 X5.72350 Y-4.34456
G01 X5.72218 Y-4.34249
G01 X5.72104 Y-4.34030
G01 X5.72011 Y-4.33802
G01 X5.71939 Y-4.33567
G01 X5.71884 Y-4.33303
G01 X5.71857 Y-4.33059
G01 X5.71852 Y-4.32790
G04 P0 ( dwell for no time -- G64 should not smooth over this point )
G00 Z0.08000 ( retract )

G00 X5.71853 Y-4.16997 ( rapid move to begin. )
G01 F180.00000
( Mill infeed pass 1/1 )
G01 Z-0.04000
G04 P0 ( dwell for no time -- G64 should not smooth over this point )
G01 F360.00000
G01 X5.71853 Y-4.16997
G01 X5.71886 Y-4.16685
G01 X5.71953 Y-4.16379
G01 X5.72055 Y-4.16083
G01 X5.72190 Y-4.15800
G01 X5.72356 Y-4.15534
G01 X5.72552 Y-4.15289
G01 X5.72774 Y-4.15068
G01 X5.73019 Y-4.14873
G01 X5.73285 Y-4.14707
G01 X5.73589 Y-4.14565
G01 X5.73887 Y-4.14466
G01 X5.74193 Y-4.14401
G01 X5.74505 Y-4.14372
G01 X5.78959 Y-4.14370
G01 X5.79405 Y-4.14410
G01 X5.79689 Y-4.14475
G01 X5.79944 Y-4.14560
G01 X5.80189 Y-4.14671
G01 X5.80422 Y-4.14804
G01 X5.80641 Y-4.14960
G01 X5.80844 Y-4.15136
G01 X5.81028 Y-4.15331
G01 X5.81198 Y-4.15551
G01 X6.40400 Y-4.15551
G01 X6.65197 Y-3.90754
G01 X6.65205 Y-3.84838
G01 X6.65239 Y-3.84638
G01 X6.65284 Y-3.84483
G01 X6.65421 Y-3.84189
G01 X6.65616 Y-3.83930
G01 X6.65859 Y-3.83716
G01 X6.66031 Y-3.83610
G01 X6.66254 Y-3.83512
G01 X6.66489 Y-3.83451
G01 X6.66731 Y-3.83426
G01 X6.79912 Y-3.83425
G01 X6.80102 Y-3.83208
G01 X6.80340 Y-3.82994
G01 X6.80604 Y-3.82811
G01 X6.80851 Y-3.82679
G01 X6.81150 Y-3.82563
G01 X6.81421 Y-3.82492
G01 X6.81739 Y-3.82448
G01 X6.82019 Y-3.82443
G01 X6.82417 Y-3.82488
G01 X6.82803 Y-3.82595
G01 X6.83168 Y-3.82761
G01 X6.83502 Y-3.82981
G01 X6.83798 Y-3.83252
G01 X6.84048 Y-3.83565
G01 X6.84246 Y-3.83913
G01 X6.84387 Y-3.84288
G01 X6.84450 Y-3.84561
G01 X6.84480 Y-3.84800
G01 X6.84487 Y-3.85080
G01 X6.84463 Y-3.85360
G01 X6.84408 Y-3.85635
G01 X6.84324 Y-3.85902
G01 X6.84211 Y-3.86159
G01 X6.84070 Y-3.86402
G01 X6.83904 Y-3.86628
G01 X6.83714 Y-3.86834
G01 X6.83534 Y-3.86993
G01 X6.83306 Y-3.87157
G01 X6.83061 Y-3.87295
G01 X6.82803 Y-3.87405
G01 X6.82535 Y-3.87486
G01 X6.82299 Y-3.87532
G01 X6.81979 Y-3.87559
G01 X6.81619 Y-3.87540
G01 X6.81304 Y-3.87481
G01 X6.80961 Y-3.87369
G01 X6.80673 Y-3.87229
G01 X6.80372 Y-3.87031
G01 X6.80130 Y-3.86820
G01 X6.79912 Y-3.86575
G01 X6.68347 Y-3.86575
G01 X6.68347 Y-3.91394
G01 X6.68808 Y-3.91633
G01 X6.69234 Y-3.91931
G01 X6.69617 Y-3.92282
G01 X6.69927 Y-3.92648
G01 X6.70209 Y-3.93085
G01 X6.70417 Y-3.93517
G01 X6.70570 Y-3.93972
G01 X6.70672 Y-3.94481
G01 X6.70705 Y-3.94880
G01 X6.70694 Y-3.95320
G01 X6.70641 Y-3.95716
G01 X6.70548 Y-3.96105
G01 X6.70417 Y-3.96483
G01 X6.70228 Y-3.96880
G01 X6.70020 Y-3.97221
G01 X6.69777 Y-3.97539
G01 X6.69446 Y-3.97886
G01 X6.69107 Y-3.98167
G01 X6.68704 Y-3.98428
G01 X6.68273 Y-3.98637
G01 X6.67858 Y-3.98782
G01 X6.67389 Y-3.98886
G01 X6.66912 Y-3.98933
G01 X6.66432 Y-3.98920
G01 X6.65997 Y-3.98858
G01 X6.65533 Y-3.98735
G01 X6.65087 Y-3.98556
G01 X6.64667 Y-3.98325
G01 X6.64309 Y-3.98069
G01 X6.63954 Y-3.97747
G01 X6.63641 Y-3.97383
G01 X6.63391 Y-3.97014
G01 X6.42166 Y-4.18239
G01 X6.42011 Y-4.18375
G01 X6.41875 Y-4.18469
G01 X6.41693 Y-4.18565
G01 X6.41499 Y-4.18636
G01 X6.41298 Y-4.18682
G01 X6.41052 Y-4.18701
G01 X5.81199 Y-4.18701
G01 X5.81021 Y-4.18929
G01 X5.80836 Y-4.19123
G01 X5.80632 Y-4.19299
G01 X5.80412 Y-4.19454
G01 X5.80179 Y-4.19586
G01 X5.79933 Y-4.19695
G01 X5.79678 Y-4.19780
G01 X5.79416 Y-4.19840
G01 X5.78971 Y-4.19882
G01 X5.74584 Y-4.19882
G01 X5.74160 Y-4.19846
G01 X5.73726 Y-4.19738
G01 X5.73335 Y-4.19571
G01 X5.72956 Y-4.19333
G01 X5.72636 Y-4.19053
G01 X5.72350 Y-4.18708
G01 X5.72133 Y-4.18342
G01 X5.71969 Y-4.17926
G01 X5.71895 Y-4.17622
G01 X5.71857 Y-4.17311
G01 X5.71853 Y-4.16997
G04 P0 ( dwell for no time -- G64 should not smooth over this point )
G00 Z0.08000 ( retract )

G00 X5.57837 Y-3.95040 ( rapid move to begin. )
G01 F180.00000
( Mill infeed pass 1/1 )
G01 Z-0.04000
G04 P0 ( dwell for no time -- G64 should not smooth over this point )
G01 F360.00000
G01 X5.57837 Y-3.95040
G01 X5.57861 Y-3.95439
G01 X5.57918 Y-3.95795
G01 X5.58018 Y-3.96182
G01 X5.58142 Y-3.96520
G01 X5.58315 Y-3.96880
G01 X5.58501 Y-3.97188
G01 X5.58740 Y-3.97509
G01 X5.58982 Y-3.97775
G01 X5.59247 Y-3.98019
G01 X5.59567 Y-3.98259
G01 X5.59874 Y-3.98447
G01 X5.60222 Y-3.98617
G01 X5.60230 Y-4.18183
G01 X5.60274 Y-4.18422
G01 X5.60356 Y-4.18652
G01 X5.60472 Y-4.18865
G01 X5.60647 Y-4.19088
G01 X5.67654 Y-4.26096
G01 X5.67839 Y-4.26254
G01 X5.68047 Y-4.26381
G01 X5.68349 Y-4.26497
G01 X5.68669 Y-4.26548
G01 X5.72328 Y-4.26550
G01 X5.72515 Y-4.26795
G01 X5.72716 Y-4.27005
G01 X5.72938 Y-4.27193
G01 X5.73178 Y-4.27357
G01 X5.73435 Y-4.27495
G01 X5.73705 Y-4.27604
G01 X5.73984 Y-4.27685
G01 X5.74271 Y-4.27735
G01 X5.74606 Y-4.27756
G01 X5.78948 Y-4.27756
G01 X5.79239 Y-4.27739
G01 X5.79657 Y-4.27660
G01 X5.80057 Y-4.27518
G01 X5.80412 Y-4.27328
G01 X5.80753 Y-4.27073
G01 X5.81050 Y-4.26769
G01 X5.81297 Y-4.26423
G01 X5.81488 Y-4.26043
G01 X5.81618 Y-4.25638
G01 X5.81684 Y-4.25218
G01 X5.81685 Y-4.24793
G01 X5.81621 Y-4.24373
G01 X5.81492 Y-4.23967
G01 X5.81303 Y-4.23587
G01 X5.81072 Y-4.23257
G01 X5.80778 Y-4.22949
G01 X5.80441 Y-4.22690
G01 X5.80149 Y-4.22525
G01 X5.79817 Y-4.22388
G01 X5.79493 Y-4.22301
G01 X5.79138 Y-4.22251
G01 X5.74416 Y-4.22251
G01 X5.74105 Y-4.22290
G01 X5.73801 Y-4.22364
G01 X5.73507 Y-4.22473
G01 X5.73227 Y-4.22614
G01 X5.72965 Y-4.22786
G01 X5.72724 Y-4.22987
G01 X5.72508 Y-4.23214
G01 X5.72328 Y-4.23450
G01 X5.69392 Y-4.23450
G01 X5.63322 Y-4.17379
G01 X5.63322 Y-3.98617
G01 X5.63669 Y-3.98447
G01 X5.63976 Y-3.98259
G01 X5.64296 Y-3.98019
G01 X5.64561 Y-3.97775
G01 X5.64803 Y-3.97509
G01 X5.65042 Y-3.97188
G01 X5.65228 Y-3.96880
G01 X5.65401 Y-3.96520
G01 X5.65525 Y-3.96182
G01 X5.65626 Y-3.95795
G01 X5.65682 Y-3.95439
G01 X5.65706 Y-3.95040
G01 X5.65694 Y-3.94680
G01 X5.65641 Y-3.94284
G01 X5.65548 Y-3.93895
G01 X5.65425 Y-3.93539
G01 X5.72414 Y-3.86550
G01 X5.74213 Y-3.86550
G01 X5.74213 Y-3.87559
G01 X5.79331 Y-3.87559
G01 X5.79331 Y-3.82441
G01 X5.74213 Y-3.82441
G01 X5.74213 Y-3.83450
G01 X5.71610 Y-3.83458
G01 X5.71410 Y-3.83493
G01 X5.71178 Y-3.83568
G01 X5.70997 Y-3.83658
G01 X5.70796 Y-3.83795
G01 X5.63233 Y-3.91346
G01 X5.62858 Y-3.91218
G01 X5.62468 Y-3.91127
G01 X5.62071 Y-3.91076
G01 X5.61712 Y-3.91065
G01 X5.61313 Y-3.91092
G01 X5.60918 Y-3.91159
G01 X5.60533 Y-3.91265
G01 X5.60197 Y-3.91394
G01 X5.59839 Y-3.91572
G01 X5.59501 Y-3.91786
G01 X5.59217 Y-3.92007
G01 X5.58926 Y-3.92282
G01 X5.58665 Y-3.92585
G01 X5.58457 Y-3.92879
G01 X5.58277 Y-3.93190
G01 X5.58112 Y-3.93554
G01 X5.57995 Y-3.93895
G01 X5.57902 Y-3.94284
G01 X5.57850 Y-3.94680
G01 X5.57837 Y-3.95040
G04 P0 ( dwell for no time -- G64 should not smooth over this point )
G00 Z0.08000 ( retract )

G00 X5.57837 Y-3.55000 ( rapid move to begin. )
G01 F180.00000
( Mill infeed pass 1/1 )
G01 Z-0.04000
G04 P0 ( dwell for no time -- G64 should not smooth over this point )
G01 F360.00000
G01 X5.57837 Y-3.55000
G01 X5.57853 Y-3.55360
G01 X5.57902 Y-3.55716
G01 X5.57984 Y-3.56067
G01 X5.58097 Y-3.56408
G01 X5.58241 Y-3.56738
G01 X5.58436 Y-3.57087
G01 X5.58641 Y-3.57383
G01 X5.58872 Y-3.57660
G01 X5.59127 Y-3.57913
G01 X5.59404 Y-3.58143
G01 X5.59701 Y-3.58346
G01 X5.60051 Y-3.58539
G01 X5.60382 Y-3.58681
G01 X5.60724 Y-3.58793
G01 X5.61075 Y-3.58873
G01 X5.61432 Y-3.58920
G01 X5.61752 Y-3.58935
G01 X5.62071 Y-3.58923
G01 X5.62389 Y-3.58886
G01 X5.62664 Y-3.58832
G01 X5.62972 Y-3.58747
G01 X5.63236 Y-3.58652
G01 X5.63492 Y-3.58539
G01 X5.63774 Y-3.58388
G01 X5.64042 Y-3.58214
G01 X5.64296 Y-3.58019
G01 X5.64533 Y-3.57804
G01 X5.64725 Y-3.57600
G01 X5.64927 Y-3.57352
G01 X5.65086 Y-3.57121
G01 X5.65247 Y-3.56845
G01 X5.65378 Y-3.56575
G01 X5.98166 Y-3.56575
G01 X5.98296 Y-3.56845
G01 X5.98457 Y-3.57121
G01 X5.98641 Y-3.57383
G01 X5.98845 Y-3.57630
G01 X5.99068 Y-3.57859
G01 X5.99309 Y-3.58069
G01 X5.99567 Y-3.58259
G01 X5.99839 Y-3.58428
G01 X6.00124 Y-3.58573
G01 X6.00419 Y-3.58695
G01 X6.00724 Y-3.58793
G01 X6.01036 Y-3.58866
G01 X6.01352 Y-3.58913
G01 X6.01672 Y-3.58934
G01 X6.01992 Y-3.58929
G01 X6.02310 Y-3.58898
G01 X6.02742 Y-3.58813
G01 X6.03199 Y-3.58667
G01 X6.03599 Y-3.58485
G01 X6.03976 Y-3.58259
G01 X6.04326 Y-3.57993
G01 X6.04644 Y-3.57689
G01 X6.04927 Y-3.57352
G01 X6.05169 Y-3.56985
G01 X6.05370 Y-3.56593
G01 X6.05525 Y-3.56182
G01 X6.05633 Y-3.55755
G01 X6.05697 Y-3.55280
G01 X6.05703 Y-3.54840
G01 X6.05661 Y-3.54402
G01 X6.05570 Y-3.53972
G01 X6.05425 Y-3.53538
G01 X6.17064 Y-3.41900
G01 X6.51479 Y-3.41900
G01 X6.63118 Y-3.53539
G01 X6.62984 Y-3.53933
G01 X6.62889 Y-3.54363
G01 X6.62842 Y-3.54800
G01 X6.62842 Y-3.55204
G01 X6.38210 Y-3.67520
G01 X6.29882 Y-3.67520
G01 X6.29882 Y-3.81300
G01 X6.43662 Y-3.81300
G01 X6.43662 Y-3.68316
G01 X6.64251 Y-3.58021
G01 X6.64633 Y-3.58303
G01 X6.65016 Y-3.58521
G01 X6.65457 Y-3.58709
G01 X6.65879 Y-3.58832
G01 X6.66352 Y-3.58913
G01 X6.66792 Y-3.58935
G01 X6.67231 Y-3.58908
G01 X6.67664 Y-3.58832
G01 X6.68086 Y-3.58709
G01 X6.68528 Y-3.58521
G01 X6.68943 Y-3.58282
G01 X6.69296 Y-3.58019
G01 X6.69617 Y-3.57718
G01 X6.69927 Y-3.57352
G01 X6.70169 Y-3.56985
G01 X6.70378 Y-3.56575
G01 X7.03166 Y-3.56575
G01 X7.03296 Y-3.56845
G01 X7.03457 Y-3.57121
G01 X7.03617 Y-3.57352
G01 X7.03818 Y-3.57600
G01 X7.04010 Y-3.57804
G01 X7.04247 Y-3.58019
G01 X7.04501 Y-3.58214
G01 X7.04735 Y-3.58367
G01 X7.04980 Y-3.58503
G01 X7.05270 Y-3.58637
G01 X7.05533 Y-3.58735
G01 X7.05840 Y-3.58823
G01 X7.06115 Y-3.58880
G01 X7.06432 Y-3.58920
G01 X7.06712 Y-3.58934
G01 X7.07031 Y-3.58926
G01 X7.07389 Y-3.58886
G01 X7.07742 Y-3.58813
G01 X7.08086 Y-3.58709
G01 X7.08456 Y-3.58556
G01 X7.08774 Y-3.58388
G01 X7.09107 Y-3.58167
G01 X7.09387 Y-3.57940
G01 X7.09644 Y-3.57689
G01 X7.09878 Y-3.57415
G01 X7.10086 Y-3.57121
G01 X7.10266 Y-3.56810
G01 X7.10431 Y-3.56446
G01 X7.10548 Y-3.56105
G01 X7.10633 Y-3.55755
G01 X7.10690 Y-3.55360
G01 X7.10707 Y-3.55000
G01 X7.10690 Y-3.54640
G01 X7.10633 Y-3.54244
G01 X7.10548 Y-3.53895
G01 X7.10431 Y-3.53554
G01 X7.10266 Y-3.53190
G01 X7.10086 Y-3.52879
G01 X7.09878 Y-3.52585
G01 X7.09617 Y-3.52282
G01 X7.09326 Y-3.52007
G01 X7.09042 Y-3.51786
G01 X7.08704 Y-3.51572
G01 X7.08383 Y-3.51410
G01 X7.08010 Y-3.51265
G01 X7.07664 Y-3.51167
G01 X7.07270 Y-3.51097
G01 X7.06912 Y-3.51067
G01 X7.06632 Y-3.51067
G01 X7.06313 Y-3.51092
G01 X7.05997 Y-3.51142
G01 X7.05724 Y-3.51207
G01 X7.05457 Y-3.51291
G01 X7.05160 Y-3.51410
G01 X7.04667 Y-3.51675
G01 X7.04217 Y-3.52007
G01 X7.03982 Y-3.52225
G01 X7.03792 Y-3.52430
G01 X7.03617 Y-3.52648
G01 X7.03436 Y-3.52913
G01 X7.03296 Y-3.53155
G01 X7.03166 Y-3.53425
G01 X6.70378 Y-3.53425
G01 X6.70209 Y-3.53085
G01 X6.70020 Y-3.52779
G01 X6.69777 Y-3.52460
G01 X6.69533 Y-3.52196
G01 X6.69234 Y-3.51931
G01 X6.68943 Y-3.51718
G01 X6.68599 Y-3.51515
G01 X6.68273 Y-3.51363
G01 X6.67896 Y-3.51229
G01 X6.67547 Y-3.51142
G01 X6.67151 Y-3.51083
G01 X6.66792 Y-3.51065
G01 X6.66432 Y-3.51080
G01 X6.66036 Y-3.51134
G01 X6.65686 Y-3.51218
G01 X6.65310 Y-3.51346
G01 X6.53188 Y-3.39226
G01 X6.52999 Y-3.39073
G01 X6.52789 Y-3.38951
G01 X6.52562 Y-3.38864
G01 X6.52364 Y-3.38819
G01 X6.52122 Y-3.38800
G01 X6.16422 Y-3.38800
G01 X6.16139 Y-3.38826
G01 X6.15828 Y-3.38918
G01 X6.15577 Y-3.39050
G01 X6.15355 Y-3.39226
G01 X6.03233 Y-3.51346
G01 X6.02858 Y-3.51218
G01 X6.02507 Y-3.51134
G01 X6.02111 Y-3.51080
G01 X6.01752 Y-3.51065
G01 X6.01392 Y-3.51083
G01 X6.00997 Y-3.51142
G01 X6.00647 Y-3.51229
G01 X6.00270 Y-3.51363
G01 X5.99944 Y-3.51515
G01 X5.99600 Y-3.51718
G01 X5.99309 Y-3.51931
G01 X5.99010 Y-3.52196
G01 X5.98766 Y-3.52460
G01 X5.98524 Y-3.52779
G01 X5.98334 Y-3.53085
G01 X5.98166 Y-3.53425
G01 X5.65378 Y-3.53425
G01 X5.65247 Y-3.53155
G01 X5.65107 Y-3.52913
G01 X5.64927 Y-3.52648
G01 X5.64751 Y-3.52430
G01 X5.64561 Y-3.52225
G01 X5.64326 Y-3.52007
G01 X5.63876 Y-3.51675
G01 X5.63383 Y-3.51410
G01 X5.63086 Y-3.51291
G01 X5.62819 Y-3.51207
G01 X5.62547 Y-3.51142
G01 X5.62231 Y-3.51092
G01 X5.61912 Y-3.51067
G01 X5.61632 Y-3.51067
G01 X5.61273 Y-3.51097
G01 X5.60879 Y-3.51167
G01 X5.60533 Y-3.51265
G01 X5.60160 Y-3.51410
G01 X5.59839 Y-3.51572
G01 X5.59501 Y-3.51786
G01 X5.59217 Y-3.52007
G01 X5.58926 Y-3.52282
G01 X5.58665 Y-3.52585
G01 X5.58457 Y-3.52879
G01 X5.58277 Y-3.53190
G01 X5.58112 Y-3.53554
G01 X5.57995 Y-3.53895
G01 X5.57910 Y-3.54244
G01 X5.57853 Y-3.54640
G01 X5.57837 Y-3.55000
G04 P0 ( dwell for no time -- G64 should not smooth over this point )
G00 Z0.08000 ( retract )

G00 X5.84059 Y-3.85140 ( rapid move to begin. )
G01 F180.00000
( Mill infeed pass 1/1 )
G01 Z-0.04000
G04 P0 ( dwell for no time -- G64 should not smooth over this point )
G01 F360.00000
G01 X5.84059 Y-3.85140
G01 X5.84059 Y-3.84860
G01 X5.84104 Y-3.84502
G01 X5.84186 Y-3.84192
G01 X5.84306 Y-3.83895
G01 X5.84484 Y-3.83581
G01 X5.84678 Y-3.83326
G01 X5.84933 Y-3.83071
G01 X5.85187 Y-3.82876
G01 X5.85464 Y-3.82714
G01 X5.85759 Y-3.82588
G01 X5.86067 Y-3.82500
G01 X5.86424 Y-3.82448
G01 X5.86744 Y-3.82444
G01 X5.87102 Y-3.82488
G01 X5.87413 Y-3.82569
G01 X5.87710 Y-3.82687
G01 X5.88024 Y-3.82864
G01 X5.88311 Y-3.83084
G01 X5.88563 Y-3.83341
G01 X5.88777 Y-3.83632
G01 X5.88948 Y-3.83949
G01 X5.89072 Y-3.84288
G01 X5.89148 Y-3.84640
G01 X5.89173 Y-3.85000
G01 X5.89150 Y-3.85344
G01 X5.97256 Y-3.93450
G01 X5.98155 Y-3.93450
G01 X5.98296 Y-3.93155
G01 X5.98457 Y-3.92879
G01 X5.98665 Y-3.92585
G01 X5.98872 Y-3.92340
G01 X5.99097 Y-3.92113
G01 X5.99372 Y-3.91881
G01 X5.99667 Y-3.91675
G01 X5.99944 Y-3.91515
G01 X6.00345 Y-3.91333
G01 X6.00802 Y-3.91186
G01 X6.01273 Y-3.91097
G01 X6.01752 Y-3.91065
G01 X6.02310 Y-3.91102
G01 X6.02625 Y-3.91159
G01 X6.02896 Y-3.91229
G01 X6.03199 Y-3.91333
G01 X6.03456 Y-3.91444
G01 X6.03943 Y-3.91718
G01 X6.04203 Y-3.91906
G01 X6.04416 Y-3.92086
G01 X6.04803 Y-3.92491
G01 X6.05128 Y-3.92946
G01 X6.05266 Y-3.93190
G01 X6.05388 Y-3.93450
G01 X6.35710 Y-3.93450
G01 X6.51364 Y-3.77795
G01 X6.51517 Y-3.77661
G01 X6.51685 Y-3.77549
G01 X6.51905 Y-3.77444
G01 X6.52099 Y-3.77384
G01 X6.52258 Y-3.77354
G01 X6.52460 Y-3.77341
G01 X7.01821 Y-3.77343
G01 X7.02102 Y-3.77384
G01 X7.02333 Y-3.77459
G01 X7.02584 Y-3.77591
G01 X7.02807 Y-3.77766
G01 X7.15353 Y-3.90311
G01 X7.15534 Y-3.90529
G01 X7.15673 Y-3.90777
G01 X7.15764 Y-3.91045
G01 X7.15804 Y-3.91326
G01 X7.15806 Y-3.98633
G01 X7.15788 Y-3.98835
G01 X7.15731 Y-3.99072
G01 X7.15656 Y-3.99260
G01 X7.15534 Y-3.99471
G01 X7.15353 Y-3.99689
G01 X6.96761 Y-4.18278
G01 X6.96568 Y-4.18426
G01 X6.96317 Y-4.18558
G01 X6.96085 Y-4.18633
G01 X6.95845 Y-4.18671
G01 X6.91216 Y-4.18676
G01 X6.91036 Y-4.18912
G01 X6.90836 Y-4.19123
G01 X6.90614 Y-4.19313
G01 X6.90374 Y-4.19477
G01 X6.90118 Y-4.19616
G01 X6.89849 Y-4.19726
G01 X6.89570 Y-4.19808
G01 X6.89283 Y-4.19860
G01 X6.88948 Y-4.19882
G01 X6.84472 Y-4.19879
G01 X6.84050 Y-4.19825
G01 X6.83663 Y-4.19715
G01 X6.83275 Y-4.19539
G01 X6.82938 Y-4.19319
G01 X6.82620 Y-4.19037
G01 X6.82350 Y-4.18708
G01 X6.82143 Y-4.18363
G01 X6.81982 Y-4.17969
G01 X6.81884 Y-4.17555
G01 X6.81850 Y-4.17131
G01 X6.81879 Y-4.16730
G01 X6.81972 Y-4.16315
G01 X6.82128 Y-4.15919
G01 X6.82344 Y-4.15553
G01 X6.82597 Y-4.15240
G01 X6.82911 Y-4.14953
G01 X6.83227 Y-4.14740
G01 X6.83589 Y-4.14565
G01 X6.83974 Y-4.14444
G01 X6.84349 Y-4.14382
G01 X6.84606 Y-4.14370
G01 X6.89071 Y-4.14373
G01 X6.89405 Y-4.14410
G01 X6.89710 Y-4.14481
G01 X6.90006 Y-4.14586
G01 X6.90287 Y-4.14724
G01 X6.90551 Y-4.14892
G01 X6.90795 Y-4.15090
G01 X6.91014 Y-4.15314
G01 X6.91216 Y-4.15576
G01 X6.95081 Y-4.15576
G01 X7.12707 Y-3.97951
G01 X7.12707 Y-3.92049
G01 X7.01098 Y-3.80441
G01 X6.53103 Y-3.80441
G01 X6.37448 Y-3.96096
G01 X6.37295 Y-3.96230
G01 X6.37161 Y-3.96321
G01 X6.36869 Y-3.96461
G01 X6.36594 Y-3.96531
G01 X6.36352 Y-3.96550
G01 X6.05388 Y-3.96550
G01 X6.05149 Y-3.97019
G01 X6.04828 Y-3.97478
G01 X6.04446 Y-3.97886
G01 X6.04009 Y-3.98237
G01 X6.03528 Y-3.98521
G01 X6.03010 Y-3.98735
G01 X6.02468 Y-3.98873
G01 X6.01912 Y-3.98933
G01 X6.01632 Y-3.98933
G01 X6.01313 Y-3.98908
G01 X6.00997 Y-3.98858
G01 X6.00724 Y-3.98793
G01 X6.00457 Y-3.98709
G01 X6.00160 Y-3.98590
G01 X5.99667 Y-3.98325
G01 X5.99404 Y-3.98143
G01 X5.99186 Y-3.97967
G01 X5.98982 Y-3.97775
G01 X5.98766 Y-3.97539
G01 X5.98593 Y-3.97319
G01 X5.98415 Y-3.97053
G01 X5.98277 Y-3.96809
G01 X5.98155 Y-3.96550
G01 X5.96614 Y-3.96550
G01 X5.96412 Y-3.96537
G01 X5.96213 Y-3.96497
G01 X5.96021 Y-3.96432
G01 X5.95839 Y-3.96342
G01 X5.95671 Y-3.96230
G01 X5.95518 Y-3.96096
G01 X5.86958 Y-3.87536
G01 X5.86664 Y-3.87559
G01 X5.86384 Y-3.87549
G01 X5.86067 Y-3.87500
G01 X5.85797 Y-3.87425
G01 X5.85536 Y-3.87321
G01 X5.85289 Y-3.87189
G01 X5.85025 Y-3.87006
G01 X5.84815 Y-3.86820
G01 X5.84652 Y-3.86643
G01 X5.84484 Y-3.86419
G01 X5.84342 Y-3.86177
G01 X5.84227 Y-3.85921
G01 X5.84151 Y-3.85693
G01 X5.84090 Y-3.85419
G01 X5.84059 Y-3.85140
G04 P0 ( dwell for no time -- G64 should not smooth over this point )
G00 Z0.08000 ( retract )

G00 X6.48031 Y-4.29980 ( rapid move to begin. )
G01 F180.00000
( Mill infeed pass 1/1 )
G01 Z-0.04000
G04 P0 ( dwell for no time -- G64 should not smooth over this point )
G01 F360.00000
G01 X6.48031 Y-4.29980
G01 X6.48055 Y-4.29580
G01 X6.48121 Y-4.29186
G01 X6.48216 Y-4.28838
G01 X6.48361 Y-4.28465
G01 X6.48524 Y-4.28144
G01 X6.48741 Y-4.27808
G01 X6.48966 Y-4.27527
G01 X6.49246 Y-4.27241
G01 X6.49555 Y-4.26987
G01 X6.49855 Y-4.26788
G01 X6.50173 Y-4.26619
G01 X6.50544 Y-4.26467
G01 X6.50889 Y-4.26365
G01 X6.51282 Y-4.26292
G01 X6.51641 Y-4.26262
G01 X6.52042 Y-4.26270
G01 X6.52478 Y-4.26327
G01 X6.52866 Y-4.26424
G01 X6.53279 Y-4.26577
G01 X6.53670 Y-4.26778
G01 X6.54036 Y-4.27023
G01 X6.54370 Y-4.27310
G01 X6.54668 Y-4.27633
G01 X6.54904 Y-4.27956
G01 X6.55123 Y-4.28339
G01 X6.55281 Y-4.28706
G01 X6.55409 Y-4.29127
G01 X6.55486 Y-4.29561
G01 X6.55512 Y-4.30000
G01 X6.55490 Y-4.30400
G01 X6.55426 Y-4.30795
G01 X6.55284 Y-4.31285
G01 X6.55298 Y-4.31299
G01 X6.82345 Y-4.31299
G01 X6.82522 Y-4.31071
G01 X6.82708 Y-4.30876
G01 X6.82911 Y-4.30701
G01 X6.83131 Y-4.30546
G01 X6.83365 Y-4.30414
G01 X6.83610 Y-4.30304
G01 X6.83865 Y-4.30220
G01 X6.84127 Y-4.30160
G01 X6.84595 Y-4.30118
G01 X6.89071 Y-4.30121
G01 X6.89339 Y-4.30147
G01 X6.89602 Y-4.30200
G01 X6.89860 Y-4.30277
G01 X6.90128 Y-4.30389
G01 X6.90365 Y-4.30517
G01 X6.90605 Y-4.30681
G01 X6.90811 Y-4.30853
G01 X6.90999 Y-4.31046
G01 X6.91167 Y-4.31255
G01 X6.91326 Y-4.31499
G01 X6.91448 Y-4.31738
G01 X6.91547 Y-4.31988
G01 X6.91621 Y-4.32247
G01 X6.91669 Y-4.32511
G01 X6.91691 Y-4.32779
G01 X6.91686 Y-4.33070
G01 X6.91657 Y-4.33315
G01 X6.91607 Y-4.33556
G01 X6.91536 Y-4.33791
G01 X6.91434 Y-4.34040
G01 X6.91320 Y-4.34258
G01 X6.91187 Y-4.34466
G01 X6.91021 Y-4.34677
G01 X6.90852 Y-4.34856
G01 X6.90667 Y-4.35019
G01 X6.90469 Y-4.35165
G01 X6.90258 Y-4.35293
G01 X6.90016 Y-4.35410
G01 X6.89785 Y-4.35496
G01 X6.89526 Y-4.35566
G01 X6.89283 Y-4.35608
G01 X6.89038 Y-4.35628
G01 X6.84584 Y-4.35630
G01 X6.84138 Y-4.35590
G01 X6.83854 Y-4.35525
G01 X6.83600 Y-4.35440
G01 X6.83355 Y-4.35329
G01 X6.83121 Y-4.35196
G01 X6.82902 Y-4.35040
G01 X6.82700 Y-4.34864
G01 X6.82515 Y-4.34669
G01 X6.82345 Y-4.34449
G01 X6.54526 Y-4.34444
G01 X6.54329 Y-4.34417
G01 X6.54136 Y-4.34364
G01 X6.53988 Y-4.34305
G01 X6.53812 Y-4.34211
G01 X6.53590 Y-4.34043
G01 X6.53057 Y-4.33512
G01 X6.52635 Y-4.33639
G01 X6.52201 Y-4.33715
G01 X6.51761 Y-4.33740
G01 X6.51322 Y-4.33713
G01 X6.50889 Y-4.33634
G01 X6.50468 Y-4.33506
G01 X6.50030 Y-4.33310
G01 X6.49653 Y-4.33082
G01 X6.49276 Y-4.32786
G01 X6.48966 Y-4.32473
G01 X6.48695 Y-4.32127
G01 X6.48448 Y-4.31715
G01 X6.48269 Y-4.31312
G01 X6.48139 Y-4.30892
G01 X6.48060 Y-4.30459
G01 X6.48031 Y-4.29980
G04 P0 ( dwell for no time -- G64 should not smooth over this point )
G00 Z0.08000 ( retract )

G00 X6.76750 Y-4.04130 ( rapid move to begin. )
G01 F180.00000
( Mill infeed pass 1/1 )
G01 Z-0.04000
G04 P0 ( dwell for no time -- G64 should not smooth over this point )
G01 F360.00000
G01 X6.76750 Y-4.04130
G01 X6.76752 Y-4.24631
G01 X6.76784 Y-4.24872
G01 X6.76853 Y-4.25105
G01 X6.76958 Y-4.25325
G01 X6.77096 Y-4.25525
G01 X6.77775 Y-4.26204
G01 X6.77975 Y-4.26342
G01 X6.78233 Y-4.26461
G01 X6.78468 Y-4.26524
G01 X6.78710 Y-4.26549
G01 X6.82328 Y-4.26550
G01 X6.82515 Y-4.26795
G01 X6.82716 Y-4.27005
G01 X6.82938 Y-4.27193
G01 X6.83178 Y-4.27357
G01 X6.83435 Y-4.27495
G01 X6.83705 Y-4.27604
G01 X6.83984 Y-4.27685
G01 X6.84271 Y-4.27735
G01 X6.84606 Y-4.27756
G01 X6.89038 Y-4.27754
G01 X6.89416 Y-4.27714
G01 X6.89807 Y-4.27615
G01 X6.90179 Y-4.27460
G01 X6.90524 Y-4.27253
G01 X6.90836 Y-4.26998
G01 X6.91093 Y-4.26717
G01 X6.91320 Y-4.26384
G01 X6.91496 Y-4.26022
G01 X6.91596 Y-4.25725
G01 X6.91657 Y-4.25441
G01 X6.91689 Y-4.25151
G01 X6.91689 Y-4.24860
G01 X6.91659 Y-4.24571
G01 X6.91593 Y-4.24264
G01 X6.91500 Y-4.23988
G01 X6.91379 Y-4.23723
G01 X6.91219 Y-4.23454
G01 X6.91043 Y-4.23222
G01 X6.90844 Y-4.23010
G01 X6.90605 Y-4.22806
G01 X6.90346 Y-4.22631
G01 X6.90088 Y-4.22496
G01 X6.89817 Y-4.22388
G01 X6.89537 Y-4.22310
G01 X6.89250 Y-4.22262
G01 X6.88959 Y-4.22244
G01 X6.84595 Y-4.22244
G01 X6.84282 Y-4.22263
G01 X6.83995 Y-4.22313
G01 X6.83715 Y-4.22392
G01 X6.83425 Y-4.22510
G01 X6.83169 Y-4.22649
G01 X6.82929 Y-4.22813
G01 X6.82708 Y-4.23002
G01 X6.82508 Y-4.23214
G01 X6.82328 Y-4.23450
G01 X6.79850 Y-4.23450
G01 X6.79850 Y-4.04772
G01 X6.92976 Y-3.91634
G01 X6.93114 Y-3.91434
G01 X6.93204 Y-3.91252
G01 X6.93279 Y-3.91021
G01 X6.93317 Y-3.90781
G01 X6.93322 Y-3.87559
G01 X6.94331 Y-3.87559
G01 X6.94331 Y-3.86550
G01 X6.96130 Y-3.86550
G01 X7.03118 Y-3.93539
G01 X7.03006 Y-3.93857
G01 X7.02918 Y-3.94205
G01 X7.02861 Y-3.94561
G01 X7.02838 Y-3.94880
G01 X7.02842 Y-3.95200
G01 X7.02876 Y-3.95558
G01 X7.02944 Y-3.95912
G01 X7.03043 Y-3.96258
G01 X7.03174 Y-3.96593
G01 X7.03315 Y-3.96880
G01 X7.03479 Y-3.97155
G01 X7.03690 Y-3.97447
G01 X7.03926 Y-3.97718
G01 X7.04186 Y-3.97967
G01 X7.04436 Y-3.98167
G01 X7.04735 Y-3.98367
G01 X7.05124 Y-3.98573
G01 X7.05533 Y-3.98735
G01 X7.05957 Y-3.98850
G01 X7.06392 Y-3.98917
G01 X7.06832 Y-3.98935
G01 X7.07270 Y-3.98903
G01 X7.07664 Y-3.98832
G01 X7.08086 Y-3.98709
G01 X7.08492 Y-3.98539
G01 X7.08876 Y-3.98325
G01 X7.09234 Y-3.98069
G01 X7.09561 Y-3.97775
G01 X7.09853 Y-3.97447
G01 X7.10086 Y-3.97121
G01 X7.10302 Y-3.96738
G01 X7.10474 Y-3.96333
G01 X7.10570 Y-3.96028
G01 X7.10633 Y-3.95755
G01 X7.10682 Y-3.95439
G01 X7.10703 Y-3.95160
G01 X7.10705 Y-3.94880
G01 X7.10682 Y-3.94561
G01 X7.10633 Y-3.94245
G01 X7.10570 Y-3.93972
G01 X7.10474 Y-3.93667
G01 X7.10370 Y-3.93407
G01 X7.10228 Y-3.93120
G01 X7.09927 Y-3.92648
G01 X7.09725 Y-3.92400
G01 X7.09326 Y-3.92007
G01 X7.08910 Y-3.91696
G01 X7.08456 Y-3.91444
G01 X7.07972 Y-3.91253
G01 X7.07429 Y-3.91120
G01 X7.06912 Y-3.91067
G01 X7.06352 Y-3.91087
G01 X7.05840 Y-3.91177
G01 X7.05310 Y-3.91346
G01 X6.97747 Y-3.83795
G01 X6.97547 Y-3.83658
G01 X6.97365 Y-3.83568
G01 X6.97133 Y-3.83493
G01 X6.96934 Y-3.83458
G01 X6.94331 Y-3.83450
G01 X6.94331 Y-3.82441
G01 X6.89213 Y-3.82441
G01 X6.89213 Y-3.87559
G01 X6.90222 Y-3.87559
G01 X6.90222 Y-3.90017
G01 X6.77204 Y-4.03034
G01 X6.77096 Y-4.03155
G01 X6.76979 Y-4.03320
G01 X6.76839 Y-4.03613
G01 X6.76776 Y-4.03848
G01 X6.76750 Y-4.04130
( Piece #3, position [0;1] )

G04 P0 ( dwell for no time -- G64 should not smooth over this point )
G00 Z0.08000 ( retract )

G00 X5.52037 Y-2.84361 ( rapid move to begin. )
G01 F180.00000
( Mill infeed pass 1/1 )
G01 Z-0.04000
G04 P0 ( dwell for no time -- G64 should not smooth over this point )
G01 F360.00000
G01 X5.52037 Y-2.84361
G01 X5.52050 Y-2.84563
G01 X5.52100 Y-2.84801
G01 X5.52154 Y-2.84954
G01 X5.52244 Y-2.85136
G01 X5.52357 Y-2.85304
G01 X5.52490 Y-2.85457
G01 X5.70608 Y-3.03574
G01 X5.70761 Y-3.03708
G01 X5.70965 Y-3.03840
G01 X5.71225 Y-3.03952
G01 X5.71462 Y-3.04009
G01 X5.71704 Y-3.04028
G01 X6.19091 Y-3.04020
G01 X6.19330 Y-3.03975
G01 X6.19559 Y-3.03894
G01 X6.19773 Y-3.03778
G01 X6.19966 Y-3.03630
G01 X6.22868 Y-3.00731
G01 X6.23072 Y-3.00480
G01 X6.23171 Y-3.00303
G01 X6.23246 Y-3.00114
G01 X6.23296 Y-2.99918
G01 X6.23319 Y-2.99717
G01 X6.23322 Y-2.96535
G01 X6.25512 Y-2.96535
G01 X6.25512 Y-2.94148
G01 X6.38031 Y-2.94148
G01 X6.38031 Y-2.96535
G01 X6.45512 Y-2.96535
G01 X6.45512 Y-2.88661
G01 X6.38031 Y-2.88661
G01 X6.38031 Y-2.91048
G01 X6.25512 Y-2.91048
G01 X6.25512 Y-2.88661
G01 X6.18031 Y-2.88661
G01 X6.18031 Y-2.96535
G01 X6.20222 Y-2.96535
G01 X6.20222 Y-2.98993
G01 X6.18287 Y-3.00928
G01 X5.72346 Y-3.00928
G01 X5.55137 Y-2.83719
G01 X5.55137 Y-2.44312
G01 X5.58485 Y-2.40963
G01 X5.94067 Y-2.40963
G01 X5.94269 Y-2.40950
G01 X5.94468 Y-2.40910
G01 X5.94660 Y-2.40845
G01 X5.94842 Y-2.40756
G01 X5.95010 Y-2.40643
G01 X5.95163 Y-2.40509
G01 X6.08924 Y-2.26748
G01 X6.11382 Y-2.26748
G01 X6.11382 Y-2.32088
G01 X6.25162 Y-2.32088
G01 X6.25162 Y-2.20500
G01 X6.29882 Y-2.15780
G01 X6.29882 Y-2.20278
G01 X6.43662 Y-2.20278
G01 X6.43662 Y-2.06498
G01 X6.29882 Y-2.06498
G01 X6.29882 Y-2.11851
G01 X6.29641 Y-2.11902
G01 X6.29414 Y-2.11989
G01 X6.29204 Y-2.12111
G01 X6.29015 Y-2.12264
G01 X6.22970 Y-2.18308
G01 X6.11382 Y-2.18308
G01 X6.11382 Y-2.23648
G01 X6.08160 Y-2.23653
G01 X6.07920 Y-2.23691
G01 X6.07688 Y-2.23766
G01 X6.07472 Y-2.23877
G01 X6.07306 Y-2.23994
G01 X5.93425 Y-2.37863
G01 X5.57843 Y-2.37863
G01 X5.57640 Y-2.37877
G01 X5.57402 Y-2.37927
G01 X5.57212 Y-2.37997
G01 X5.56999 Y-2.38113
G01 X5.56806 Y-2.38261
G01 X5.52490 Y-2.42573
G01 X5.52357 Y-2.42726
G01 X5.52224 Y-2.42930
G01 X5.52112 Y-2.43191
G01 X5.52056 Y-2.43427
G01 X5.52037 Y-2.43670
G01 X5.52037 Y-2.84361
G04 P0 ( dwell for no time -- G64 should not smooth over this point )
G00 Z0.08000 ( retract )

G00 X5.71852 Y-2.95388 ( rapid move to begin. )
G01 F180.00000
( Mill infeed pass 1/1 )
G01 Z-0.04000
G04 P0 ( dwell for no time -- G64 should not smooth over this point )
G01 F360.00000
G01 X5.71852 Y-2.95388
G01 X5.71873 Y-2.95121
G01 X5.71920 Y-2.94856
G01 X5.71993 Y-2.94597
G01 X5.72091 Y-2.94347
G01 X5.72212 Y-2.94107
G01 X5.72356 Y-2.93881
G01 X5.72537 Y-2.93652
G01 X5.72724 Y-2.93459
G01 X5.72947 Y-2.93272
G01 X5.73169 Y-2.93121
G01 X5.73405 Y-2.92992
G01 X5.73673 Y-2.92879
G01 X5.73930 Y-2.92801
G01 X5.74193 Y-2.92748
G01 X5.74461 Y-2.92720
G01 X5.78959 Y-2.92717
G01 X5.79405 Y-2.92757
G01 X5.79667 Y-2.92815
G01 X5.79923 Y-2.92899
G01 X5.80189 Y-2.93017
G01 X5.80422 Y-2.93151
G01 X5.80641 Y-2.93306
G01 X5.80844 Y-2.93483
G01 X5.81028 Y-2.93678
G01 X5.81198 Y-2.93897
G01 X6.03619 Y-2.93897
G01 X6.08045 Y-2.92282
G01 X6.08090 Y-2.91941
G01 X6.08159 Y-2.91629
G01 X6.08255 Y-2.91323
G01 X6.08394 Y-2.90991
G01 X6.08544 Y-2.90708
G01 X6.08718 Y-2.90439
G01 X6.08914 Y-2.90186
G01 X6.09159 Y-2.89922
G01 X6.09428 Y-2.89683
G01 X6.09686 Y-2.89493
G01 X6.09960 Y-2.89326
G01 X6.10246 Y-2.89183
G01 X6.10544 Y-2.89066
G01 X6.10850 Y-2.88973
G01 X6.11164 Y-2.88908
G01 X6.11522 Y-2.88867
G01 X6.11922 Y-2.88861
G01 X6.12280 Y-2.88893
G01 X6.12635 Y-2.88959
G01 X6.13018 Y-2.89072
G01 X6.13388 Y-2.89226
G01 X6.13705 Y-2.89397
G01 X6.14036 Y-2.89622
G01 X6.14341 Y-2.89880
G01 X6.14617 Y-2.90171
G01 X6.14837 Y-2.90455
G01 X6.15029 Y-2.90760
G01 X6.15207 Y-2.91119
G01 X6.15333 Y-2.91456
G01 X6.15435 Y-2.91843
G01 X6.15494 Y-2.92239
G01 X6.15512 Y-2.92598
G01 X6.15501 Y-2.92878
G01 X6.15470 Y-2.93157
G01 X6.15418 Y-2.93432
G01 X6.15345 Y-2.93703
G01 X6.15252 Y-2.93967
G01 X6.15140 Y-2.94224
G01 X6.15009 Y-2.94471
G01 X6.14860 Y-2.94708
G01 X6.14693 Y-2.94934
G01 X6.14510 Y-2.95146
G01 X6.14312 Y-2.95344
G01 X6.14099 Y-2.95526
G01 X6.13873 Y-2.95692
G01 X6.13636 Y-2.95841
G01 X6.13388 Y-2.95971
G01 X6.13131 Y-2.96083
G01 X6.12635 Y-2.96238
G01 X6.12360 Y-2.96292
G01 X6.12082 Y-2.96326
G01 X6.11802 Y-2.96338
G01 X6.11522 Y-2.96330
G01 X6.11006 Y-2.96259
G01 X6.10506 Y-2.96118
G01 X6.10246 Y-2.96013
G01 X6.09995 Y-2.95890
G01 X6.09753 Y-2.95747
G01 X6.09523 Y-2.95587
G01 X6.09125 Y-2.95241
G01 X6.04438 Y-2.96952
G01 X6.04249 Y-2.97008
G01 X6.04016 Y-2.97043
G01 X5.81198 Y-2.97047
G01 X5.81021 Y-2.97276
G01 X5.80836 Y-2.97470
G01 X5.80632 Y-2.97645
G01 X5.80412 Y-2.97800
G01 X5.80179 Y-2.97933
G01 X5.79933 Y-2.98042
G01 X5.79678 Y-2.98127
G01 X5.79416 Y-2.98186
G01 X5.78948 Y-2.98228
G01 X5.74494 Y-2.98226
G01 X5.74249 Y-2.98205
G01 X5.74006 Y-2.98162
G01 X5.73768 Y-2.98098
G01 X5.73517 Y-2.98004
G01 X5.73295 Y-2.97896
G01 X5.73084 Y-2.97770
G01 X5.72885 Y-2.97625
G01 X5.72683 Y-2.97447
G01 X5.72500 Y-2.97250
G01 X5.72350 Y-2.97055
G01 X5.72218 Y-2.96847
G01 X5.72104 Y-2.96628
G01 X5.72011 Y-2.96400
G01 X5.71939 Y-2.96165
G01 X5.71884 Y-2.95902
G01 X5.71857 Y-2.95657
G01 X5.71852 Y-2.95388
G04 P0 ( dwell for no time -- G64 should not smooth over this point )
G00 Z0.08000 ( retract )

G00 X5.71853 Y-2.79596 ( rapid move to begin. )
G01 F180.00000
( Mill infeed pass 1/1 )
G01 Z-0.04000
G04 P0 ( dwell for no time -- G64 should not smooth over this point )
G01 F360.00000
G01 X5.71853 Y-2.79596
G01 X5.71886 Y-2.79284
G01 X5.71953 Y-2.78978
G01 X5.72055 Y-2.78681
G01 X5.72190 Y-2.78398
G01 X5.72356 Y-2.78133
G01 X5.72552 Y-2.77888
G01 X5.72774 Y-2.77666
G01 X5.73019 Y-2.77471
G01 X5.73285 Y-2.77306
G01 X5.73589 Y-2.77163
G01 X5.73887 Y-2.77064
G01 X5.74193 Y-2.77000
G01 X5.74505 Y-2.76970
G01 X5.78959 Y-2.76969
G01 X5.79405 Y-2.77009
G01 X5.79689 Y-2.77073
G01 X5.79944 Y-2.77159
G01 X5.80189 Y-2.77269
G01 X5.80422 Y-2.77403
G01 X5.80641 Y-2.77558
G01 X5.80844 Y-2.77735
G01 X5.81028 Y-2.77930
G01 X5.81198 Y-2.78149
G01 X6.40400 Y-2.78149
G01 X6.65197 Y-2.53352
G01 X6.65205 Y-2.47436
G01 X6.65239 Y-2.47237
G01 X6.65284 Y-2.47081
G01 X6.65421 Y-2.46788
G01 X6.65616 Y-2.46529
G01 X6.65859 Y-2.46315
G01 X6.66031 Y-2.46208
G01 X6.66254 Y-2.46111
G01 X6.66489 Y-2.46049
G01 X6.66731 Y-2.46024
G01 X6.79912 Y-2.46023
G01 X6.80102 Y-2.45807
G01 X6.80340 Y-2.45592
G01 X6.80604 Y-2.45409
G01 X6.80851 Y-2.45277
G01 X6.81150 Y-2.45161
G01 X6.81421 Y-2.45090
G01 X6.81739 Y-2.45046
G01 X6.82019 Y-2.45041
G01 X6.82417 Y-2.45086
G01 X6.82803 Y-2.45193
G01 X6.83168 Y-2.45359
G01 X6.83502 Y-2.45580
G01 X6.83798 Y-2.45850
G01 X6.84048 Y-2.46163
G01 X6.84246 Y-2.46511
G01 X6.84387 Y-2.46886
G01 X6.84450 Y-2.47160
G01 X6.84480 Y-2.47398
G01 X6.84487 Y-2.47679
G01 X6.84463 Y-2.47958
G01 X6.84408 Y-2.48233
G01 X6.84324 Y-2.48501
G01 X6.84211 Y-2.48758
G01 X6.84070 Y-2.49000
G01 X6.83904 Y-2.49226
G01 X6.83714 Y-2.49433
G01 X6.83534 Y-2.49592
G01 X6.83306 Y-2.49756
G01 X6.83061 Y-2.49893
G01 X6.82803 Y-2.50004
G01 X6.82535 Y-2.50085
G01 X6.82299 Y-2.50131
G01 X6.81979 Y-2.50157
G01 X6.81619 Y-2.50139
G01 X6.81304 Y-2.50080
G01 X6.80961 Y-2.49967
G01 X6.80673 Y-2.49828
G01 X6.80372 Y-2.49629
G01 X6.80130 Y-2.49419
G01 X6.79912 Y-2.49173
G01 X6.68347 Y-2.49173
G01 X6.68347 Y-2.53992
G01 X6.68808 Y-2.54231
G01 X6.69234 Y-2.54529
G01 X6.69617 Y-2.54880
G01 X6.69927 Y-2.55247
G01 X6.70209 Y-2.55683
G01 X6.70417 Y-2.56116
G01 X6.70570 Y-2.56570
G01 X6.70672 Y-2.57080
G01 X6.70705 Y-2.57478
G01 X6.70694 Y-2.57918
G01 X6.70641 Y-2.58315
G01 X6.70548 Y-2.58704
G01 X6.70417 Y-2.59081
G01 X6.70228 Y-2.59479
G01 X6.70020 Y-2.59820
G01 X6.69777 Y-2.60138
G01 X6.69446 Y-2.60485
G01 X6.69107 Y-2.60765
G01 X6.68704 Y-2.61026
G01 X6.68273 Y-2.61236
G01 X6.67858 Y-2.61381
G01 X6.67389 Y-2.61485
G01 X6.66912 Y-2.61531
G01 X6.66432 Y-2.61519
G01 X6.65997 Y-2.61456
G01 X6.65533 Y-2.61333
G01 X6.65087 Y-2.61155
G01 X6.64667 Y-2.60923
G01 X6.64309 Y-2.60668
G01 X6.63954 Y-2.60345
G01 X6.63641 Y-2.59982
G01 X6.63391 Y-2.59613
G01 X6.42166 Y-2.80838
G01 X6.42011 Y-2.80974
G01 X6.41875 Y-2.81067
G01 X6.41693 Y-2.81163
G01 X6.41499 Y-2.81234
G01 X6.41298 Y-2.81280
G01 X6.41052 Y-2.81299
G01 X5.81199 Y-2.81299
G01 X5.81021 Y-2.81528
G01 X5.80836 Y-2.81722
G01 X5.80632 Y-2.81897
G01 X5.80412 Y-2.82052
G01 X5.80179 Y-2.82185
G01 X5.79933 Y-2.82294
G01 X5.79678 Y-2.82379
G01 X5.79416 Y-2.82438
G01 X5.78971 Y-2.82480
G01 X5.74584 Y-2.82480
G01 X5.74160 Y-2.82444
G01 X5.73726 Y-2.82336
G01 X5.73335 Y-2.82169
G01 X5.72956 Y-2.81931
G01 X5.72636 Y-2.81651
G01 X5.72350 Y-2.81307
G01 X5.72133 Y-2.80941
G01 X5.71969 Y-2.80525
G01 X5.71895 Y-2.80220
G01 X5.71857 Y-2.79909
G01 X5.71853 Y-2.79596
G04 P0 ( dwell for no time -- G64 should not smooth over this point )
G00 Z0.08000 ( retract )

G00 X5.57837 Y-2.57638 ( rapid move to begin. )
G01 F180.00000
( Mill infeed pass 1/1 )
G01 Z-0.04000
G04 P0 ( dwell for no time -- G64 should not smooth over this point )
G01 F360.00000
G01 X5.57837 Y-2.57638
G01 X5.57861 Y-2.58038
G01 X5.57918 Y-2.58393
G01 X5.58018 Y-2.58780
G01 X5.58142 Y-2.59118
G01 X5.58315 Y-2.59479
G01 X5.58501 Y-2.59787
G01 X5.58740 Y-2.60107
G01 X5.58982 Y-2.60374
G01 X5.59247 Y-2.60617
G01 X5.59567 Y-2.60858
G01 X5.59874 Y-2.61046
G01 X5.60222 Y-2.61215
G01 X5.60230 Y-2.80782
G01 X5.60274 Y-2.81021
G01 X5.60356 Y-2.81250
G01 X5.60472 Y-2.81464
G01 X5.60647 Y-2.81687
G01 X5.67654 Y-2.88694
G01 X5.67839 Y-2.88852
G01 X5.68047 Y-2.88979
G01 X5.68349 Y-2.89096
G01 X5.68669 Y-2.89146
G01 X5.72328 Y-2.89148
G01 X5.72515 Y-2.89393
G01 X5.72716 Y-2.89604
G01 X5.72938 Y-2.89792
G01 X5.73178 Y-2.89956
G01 X5.73435 Y-2.90093
G01 X5.73705 Y-2.90203
G01 X5.73984 Y-2.90283
G01 X5.74271 Y-2.90334
G01 X5.74606 Y-2.90354
G01 X5.78948 Y-2.90354
G01 X5.79239 Y-2.90338
G01 X5.79657 Y-2.90259
G01 X5.80057 Y-2.90116
G01 X5.80412 Y-2.89926
G01 X5.80753 Y-2.89671
G01 X5.81050 Y-2.89367
G01 X5.81297 Y-2.89021
G01 X5.81488 Y-2.88641
G01 X5.81618 Y-2.88237
G01 X5.81684 Y-2.87817
G01 X5.81685 Y-2.87391
G01 X5.81621 Y-2.86971
G01 X5.81492 Y-2.86566
G01 X5.81303 Y-2.86185
G01 X5.81072 Y-2.85855
G01 X5.80778 Y-2.85548
G01 X5.80441 Y-2.85289
G01 X5.80149 Y-2.85123
G01 X5.79817 Y-2.84987
G01 X5.79493 Y-2.84899
G01 X5.79138 Y-2.84850
G01 X5.74416 Y-2.84849
G01 X5.74105 Y-2.84888
G01 X5.73801 Y-2.84963
G01 X5.73507 Y-2.85071
G01 X5.73227 Y-2.85213
G01 X5.72965 Y-2.85385
G01 X5.72724 Y-2.85585
G01 X5.72508 Y-2.85812
G01 X5.72328 Y-2.86048
G01 X5.69392 Y-2.86048
G01 X5.63322 Y-2.79978
G01 X5.63322 Y-2.61215
G01 X5.63669 Y-2.61046
G01 X5.63976 Y-2.60858
G01 X5.64296 Y-2.60617
G01 X5.64561 Y-2.60374
G01 X5.64803 Y-2.60107
G01 X5.65042 Y-2.59787
G01 X5.65228 Y-2.59479
G01 X5.65401 Y-2.59118
G01 X5.65525 Y-2.58780
G01 X5.65626 Y-2.58393
G01 X5.65682 Y-2.58038
G01 X5.65706 Y-2.57638
G01 X5.65694 Y-2.57279
G01 X5.65641 Y-2.56882
G01 X5.65548 Y-2.56493
G01 X5.65425 Y-2.56137
G01 X5.72414 Y-2.49148
G01 X5.74213 Y-2.49148
G01 X5.74213 Y-2.50157
G01 X5.79331 Y-2.50157
G01 X5.79331 Y-2.45039
G01 X5.74213 Y-2.45039
G01 X5.74213 Y-2.46048
G01 X5.71610 Y-2.46057
G01 X5.71410 Y-2.46091
G01 X5.71178 Y-2.46166
G01 X5.70997 Y-2.46256
G01 X5.70796 Y-2.46394
G01 X5.63233 Y-2.53945
G01 X5.62858 Y-2.53816
G01 X5.62468 Y-2.53726
G01 X5.62071 Y-2.53675
G01 X5.61712 Y-2.53664
G01 X5.61313 Y-2.53690
G01 X5.60918 Y-2.53757
G01 X5.60533 Y-2.53863
G01 X5.60197 Y-2.53992
G01 X5.59839 Y-2.54171
G01 X5.59501 Y-2.54385
G01 X5.59217 Y-2.54606
G01 X5.58926 Y-2.54880
G01 X5.58665 Y-2.55183
G01 X5.58457 Y-2.55477
G01 X5.58277 Y-2.55789
G01 X5.58112 Y-2.56153
G01 X5.57995 Y-2.56493
G01 X5.57902 Y-2.56882
G01 X5.57850 Y-2.57279
G01 X5.57837 Y-2.57638
G04 P0 ( dwell for no time -- G64 should not smooth over this point )
G00 Z0.08000 ( retract )

G00 X5.57837 Y-2.17598 ( rapid move to begin. )
G01 F180.00000
( Mill infeed pass 1/1 )
G01 Z-0.04000
G04 P0 ( dwell for no time -- G64 should not smooth over this point )
G01 F360.00000
G01 X5.57837 Y-2.17598
G01 X5.57853 Y-2.17958
G01 X5.57902 Y-2.18315
G01 X5.57984 Y-2.18665
G01 X5.58097 Y-2.19007
G01 X5.58241 Y-2.19337
G01 X5.58436 Y-2.19686
G01 X5.58641 Y-2.19982
G01 X5.58872 Y-2.20258
G01 X5.59127 Y-2.20512
G01 X5.59404 Y-2.20741
G01 X5.59701 Y-2.20945
G01 X5.60051 Y-2.21137
G01 X5.60382 Y-2.21280
G01 X5.60724 Y-2.21391
G01 X5.61075 Y-2.21471
G01 X5.61432 Y-2.21519
G01 X5.61752 Y-2.21533
G01 X5.62071 Y-2.21522
G01 X5.62389 Y-2.21485
G01 X5.62664 Y-2.21431
G01 X5.62972 Y-2.21346
G01 X5.63236 Y-2.21251
G01 X5.63492 Y-2.21137
G01 X5.63774 Y-2.20986
G01 X5.64042 Y-2.20812
G01 X5.64296 Y-2.20617
G01 X5.64533 Y-2.20402
G01 X5.64725 Y-2.20199
G01 X5.64927 Y-2.19950
G01 X5.65086 Y-2.19720
G01 X5.65247 Y-2.19443
G01 X5.65378 Y-2.19173
G01 X5.98166 Y-2.19173
G01 X5.98296 Y-2.19443
G01 X5.98457 Y-2.19720
G01 X5.98641 Y-2.19982
G01 X5.98845 Y-2.20228
G01 X5.99068 Y-2.20458
G01 X5.99309 Y-2.20668
G01 X5.99567 Y-2.20858
G01 X5.99839 Y-2.21026
G01 X6.00124 Y-2.21172
G01 X6.00419 Y-2.21294
G01 X6.00724 Y-2.21391
G01 X6.01036 Y-2.21464
G01 X6.01352 Y-2.21511
G01 X6.01672 Y-2.21532
G01 X6.01992 Y-2.21527
G01 X6.02310 Y-2.21496
G01 X6.02742 Y-2.21412
G01 X6.03199 Y-2.21266
G01 X6.03599 Y-2.21083
G01 X6.03976 Y-2.20858
G01 X6.04326 Y-2.20591
G01 X6.04644 Y-2.20287
G01 X6.04927 Y-2.19950
G01 X6.05169 Y-2.19583
G01 X6.05370 Y-2.19192
G01 X6.05525 Y-2.18780
G01 X6.05633 Y-2.18354
G01 X6.05697 Y-2.17878
G01 X6.05703 Y-2.17438
G01 X6.05661 Y-2.17001
G01 X6.05570 Y-2.16570
G01 X6.05425 Y-2.16137
G01 X6.17064 Y-2.04498
G01 X6.51479 Y-2.04498
G01 X6.63118 Y-2.16137
G01 X6.62984 Y-2.16532
G01 X6.62889 Y-2.16961
G01 X6.62842 Y-2.17398
G01 X6.62842 Y-2.17802
G01 X6.38210 Y-2.30118
G01 X6.29882 Y-2.30118
G01 X6.29882 Y-2.43898
G01 X6.43662 Y-2.43898
G01 X6.43662 Y-2.30914
G01 X6.64251 Y-2.20620
G01 X6.64633 Y-2.20902
G01 X6.65016 Y-2.21120
G01 X6.65457 Y-2.21307
G01 X6.65879 Y-2.21431
G01 X6.66352 Y-2.21511
G01 X6.66792 Y-2.21533
G01 X6.67231 Y-2.21507
G01 X6.67664 Y-2.21431
G01 X6.68086 Y-2.21307
G01 X6.68528 Y-2.21120
G01 X6.68943 Y-2.20880
G01 X6.69296 Y-2.20617
G01 X6.69617 Y-2.20316
G01 X6.69927 Y-2.19950
G01 X6.70169 Y-2.19583
G01 X6.70378 Y-2.19173
G01 X7.03166 Y-2.19173
G01 X7.03296 Y-2.19443
G01 X7.03457 Y-2.19720
G01 X7.03617 Y-2.19950
G01 X7.03818 Y-2.20199
G01 X7.04010 Y-2.20402
G01 X7.04247 Y-2.20617
G01 X7.04501 Y-2.20812
G01 X7.04735 Y-2.20966
G01 X7.04980 Y-2.21102
G01 X7.05270 Y-2.21236
G01 X7.05533 Y-2.21333
G01 X7.05840 Y-2.21422
G01 X7.06115 Y-2.21478
G01 X7.06432 Y-2.21519
G01 X7.06712 Y-2.21533
G01 X7.07031 Y-2.21525
G01 X7.07389 Y-2.21485
G01 X7.07742 Y-2.21412
G01 X7.08086 Y-2.21307
G01 X7.08456 Y-2.21155
G01 X7.08774 Y-2.20986
G01 X7.09107 Y-2.20765
G01 X7.09387 Y-2.20539
G01 X7.09644 Y-2.20287
G01 X7.09878 Y-2.20014
G01 X7.10086 Y-2.19720
G01 X7.10266 Y-2.19408
G01 X7.10431 Y-2.19044
G01 X7.10548 Y-2.18704
G01 X7.10633 Y-2.18354
G01 X7.10690 Y-2.17958
G01 X7.10707 Y-2.17598
G01 X7.10690 Y-2.17239
G01 X7.10633 Y-2.16843
G01 X7.10548 Y-2.16493
G01 X7.10431 Y-2.16153
G01 X7.10266 Y-2.15789
G01 X7.10086 Y-2.15477
G01 X7.09878 Y-2.15183
G01 X7.09617 Y-2.14880
G01 X7.09326 Y-2.14606
G01 X7.09042 Y-2.14385
G01 X7.08704 Y-2.14171
G01 X7.08383 Y-2.14008
G01 X7.08010 Y-2.13863
G01 X7.07664 Y-2.13766
G01 X7.07270 Y-2.13695
G01 X7.06912 Y-2.13666
G01 X7.06632 Y-2.13666
G01 X7.06313 Y-2.13690
G01 X7.05997 Y-2.13740
G01 X7.05724 Y-2.13805
G01 X7.05457 Y-2.13889
G01 X7.05160 Y-2.14008
G01 X7.04667 Y-2.14273
G01 X7.04217 Y-2.14606
G01 X7.03982 Y-2.14823
G01 X7.03792 Y-2.15028
G01 X7.03617 Y-2.15247
G01 X7.03436 Y-2.15511
G01 X7.03296 Y-2.15753
G01 X7.03166 Y-2.16023
G01 X6.70378 Y-2.16023
G01 X6.70209 Y-2.15683
G01 X6.70020 Y-2.15377
G01 X6.69777 Y-2.15059
G01 X6.69533 Y-2.14795
G01 X6.69234 Y-2.14529
G01 X6.68943 Y-2.14317
G01 X6.68599 Y-2.14113
G01 X6.68273 Y-2.13961
G01 X6.67896 Y-2.13827
G01 X6.67547 Y-2.13740
G01 X6.67151 Y-2.13682
G01 X6.66792 Y-2.13663
G01 X6.66432 Y-2.13678
G01 X6.66036 Y-2.13733
G01 X6.65686 Y-2.13816
G01 X6.65310 Y-2.13945
G01 X6.53188 Y-2.01824
G01 X6.52999 Y-2.01671
G01 X6.52789 Y-2.01549
G01 X6.52562 Y-2.01462
G01 X6.52364 Y-2.01417
G01 X6.52122 Y-2.01398
G01 X6.16422 Y-2.01398
G01 X6.16139 Y-2.01424
G01 X6.15828 Y-2.01516
G01 X6.15577 Y-2.01648
G01 X6.15355 Y-2.01824
G01 X6.03233 Y-2.13945
G01 X6.02858 Y-2.13816
G01 X6.02507 Y-2.13733
G01 X6.02111 Y-2.13678
G01 X6.01752 Y-2.13663
G01 X6.01392 Y-2.13682
G01 X6.00997 Y-2.13740
G01 X6.00647 Y-2.13827
G01 X6.00270 Y-2.13961
G01 X5.99944 Y-2.14113
G01 X5.99600 Y-2.14317
G01 X5.99309 Y-2.14529
G01 X5.99010 Y-2.14795
G01 X5.98766 Y-2.15059
G01 X5.98524 Y-2.15377
G01 X5.98334 Y-2.15683
G01 X5.98166 Y-2.16023
G01 X5.65378 Y-2.16023
G01 X5.65247 Y-2.15753
G01 X5.65107 Y-2.15511
G01 X5.64927 Y-2.15247
G01 X5.64751 Y-2.15028
G01 X5.64561 Y-2.14823
G01 X5.64326 Y-2.14606
G01 X5.63876 Y-2.14273
G01 X5.63383 Y-2.14008
G01 X5.63086 Y-2.13889
G01 X5.62819 Y-2.13805
G01 X5.62547 Y-2.13740
G01 X5.62231 Y-2.13690
G01 X5.61912 Y-2.13666
G01 X5.61632 Y-2.13666
G01 X5.61273 Y-2.13695
G01 X5.60879 Y-2.13766
G01 X5.60533 Y-2.13863
G01 X5.60160 Y-2.14008
G01 X5.59839 Y-2.14171
G01 X5.59501 Y-2.14385
G01 X5.59217 Y-2.14606
G01 X5.58926 Y-2.14880
G01 X5.58665 Y-2.15183
G01 X5.58457 Y-2.15477
G01 X5.58277 Y-2.15789
G01 X5.58112 Y-2.16153
G01 X5.57995 Y-2.16493
G01 X5.57910 Y-2.16843
G01 X5.57853 Y-2.17239
G01 X5.57837 Y-2.17598
G04 P0 ( dwell for no time -- G64 should not smooth over this point )
G00 Z0.08000 ( retract )

G00 X5.84059 Y-2.47739 ( rapid move to begin. )
G01 F180.00000
( Mill infeed pass 1/1 )
G01 Z-0.04000
G04 P0 ( dwell for no time -- G64 should not smooth over this point )
G01 F360.00000
G01 X5.84059 Y-2.47739
G01 X5.84059 Y-2.47458
G01 X5.84104 Y-2.47100
G01 X5.84186 Y-2.46790
G01 X5.84306 Y-2.46493
G01 X5.84484 Y-2.46180
G01 X5.84678 Y-2.45925
G01 X5.84933 Y-2.45669
G01 X5.85187 Y-2.45474
G01 X5.85464 Y-2.45312
G01 X5.85759 Y-2.45187
G01 X5.86067 Y-2.45099
G01 X5.86424 Y-2.45046
G01 X5.86744 Y-2.45043
G01 X5.87102 Y-2.45086
G01 X5.87413 Y-2.45167
G01 X5.87710 Y-2.45286
G01 X5.88024 Y-2.45463
G01 X5.88311 Y-2.45682
G01 X5.88563 Y-2.45940
G01 X5.88777 Y-2.46230
G01 X5.88948 Y-2.46548
G01 X5.89072 Y-2.46886
G01 X5.89148 Y-2.47239
G01 X5.89173 Y-2.47598
G01 X5.89150 Y-2.47942
G01 X5.97256 Y-2.56048
G01 X5.98155 Y-2.56048
G01 X5.98296 Y-2.55753
G01 X5.98457 Y-2.55477
G01 X5.98665 Y-2.55183
G01 X5.98872 Y-2.54939
G01 X5.99097 Y-2.54712
G01 X5.99372 Y-2.54480
G01 X5.99667 Y-2.54273
G01 X5.99944 Y-2.54113
G01 X6.00345 Y-2.53931
G01 X6.00802 Y-2.53785
G01 X6.01273 Y-2.53695
G01 X6.01752 Y-2.53663
G01 X6.02310 Y-2.53700
G01 X6.02625 Y-2.53757
G01 X6.02896 Y-2.53827
G01 X6.03199 Y-2.53931
G01 X6.03456 Y-2.54042
G01 X6.03943 Y-2.54317
G01 X6.04203 Y-2.54504
G01 X6.04416 Y-2.54685
G01 X6.04803 Y-2.55090
G01 X6.05128 Y-2.55545
G01 X6.05266 Y-2.55789
G01 X6.05388 Y-2.56048
G01 X6.35710 Y-2.56048
G01 X6.51364 Y-2.40393
G01 X6.51517 Y-2.40260
G01 X6.51685 Y-2.40147
G01 X6.51905 Y-2.40042
G01 X6.52099 Y-2.39982
G01 X6.52258 Y-2.39953
G01 X6.52460 Y-2.39939
G01 X7.01821 Y-2.39941
G01 X7.02102 Y-2.39982
G01 X7.02333 Y-2.40057
G01 X7.02584 Y-2.40189
G01 X7.02807 Y-2.40365
G01 X7.15353 Y-2.52909
G01 X7.15534 Y-2.53128
G01 X7.15673 Y-2.53375
G01 X7.15764 Y-2.53644
G01 X7.15804 Y-2.53924
G01 X7.15806 Y-2.61232
G01 X7.15788 Y-2.61434
G01 X7.15731 Y-2.61670
G01 X7.15656 Y-2.61858
G01 X7.15534 Y-2.62069
G01 X7.15353 Y-2.62287
G01 X6.96761 Y-2.80876
G01 X6.96568 Y-2.81024
G01 X6.96317 Y-2.81156
G01 X6.96085 Y-2.81231
G01 X6.95845 Y-2.81270
G01 X6.91216 Y-2.81274
G01 X6.91036 Y-2.81511
G01 X6.90836 Y-2.81722
G01 X6.90614 Y-2.81911
G01 X6.90374 Y-2.82076
G01 X6.90118 Y-2.82214
G01 X6.89849 Y-2.82325
G01 X6.89570 Y-2.82407
G01 X6.89283 Y-2.82458
G01 X6.88948 Y-2.82480
G01 X6.84472 Y-2.82477
G01 X6.84050 Y-2.82424
G01 X6.83663 Y-2.82314
G01 X6.83275 Y-2.82138
G01 X6.82938 Y-2.81918
G01 X6.82620 Y-2.81635
G01 X6.82350 Y-2.81307
G01 X6.82143 Y-2.80961
G01 X6.81982 Y-2.80567
G01 X6.81884 Y-2.80154
G01 X6.81850 Y-2.79730
G01 X6.81879 Y-2.79328
G01 X6.81972 Y-2.78913
G01 X6.82128 Y-2.78518
G01 X6.82344 Y-2.78151
G01 X6.82597 Y-2.77838
G01 X6.82911 Y-2.77551
G01 X6.83227 Y-2.77339
G01 X6.83589 Y-2.77163
G01 X6.83974 Y-2.77042
G01 X6.84349 Y-2.76981
G01 X6.84606 Y-2.76968
G01 X6.89071 Y-2.76972
G01 X6.89405 Y-2.77009
G01 X6.89710 Y-2.77079
G01 X6.90006 Y-2.77184
G01 X6.90287 Y-2.77322
G01 X6.90551 Y-2.77491
G01 X6.90795 Y-2.77689
G01 X6.91014 Y-2.77913
G01 X6.91216 Y-2.78174
G01 X6.95081 Y-2.78174
G01 X7.12707 Y-2.60549
G01 X7.12707 Y-2.54648
G01 X7.01098 Y-2.43039
G01 X6.53103 Y-2.43039
G01 X6.37448 Y-2.58694
G01 X6.37295 Y-2.58828
G01 X6.37161 Y-2.58920
G01 X6.36869 Y-2.59059
G01 X6.36594 Y-2.59129
G01 X6.36352 Y-2.59148
G01 X6.05388 Y-2.59148
G01 X6.05149 Y-2.59618
G01 X6.04828 Y-2.60076
G01 X6.04446 Y-2.60485
G01 X6.04009 Y-2.60835
G01 X6.03528 Y-2.61120
G01 X6.03010 Y-2.61333
G01 X6.02468 Y-2.61471
G01 X6.01912 Y-2.61531
G01 X6.01632 Y-2.61531
G01 X6.01313 Y-2.61507
G01 X6.00997 Y-2.61456
G01 X6.00724 Y-2.61391
G01 X6.00457 Y-2.61307
G01 X6.00160 Y-2.61188
G01 X5.99667 Y-2.60923
G01 X5.99404 Y-2.60741
G01 X5.99186 Y-2.60565
G01 X5.98982 Y-2.60374
G01 X5.98766 Y-2.60138
G01 X5.98593 Y-2.59918
G01 X5.98415 Y-2.59652
G01 X5.98277 Y-2.59408
G01 X5.98155 Y-2.59148
G01 X5.96614 Y-2.59148
G01 X5.96412 Y-2.59135
G01 X5.96213 Y-2.59096
G01 X5.96021 Y-2.59030
G01 X5.95839 Y-2.58941
G01 X5.95671 Y-2.58828
G01 X5.95518 Y-2.58694
G01 X5.86958 Y-2.50134
G01 X5.86664 Y-2.50157
G01 X5.86384 Y-2.50147
G01 X5.86067 Y-2.50098
G01 X5.85797 Y-2.50023
G01 X5.85536 Y-2.49919
G01 X5.85289 Y-2.49787
G01 X5.85025 Y-2.49604
G01 X5.84815 Y-2.49419
G01 X5.84652 Y-2.49242
G01 X5.84484 Y-2.49017
G01 X5.84342 Y-2.48775
G01 X5.84227 Y-2.48520
G01 X5.84151 Y-2.48291
G01 X5.84090 Y-2.48018
G01 X5.84059 Y-2.47739
G04 P0 ( dwell for no time -- G64 should not smooth over this point )
G00 Z0.08000 ( retract )

G00 X6.48031 Y-2.92578 ( rapid move to begin. )
G01 F180.00000
( Mill infeed pass 1/1 )
G01 Z-0.04000
G04 P0 ( dwell for no time -- G64 should not smooth over this point )
G01 F360.00000
G01 X6.48031 Y-2.92578
G01 X6.48055 Y-2.92179
G01 X6.48121 Y-2.91784
G01 X6.48216 Y-2.91437
G01 X6.48361 Y-2.91064
G01 X6.48524 Y-2.90743
G01 X6.48741 Y-2.90406
G01 X6.48966 Y-2.90125
G01 X6.49246 Y-2.89840
G01 X6.49555 Y-2.89586
G01 X6.49855 Y-2.89386
G01 X6.50173 Y-2.89217
G01 X6.50544 Y-2.89066
G01 X6.50889 Y-2.88964
G01 X6.51282 Y-2.88890
G01 X6.51641 Y-2.88861
G01 X6.52042 Y-2.88868
G01 X6.52478 Y-2.88926
G01 X6.52866 Y-2.89022
G01 X6.53279 Y-2.89175
G01 X6.53670 Y-2.89376
G01 X6.54036 Y-2.89622
G01 X6.54370 Y-2.89908
G01 X6.54668 Y-2.90232
G01 X6.54904 Y-2.90555
G01 X6.55123 Y-2.90937
G01 X6.55281 Y-2.91305
G01 X6.55409 Y-2.91726
G01 X6.55486 Y-2.92159
G01 X6.55512 Y-2.92598
G01 X6.55490 Y-2.92998
G01 X6.55426 Y-2.93393
G01 X6.55284 Y-2.93883
G01 X6.55298 Y-2.93897
G01 X6.82345 Y-2.93897
G01 X6.82522 Y-2.93669
G01 X6.82708 Y-2.93475
G01 X6.82911 Y-2.93299
G01 X6.83131 Y-2.93145
G01 X6.83365 Y-2.93012
G01 X6.83610 Y-2.92903
G01 X6.83865 Y-2.92818
G01 X6.84127 Y-2.92758
G01 X6.84595 Y-2.92717
G01 X6.89071 Y-2.92720
G01 X6.89339 Y-2.92746
G01 X6.89602 Y-2.92798
G01 X6.89860 Y-2.92876
G01 X6.90128 Y-2.92987
G01 X6.90365 Y-2.93115
G01 X6.90605 Y-2.93279
G01 X6.90811 Y-2.93452
G01 X6.90999 Y-2.93644
G01 X6.91167 Y-2.93853
G01 X6.91326 Y-2.94098
G01 X6.91448 Y-2.94337
G01 X6.91547 Y-2.94587
G01 X6.91621 Y-2.94845
G01 X6.91669 Y-2.95109
G01 X6.91691 Y-2.95377
G01 X6.91686 Y-2.95668
G01 X6.91657 Y-2.95913
G01 X6.91607 Y-2.96154
G01 X6.91536 Y-2.96390
G01 X6.91434 Y-2.96639
G01 X6.91320 Y-2.96857
G01 X6.91187 Y-2.97064
G01 X6.91021 Y-2.97276
G01 X6.90852 Y-2.97455
G01 X6.90667 Y-2.97618
G01 X6.90469 Y-2.97763
G01 X6.90258 Y-2.97891
G01 X6.90016 Y-2.98008
G01 X6.89785 Y-2.98094
G01 X6.89526 Y-2.98165
G01 X6.89283 Y-2.98206
G01 X6.89038 Y-2.98226
G01 X6.84584 Y-2.98228
G01 X6.84138 Y-2.98188
G01 X6.83854 Y-2.98124
G01 X6.83600 Y-2.98038
G01 X6.83355 Y-2.97928
G01 X6.83121 Y-2.97794
G01 X6.82902 Y-2.97638
G01 X6.82700 Y-2.97462
G01 X6.82515 Y-2.97267
G01 X6.82345 Y-2.97047
G01 X6.54526 Y-2.97043
G01 X6.54329 Y-2.97015
G01 X6.54136 Y-2.96963
G01 X6.53988 Y-2.96904
G01 X6.53812 Y-2.96809
G01 X6.53590 Y-2.96641
G01 X6.53057 Y-2.96111
G01 X6.52635 Y-2.96238
G01 X6.52201 Y-2.96314
G01 X6.51761 Y-2.96339
G01 X6.51322 Y-2.96311
G01 X6.50889 Y-2.96233
G01 X6.50468 Y-2.96104
G01 X6.50030 Y-2.95908
G01 X6.49653 Y-2.95681
G01 X6.49276 Y-2.95384
G01 X6.48966 Y-2.95072
G01 X6.48695 Y-2.94725
G01 X6.48448 Y-2.94313
G01 X6.48269 Y-2.93911
G01 X6.48139 Y-2.93490
G01 X6.48060 Y-2.93058
G01 X6.48031 Y-2.92578
G04 P0 ( dwell for no time -- G64 should not smooth over this point )
G00 Z0.08000 ( retract )

G00 X6.76750 Y-2.66729 ( rapid move to begin. )
G01 F180.00000
( Mill infeed pass 1/1 )
G01 Z-0.04000
G04 P0 ( dwell for no time -- G64 should not smooth over this point )
G01 F360.00000
G01 X6.76750 Y-2.66729
G01 X6.76752 Y-2.87229
G01 X6.76784 Y-2.87471
G01 X6.76853 Y-2.87704
G01 X6.76958 Y-2.87923
G01 X6.77096 Y-2.88124
G01 X6.77775 Y-2.88803
G01 X6.77975 Y-2.88941
G01 X6.78233 Y-2.89059
G01 X6.78468 Y-2.89122
G01 X6.78710 Y-2.89148
G01 X6.82328 Y-2.89148
G01 X6.82515 Y-2.89393
G01 X6.82716 Y-2.89604
G01 X6.82938 Y-2.89792
G01 X6.83178 Y-2.89956
G01 X6.83435 Y-2.90093
G01 X6.83705 Y-2.90203
G01 X6.83984 Y-2.90283
G01 X6.84271 Y-2.90334
G01 X6.84606 Y-2.90354
G01 X6.89038 Y-2.90352
G01 X6.89416 Y-2.90312
G01 X6.89807 Y-2.90213
G01 X6.90179 Y-2.90059
G01 X6.90524 Y-2.89851
G01 X6.90836 Y-2.89596
G01 X6.91093 Y-2.89315
G01 X6.91320 Y-2.88983
G01 X6.91496 Y-2.88621
G01 X6.91596 Y-2.88323
G01 X6.91657 Y-2.88039
G01 X6.91689 Y-2.87750
G01 X6.91689 Y-2.87458
G01 X6.91659 Y-2.87169
G01 X6.91593 Y-2.86863
G01 X6.91500 Y-2.86587
G01 X6.91379 Y-2.86322
G01 X6.91219 Y-2.86053
G01 X6.91043 Y-2.85821
G01 X6.90844 Y-2.85609
G01 X6.90605 Y-2.85405
G01 X6.90346 Y-2.85230
G01 X6.90088 Y-2.85094
G01 X6.89817 Y-2.84987
G01 X6.89537 Y-2.84909
G01 X6.89250 Y-2.84860
G01 X6.88959 Y-2.84843
G01 X6.84595 Y-2.84843
G01 X6.84282 Y-2.84862
G01 X6.83995 Y-2.84911
G01 X6.83715 Y-2.84990
G01 X6.83425 Y-2.85109
G01 X6.83169 Y-2.85247
G01 X6.82929 Y-2.85412
G01 X6.82708 Y-2.85601
G01 X6.82508 Y-2.85812
G01 X6.82328 Y-2.86048
G01 X6.79850 Y-2.86048
G01 X6.79850 Y-2.67371
G01 X6.92976 Y-2.54233
G01 X6.93114 Y-2.54032
G01 X6.93204 Y-2.53851
G01 X6.93279 Y-2.53619
G01 X6.93317 Y-2.53379
G01 X6.93322 Y-2.50157
G01 X6.94331 Y-2.50157
G01 X6.94331 Y-2.49148
G01 X6.96130 Y-2.49148
G01 X7.03118 Y-2.56137
G01 X7.03006 Y-2.56455
G01 X7.02918 Y-2.56804
G01 X7.02861 Y-2.57159
G01 X7.02838 Y-2.57478
G01 X7.02842 Y-2.57798
G01 X7.02876 Y-2.58157
G01 X7.02944 Y-2.58510
G01 X7.03043 Y-2.58856
G01 X7.03174 Y-2.59192
G01 X7.03315 Y-2.59479
G01 X7.03479 Y-2.59753
G01 X7.03690 Y-2.60045
G01 X7.03926 Y-2.60316
G01 X7.04186 Y-2.60565
G01 X7.04436 Y-2.60765
G01 X7.04735 Y-2.60966
G01 X7.05124 Y-2.61172
G01 X7.05533 Y-2.61333
G01 X7.05957 Y-2.61448
G01 X7.06392 Y-2.61515
G01 X7.06832 Y-2.61533
G01 X7.07270 Y-2.61502
G01 X7.07664 Y-2.61431
G01 X7.08086 Y-2.61307
G01 X7.08492 Y-2.61137
G01 X7.08876 Y-2.60923
G01 X7.09234 Y-2.60668
G01 X7.09561 Y-2.60374
G01 X7.09853 Y-2.60045
G01 X7.10086 Y-2.59720
G01 X7.10302 Y-2.59337
G01 X7.10474 Y-2.58932
G01 X7.10570 Y-2.58627
G01 X7.10633 Y-2.58354
G01 X7.10682 Y-2.58038
G01 X7.10703 Y-2.57758
G01 X7.10705 Y-2.57478
G01 X7.10682 Y-2.57159
G01 X7.10633 Y-2.56843
G01 X7.10570 Y-2.56570
G01 X7.10474 Y-2.56265
G01 X7.10370 Y-2.56005
G01 X7.10228 Y-2.55718
G01 X7.09927 Y-2.55247
G01 X7.09725 Y-2.54998
G01 X7.09326 Y-2.54606
G01 X7.08910 Y-2.54295
G01 X7.08456 Y-2.54042
G01 X7.07972 Y-2.53851
G01 X7.07429 Y-2.53719
G01 X7.06912 Y-2.53666
G01 X7.06352 Y-2.53686
G01 X7.05840 Y-2.53775
G01 X7.05310 Y-2.53945
G01 X6.97747 Y-2.46394
G01 X6.97547 Y-2.46256
G01 X6.97365 Y-2.46166
G01 X6.97133 Y-2.46091
G01 X6.96934 Y-2.46057
G01 X6.94331 Y-2.46048
G01 X6.94331 Y-2.45039
G01 X6.89213 Y-2.45039
G01 X6.89213 Y-2.50157
G01 X6.90222 Y-2.50157
G01 X6.90222 Y-2.52615
G01 X6.77204 Y-2.65633
G01 X6.77096 Y-2.65753
G01 X6.76979 Y-2.65919
G01 X6.76839 Y-2.66211
G01 X6.76776 Y-2.66446
G01 X6.76750 Y-2.66729
( Piece #4, position [1;1] )

G04 P0 ( dwell for no time -- G64 should not smooth over this point )
G00 Z0.08000 ( retract )

G00 X3.54635 Y-2.84361 ( rapid move to begin. )
G01 F180.00000
( Mill infeed pass 1/1 )
G01 Z-0.04000
G04 P0 ( dwell for no time -- G64 should not smooth over this point )
G01 F360.00000
G01 X3.54635 Y-2.84361
G01 X3.54648 Y-2.84563
G01 X3.54699 Y-2.84801
G01 X3.54753 Y-2.84954
G01 X3.54843 Y-2.85136
G01 X3.54955 Y-2.85304
G01 X3.55089 Y-2.85457
G01 X3.73207 Y-3.03574
G01 X3.73359 Y-3.03708
G01 X3.73563 Y-3.03840
G01 X3.73824 Y-3.03952
G01 X3.74060 Y-3.04009
G01 X3.74303 Y-3.04028
G01 X4.21689 Y-3.04020
G01 X4.21928 Y-3.03975
G01 X4.22157 Y-3.03894
G01 X4.22371 Y-3.03778
G01 X4.22564 Y-3.03630
G01 X4.25466 Y-3.00731
G01 X4.25670 Y-3.00480
G01 X4.25769 Y-3.00303
G01 X4.25844 Y-3.00114
G01 X4.25894 Y-2.99918
G01 X4.25918 Y-2.99717
G01 X4.25920 Y-2.96535
G01 X4.28110 Y-2.96535
G01 X4.28110 Y-2.94148
G01 X4.40630 Y-2.94148
G01 X4.40630 Y-2.96535
G01 X4.48110 Y-2.96535
G01 X4.48110 Y-2.88661
G01 X4.40630 Y-2.88661
G01 X4.40630 Y-2.91048
G01 X4.28110 Y-2.91048
G01 X4.28110 Y-2.88661
G01 X4.20630 Y-2.88661
G01 X4.20630 Y-2.96535
G01 X4.22820 Y-2.96535
G01 X4.22820 Y-2.98993
G01 X4.20885 Y-3.00928
G01 X3.74945 Y-3.00928
G01 X3.57735 Y-2.83719
G01 X3.57735 Y-2.44312
G01 X3.61083 Y-2.40963
G01 X3.96665 Y-2.40963
G01 X3.96867 Y-2.40950
G01 X3.97066 Y-2.40910
G01 X3.97258 Y-2.40845
G01 X3.97440 Y-2.40756
G01 X3.97609 Y-2.40643
G01 X3.97761 Y-2.40509
G01 X4.11522 Y-2.26748
G01 X4.13980 Y-2.26748
G01 X4.13980 Y-2.32088
G01 X4.27760 Y-2.32088
G01 X4.27760 Y-2.20500
G01 X4.32480 Y-2.15780
G01 X4.32480 Y-2.20278
G01 X4.46260 Y-2.20278
G01 X4.46260 Y-2.06498
G01 X4.32480 Y-2.06498
G01 X4.32480 Y-2.11851
G01 X4.32240 Y-2.11902
G01 X4.32013 Y-2.11989
G01 X4.31802 Y-2.12111
G01 X4.31613 Y-2.12264
G01 X4.25568 Y-2.18308
G01 X4.13980 Y-2.18308
G01 X4.13980 Y-2.23648
G01 X4.10758 Y-2.23653
G01 X4.10518 Y-2.23691
G01 X4.10287 Y-2.23766
G01 X4.10070 Y-2.23877
G01 X4.09905 Y-2.23994
G01 X3.96023 Y-2.37863
G01 X3.60441 Y-2.37863
G01 X3.60239 Y-2.37877
G01 X3.60001 Y-2.37927
G01 X3.59811 Y-2.37997
G01 X3.59597 Y-2.38113
G01 X3.59404 Y-2.38261
G01 X3.55089 Y-2.42573
G01 X3.54955 Y-2.42726
G01 X3.54823 Y-2.42930
G01 X3.54711 Y-2.43191
G01 X3.54654 Y-2.43427
G01 X3.54635 Y-2.43670
G01 X3.54635 Y-2.84361
G04 P0 ( dwell for no time -- G64 should not smooth over this point )
G00 Z0.08000 ( retract )

G00 X3.74450 Y-2.95388 ( rapid move to begin. )
G01 F180.00000
( Mill infeed pass 1/1 )
G01 Z-0.04000
G04 P0 ( dwell for no time -- G64 should not smooth over this point )
G01 F360.00000
G01 X3.74450 Y-2.95388
G01 X3.74471 Y-2.95121
G01 X3.74519 Y-2.94856
G01 X3.74591 Y-2.94597
G01 X3.74689 Y-2.94347
G01 X3.74811 Y-2.94107
G01 X3.74955 Y-2.93881
G01 X3.75135 Y-2.93652
G01 X3.75322 Y-2.93459
G01 X3.75545 Y-2.93272
G01 X3.75767 Y-2.93121
G01 X3.76003 Y-2.92992
G01 X3.76271 Y-2.92879
G01 X3.76528 Y-2.92801
G01 X3.76792 Y-2.92748
G01 X3.77059 Y-2.92720
G01 X3.81558 Y-2.92717
G01 X3.82003 Y-2.92757
G01 X3.82266 Y-2.92815
G01 X3.82521 Y-2.92899
G01 X3.82787 Y-2.93017
G01 X3.83020 Y-2.93151
G01 X3.83239 Y-2.93306
G01 X3.83442 Y-2.93483
G01 X3.83627 Y-2.93678
G01 X3.83797 Y-2.93897
G01 X4.06217 Y-2.93897
G01 X4.10643 Y-2.92282
G01 X4.10688 Y-2.91941
G01 X4.10758 Y-2.91629
G01 X4.10854 Y-2.91323
G01 X4.10993 Y-2.90991
G01 X4.11143 Y-2.90708
G01 X4.11316 Y-2.90439
G01 X4.11512 Y-2.90186
G01 X4.11757 Y-2.89922
G01 X4.12027 Y-2.89683
G01 X4.12285 Y-2.89493
G01 X4.12558 Y-2.89326
G01 X4.12844 Y-2.89183
G01 X4.13142 Y-2.89066
G01 X4.13449 Y-2.88973
G01 X4.13762 Y-2.88908
G01 X4.14120 Y-2.88867
G01 X4.14520 Y-2.88861
G01 X4.14879 Y-2.88893
G01 X4.15233 Y-2.88959
G01 X4.15617 Y-2.89072
G01 X4.15986 Y-2.89226
G01 X4.16303 Y-2.89397
G01 X4.16634 Y-2.89622
G01 X4.16939 Y-2.89880
G01 X4.17215 Y-2.90171
G01 X4.17435 Y-2.90455
G01 X4.17627 Y-2.90760
G01 X4.17805 Y-2.91119
G01 X4.17931 Y-2.91456
G01 X4.18033 Y-2.91843
G01 X4.18093 Y-2.92239
G01 X4.18110 Y-2.92598
G01 X4.18100 Y-2.92878
G01 X4.18068 Y-2.93157
G01 X4.18016 Y-2.93432
G01 X4.17943 Y-2.93703
G01 X4.17851 Y-2.93967
G01 X4.17739 Y-2.94224
G01 X4.17607 Y-2.94471
G01 X4.17458 Y-2.94708
G01 X4.17291 Y-2.94934
G01 X4.17108 Y-2.95146
G01 X4.16910 Y-2.95344
G01 X4.16697 Y-2.95526
G01 X4.16472 Y-2.95692
G01 X4.16234 Y-2.95841
G01 X4.15986 Y-2.95971
G01 X4.15729 Y-2.96083
G01 X4.15233 Y-2.96238
G01 X4.14958 Y-2.96292
G01 X4.14680 Y-2.96326
G01 X4.14400 Y-2.96338
G01 X4.14120 Y-2.96330
G01 X4.13605 Y-2.96259
G01 X4.13104 Y-2.96118
G01 X4.12844 Y-2.96013
G01 X4.12593 Y-2.95890
G01 X4.12352 Y-2.95747
G01 X4.12122 Y-2.95587
G01 X4.11723 Y-2.95241
G01 X4.07036 Y-2.96952
G01 X4.06847 Y-2.97008
G01 X4.06614 Y-2.97043
G01 X3.83797 Y-2.97047
G01 X3.83619 Y-2.97276
G01 X3.83434 Y-2.97470
G01 X3.83230 Y-2.97645
G01 X3.83011 Y-2.97800
G01 X3.82777 Y-2.97933
G01 X3.82532 Y-2.98042
G01 X3.82277 Y-2.98127
G01 X3.82015 Y-2.98186
G01 X3.81547 Y-2.98228
G01 X3.77093 Y-2.98226
G01 X3.76847 Y-2.98205
G01 X3.76605 Y-2.98162
G01 X3.76367 Y-2.98098
G01 X3.76115 Y-2.98004
G01 X3.75893 Y-2.97896
G01 X3.75682 Y-2.97770
G01 X3.75483 Y-2.97625
G01 X3.75282 Y-2.97447
G01 X3.75099 Y-2.97250
G01 X3.74948 Y-2.97055
G01 X3.74816 Y-2.96847
G01 X3.74703 Y-2.96628
G01 X3.74610 Y-2.96400
G01 X3.74537 Y-2.96165
G01 X3.74482 Y-2.95902
G01 X3.74455 Y-2.95657
G01 X3.74450 Y-2.95388
G04 P0 ( dwell for no time -- G64 should not smooth over this point )
G00 Z0.08000 ( retract )

G00 X3.74452 Y-2.79596 ( rapid move to begin. )
G01 F180.00000
( Mill infeed pass 1/1 )
G01 Z-0.04000
G04 P0 ( dwell for no time -- G64 should not smooth over this point )
G01 F360.00000
G01 X3.74452 Y-2.79596
G01 X3.74484 Y-2.79284
G01 X3.74552 Y-2.78978
G01 X3.74654 Y-2.78681
G01 X3.74789 Y-2.78398
G01 X3.74955 Y-2.78133
G01 X3.75150 Y-2.77888
G01 X3.75372 Y-2.77666
G01 X3.75618 Y-2.77471
G01 X3.75884 Y-2.77306
G01 X3.76188 Y-2.77163
G01 X3.76485 Y-2.77064
G01 X3.76792 Y-2.77000
G01 X3.77104 Y-2.76970
G01 X3.81558 Y-2.76969
G01 X3.82003 Y-2.77009
G01 X3.82287 Y-2.77073
G01 X3.82542 Y-2.77159
G01 X3.82787 Y-2.77269
G01 X3.83020 Y-2.77403
G01 X3.83239 Y-2.77558
G01 X3.83442 Y-2.77735
G01 X3.83627 Y-2.77930
G01 X3.83797 Y-2.78149
G01 X4.42998 Y-2.78149
G01 X4.67795 Y-2.53352
G01 X4.67803 Y-2.47436
G01 X4.67837 Y-2.47237
G01 X4.67882 Y-2.47081
G01 X4.68020 Y-2.46788
G01 X4.68214 Y-2.46529
G01 X4.68457 Y-2.46315
G01 X4.68630 Y-2.46208
G01 X4.68853 Y-2.46111
G01 X4.69088 Y-2.46049
G01 X4.69329 Y-2.46024
G01 X4.82511 Y-2.46023
G01 X4.82700 Y-2.45807
G01 X4.82939 Y-2.45592
G01 X4.83202 Y-2.45409
G01 X4.83450 Y-2.45277
G01 X4.83748 Y-2.45161
G01 X4.84020 Y-2.45090
G01 X4.84337 Y-2.45046
G01 X4.84618 Y-2.45041
G01 X4.85016 Y-2.45086
G01 X4.85402 Y-2.45193
G01 X4.85766 Y-2.45359
G01 X4.86101 Y-2.45580
G01 X4.86396 Y-2.45850
G01 X4.86646 Y-2.46163
G01 X4.86844 Y-2.46511
G01 X4.86985 Y-2.46886
G01 X4.87049 Y-2.47160
G01 X4.87079 Y-2.47398
G01 X4.87085 Y-2.47679
G01 X4.87061 Y-2.47958
G01 X4.87007 Y-2.48233
G01 X4.86922 Y-2.48501
G01 X4.86809 Y-2.48758
G01 X4.86668 Y-2.49000
G01 X4.86502 Y-2.49226
G01 X4.86312 Y-2.49433
G01 X4.86132 Y-2.49592
G01 X4.85904 Y-2.49756
G01 X4.85660 Y-2.49893
G01 X4.85402 Y-2.50004
G01 X4.85133 Y-2.50085
G01 X4.84897 Y-2.50131
G01 X4.84578 Y-2.50157
G01 X4.84217 Y-2.50139
G01 X4.83902 Y-2.50080
G01 X4.83560 Y-2.49967
G01 X4.83271 Y-2.49828
G01 X4.82970 Y-2.49629
G01 X4.82729 Y-2.49419
G01 X4.82511 Y-2.49173
G01 X4.70945 Y-2.49173
G01 X4.70945 Y-2.53992
G01 X4.71406 Y-2.54231
G01 X4.71832 Y-2.54529
G01 X4.72215 Y-2.54880
G01 X4.72525 Y-2.55247
G01 X4.72807 Y-2.55683
G01 X4.73015 Y-2.56116
G01 X4.73168 Y-2.56570
G01 X4.73271 Y-2.57080
G01 X4.73303 Y-2.57478
G01 X4.73292 Y-2.57918
G01 X4.73239 Y-2.58315
G01 X4.73147 Y-2.58704
G01 X4.73015 Y-2.59081
G01 X4.72827 Y-2.59479
G01 X4.72618 Y-2.59820
G01 X4.72376 Y-2.60138
G01 X4.72044 Y-2.60485
G01 X4.71706 Y-2.60765
G01 X4.71303 Y-2.61026
G01 X4.70871 Y-2.61236
G01 X4.70456 Y-2.61381
G01 X4.69988 Y-2.61485
G01 X4.69510 Y-2.61531
G01 X4.69030 Y-2.61519
G01 X4.68595 Y-2.61456
G01 X4.68131 Y-2.61333
G01 X4.67686 Y-2.61155
G01 X4.67266 Y-2.60923
G01 X4.66908 Y-2.60668
G01 X4.66552 Y-2.60345
G01 X4.66239 Y-2.59982
G01 X4.65990 Y-2.59613
G01 X4.44764 Y-2.80838
G01 X4.44609 Y-2.80974
G01 X4.44473 Y-2.81067
G01 X4.44291 Y-2.81163
G01 X4.44098 Y-2.81234
G01 X4.43897 Y-2.81280
G01 X4.43650 Y-2.81299
G01 X3.83797 Y-2.81299
G01 X3.83619 Y-2.81528
G01 X3.83434 Y-2.81722
G01 X3.83230 Y-2.81897
G01 X3.83011 Y-2.82052
G01 X3.82777 Y-2.82185
G01 X3.82532 Y-2.82294
G01 X3.82277 Y-2.82379
G01 X3.82015 Y-2.82438
G01 X3.81569 Y-2.82480
G01 X3.77182 Y-2.82480
G01 X3.76759 Y-2.82444
G01 X3.76324 Y-2.82336
G01 X3.75933 Y-2.82169
G01 X3.75554 Y-2.81931
G01 X3.75234 Y-2.81651
G01 X3.74948 Y-2.81307
G01 X3.74732 Y-2.80941
G01 X3.74568 Y-2.80525
G01 X3.74494 Y-2.80220
G01 X3.74455 Y-2.79909
G01 X3.74452 Y-2.79596
G04 P0 ( dwell for no time -- G64 should not smooth over this point )
G00 Z0.08000 ( retract )

G00 X3.60435 Y-2.57638 ( rapid move to begin. )
G01 F180.00000
( Mill infeed pass 1/1 )
G01 Z-0.04000
G04 P0 ( dwell for no time -- G64 should not smooth over this point )
G01 F360.00000
G01 X3.60435 Y-2.57638
G01 X3.60460 Y-2.58038
G01 X3.60516 Y-2.58393
G01 X3.60617 Y-2.58780
G01 X3.60740 Y-2.59118
G01 X3.60913 Y-2.59479
G01 X3.61100 Y-2.59787
G01 X3.61339 Y-2.60107
G01 X3.61580 Y-2.60374
G01 X3.61846 Y-2.60617
G01 X3.62165 Y-2.60858
G01 X3.62472 Y-2.61046
G01 X3.62820 Y-2.61215
G01 X3.62828 Y-2.80782
G01 X3.62873 Y-2.81021
G01 X3.62954 Y-2.81250
G01 X3.63070 Y-2.81464
G01 X3.63246 Y-2.81687
G01 X3.70253 Y-2.88694
G01 X3.70438 Y-2.88852
G01 X3.70645 Y-2.88979
G01 X3.70948 Y-2.89096
G01 X3.71268 Y-2.89146
G01 X3.74926 Y-2.89148
G01 X3.75113 Y-2.89393
G01 X3.75314 Y-2.89604
G01 X3.75536 Y-2.89792
G01 X3.75777 Y-2.89956
G01 X3.76033 Y-2.90093
G01 X3.76303 Y-2.90203
G01 X3.76583 Y-2.90283
G01 X3.76869 Y-2.90334
G01 X3.77205 Y-2.90354
G01 X3.81547 Y-2.90354
G01 X3.81837 Y-2.90338
G01 X3.82255 Y-2.90259
G01 X3.82656 Y-2.90116
G01 X3.83011 Y-2.89926
G01 X3.83351 Y-2.89671
G01 X3.83648 Y-2.89367
G01 X3.83895 Y-2.89021
G01 X3.84086 Y-2.88641
G01 X3.84216 Y-2.88237
G01 X3.84283 Y-2.87817
G01 X3.84283 Y-2.87391
G01 X3.84219 Y-2.86971
G01 X3.84090 Y-2.86566
G01 X3.83901 Y-2.86185
G01 X3.83670 Y-2.85855
G01 X3.83376 Y-2.85548
G01 X3.83039 Y-2.85289
G01 X3.82747 Y-2.85123
G01 X3.82416 Y-2.84987
G01 X3.82092 Y-2.84899
G01 X3.81737 Y-2.84850
G01 X3.77014 Y-2.84849
G01 X3.76703 Y-2.84888
G01 X3.76399 Y-2.84963
G01 X3.76105 Y-2.85071
G01 X3.75825 Y-2.85213
G01 X3.75563 Y-2.85385
G01 X3.75322 Y-2.85585
G01 X3.75106 Y-2.85812
G01 X3.74926 Y-2.86048
G01 X3.71991 Y-2.86048
G01 X3.65920 Y-2.79978
G01 X3.65920 Y-2.61215
G01 X3.66268 Y-2.61046
G01 X3.66575 Y-2.60858
G01 X3.66894 Y-2.60617
G01 X3.67160 Y-2.60374
G01 X3.67401 Y-2.60107
G01 X3.67640 Y-2.59787
G01 X3.67827 Y-2.59479
G01 X3.68000 Y-2.59118
G01 X3.68123 Y-2.58780
G01 X3.68224 Y-2.58393
G01 X3.68280 Y-2.58038
G01 X3.68305 Y-2.57638
G01 X3.68292 Y-2.57279
G01 X3.68239 Y-2.56882
G01 X3.68147 Y-2.56493
G01 X3.68023 Y-2.56137
G01 X3.75012 Y-2.49148
G01 X3.76811 Y-2.49148
G01 X3.76811 Y-2.50157
G01 X3.81929 Y-2.50157
G01 X3.81929 Y-2.45039
G01 X3.76811 Y-2.45039
G01 X3.76811 Y-2.46048
G01 X3.74208 Y-2.46057
G01 X3.74008 Y-2.46091
G01 X3.73777 Y-2.46166
G01 X3.73595 Y-2.46256
G01 X3.73395 Y-2.46394
G01 X3.65831 Y-2.53945
G01 X3.65456 Y-2.53816
G01 X3.65066 Y-2.53726
G01 X3.64670 Y-2.53675
G01 X3.64310 Y-2.53664
G01 X3.63911 Y-2.53690
G01 X3.63517 Y-2.53757
G01 X3.63131 Y-2.53863
G01 X3.62795 Y-2.53992
G01 X3.62437 Y-2.54171
G01 X3.62099 Y-2.54385
G01 X3.61815 Y-2.54606
G01 X3.61525 Y-2.54880
G01 X3.61263 Y-2.55183
G01 X3.61056 Y-2.55477
G01 X3.60876 Y-2.55789
G01 X3.60710 Y-2.56153
G01 X3.60593 Y-2.56493
G01 X3.60501 Y-2.56882
G01 X3.60448 Y-2.57279
G01 X3.60435 Y-2.57638
G04 P0 ( dwell for no time -- G64 should not smooth over this point )
G00 Z0.08000 ( retract )

G00 X3.60435 Y-2.17598 ( rapid move to begin. )
G01 F180.00000
( Mill infeed pass 1/1 )
G01 Z-0.04000
G04 P0 ( dwell for no time -- G64 should not smooth over this point )
G01 F360.00000
G01 X3.60435 Y-2.17598
G01 X3.60451 Y-2.17958
G01 X3.60501 Y-2.18315
G01 X3.60582 Y-2.18665
G01 X3.60696 Y-2.19007
G01 X3.60840 Y-2.19337
G01 X3.61034 Y-2.19686
G01 X3.61239 Y-2.19982
G01 X3.61470 Y-2.20258
G01 X3.61725 Y-2.20512
G01 X3.62002 Y-2.20741
G01 X3.62299 Y-2.20945
G01 X3.62650 Y-2.21137
G01 X3.62980 Y-2.21280
G01 X3.63323 Y-2.21391
G01 X3.63674 Y-2.21471
G01 X3.64030 Y-2.21519
G01 X3.64350 Y-2.21533
G01 X3.64670 Y-2.21522
G01 X3.64988 Y-2.21485
G01 X3.65262 Y-2.21431
G01 X3.65571 Y-2.21346
G01 X3.65834 Y-2.21251
G01 X3.66090 Y-2.21137
G01 X3.66372 Y-2.20986
G01 X3.66641 Y-2.20812
G01 X3.66894 Y-2.20617
G01 X3.67131 Y-2.20402
G01 X3.67324 Y-2.20199
G01 X3.67525 Y-2.19950
G01 X3.67684 Y-2.19720
G01 X3.67846 Y-2.19443
G01 X3.67976 Y-2.19173
G01 X4.00764 Y-2.19173
G01 X4.00894 Y-2.19443
G01 X4.01056 Y-2.19720
G01 X4.01239 Y-2.19982
G01 X4.01443 Y-2.20228
G01 X4.01666 Y-2.20458
G01 X4.01908 Y-2.20668
G01 X4.02165 Y-2.20858
G01 X4.02437 Y-2.21026
G01 X4.02722 Y-2.21172
G01 X4.03018 Y-2.21294
G01 X4.03323 Y-2.21391
G01 X4.03634 Y-2.21464
G01 X4.03951 Y-2.21511
G01 X4.04270 Y-2.21532
G01 X4.04590 Y-2.21527
G01 X4.04908 Y-2.21496
G01 X4.05340 Y-2.21412
G01 X4.05797 Y-2.21266
G01 X4.06197 Y-2.21083
G01 X4.06575 Y-2.20858
G01 X4.06925 Y-2.20591
G01 X4.07243 Y-2.20287
G01 X4.07525 Y-2.19950
G01 X4.07768 Y-2.19583
G01 X4.07968 Y-2.19192
G01 X4.08123 Y-2.18780
G01 X4.08232 Y-2.18354
G01 X4.08295 Y-2.17878
G01 X4.08302 Y-2.17438
G01 X4.08259 Y-2.17001
G01 X4.08168 Y-2.16570
G01 X4.08023 Y-2.16137
G01 X4.19662 Y-2.04498
G01 X4.54078 Y-2.04498
G01 X4.65717 Y-2.16137
G01 X4.65582 Y-2.16532
G01 X4.65487 Y-2.16961
G01 X4.65440 Y-2.17398
G01 X4.65440 Y-2.17802
G01 X4.40808 Y-2.30118
G01 X4.32480 Y-2.30118
G01 X4.32480 Y-2.43898
G01 X4.46260 Y-2.43898
G01 X4.46260 Y-2.30914
G01 X4.66849 Y-2.20620
G01 X4.67232 Y-2.20902
G01 X4.67614 Y-2.21120
G01 X4.68056 Y-2.21307
G01 X4.68478 Y-2.21431
G01 X4.68951 Y-2.21511
G01 X4.69390 Y-2.21533
G01 X4.69829 Y-2.21507
G01 X4.70262 Y-2.21431
G01 X4.70684 Y-2.21307
G01 X4.71126 Y-2.21120
G01 X4.71542 Y-2.20880
G01 X4.71894 Y-2.20617
G01 X4.72215 Y-2.20316
G01 X4.72525 Y-2.19950
G01 X4.72768 Y-2.19583
G01 X4.72976 Y-2.19173
G01 X5.05764 Y-2.19173
G01 X5.05894 Y-2.19443
G01 X5.06056 Y-2.19720
G01 X5.06215 Y-2.19950
G01 X5.06416 Y-2.20199
G01 X5.06609 Y-2.20402
G01 X5.06846 Y-2.20617
G01 X5.07099 Y-2.20812
G01 X5.07334 Y-2.20966
G01 X5.07578 Y-2.21102
G01 X5.07869 Y-2.21236
G01 X5.08131 Y-2.21333
G01 X5.08439 Y-2.21422
G01 X5.08713 Y-2.21478
G01 X5.09030 Y-2.21519
G01 X5.09310 Y-2.21533
G01 X5.09630 Y-2.21525
G01 X5.09988 Y-2.21485
